; Blueprint to G-code
; Input: test_images_solid/test3_text_with_solids.png
; Generated with blueprint2gcode.py

G21 ; Set units to millimeters
G90 ; Absolute positioning
G0 Z3.0 ; Pen up
G0 X0 Y0 ; Move to origin

G0 X30.500 Y60.750 F3000 ; Travel to line 1
G0 Z0.0 ; Pen down
G1 X30.795 Y60.750 F1000
G0 Z3.0 ; Pen up

G0 X30.500 Y61.045 F3000 ; Travel to line 2
G0 Z0.0 ; Pen down
G1 X31.090 Y60.750 F1000
G1 X31.090 Y60.750 F1000
G1 X30.500 Y61.045 F1000
G0 Z3.0 ; Pen up

G0 X30.500 Y61.340 F3000 ; Travel to line 3
G0 Z0.0 ; Pen down
G1 X31.385 Y60.750 F1000
G0 Z3.0 ; Pen up

G0 X31.680 Y60.750 F3000 ; Travel to line 4
G0 Z0.0 ; Pen down
G1 X30.500 Y61.635 F1000
G0 Z3.0 ; Pen up

G0 X30.500 Y61.930 F3000 ; Travel to line 5
G0 Z0.0 ; Pen down
G1 X31.975 Y60.750 F1000
G1 X31.975 Y60.750 F1000
G1 X30.500 Y61.930 F1000
G0 Z3.0 ; Pen up

G0 X30.500 Y62.225 F3000 ; Travel to line 6
G0 Z0.0 ; Pen down
G1 X32.270 Y60.750 F1000
G0 Z3.0 ; Pen up

G0 X33.155 Y60.750 F3000 ; Travel to line 7
G0 Z0.0 ; Pen down
G1 X30.500 Y62.815 F1000
G0 Z3.0 ; Pen up

G0 X30.500 Y63.110 F3000 ; Travel to line 8
G0 Z0.0 ; Pen down
G1 X33.450 Y60.750 F1000
G0 Z3.0 ; Pen up

G0 X34.040 Y60.750 F3000 ; Travel to line 9
G0 Z0.0 ; Pen down
G1 X30.500 Y63.700 F1000
G0 Z3.0 ; Pen up

G0 X30.500 Y63.995 F3000 ; Travel to line 10
G0 Z0.0 ; Pen down
G1 X34.335 Y60.750 F1000
G1 X34.335 Y60.750 F1000
G1 X30.500 Y63.995 F1000
G0 Z3.0 ; Pen up

G0 X30.500 Y64.290 F3000 ; Travel to line 11
G0 Z0.0 ; Pen down
G1 X34.630 Y60.750 F1000
G0 Z3.0 ; Pen up

G0 X35.220 Y60.750 F3000 ; Travel to line 12
G0 Z0.0 ; Pen down
G1 X30.500 Y64.880 F1000
G1 X30.500 Y64.880 F1000
G1 X35.810 Y60.750 F1000
G0 Z3.0 ; Pen up

G0 X36.400 Y60.750 F3000 ; Travel to line 13
G0 Z0.0 ; Pen down
G1 X30.500 Y65.470 F1000
G0 Z3.0 ; Pen up

G0 X30.500 Y65.765 F3000 ; Travel to line 14
G0 Z0.0 ; Pen down
G1 X36.695 Y60.750 F1000
G1 X36.695 Y60.750 F1000
G1 X30.500 Y65.765 F1000
G0 Z3.0 ; Pen up

G0 X30.500 Y66.060 F3000 ; Travel to line 15
G0 Z0.0 ; Pen down
G1 X36.990 Y60.750 F1000
G0 Z3.0 ; Pen up

G0 X37.285 Y60.750 F3000 ; Travel to line 16
G0 Z0.0 ; Pen down
G1 X30.500 Y66.355 F1000
G0 Z3.0 ; Pen up

G0 X30.500 Y66.650 F3000 ; Travel to line 17
G0 Z0.0 ; Pen down
G1 X37.580 Y60.750 F1000
G1 X37.580 Y60.750 F1000
G1 X30.500 Y66.650 F1000
G0 Z3.0 ; Pen up

G0 X30.500 Y66.945 F3000 ; Travel to line 18
G0 Z0.0 ; Pen down
G1 X37.875 Y60.750 F1000
G0 Z3.0 ; Pen up

G0 X38.760 Y60.750 F3000 ; Travel to line 19
G0 Z0.0 ; Pen down
G1 X30.500 Y67.535 F1000
G0 Z3.0 ; Pen up

G0 X30.500 Y67.830 F3000 ; Travel to line 20
G0 Z0.0 ; Pen down
G1 X39.055 Y60.750 F1000
G1 X39.055 Y60.750 F1000
G1 X30.500 Y67.830 F1000
G0 Z3.0 ; Pen up

G0 X30.500 Y68.125 F3000 ; Travel to line 21
G0 Z0.0 ; Pen down
G1 X39.350 Y60.750 F1000
G0 Z3.0 ; Pen up

G0 X39.645 Y60.750 F3000 ; Travel to line 22
G0 Z0.0 ; Pen down
G1 X30.500 Y68.420 F1000
G0 Z3.0 ; Pen up

G0 X30.500 Y68.715 F3000 ; Travel to line 23
G0 Z0.0 ; Pen down
G1 X39.940 Y60.750 F1000
G1 X39.940 Y60.750 F1000
G1 X30.500 Y68.715 F1000
G0 Z3.0 ; Pen up

G0 X30.500 Y69.010 F3000 ; Travel to line 24
G0 Z0.0 ; Pen down
G1 X40.235 Y60.750 F1000
G0 Z3.0 ; Pen up

G0 X41.120 Y60.750 F3000 ; Travel to line 25
G0 Z0.0 ; Pen down
G1 X30.500 Y69.600 F1000
G0 Z3.0 ; Pen up

G0 X30.500 Y69.305 F3000 ; Travel to line 26
G0 Z0.0 ; Pen down
G1 X40.530 Y60.750 F1000
G1 X40.530 Y60.750 F1000
G1 X30.500 Y69.305 F1000
G0 Z3.0 ; Pen up

G0 X30.500 Y69.895 F3000 ; Travel to line 27
G0 Z0.0 ; Pen down
G1 X41.710 Y60.750 F1000
G1 X41.710 Y60.750 F1000
G1 X30.500 Y69.895 F1000
G1 X30.500 Y69.895 F1000
G1 X41.415 Y60.750 F1000
G0 Z3.0 ; Pen up

G0 X42.005 Y60.750 F3000 ; Travel to line 28
G0 Z0.0 ; Pen down
G1 X30.500 Y70.190 F1000
G0 Z3.0 ; Pen up

G0 X30.500 Y70.485 F3000 ; Travel to line 29
G0 Z0.0 ; Pen down
G1 X42.300 Y60.750 F1000
G1 X42.300 Y60.750 F1000
G1 X30.500 Y70.485 F1000
G0 Z3.0 ; Pen up

G0 X30.500 Y70.780 F3000 ; Travel to line 30
G0 Z0.0 ; Pen down
G1 X42.595 Y60.750 F1000
G0 Z3.0 ; Pen up

G0 X42.890 Y60.750 F3000 ; Travel to line 31
G0 Z0.0 ; Pen down
G1 X30.500 Y71.075 F1000
G0 Z3.0 ; Pen up

G0 X30.500 Y71.370 F3000 ; Travel to line 32
G0 Z0.0 ; Pen down
G1 X43.185 Y60.750 F1000
G1 X43.185 Y60.750 F1000
G1 X30.500 Y71.370 F1000
G0 Z3.0 ; Pen up

G0 X30.500 Y71.665 F3000 ; Travel to line 33
G0 Z0.0 ; Pen down
G1 X43.480 Y60.750 F1000
G0 Z3.0 ; Pen up

G0 X44.365 Y60.750 F3000 ; Travel to line 34
G0 Z0.0 ; Pen down
G1 X30.500 Y72.255 F1000
G0 Z3.0 ; Pen up

G0 X30.500 Y72.550 F3000 ; Travel to line 35
G0 Z0.0 ; Pen down
G1 X44.660 Y60.750 F1000
G1 X44.660 Y60.750 F1000
G1 X30.500 Y72.550 F1000
G0 Z3.0 ; Pen up

G0 X30.500 Y72.845 F3000 ; Travel to line 36
G0 Z0.0 ; Pen down
G1 X44.955 Y60.750 F1000
G0 Z3.0 ; Pen up

G0 X45.250 Y60.750 F3000 ; Travel to line 37
G0 Z0.0 ; Pen down
G1 X30.500 Y73.140 F1000
G0 Z3.0 ; Pen up

G0 X30.500 Y73.435 F3000 ; Travel to line 38
G0 Z0.0 ; Pen down
G1 X45.545 Y60.750 F1000
G1 X45.545 Y60.750 F1000
G1 X30.500 Y73.435 F1000
G0 Z3.0 ; Pen up

G0 X30.500 Y73.730 F3000 ; Travel to line 39
G0 Z0.0 ; Pen down
G1 X45.840 Y60.750 F1000
G0 Z3.0 ; Pen up

G0 X46.430 Y60.750 F3000 ; Travel to line 40
G0 Z0.0 ; Pen down
G1 X30.500 Y74.320 F1000
G0 Z3.0 ; Pen up

G0 X30.500 Y74.025 F3000 ; Travel to line 41
G0 Z0.0 ; Pen down
G1 X46.135 Y60.750 F1000
G1 X46.135 Y60.750 F1000
G1 X30.500 Y74.025 F1000
G0 Z3.0 ; Pen up

G0 X30.500 Y74.615 F3000 ; Travel to line 42
G0 Z0.0 ; Pen down
G1 X46.725 Y60.750 F1000
G0 Z3.0 ; Pen up

G0 X47.610 Y60.750 F3000 ; Travel to line 43
G0 Z0.0 ; Pen down
G1 X30.500 Y75.205 F1000
G0 Z3.0 ; Pen up

G0 X30.500 Y75.500 F3000 ; Travel to line 44
G0 Z0.0 ; Pen down
G1 X47.905 Y60.750 F1000
G1 X47.905 Y60.750 F1000
G1 X30.500 Y75.500 F1000
G1 X30.500 Y75.500 F1000
G1 X48.200 Y60.750 F1000
G0 Z3.0 ; Pen up

G0 X48.790 Y60.750 F3000 ; Travel to line 45
G0 Z0.0 ; Pen down
G1 X30.500 Y76.090 F1000
G0 Z3.0 ; Pen up

G0 X30.500 Y76.385 F3000 ; Travel to line 46
G0 Z0.0 ; Pen down
G1 X49.085 Y60.750 F1000
G0 Z3.0 ; Pen up

G0 X49.675 Y60.750 F3000 ; Travel to line 47
G0 Z0.0 ; Pen down
G1 X30.500 Y76.975 F1000
G0 Z3.0 ; Pen up

G0 X30.500 Y76.680 F3000 ; Travel to line 48
G0 Z0.0 ; Pen down
G1 X49.380 Y60.750 F1000
G1 X49.380 Y60.750 F1000
G1 X30.500 Y76.680 F1000
G0 Z3.0 ; Pen up

G0 X30.500 Y77.270 F3000 ; Travel to line 49
G0 Z0.0 ; Pen down
G1 X49.970 Y60.750 F1000
G1 X49.970 Y60.750 F1000
G1 X30.500 Y77.270 F1000
G0 Z3.0 ; Pen up

G0 X30.500 Y77.565 F3000 ; Travel to line 50
G0 Z0.0 ; Pen down
G1 X50.265 Y60.750 F1000
G0 Z3.0 ; Pen up

G0 X50.855 Y60.750 F3000 ; Travel to line 51
G0 Z0.0 ; Pen down
G1 X30.500 Y77.860 F1000
G0 Z3.0 ; Pen up

G0 X30.500 Y78.155 F3000 ; Travel to line 52
G0 Z0.0 ; Pen down
G1 X51.150 Y60.750 F1000
G1 X51.150 Y60.750 F1000
G1 X30.500 Y78.155 F1000
G0 Z3.0 ; Pen up

G0 X30.500 Y78.450 F3000 ; Travel to line 53
G0 Z0.0 ; Pen down
G1 X51.445 Y60.750 F1000
G0 Z3.0 ; Pen up

G0 X52.035 Y60.750 F3000 ; Travel to line 54
G0 Z0.0 ; Pen down
G1 X30.500 Y79.040 F1000
G0 Z3.0 ; Pen up

G0 X30.500 Y78.745 F3000 ; Travel to line 55
G0 Z0.0 ; Pen down
G1 X51.740 Y60.750 F1000
G1 X51.740 Y60.750 F1000
G1 X30.500 Y78.745 F1000
G0 Z3.0 ; Pen up

G0 X30.500 Y79.335 F3000 ; Travel to line 56
G0 Z0.0 ; Pen down
G1 X52.330 Y60.750 F1000
G1 X52.330 Y60.750 F1000
G1 X30.500 Y79.335 F1000
G0 Z3.0 ; Pen up

G0 X30.500 Y79.630 F3000 ; Travel to line 57
G0 Z0.0 ; Pen down
G1 X52.625 Y60.750 F1000
G0 Z3.0 ; Pen up

G0 X52.920 Y60.750 F3000 ; Travel to line 58
G0 Z0.0 ; Pen down
G1 X30.500 Y79.925 F1000
G0 Z3.0 ; Pen up

G0 X30.500 Y80.220 F3000 ; Travel to line 59
G0 Z0.0 ; Pen down
G1 X53.215 Y60.750 F1000
G1 X53.215 Y60.750 F1000
G1 X30.500 Y80.220 F1000
G0 Z3.0 ; Pen up

G0 X30.500 Y80.515 F3000 ; Travel to line 60
G0 Z0.0 ; Pen down
G1 X53.510 Y60.750 F1000
G0 Z3.0 ; Pen up

G0 X54.395 Y60.750 F3000 ; Travel to line 61
G0 Z0.0 ; Pen down
G1 X30.500 Y81.105 F1000
G0 Z3.0 ; Pen up

G0 X30.500 Y80.810 F3000 ; Travel to line 62
G0 Z0.0 ; Pen down
G1 X53.805 Y60.750 F1000
G1 X53.805 Y60.750 F1000
G1 X30.500 Y80.810 F1000
G0 Z3.0 ; Pen up

G0 X30.500 Y81.400 F3000 ; Travel to line 63
G0 Z0.0 ; Pen down
G1 X54.690 Y60.750 F1000
G0 Z3.0 ; Pen up

G0 X55.280 Y60.750 F3000 ; Travel to line 64
G0 Z0.0 ; Pen down
G1 X30.500 Y81.990 F1000
G1 X30.500 Y81.990 F1000
G1 X55.575 Y60.750 F1000
G1 X55.575 Y60.750 F1000
G1 X30.500 Y81.990 F1000
G0 Z3.0 ; Pen up

G0 X30.500 Y82.285 F3000 ; Travel to line 65
G0 Z0.0 ; Pen down
G1 X55.870 Y60.750 F1000
G0 Z3.0 ; Pen up

G0 X56.165 Y60.750 F3000 ; Travel to line 66
G0 Z0.0 ; Pen down
G1 X30.500 Y82.580 F1000
G0 Z3.0 ; Pen up

G0 X30.500 Y82.875 F3000 ; Travel to line 67
G0 Z0.0 ; Pen down
G1 X56.460 Y60.750 F1000
G1 X56.460 Y60.750 F1000
G1 X30.500 Y82.875 F1000
G0 Z3.0 ; Pen up

G0 X30.500 Y83.170 F3000 ; Travel to line 68
G0 Z0.0 ; Pen down
G1 X56.755 Y60.750 F1000
G0 Z3.0 ; Pen up

G0 X57.345 Y60.750 F3000 ; Travel to line 69
G0 Z0.0 ; Pen down
G1 X30.500 Y83.760 F1000
G0 Z3.0 ; Pen up

G0 X30.500 Y83.465 F3000 ; Travel to line 70
G0 Z0.0 ; Pen down
G1 X57.050 Y60.750 F1000
G1 X57.050 Y60.750 F1000
G1 X30.500 Y83.465 F1000
G0 Z3.0 ; Pen up

G0 X30.500 Y84.055 F3000 ; Travel to line 71
G0 Z0.0 ; Pen down
G1 X57.640 Y60.750 F1000
G1 X57.640 Y60.750 F1000
G1 X30.500 Y84.055 F1000
G0 Z3.0 ; Pen up

G0 X30.500 Y84.350 F3000 ; Travel to line 72
G0 Z0.0 ; Pen down
G1 X57.935 Y60.750 F1000
G0 Z3.0 ; Pen up

G0 X58.525 Y60.750 F3000 ; Travel to line 73
G0 Z0.0 ; Pen down
G1 X30.500 Y84.645 F1000
G0 Z3.0 ; Pen up

G0 X30.500 Y84.940 F3000 ; Travel to line 74
G0 Z0.0 ; Pen down
G1 X58.820 Y60.750 F1000
G1 X58.820 Y60.750 F1000
G1 X30.500 Y84.940 F1000
G0 Z3.0 ; Pen up

G0 X30.500 Y85.235 F3000 ; Travel to line 75
G0 Z0.0 ; Pen down
G1 X59.115 Y60.750 F1000
G0 Z3.0 ; Pen up

G0 X59.705 Y60.750 F3000 ; Travel to line 76
G0 Z0.0 ; Pen down
G1 X30.500 Y85.825 F1000
G0 Z3.0 ; Pen up

G0 X30.500 Y86.120 F3000 ; Travel to line 77
G0 Z0.0 ; Pen down
G1 X60.000 Y60.750 F1000
G0 Z3.0 ; Pen up

G0 X60.590 Y60.750 F3000 ; Travel to line 78
G0 Z0.0 ; Pen down
G1 X30.500 Y86.710 F1000
G0 Z3.0 ; Pen up

G0 X30.500 Y87.005 F3000 ; Travel to line 79
G0 Z0.0 ; Pen down
G1 X60.885 Y60.750 F1000
G1 X60.885 Y60.750 F1000
G1 X30.500 Y87.005 F1000
G0 Z3.0 ; Pen up

G0 X30.500 Y87.300 F3000 ; Travel to line 80
G0 Z0.0 ; Pen down
G1 X61.180 Y60.750 F1000
G0 Z3.0 ; Pen up

G0 X61.770 Y60.750 F3000 ; Travel to line 81
G0 Z0.0 ; Pen down
G1 X30.500 Y87.890 F1000
G0 Z3.0 ; Pen up

G0 X30.500 Y88.185 F3000 ; Travel to line 82
G0 Z0.0 ; Pen down
G1 X62.065 Y60.750 F1000
G0 Z3.0 ; Pen up

G0 X62.950 Y60.750 F3000 ; Travel to line 83
G0 Z0.0 ; Pen down
G1 X30.500 Y88.775 F1000
G0 Z3.0 ; Pen up

G0 X30.500 Y89.070 F3000 ; Travel to line 84
G0 Z0.0 ; Pen down
G1 X63.245 Y60.750 F1000
G1 X63.245 Y60.750 F1000
G1 X30.500 Y89.070 F1000
G0 Z3.0 ; Pen up

G0 X30.500 Y89.365 F3000 ; Travel to line 85
G0 Z0.0 ; Pen down
G1 X63.540 Y60.750 F1000
G0 Z3.0 ; Pen up

G0 X63.835 Y60.750 F3000 ; Travel to line 86
G0 Z0.0 ; Pen down
G1 X30.500 Y89.660 F1000
G1 X30.500 Y89.660 F1000
G1 X64.130 Y60.750 F1000
G1 X64.130 Y60.750 F1000
G1 X30.500 Y89.660 F1000
G0 Z3.0 ; Pen up

G0 X30.500 Y89.955 F3000 ; Travel to line 87
G0 Z0.0 ; Pen down
G1 X64.425 Y60.750 F1000
G0 Z3.0 ; Pen up

G0 X65.015 Y60.750 F3000 ; Travel to line 88
G0 Z0.0 ; Pen down
G1 X31.090 Y90.250 F1000
G0 Z3.0 ; Pen up

G0 X31.385 Y90.250 F3000 ; Travel to line 89
G0 Z0.0 ; Pen down
G1 X65.310 Y60.750 F1000
G0 Z3.0 ; Pen up

G0 X65.900 Y60.750 F3000 ; Travel to line 90
G0 Z0.0 ; Pen down
G1 X31.975 Y90.250 F1000
G0 Z3.0 ; Pen up

G0 X32.270 Y90.250 F3000 ; Travel to line 91
G0 Z0.0 ; Pen down
G1 X66.195 Y60.750 F1000
G1 X66.195 Y60.750 F1000
G1 X32.270 Y90.250 F1000
G0 Z3.0 ; Pen up

G0 X32.565 Y90.250 F3000 ; Travel to line 92
G0 Z0.0 ; Pen down
G1 X66.490 Y60.750 F1000
G0 Z3.0 ; Pen up

G0 X67.375 Y60.750 F3000 ; Travel to line 93
G0 Z0.0 ; Pen down
G1 X33.155 Y90.250 F1000
G0 Z3.0 ; Pen up

G0 X33.450 Y90.250 F3000 ; Travel to line 94
G0 Z0.0 ; Pen down
G1 X67.670 Y60.750 F1000
G0 Z3.0 ; Pen up

G0 X68.260 Y60.750 F3000 ; Travel to line 95
G0 Z0.0 ; Pen down
G1 X34.335 Y90.250 F1000
G0 Z3.0 ; Pen up

G0 X34.630 Y90.250 F3000 ; Travel to line 96
G0 Z0.0 ; Pen down
G1 X68.555 Y60.750 F1000
G1 X68.555 Y60.750 F1000
G1 X34.630 Y90.250 F1000
G0 Z3.0 ; Pen up

G0 X34.925 Y90.250 F3000 ; Travel to line 97
G0 Z0.0 ; Pen down
G1 X68.850 Y60.750 F1000
G0 Z3.0 ; Pen up

G0 X69.145 Y60.750 F3000 ; Travel to line 98
G0 Z0.0 ; Pen down
G1 X35.220 Y90.250 F1000
G0 Z3.0 ; Pen up

G0 X35.515 Y90.250 F3000 ; Travel to line 99
G0 Z0.0 ; Pen down
G1 X69.440 Y60.750 F1000
G1 X69.440 Y60.750 F1000
G1 X35.515 Y90.250 F1000
G0 Z3.0 ; Pen up

G0 X35.810 Y90.250 F3000 ; Travel to line 100
G0 Z0.0 ; Pen down
G1 X69.735 Y60.750 F1000
G0 Z3.0 ; Pen up

G0 X70.325 Y60.750 F3000 ; Travel to line 101
G0 Z0.0 ; Pen down
G1 X36.400 Y90.250 F1000
G0 Z3.0 ; Pen up

G0 X36.695 Y90.250 F3000 ; Travel to line 102
G0 Z0.0 ; Pen down
G1 X70.620 Y60.750 F1000
G1 X70.620 Y60.750 F1000
G1 X36.695 Y90.250 F1000
G0 Z3.0 ; Pen up

G0 X37.285 Y90.250 F3000 ; Travel to line 103
G0 Z0.0 ; Pen down
G1 X70.915 Y60.750 F1000
G0 Z3.0 ; Pen up

G0 X71.210 Y60.750 F3000 ; Travel to line 104
G0 Z0.0 ; Pen down
G1 X37.580 Y90.250 F1000
G0 Z3.0 ; Pen up

G0 X37.875 Y90.250 F3000 ; Travel to line 105
G0 Z0.0 ; Pen down
G1 X71.505 Y60.750 F1000
G1 X71.505 Y60.750 F1000
G1 X37.875 Y90.250 F1000
G0 Z3.0 ; Pen up

G0 X38.170 Y90.250 F3000 ; Travel to line 106
G0 Z0.0 ; Pen down
G1 X71.800 Y60.750 F1000
G0 Z3.0 ; Pen up

G0 X72.685 Y60.750 F3000 ; Travel to line 107
G0 Z0.0 ; Pen down
G1 X38.760 Y90.250 F1000
G0 Z3.0 ; Pen up

G0 X39.055 Y90.250 F3000 ; Travel to line 108
G0 Z0.0 ; Pen down
G1 X72.980 Y60.750 F1000
G0 Z3.0 ; Pen up

G0 X73.570 Y60.750 F3000 ; Travel to line 109
G0 Z0.0 ; Pen down
G1 X39.645 Y90.250 F1000
G0 Z3.0 ; Pen up

G0 X39.350 Y90.250 F3000 ; Travel to line 110
G0 Z0.0 ; Pen down
G1 X73.275 Y60.750 F1000
G1 X73.275 Y60.750 F1000
G1 X39.350 Y90.250 F1000
G0 Z3.0 ; Pen up

G0 X39.940 Y90.250 F3000 ; Travel to line 111
G0 Z0.0 ; Pen down
G1 X73.865 Y60.750 F1000
G1 X73.865 Y60.750 F1000
G1 X39.940 Y90.250 F1000
G0 Z3.0 ; Pen up

G0 X40.530 Y90.250 F3000 ; Travel to line 112
G0 Z0.0 ; Pen down
G1 X74.160 Y60.750 F1000
G0 Z3.0 ; Pen up

G0 X74.750 Y60.750 F3000 ; Travel to line 113
G0 Z0.0 ; Pen down
G1 X41.120 Y90.250 F1000
G0 Z3.0 ; Pen up

G0 X41.415 Y90.250 F3000 ; Travel to line 114
G0 Z0.0 ; Pen down
G1 X75.045 Y60.750 F1000
G0 Z3.0 ; Pen up

G0 X75.635 Y60.750 F3000 ; Travel to line 115
G0 Z0.0 ; Pen down
G1 X42.005 Y90.250 F1000
G0 Z3.0 ; Pen up

G0 X41.710 Y90.250 F3000 ; Travel to line 116
G0 Z0.0 ; Pen down
G1 X75.340 Y60.750 F1000
G1 X75.340 Y60.750 F1000
G1 X41.710 Y90.250 F1000
G0 Z3.0 ; Pen up

G0 X42.300 Y90.250 F3000 ; Travel to line 117
G0 Z0.0 ; Pen down
G1 X75.930 Y60.750 F1000
G1 X75.930 Y60.750 F1000
G1 X42.300 Y90.250 F1000
G0 Z3.0 ; Pen up

G0 X42.595 Y90.250 F3000 ; Travel to line 118
G0 Z0.0 ; Pen down
G1 X76.225 Y60.750 F1000
G0 Z3.0 ; Pen up

G0 X76.520 Y60.750 F3000 ; Travel to line 119
G0 Z0.0 ; Pen down
G1 X42.890 Y90.250 F1000
G0 Z3.0 ; Pen up

G0 X43.185 Y90.250 F3000 ; Travel to line 120
G0 Z0.0 ; Pen down
G1 X76.815 Y60.750 F1000
G1 X76.815 Y60.750 F1000
G1 X43.185 Y90.250 F1000
G0 Z3.0 ; Pen up

G0 X43.480 Y90.250 F3000 ; Travel to line 121
G0 Z0.0 ; Pen down
G1 X77.110 Y60.750 F1000
G0 Z3.0 ; Pen up

G0 X77.995 Y60.750 F3000 ; Travel to line 122
G0 Z0.0 ; Pen down
G1 X44.365 Y90.250 F1000
G0 Z3.0 ; Pen up

G0 X44.070 Y90.250 F3000 ; Travel to line 123
G0 Z0.0 ; Pen down
G1 X77.700 Y60.750 F1000
G1 X77.700 Y60.750 F1000
G1 X44.070 Y90.250 F1000
G0 Z3.0 ; Pen up

G0 X44.660 Y90.250 F3000 ; Travel to line 124
G0 Z0.0 ; Pen down
G1 X78.290 Y60.750 F1000
G0 Z3.0 ; Pen up

G0 X78.880 Y60.750 F3000 ; Travel to line 125
G0 Z0.0 ; Pen down
G1 X45.250 Y90.250 F1000
G0 Z3.0 ; Pen up

G0 X45.545 Y90.250 F3000 ; Travel to line 126
G0 Z0.0 ; Pen down
G1 X79.175 Y60.750 F1000
G1 X79.175 Y60.750 F1000
G1 X45.545 Y90.250 F1000
G0 Z3.0 ; Pen up

G0 X45.840 Y90.250 F3000 ; Travel to line 127
G0 Z0.0 ; Pen down
G1 X79.470 Y60.750 F1000
G0 Z3.0 ; Pen up

G0 X80.060 Y60.750 F3000 ; Travel to line 128
G0 Z0.0 ; Pen down
G1 X46.430 Y90.250 F1000
G0 Z3.0 ; Pen up

G0 X46.725 Y90.250 F3000 ; Travel to line 129
G0 Z0.0 ; Pen down
G1 X80.355 Y60.750 F1000
G0 Z3.0 ; Pen up

G0 X80.945 Y60.750 F3000 ; Travel to line 130
G0 Z0.0 ; Pen down
G1 X47.610 Y90.250 F1000
G0 Z3.0 ; Pen up

G0 X47.905 Y90.250 F3000 ; Travel to line 131
G0 Z0.0 ; Pen down
G1 X81.240 Y60.750 F1000
G1 X81.240 Y60.750 F1000
G1 X47.905 Y90.250 F1000
G0 Z3.0 ; Pen up

G0 X48.200 Y90.250 F3000 ; Travel to line 132
G0 Z0.0 ; Pen down
G1 X81.535 Y60.750 F1000
G0 Z3.0 ; Pen up

G0 X81.830 Y60.750 F3000 ; Travel to line 133
G0 Z0.0 ; Pen down
G1 X48.495 Y90.250 F1000
G0 Z3.0 ; Pen up

G0 X48.790 Y90.250 F3000 ; Travel to line 134
G0 Z0.0 ; Pen down
G1 X82.125 Y60.750 F1000
G1 X82.125 Y60.750 F1000
G1 X48.790 Y90.250 F1000
G0 Z3.0 ; Pen up

G0 X49.085 Y90.250 F3000 ; Travel to line 135
G0 Z0.0 ; Pen down
G1 X82.420 Y60.750 F1000
G0 Z3.0 ; Pen up

G0 X83.010 Y60.750 F3000 ; Travel to line 136
G0 Z0.0 ; Pen down
G1 X49.675 Y90.250 F1000
G0 Z3.0 ; Pen up

G0 X49.970 Y90.250 F3000 ; Travel to line 137
G0 Z0.0 ; Pen down
G1 X83.600 Y60.750 F1000
G1 X83.600 Y60.750 F1000
G1 X49.970 Y90.250 F1000
G0 Z3.0 ; Pen up

G0 X50.265 Y90.250 F3000 ; Travel to line 138
G0 Z0.0 ; Pen down
G1 X83.895 Y60.750 F1000
G0 Z3.0 ; Pen up

G0 X84.190 Y60.750 F3000 ; Travel to line 139
G0 Z0.0 ; Pen down
G1 X50.560 Y90.250 F1000
G0 Z3.0 ; Pen up

G0 X50.855 Y90.250 F3000 ; Travel to line 140
G0 Z0.0 ; Pen down
G1 X84.485 Y60.750 F1000
G1 X84.485 Y60.750 F1000
G1 X50.855 Y90.250 F1000
G0 Z3.0 ; Pen up

G0 X51.445 Y90.250 F3000 ; Travel to line 141
G0 Z0.0 ; Pen down
G1 X84.780 Y60.750 F1000
G0 Z3.0 ; Pen up

G0 X85.370 Y60.750 F3000 ; Travel to line 142
G0 Z0.0 ; Pen down
G1 X52.035 Y90.250 F1000
G0 Z3.0 ; Pen up

G0 X52.330 Y90.250 F3000 ; Travel to line 143
G0 Z0.0 ; Pen down
G1 X85.665 Y60.750 F1000
G0 Z3.0 ; Pen up

G0 X86.255 Y60.750 F3000 ; Travel to line 144
G0 Z0.0 ; Pen down
G1 X52.920 Y90.250 F1000
G0 Z3.0 ; Pen up

G0 X52.625 Y90.250 F3000 ; Travel to line 145
G0 Z0.0 ; Pen down
G1 X85.960 Y60.750 F1000
G1 X85.960 Y60.750 F1000
G1 X52.625 Y90.250 F1000
G0 Z3.0 ; Pen up

G0 X53.215 Y90.250 F3000 ; Travel to line 146
G0 Z0.0 ; Pen down
G1 X86.550 Y60.750 F1000
G1 X86.550 Y60.750 F1000
G1 X53.215 Y90.250 F1000
G0 Z3.0 ; Pen up

G0 X53.510 Y90.250 F3000 ; Travel to line 147
G0 Z0.0 ; Pen down
G1 X86.845 Y60.750 F1000
G0 Z3.0 ; Pen up

G0 X87.140 Y60.750 F3000 ; Travel to line 148
G0 Z0.0 ; Pen down
G1 X53.805 Y90.250 F1000
G0 Z3.0 ; Pen up

G0 X54.100 Y90.250 F3000 ; Travel to line 149
G0 Z0.0 ; Pen down
G1 X87.435 Y60.750 F1000
G1 X87.435 Y60.750 F1000
G1 X54.100 Y90.250 F1000
G0 Z3.0 ; Pen up

G0 X54.395 Y90.250 F3000 ; Travel to line 150
G0 Z0.0 ; Pen down
G1 X87.730 Y60.750 F1000
G0 Z3.0 ; Pen up

G0 X88.320 Y60.750 F3000 ; Travel to line 151
G0 Z0.0 ; Pen down
G1 X55.280 Y90.250 F1000
G0 Z3.0 ; Pen up

G0 X55.575 Y90.250 F3000 ; Travel to line 152
G0 Z0.0 ; Pen down
G1 X88.615 Y60.750 F1000
G1 X88.615 Y60.750 F1000
G1 X55.575 Y90.250 F1000
G0 Z3.0 ; Pen up

G0 X55.870 Y90.250 F3000 ; Travel to line 153
G0 Z0.0 ; Pen down
G1 X96.875 Y53.670 F1000
G0 Z3.0 ; Pen up

G0 X97.170 Y53.670 F3000 ; Travel to line 154
G0 Z0.0 ; Pen down
G1 X56.165 Y90.250 F1000
G0 Z3.0 ; Pen up

G0 X56.460 Y90.250 F3000 ; Travel to line 155
G0 Z0.0 ; Pen down
G1 X97.170 Y53.965 F1000
G1 X97.170 Y53.965 F1000
G1 X56.460 Y90.250 F1000
G0 Z3.0 ; Pen up

G0 X56.755 Y90.250 F3000 ; Travel to line 156
G0 Z0.0 ; Pen down
G1 X97.465 Y53.965 F1000
G0 Z3.0 ; Pen up

G0 X97.760 Y54.260 F3000 ; Travel to line 157
G0 Z0.0 ; Pen down
G1 X57.345 Y90.250 F1000
G0 Z3.0 ; Pen up

G0 X57.640 Y90.250 F3000 ; Travel to line 158
G0 Z0.0 ; Pen down
G1 X97.760 Y54.555 F1000
G0 Z3.0 ; Pen up

G0 X98.055 Y54.850 F3000 ; Travel to line 159
G0 Z0.0 ; Pen down
G1 X58.230 Y90.250 F1000
G0 Z3.0 ; Pen up

G0 X58.525 Y90.250 F3000 ; Travel to line 160
G0 Z0.0 ; Pen down
G1 X98.350 Y54.850 F1000
G1 X98.350 Y54.850 F1000
G1 X58.525 Y90.250 F1000
G0 Z3.0 ; Pen up

G0 X58.820 Y90.250 F3000 ; Travel to line 161
G0 Z0.0 ; Pen down
G1 X98.350 Y55.145 F1000
G0 Z3.0 ; Pen up

G0 X98.645 Y55.440 F3000 ; Travel to line 162
G0 Z0.0 ; Pen down
G1 X59.705 Y90.250 F1000
G0 Z3.0 ; Pen up

G0 X60.000 Y90.250 F3000 ; Travel to line 163
G0 Z0.0 ; Pen down
G1 X98.940 Y55.440 F1000
G0 Z3.0 ; Pen up

G0 X99.235 Y55.735 F3000 ; Travel to line 164
G0 Z0.0 ; Pen down
G1 X60.590 Y90.250 F1000
G0 Z3.0 ; Pen up

G0 X60.885 Y90.250 F3000 ; Travel to line 165
G0 Z0.0 ; Pen down
G1 X99.235 Y56.030 F1000
G1 X99.235 Y56.030 F1000
G1 X60.885 Y90.250 F1000
G0 Z3.0 ; Pen up

G0 X61.180 Y90.250 F3000 ; Travel to line 166
G0 Z0.0 ; Pen down
G1 X99.530 Y56.030 F1000
G0 Z3.0 ; Pen up

G0 X99.530 Y56.325 F3000 ; Travel to line 167
G0 Z0.0 ; Pen down
G1 X61.475 Y90.250 F1000
G0 Z3.0 ; Pen up

G0 X61.770 Y90.250 F3000 ; Travel to line 168
G0 Z0.0 ; Pen down
G1 X99.825 Y56.325 F1000
G1 X99.825 Y56.325 F1000
G1 X61.770 Y90.250 F1000
G0 Z3.0 ; Pen up

G0 X62.065 Y90.250 F3000 ; Travel to line 169
G0 Z0.0 ; Pen down
G1 X99.825 Y56.620 F1000
G0 Z3.0 ; Pen up

G0 X100.120 Y56.915 F3000 ; Travel to line 170
G0 Z0.0 ; Pen down
G1 X62.655 Y90.250 F1000
G0 Z3.0 ; Pen up

G0 X62.360 Y90.250 F3000 ; Travel to line 171
G0 Z0.0 ; Pen down
G1 X100.120 Y56.620 F1000
G1 X100.120 Y56.620 F1000
G1 X62.360 Y90.250 F1000
G0 Z3.0 ; Pen up

G0 X62.950 Y90.250 F3000 ; Travel to line 172
G0 Z0.0 ; Pen down
G1 X100.415 Y56.915 F1000
G0 Z3.0 ; Pen up

G0 X100.710 Y57.210 F3000 ; Travel to line 173
G0 Z0.0 ; Pen down
G1 X63.540 Y90.250 F1000
G0 Z3.0 ; Pen up

G0 X63.245 Y90.250 F3000 ; Travel to line 174
G0 Z0.0 ; Pen down
G1 X100.415 Y57.210 F1000
G1 X100.415 Y57.210 F1000
G1 X63.245 Y90.250 F1000
G0 Z3.0 ; Pen up

G0 X64.130 Y90.250 F3000 ; Travel to line 175
G0 Z0.0 ; Pen down
G1 X100.710 Y57.505 F1000
G1 X100.710 Y57.505 F1000
G1 X64.130 Y90.250 F1000
G0 Z3.0 ; Pen up

G0 X64.425 Y90.250 F3000 ; Travel to line 176
G0 Z0.0 ; Pen down
G1 X101.005 Y57.505 F1000
G0 Z3.0 ; Pen up

G0 X101.300 Y57.800 F3000 ; Travel to line 177
G0 Z0.0 ; Pen down
G1 X65.015 Y90.250 F1000
G0 Z3.0 ; Pen up

G0 X65.310 Y90.250 F3000 ; Travel to line 178
G0 Z0.0 ; Pen down
G1 X101.300 Y58.095 F1000
G0 Z3.0 ; Pen up

G0 X101.595 Y58.390 F3000 ; Travel to line 179
G0 Z0.0 ; Pen down
G1 X65.900 Y90.250 F1000
G0 Z3.0 ; Pen up

G0 X66.195 Y90.250 F3000 ; Travel to line 180
G0 Z0.0 ; Pen down
G1 X101.890 Y58.390 F1000
G1 X101.890 Y58.390 F1000
G1 X66.195 Y90.250 F1000
G0 Z3.0 ; Pen up

G0 X66.490 Y90.250 F3000 ; Travel to line 181
G0 Z0.0 ; Pen down
G1 X101.890 Y58.685 F1000
G0 Z3.0 ; Pen up

G0 X102.185 Y58.685 F3000 ; Travel to line 182
G0 Z0.0 ; Pen down
G1 X66.785 Y90.250 F1000
G0 Z3.0 ; Pen up

G0 X67.080 Y90.250 F3000 ; Travel to line 183
G0 Z0.0 ; Pen down
G1 X102.185 Y58.980 F1000
G1 X102.185 Y58.980 F1000
G1 X67.080 Y90.250 F1000
G0 Z3.0 ; Pen up

G0 X67.375 Y90.250 F3000 ; Travel to line 184
G0 Z0.0 ; Pen down
G1 X102.480 Y58.980 F1000
G0 Z3.0 ; Pen up

G0 X102.775 Y59.275 F3000 ; Travel to line 185
G0 Z0.0 ; Pen down
G1 X67.965 Y90.250 F1000
G0 Z3.0 ; Pen up

G0 X68.260 Y90.250 F3000 ; Travel to line 186
G0 Z0.0 ; Pen down
G1 X102.775 Y59.275 F1000
G1 X102.775 Y59.275 F1000
G1 X68.260 Y90.250 F1000
G0 Z3.0 ; Pen up

G0 X68.555 Y90.250 F3000 ; Travel to line 187
G0 Z0.0 ; Pen down
G1 X102.775 Y59.570 F1000
G0 Z3.0 ; Pen up

G0 X103.070 Y59.570 F3000 ; Travel to line 188
G0 Z0.0 ; Pen down
G1 X69.145 Y90.250 F1000
G0 Z3.0 ; Pen up

G0 X69.440 Y90.250 F3000 ; Travel to line 189
G0 Z0.0 ; Pen down
G1 X103.070 Y59.865 F1000
G1 X103.070 Y59.865 F1000
G1 X69.440 Y90.250 F1000
G0 Z3.0 ; Pen up

G0 X69.735 Y90.250 F3000 ; Travel to line 190
G0 Z0.0 ; Pen down
G1 X103.365 Y59.865 F1000
G0 Z3.0 ; Pen up

G0 X103.660 Y60.160 F3000 ; Travel to line 191
G0 Z0.0 ; Pen down
G1 X70.325 Y90.250 F1000
G0 Z3.0 ; Pen up

G0 X70.620 Y90.250 F3000 ; Travel to line 192
G0 Z0.0 ; Pen down
G1 X103.660 Y60.455 F1000
G0 Z3.0 ; Pen up

G0 X103.955 Y60.750 F3000 ; Travel to line 193
G0 Z0.0 ; Pen down
G1 X71.210 Y90.250 F1000
G0 Z3.0 ; Pen up

G0 X71.505 Y90.250 F3000 ; Travel to line 194
G0 Z0.0 ; Pen down
G1 X104.250 Y60.750 F1000
G1 X104.250 Y60.750 F1000
G1 X71.505 Y90.250 F1000
G0 Z3.0 ; Pen up

G0 X71.800 Y90.250 F3000 ; Travel to line 195
G0 Z0.0 ; Pen down
G1 X104.250 Y61.045 F1000
G0 Z3.0 ; Pen up

G0 X104.545 Y61.340 F3000 ; Travel to line 196
G0 Z0.0 ; Pen down
G1 X72.390 Y90.250 F1000
G0 Z3.0 ; Pen up

G0 X72.685 Y90.250 F3000 ; Travel to line 197
G0 Z0.0 ; Pen down
G1 X104.840 Y61.340 F1000
G0 Z3.0 ; Pen up

G0 X105.135 Y61.635 F3000 ; Travel to line 198
G0 Z0.0 ; Pen down
G1 X73.275 Y90.250 F1000
G0 Z3.0 ; Pen up

G0 X73.570 Y90.250 F3000 ; Travel to line 199
G0 Z0.0 ; Pen down
G1 X105.135 Y61.930 F1000
G1 X105.135 Y61.930 F1000
G1 X73.570 Y90.250 F1000
G0 Z3.0 ; Pen up

G0 X74.160 Y90.250 F3000 ; Travel to line 200
G0 Z0.0 ; Pen down
G1 X105.430 Y61.930 F1000
G0 Z3.0 ; Pen up

G0 X105.430 Y62.225 F3000 ; Travel to line 201
G0 Z0.0 ; Pen down
G1 X74.455 Y90.250 F1000
G0 Z3.0 ; Pen up

G0 X74.750 Y90.250 F3000 ; Travel to line 202
G0 Z0.0 ; Pen down
G1 X105.725 Y62.225 F1000
G1 X105.725 Y62.225 F1000
G1 X74.750 Y90.250 F1000
G0 Z3.0 ; Pen up

G0 X75.045 Y90.250 F3000 ; Travel to line 203
G0 Z0.0 ; Pen down
G1 X105.725 Y62.520 F1000
G0 Z3.0 ; Pen up

G0 X106.020 Y62.815 F3000 ; Travel to line 204
G0 Z0.0 ; Pen down
G1 X75.635 Y90.250 F1000
G0 Z3.0 ; Pen up

G0 X75.930 Y90.250 F3000 ; Travel to line 205
G0 Z0.0 ; Pen down
G1 X106.315 Y62.815 F1000
G0 Z3.0 ; Pen up

G0 X106.610 Y63.110 F3000 ; Travel to line 206
G0 Z0.0 ; Pen down
G1 X76.520 Y90.250 F1000
G0 Z3.0 ; Pen up

G0 X76.815 Y90.250 F3000 ; Travel to line 207
G0 Z0.0 ; Pen down
G1 X106.610 Y63.405 F1000
G1 X106.610 Y63.405 F1000
G1 X76.815 Y90.250 F1000
G0 Z3.0 ; Pen up

G0 X77.110 Y90.250 F3000 ; Travel to line 208
G0 Z0.0 ; Pen down
G1 X106.905 Y63.405 F1000
G0 Z3.0 ; Pen up

G0 X107.200 Y63.700 F3000 ; Travel to line 209
G0 Z0.0 ; Pen down
G1 X77.700 Y90.250 F1000
G0 Z3.0 ; Pen up

G0 X77.995 Y90.250 F3000 ; Travel to line 210
G0 Z0.0 ; Pen down
G1 X107.200 Y63.995 F1000
G0 Z3.0 ; Pen up

G0 X107.495 Y64.290 F3000 ; Travel to line 211
G0 Z0.0 ; Pen down
G1 X78.585 Y90.250 F1000
G0 Z3.0 ; Pen up

G0 X78.290 Y90.250 F3000 ; Travel to line 212
G0 Z0.0 ; Pen down
G1 X107.495 Y63.995 F1000
G1 X107.495 Y63.995 F1000
G1 X78.290 Y90.250 F1000
G0 Z3.0 ; Pen up

G0 X77.405 Y90.250 F3000 ; Travel to line 213
G0 Z0.0 ; Pen down
G1 X106.905 Y63.700 F1000
G1 X106.905 Y63.700 F1000
G1 X77.405 Y90.250 F1000
G0 Z3.0 ; Pen up

G0 X76.225 Y90.250 F3000 ; Travel to line 214
G0 Z0.0 ; Pen down
G1 X106.315 Y63.110 F1000
G1 X106.315 Y63.110 F1000
G1 X76.225 Y90.250 F1000
G0 Z3.0 ; Pen up

G0 X75.340 Y90.250 F3000 ; Travel to line 215
G0 Z0.0 ; Pen down
G1 X106.020 Y62.520 F1000
G1 X106.020 Y62.520 F1000
G1 X75.340 Y90.250 F1000
G0 Z3.0 ; Pen up

G0 X72.980 Y90.250 F3000 ; Travel to line 216
G0 Z0.0 ; Pen down
G1 X104.840 Y61.635 F1000
G1 X104.840 Y61.635 F1000
G1 X72.980 Y90.250 F1000
G0 Z3.0 ; Pen up

G0 X72.095 Y90.250 F3000 ; Travel to line 217
G0 Z0.0 ; Pen down
G1 X104.545 Y61.045 F1000
G1 X104.545 Y61.045 F1000
G1 X72.095 Y90.250 F1000
G0 Z3.0 ; Pen up

G0 X70.915 Y90.250 F3000 ; Travel to line 218
G0 Z0.0 ; Pen down
G1 X103.955 Y60.455 F1000
G1 X103.955 Y60.455 F1000
G1 X70.915 Y90.250 F1000
G0 Z3.0 ; Pen up

G0 X70.030 Y90.250 F3000 ; Travel to line 219
G0 Z0.0 ; Pen down
G1 X103.365 Y60.160 F1000
G1 X103.365 Y60.160 F1000
G1 X70.030 Y90.250 F1000
G0 Z3.0 ; Pen up

G0 X67.670 Y90.250 F3000 ; Travel to line 220
G0 Z0.0 ; Pen down
G1 X102.480 Y58.980 F1000
G1 X102.480 Y58.980 F1000
G1 X67.670 Y90.250 F1000
G0 Z3.0 ; Pen up

G0 X65.605 Y90.250 F3000 ; Travel to line 221
G0 Z0.0 ; Pen down
G1 X101.595 Y58.095 F1000
G1 X101.595 Y58.095 F1000
G1 X65.605 Y90.250 F1000
G0 Z3.0 ; Pen up

G0 X64.720 Y90.250 F3000 ; Travel to line 222
G0 Z0.0 ; Pen down
G1 X101.005 Y57.800 F1000
G1 X101.005 Y57.800 F1000
G1 X64.720 Y90.250 F1000
G0 Z3.0 ; Pen up

G0 X60.295 Y90.250 F3000 ; Travel to line 223
G0 Z0.0 ; Pen down
G1 X98.940 Y55.735 F1000
G1 X98.940 Y55.735 F1000
G1 X60.295 Y90.250 F1000
G0 Z3.0 ; Pen up

G0 X59.115 Y90.250 F3000 ; Travel to line 224
G0 Z0.0 ; Pen down
G1 X98.645 Y55.145 F1000
G1 X98.645 Y55.145 F1000
G1 X59.115 Y90.250 F1000
G0 Z3.0 ; Pen up

G0 X57.935 Y90.250 F3000 ; Travel to line 225
G0 Z0.0 ; Pen down
G1 X98.055 Y54.555 F1000
G1 X98.055 Y54.555 F1000
G1 X57.935 Y90.250 F1000
G0 Z3.0 ; Pen up

G0 X57.050 Y90.250 F3000 ; Travel to line 226
G0 Z0.0 ; Pen down
G1 X97.465 Y54.260 F1000
G1 X97.465 Y54.260 F1000
G1 X57.050 Y90.250 F1000
G0 Z3.0 ; Pen up

G0 X54.690 Y90.250 F3000 ; Travel to line 227
G0 Z0.0 ; Pen down
G1 X88.025 Y60.750 F1000
G1 X88.025 Y60.750 F1000
G1 X54.690 Y90.250 F1000
G0 Z3.0 ; Pen up

G0 X51.740 Y90.250 F3000 ; Travel to line 228
G0 Z0.0 ; Pen down
G1 X85.075 Y60.750 F1000
G1 X85.075 Y60.750 F1000
G1 X51.740 Y90.250 F1000
G0 Z3.0 ; Pen up

G0 X49.380 Y90.250 F3000 ; Travel to line 229
G0 Z0.0 ; Pen down
G1 X82.715 Y60.750 F1000
G1 X82.715 Y60.750 F1000
G1 X49.380 Y90.250 F1000
G0 Z3.0 ; Pen up

G0 X47.020 Y90.250 F3000 ; Travel to line 230
G0 Z0.0 ; Pen down
G1 X80.650 Y60.750 F1000
G1 X80.650 Y60.750 F1000
G1 X47.020 Y90.250 F1000
G0 Z3.0 ; Pen up

G0 X46.135 Y90.250 F3000 ; Travel to line 231
G0 Z0.0 ; Pen down
G1 X79.765 Y60.750 F1000
G1 X79.765 Y60.750 F1000
G1 X46.135 Y90.250 F1000
G0 Z3.0 ; Pen up

G0 X44.955 Y90.250 F3000 ; Travel to line 232
G0 Z0.0 ; Pen down
G1 X78.585 Y60.750 F1000
G1 X78.585 Y60.750 F1000
G1 X44.955 Y90.250 F1000
G0 Z3.0 ; Pen up

G0 X40.825 Y90.250 F3000 ; Travel to line 233
G0 Z0.0 ; Pen down
G1 X74.455 Y60.750 F1000
G1 X74.455 Y60.750 F1000
G1 X40.825 Y90.250 F1000
G0 Z3.0 ; Pen up

G0 X38.465 Y90.250 F3000 ; Travel to line 234
G0 Z0.0 ; Pen down
G1 X72.390 Y60.750 F1000
G1 X72.390 Y60.750 F1000
G1 X38.465 Y90.250 F1000
G0 Z3.0 ; Pen up

G0 X36.105 Y90.250 F3000 ; Travel to line 235
G0 Z0.0 ; Pen down
G1 X70.030 Y60.750 F1000
G1 X70.030 Y60.750 F1000
G1 X36.105 Y90.250 F1000
G0 Z3.0 ; Pen up

G0 X34.040 Y90.250 F3000 ; Travel to line 236
G0 Z0.0 ; Pen down
G1 X67.965 Y60.750 F1000
G1 X67.965 Y60.750 F1000
G1 X34.040 Y90.250 F1000
G0 Z3.0 ; Pen up

G0 X32.860 Y90.250 F3000 ; Travel to line 237
G0 Z0.0 ; Pen down
G1 X66.785 Y60.750 F1000
G1 X66.785 Y60.750 F1000
G1 X32.860 Y90.250 F1000
G0 Z3.0 ; Pen up

G0 X31.680 Y90.250 F3000 ; Travel to line 238
G0 Z0.0 ; Pen down
G1 X65.605 Y60.750 F1000
G1 X65.605 Y60.750 F1000
G1 X31.680 Y90.250 F1000
G0 Z3.0 ; Pen up

G0 X30.500 Y90.250 F3000 ; Travel to line 239
G0 Z0.0 ; Pen down
G1 X64.720 Y60.750 F1000
G1 X64.720 Y60.750 F1000
G1 X30.500 Y90.250 F1000
G0 Z3.0 ; Pen up

G0 X30.500 Y88.480 F3000 ; Travel to line 240
G0 Z0.0 ; Pen down
G1 X62.655 Y60.750 F1000
G1 X62.655 Y60.750 F1000
G1 X30.500 Y88.480 F1000
G0 Z3.0 ; Pen up

G0 X30.500 Y87.595 F3000 ; Travel to line 241
G0 Z0.0 ; Pen down
G1 X61.475 Y60.750 F1000
G1 X61.475 Y60.750 F1000
G1 X30.500 Y87.595 F1000
G0 Z3.0 ; Pen up

G0 X30.500 Y86.415 F3000 ; Travel to line 242
G0 Z0.0 ; Pen down
G1 X60.295 Y60.750 F1000
G1 X60.295 Y60.750 F1000
G1 X30.500 Y86.415 F1000
G0 Z3.0 ; Pen up

G0 X30.500 Y85.530 F3000 ; Travel to line 243
G0 Z0.0 ; Pen down
G1 X59.410 Y60.750 F1000
G1 X59.410 Y60.750 F1000
G1 X30.500 Y85.530 F1000
G0 Z3.0 ; Pen up

G0 X30.500 Y81.695 F3000 ; Travel to line 244
G0 Z0.0 ; Pen down
G1 X54.985 Y60.750 F1000
G1 X54.985 Y60.750 F1000
G1 X30.500 Y81.695 F1000
G0 Z3.0 ; Pen up

G0 X30.500 Y75.795 F3000 ; Travel to line 245
G0 Z0.0 ; Pen down
G1 X48.495 Y60.750 F1000
G1 X48.495 Y60.750 F1000
G1 X30.500 Y75.795 F1000
G0 Z3.0 ; Pen up

G0 X30.500 Y74.910 F3000 ; Travel to line 246
G0 Z0.0 ; Pen down
G1 X47.315 Y60.750 F1000
G1 X47.315 Y60.750 F1000
G1 X30.500 Y74.910 F1000
G0 Z3.0 ; Pen up

G0 X30.500 Y71.960 F3000 ; Travel to line 247
G0 Z0.0 ; Pen down
G1 X44.070 Y60.750 F1000
G1 X44.070 Y60.750 F1000
G1 X30.500 Y71.960 F1000
G0 Z3.0 ; Pen up

G0 X30.500 Y67.240 F3000 ; Travel to line 248
G0 Z0.0 ; Pen down
G1 X38.465 Y60.750 F1000
G1 X38.465 Y60.750 F1000
G1 X30.500 Y67.240 F1000
G0 Z3.0 ; Pen up

G0 X30.500 Y65.175 F3000 ; Travel to line 249
G0 Z0.0 ; Pen down
G1 X36.105 Y60.750 F1000
G1 X36.105 Y60.750 F1000
G1 X30.500 Y65.175 F1000
G0 Z3.0 ; Pen up

G0 X30.500 Y64.585 F3000 ; Travel to line 250
G0 Z0.0 ; Pen down
G1 X34.925 Y60.750 F1000
G1 X34.925 Y60.750 F1000
G1 X30.500 Y64.585 F1000
G0 Z3.0 ; Pen up

G0 X30.500 Y63.405 F3000 ; Travel to line 251
G0 Z0.0 ; Pen down
G1 X33.745 Y60.750 F1000
G1 X33.745 Y60.750 F1000
G1 X30.500 Y63.405 F1000
G0 Z3.0 ; Pen up

G0 X30.500 Y62.520 F3000 ; Travel to line 252
G0 Z0.0 ; Pen down
G1 X32.565 Y60.750 F1000
G1 X32.565 Y60.750 F1000
G1 X30.500 Y62.520 F1000
G0 Z3.0 ; Pen up

G0 X79.175 Y90.250 F3000 ; Travel to line 253
G0 Z0.0 ; Pen down
G1 X107.790 Y64.290 F1000
G1 X107.790 Y64.290 F1000
G1 X79.175 Y90.250 F1000
G0 Z3.0 ; Pen up

G0 X79.470 Y90.250 F3000 ; Travel to line 254
G0 Z0.0 ; Pen down
G1 X107.790 Y64.585 F1000
G0 Z3.0 ; Pen up

G0 X108.085 Y64.880 F3000 ; Travel to line 255
G0 Z0.0 ; Pen down
G1 X80.060 Y90.250 F1000
G0 Z3.0 ; Pen up

G0 X80.650 Y90.250 F3000 ; Travel to line 256
G0 Z0.0 ; Pen down
G1 X108.380 Y64.880 F1000
G1 X108.380 Y64.880 F1000
G1 X80.650 Y90.250 F1000
G0 Z3.0 ; Pen up

G0 X80.945 Y90.250 F3000 ; Travel to line 257
G0 Z0.0 ; Pen down
G1 X108.380 Y65.175 F1000
G0 Z3.0 ; Pen up

G0 X108.970 Y65.470 F3000 ; Travel to line 258
G0 Z0.0 ; Pen down
G1 X81.830 Y90.250 F1000
G0 Z3.0 ; Pen up

G0 X81.535 Y90.250 F3000 ; Travel to line 259
G0 Z0.0 ; Pen down
G1 X108.675 Y65.470 F1000
G1 X108.675 Y65.470 F1000
G1 X81.535 Y90.250 F1000
G0 Z3.0 ; Pen up

G0 X82.715 Y90.250 F3000 ; Travel to line 260
G0 Z0.0 ; Pen down
G1 X109.265 Y66.060 F1000
G0 Z3.0 ; Pen up

G0 X109.560 Y66.060 F3000 ; Travel to line 261
G0 Z0.0 ; Pen down
G1 X83.305 Y90.250 F1000
G0 Z3.0 ; Pen up

G0 X83.600 Y90.250 F3000 ; Travel to line 262
G0 Z0.0 ; Pen down
G1 X109.560 Y66.355 F1000
G1 X109.560 Y66.355 F1000
G1 X83.600 Y90.250 F1000
G0 Z3.0 ; Pen up

G0 X84.190 Y90.250 F3000 ; Travel to line 263
G0 Z0.0 ; Pen down
G1 X109.855 Y66.355 F1000
G0 Z3.0 ; Pen up

G0 X110.150 Y66.945 F3000 ; Travel to line 264
G0 Z0.0 ; Pen down
G1 X85.075 Y90.250 F1000
G0 Z3.0 ; Pen up

G0 X84.780 Y90.250 F3000 ; Travel to line 265
G0 Z0.0 ; Pen down
G1 X110.150 Y66.650 F1000
G1 X110.150 Y66.650 F1000
G1 X84.780 Y90.250 F1000
G0 Z3.0 ; Pen up

G0 X85.665 Y90.250 F3000 ; Travel to line 266
G0 Z0.0 ; Pen down
G1 X110.445 Y66.945 F1000
G0 Z3.0 ; Pen up

G0 X110.740 Y67.535 F3000 ; Travel to line 267
G0 Z0.0 ; Pen down
G1 X86.550 Y90.250 F1000
G0 Z3.0 ; Pen up

G0 X86.845 Y90.250 F3000 ; Travel to line 268
G0 Z0.0 ; Pen down
G1 X111.035 Y67.535 F1000
G0 Z3.0 ; Pen up

G0 X111.035 Y67.830 F3000 ; Travel to line 269
G0 Z0.0 ; Pen down
G1 X87.140 Y90.250 F1000
G0 Z3.0 ; Pen up

G0 X87.435 Y90.250 F3000 ; Travel to line 270
G0 Z0.0 ; Pen down
G1 X111.330 Y67.830 F1000
G0 Z3.0 ; Pen up

G0 X111.330 Y68.125 F3000 ; Travel to line 271
G0 Z0.0 ; Pen down
G1 X87.730 Y90.250 F1000
G0 Z3.0 ; Pen up

G0 X88.320 Y90.250 F3000 ; Travel to line 272
G0 Z0.0 ; Pen down
G1 X111.625 Y68.125 F1000
G1 X111.625 Y68.125 F1000
G1 X88.320 Y90.250 F1000
G0 Z3.0 ; Pen up

G0 X88.615 Y90.250 F3000 ; Travel to line 273
G0 Z0.0 ; Pen down
G1 X111.920 Y68.420 F1000
G0 Z3.0 ; Pen up

G0 X112.215 Y68.715 F3000 ; Travel to line 274
G0 Z0.0 ; Pen down
G1 X89.500 Y90.250 F1000
G0 Z3.0 ; Pen up

G0 X89.205 Y90.250 F3000 ; Travel to line 275
G0 Z0.0 ; Pen down
G1 X111.920 Y68.715 F1000
G1 X111.920 Y68.715 F1000
G1 X89.205 Y90.250 F1000
G0 Z3.0 ; Pen up

G0 X89.500 Y90.840 F3000 ; Travel to line 276
G0 Z0.0 ; Pen down
G1 X112.510 Y69.010 F1000
G1 X112.510 Y69.010 F1000
G1 X89.500 Y90.840 F1000
G0 Z3.0 ; Pen up

G0 X89.500 Y91.135 F3000 ; Travel to line 277
G0 Z0.0 ; Pen down
G1 X112.510 Y69.305 F1000
G0 Z3.0 ; Pen up

G0 X112.805 Y69.305 F3000 ; Travel to line 278
G0 Z0.0 ; Pen down
G1 X89.500 Y91.725 F1000
G0 Z3.0 ; Pen up

G0 X89.500 Y92.020 F3000 ; Travel to line 279
G0 Z0.0 ; Pen down
G1 X113.100 Y69.600 F1000
G1 X113.100 Y69.600 F1000
G1 X89.500 Y92.020 F1000
G0 Z3.0 ; Pen up

G0 X89.500 Y92.610 F3000 ; Travel to line 280
G0 Z0.0 ; Pen down
G1 X113.100 Y69.895 F1000
G0 Z3.0 ; Pen up

G0 X113.395 Y69.895 F3000 ; Travel to line 281
G0 Z0.0 ; Pen down
G1 X89.500 Y92.905 F1000
G0 Z3.0 ; Pen up

G0 X89.500 Y93.790 F3000 ; Travel to line 282
G0 Z0.0 ; Pen down
G1 X113.690 Y70.485 F1000
G0 Z3.0 ; Pen up

G0 X113.690 Y70.190 F3000 ; Travel to line 283
G0 Z0.0 ; Pen down
G1 X89.500 Y93.200 F1000
G1 X89.500 Y93.200 F1000
G1 X113.395 Y70.190 F1000
G0 Z3.0 ; Pen up

G0 X114.280 Y70.780 F3000 ; Travel to line 284
G0 Z0.0 ; Pen down
G1 X89.500 Y94.675 F1000
G0 Z3.0 ; Pen up

G0 X89.500 Y94.970 F3000 ; Travel to line 285
G0 Z0.0 ; Pen down
G1 X114.280 Y71.075 F1000
G1 X114.280 Y71.075 F1000
G1 X89.500 Y95.265 F1000
G0 Z3.0 ; Pen up

G0 X89.500 Y95.560 F3000 ; Travel to line 286
G0 Z0.0 ; Pen down
G1 X114.575 Y71.075 F1000
G0 Z3.0 ; Pen up

G0 X114.870 Y71.665 F3000 ; Travel to line 287
G0 Z0.0 ; Pen down
G1 X89.500 Y96.445 F1000
G0 Z3.0 ; Pen up

G0 X89.500 Y96.740 F3000 ; Travel to line 288
G0 Z0.0 ; Pen down
G1 X115.165 Y71.665 F1000
G0 Z3.0 ; Pen up

G0 X115.460 Y72.255 F3000 ; Travel to line 289
G0 Z0.0 ; Pen down
G1 X89.500 Y97.625 F1000
G0 Z3.0 ; Pen up

G0 X89.500 Y97.330 F3000 ; Travel to line 290
G0 Z0.0 ; Pen down
G1 X115.460 Y71.960 F1000
G1 X115.460 Y71.960 F1000
G1 X89.500 Y97.330 F1000
G0 Z3.0 ; Pen up

G0 X89.500 Y98.510 F3000 ; Travel to line 291
G0 Z0.0 ; Pen down
G1 X116.050 Y72.550 F1000
G0 Z3.0 ; Pen up

G0 X116.050 Y72.845 F3000 ; Travel to line 292
G0 Z0.0 ; Pen down
G1 X89.500 Y99.100 F1000
G0 Z3.0 ; Pen up

G0 X89.500 Y99.395 F3000 ; Travel to line 293
G0 Z0.0 ; Pen down
G1 X116.345 Y72.845 F1000
G1 X116.345 Y72.845 F1000
G1 X89.500 Y99.395 F1000
G0 Z3.0 ; Pen up

G0 X89.500 Y99.985 F3000 ; Travel to line 294
G0 Z0.0 ; Pen down
G1 X116.640 Y73.140 F1000
G0 Z3.0 ; Pen up

G0 X116.640 Y73.435 F3000 ; Travel to line 295
G0 Z0.0 ; Pen down
G1 X89.500 Y100.280 F1000
G0 Z3.0 ; Pen up

G0 X89.500 Y100.575 F3000 ; Travel to line 296
G0 Z0.0 ; Pen down
G1 X116.935 Y73.435 F1000
G0 Z3.0 ; Pen up

G0 X116.935 Y73.730 F3000 ; Travel to line 297
G0 Z0.0 ; Pen down
G1 X89.500 Y100.870 F1000
G0 Z3.0 ; Pen up

G0 X89.500 Y101.165 F3000 ; Travel to line 298
G0 Z0.0 ; Pen down
G1 X117.230 Y73.730 F1000
G1 X117.230 Y73.730 F1000
G1 X89.500 Y101.460 F1000
G0 Z3.0 ; Pen up

G0 X89.500 Y101.755 F3000 ; Travel to line 299
G0 Z0.0 ; Pen down
G1 X117.230 Y74.025 F1000
G0 Z3.0 ; Pen up

G0 X117.525 Y74.320 F3000 ; Travel to line 300
G0 Z0.0 ; Pen down
G1 X89.500 Y102.050 F1000
G0 Z3.0 ; Pen up

G0 X89.500 Y102.640 F3000 ; Travel to line 301
G0 Z0.0 ; Pen down
G1 X117.820 Y74.320 F1000
G0 Z3.0 ; Pen up

G0 X117.820 Y74.615 F3000 ; Travel to line 302
G0 Z0.0 ; Pen down
G1 X89.500 Y102.935 F1000
G0 Z3.0 ; Pen up

G0 X89.500 Y103.230 F3000 ; Travel to line 303
G0 Z0.0 ; Pen down
G1 X118.115 Y74.615 F1000
G0 Z3.0 ; Pen up

G0 X118.410 Y74.910 F3000 ; Travel to line 304
G0 Z0.0 ; Pen down
G1 X89.500 Y103.820 F1000
G0 Z3.0 ; Pen up

G0 X89.500 Y104.115 F3000 ; Travel to line 305
G0 Z0.0 ; Pen down
G1 X118.410 Y75.205 F1000
G0 Z3.0 ; Pen up

G0 X118.705 Y75.205 F3000 ; Travel to line 306
G0 Z0.0 ; Pen down
G1 X89.500 Y104.410 F1000
G0 Z3.0 ; Pen up

G0 X89.500 Y105.000 F3000 ; Travel to line 307
G0 Z0.0 ; Pen down
G1 X119.000 Y75.500 F1000
G0 Z3.0 ; Pen up

G0 X115.755 Y72.550 F3000 ; Travel to line 308
G0 Z0.0 ; Pen down
G1 X89.500 Y98.215 F1000
G1 X89.500 Y98.215 F1000
G1 X115.755 Y72.255 F1000
G0 Z3.0 ; Pen up

G0 X109.265 Y65.765 F3000 ; Travel to line 309
G0 Z0.0 ; Pen down
G1 X82.420 Y90.250 F1000
G1 X82.420 Y90.250 F1000
G1 X108.970 Y65.765 F1000
G0 Z3.0 ; Pen up

G0 X96.580 Y53.375 F3000 ; Travel to line 310
G0 Z0.0 ; Pen down
G1 X89.500 Y59.865 F1000
G0 Z3.0 ; Pen up

G0 X89.500 Y59.570 F3000 ; Travel to line 311
G0 Z0.0 ; Pen down
G1 X96.580 Y53.080 F1000
G1 X96.580 Y53.080 F1000
G1 X89.500 Y59.570 F1000
G0 Z3.0 ; Pen up

G0 X89.500 Y59.275 F3000 ; Travel to line 312
G0 Z0.0 ; Pen down
G1 X96.285 Y53.080 F1000
G0 Z3.0 ; Pen up

G0 X96.285 Y52.785 F3000 ; Travel to line 313
G0 Z0.0 ; Pen down
G1 X89.500 Y58.685 F1000
G0 Z3.0 ; Pen up

G0 X89.500 Y58.390 F3000 ; Travel to line 314
G0 Z0.0 ; Pen down
G1 X95.990 Y52.490 F1000
G1 X95.990 Y52.490 F1000
G1 X89.500 Y58.095 F1000
G1 X89.500 Y58.095 F1000
G1 X95.990 Y52.490 F1000
G0 Z3.0 ; Pen up

G0 X95.695 Y52.490 F3000 ; Travel to line 315
G0 Z0.0 ; Pen down
G1 X89.500 Y57.800 F1000
G0 Z3.0 ; Pen up

G0 X89.500 Y57.505 F3000 ; Travel to line 316
G0 Z0.0 ; Pen down
G1 X95.695 Y52.195 F1000
G1 X95.695 Y52.195 F1000
G1 X89.500 Y57.505 F1000
G0 Z3.0 ; Pen up

G0 X89.500 Y57.210 F3000 ; Travel to line 317
G0 Z0.0 ; Pen down
G1 X95.400 Y52.195 F1000
G0 Z3.0 ; Pen up

G0 X95.400 Y51.900 F3000 ; Travel to line 318
G0 Z0.0 ; Pen down
G1 X89.500 Y56.915 F1000
G0 Z3.0 ; Pen up

G0 X89.500 Y56.620 F3000 ; Travel to line 319
G0 Z0.0 ; Pen down
G1 X95.105 Y51.900 F1000
G1 X95.105 Y51.900 F1000
G1 X89.500 Y56.620 F1000
G1 X89.500 Y56.620 F1000
G1 X95.105 Y51.605 F1000
G0 Z3.0 ; Pen up

G0 X94.810 Y51.310 F3000 ; Travel to line 320
G0 Z0.0 ; Pen down
G1 X89.500 Y56.030 F1000
G0 Z3.0 ; Pen up

G0 X89.500 Y56.325 F3000 ; Travel to line 321
G0 Z0.0 ; Pen down
G1 X94.810 Y51.605 F1000
G1 X94.810 Y51.605 F1000
G1 X89.500 Y56.325 F1000
G0 Z3.0 ; Pen up

G0 X89.500 Y55.735 F3000 ; Travel to line 322
G0 Z0.0 ; Pen down
G1 X94.515 Y51.310 F1000
G0 Z3.0 ; Pen up

G0 X94.220 Y51.015 F3000 ; Travel to line 323
G0 Z0.0 ; Pen down
G1 X89.500 Y55.145 F1000
G0 Z3.0 ; Pen up

G0 X89.500 Y54.850 F3000 ; Travel to line 324
G0 Z0.0 ; Pen down
G1 X94.220 Y50.720 F1000
G1 X94.220 Y50.720 F1000
G1 X89.500 Y54.850 F1000
G0 Z3.0 ; Pen up

G0 X89.500 Y54.555 F3000 ; Travel to line 325
G0 Z0.0 ; Pen down
G1 X93.925 Y50.720 F1000
G0 Z3.0 ; Pen up

G0 X93.630 Y50.425 F3000 ; Travel to line 326
G0 Z0.0 ; Pen down
G1 X89.500 Y53.965 F1000
G0 Z3.0 ; Pen up

G0 X89.500 Y54.260 F3000 ; Travel to line 327
G0 Z0.0 ; Pen down
G1 X93.925 Y50.425 F1000
G1 X93.925 Y50.425 F1000
G1 X89.500 Y54.260 F1000
G0 Z3.0 ; Pen up

G0 X89.500 Y53.670 F3000 ; Travel to line 328
G0 Z0.0 ; Pen down
G1 X93.630 Y50.130 F1000
G0 Z3.0 ; Pen up

G0 X93.335 Y49.835 F3000 ; Travel to line 329
G0 Z0.0 ; Pen down
G1 X89.500 Y53.080 F1000
G1 X89.500 Y53.080 F1000
G1 X93.040 Y49.835 F1000
G1 X93.040 Y49.835 F1000
G1 X89.500 Y53.080 F1000
G0 Z3.0 ; Pen up

G0 X89.500 Y53.375 F3000 ; Travel to line 330
G0 Z0.0 ; Pen down
G1 X93.335 Y50.130 F1000
G1 X93.335 Y50.130 F1000
G1 X89.500 Y53.375 F1000
G0 Z3.0 ; Pen up

G0 X89.500 Y52.785 F3000 ; Travel to line 331
G0 Z0.0 ; Pen down
G1 X93.040 Y49.540 F1000
G0 Z3.0 ; Pen up

G0 X92.745 Y49.540 F3000 ; Travel to line 332
G0 Z0.0 ; Pen down
G1 X89.500 Y52.490 F1000
G0 Z3.0 ; Pen up

G0 X89.500 Y52.195 F3000 ; Travel to line 333
G0 Z0.0 ; Pen down
G1 X92.745 Y49.245 F1000
G1 X92.745 Y49.245 F1000
G1 X89.500 Y52.195 F1000
G0 Z3.0 ; Pen up

G0 X89.500 Y51.900 F3000 ; Travel to line 334
G0 Z0.0 ; Pen down
G1 X92.450 Y49.245 F1000
G0 Z3.0 ; Pen up

G0 X92.155 Y48.950 F3000 ; Travel to line 335
G0 Z0.0 ; Pen down
G1 X89.500 Y51.310 F1000
G0 Z3.0 ; Pen up

G0 X89.500 Y51.015 F3000 ; Travel to line 336
G0 Z0.0 ; Pen down
G1 X92.155 Y48.655 F1000
G1 X92.155 Y48.655 F1000
G1 X89.500 Y51.015 F1000
G0 Z3.0 ; Pen up

G0 X89.500 Y50.720 F3000 ; Travel to line 337
G0 Z0.0 ; Pen down
G1 X91.860 Y48.655 F1000
G0 Z3.0 ; Pen up

G0 X91.860 Y48.360 F3000 ; Travel to line 338
G0 Z0.0 ; Pen down
G1 X89.500 Y50.425 F1000
G0 Z3.0 ; Pen up

G0 X89.500 Y50.130 F3000 ; Travel to line 339
G0 Z0.0 ; Pen down
G1 X91.565 Y48.360 F1000
G1 X91.565 Y48.360 F1000
G1 X89.500 Y50.130 F1000
G0 Z3.0 ; Pen up

G0 X89.500 Y49.835 F3000 ; Travel to line 340
G0 Z0.0 ; Pen down
G1 X91.270 Y48.065 F1000
G1 X91.270 Y48.065 F1000
G1 X89.500 Y49.835 F1000
G1 X89.500 Y49.835 F1000
G1 X91.565 Y48.065 F1000
G0 Z3.0 ; Pen up

G0 X91.270 Y47.770 F3000 ; Travel to line 341
G0 Z0.0 ; Pen down
G1 X89.500 Y49.540 F1000
G0 Z3.0 ; Pen up

G0 X89.500 Y49.245 F3000 ; Travel to line 342
G0 Z0.0 ; Pen down
G1 X90.975 Y47.770 F1000
G0 Z3.0 ; Pen up

G0 X90.680 Y47.475 F3000 ; Travel to line 343
G0 Z0.0 ; Pen down
G1 X89.500 Y48.655 F1000
G0 Z3.0 ; Pen up

G0 X89.500 Y48.950 F3000 ; Travel to line 344
G0 Z0.0 ; Pen down
G1 X90.975 Y47.475 F1000
G1 X90.975 Y47.475 F1000
G1 X89.500 Y48.950 F1000
G0 Z3.0 ; Pen up

G0 X89.500 Y48.360 F3000 ; Travel to line 345
G0 Z0.0 ; Pen down
G1 X90.680 Y47.180 F1000
G1 X90.680 Y47.180 F1000
G1 X89.500 Y48.360 F1000
G0 Z3.0 ; Pen up

G0 X89.500 Y48.065 F3000 ; Travel to line 346
G0 Z0.0 ; Pen down
G1 X90.680 Y47.180 F1000
G0 Z3.0 ; Pen up

G0 X90.385 Y47.180 F3000 ; Travel to line 347
G0 Z0.0 ; Pen down
G1 X89.500 Y47.770 F1000
G0 Z3.0 ; Pen up

G0 X89.500 Y47.475 F3000 ; Travel to line 348
G0 Z0.0 ; Pen down
G1 X90.385 Y46.885 F1000
G1 X90.385 Y46.885 F1000
G1 X89.500 Y47.475 F1000
G0 Z3.0 ; Pen up

G0 X89.500 Y47.180 F3000 ; Travel to line 349
G0 Z0.0 ; Pen down
G1 X90.090 Y46.885 F1000
G0 Z3.0 ; Pen up

G0 X89.795 Y46.590 F3000 ; Travel to line 350
G0 Z0.0 ; Pen down
G1 X89.500 Y46.885 F1000
G1 X89.500 Y46.885 F1000
G1 X90.090 Y46.590 F1000
G1 X90.090 Y46.590 F1000
G1 X89.500 Y46.885 F1000
G0 Z3.0 ; Pen up

G0 X89.500 Y46.590 F3000 ; Travel to line 351
G0 Z0.0 ; Pen down
G1 X89.795 Y46.295 F1000
G1 X89.795 Y46.295 F1000
G1 X89.500 Y46.590 F1000
G0 Z3.0 ; Pen up

G0 X89.500 Y51.605 F3000 ; Travel to line 352
G0 Z0.0 ; Pen down
G1 X92.450 Y48.950 F1000
G1 X92.450 Y48.950 F1000
G1 X89.500 Y51.605 F1000
G0 Z3.0 ; Pen up

G0 X89.500 Y55.440 F3000 ; Travel to line 353
G0 Z0.0 ; Pen down
G1 X94.515 Y51.015 F1000
G1 X94.515 Y51.015 F1000
G1 X89.500 Y55.440 F1000
G0 Z3.0 ; Pen up

G0 X89.500 Y58.980 F3000 ; Travel to line 354
G0 Z0.0 ; Pen down
G1 X96.285 Y52.785 F1000
G1 X96.285 Y52.785 F1000
G1 X89.500 Y58.980 F1000
G0 Z3.0 ; Pen up

G0 X89.500 Y60.160 F3000 ; Travel to line 355
G0 Z0.0 ; Pen down
G1 X96.875 Y53.375 F1000
G1 X96.875 Y53.375 F1000
G1 X89.500 Y60.160 F1000
G0 Z3.0 ; Pen up

G0 X85.960 Y90.250 F3000 ; Travel to line 356
G0 Z0.0 ; Pen down
G1 X110.740 Y67.240 F1000
G1 X110.740 Y67.240 F1000
G1 X85.960 Y90.250 F1000
G0 Z3.0 ; Pen up

G0 X89.500 Y94.085 F3000 ; Travel to line 357
G0 Z0.0 ; Pen down
G1 X113.985 Y70.485 F1000
G1 X113.985 Y70.485 F1000
G1 X89.500 Y94.085 F1000
G0 Z3.0 ; Pen up

G0 X89.500 Y95.855 F3000 ; Travel to line 358
G0 Z0.0 ; Pen down
G1 X114.870 Y71.370 F1000
G1 X114.870 Y71.370 F1000
G1 X89.500 Y96.150 F1000
G0 Z3.0 ; Pen up

G0 X89.205 Y119.750 F3000 ; Travel to line 359
G0 Z0.0 ; Pen down
G1 X64.425 Y140.400 F1000
G1 X64.425 Y140.400 F1000
G1 X88.910 Y119.750 F1000
G1 X88.910 Y119.750 F1000
G1 X64.130 Y140.400 F1000
G1 X64.130 Y140.400 F1000
G1 X88.615 Y119.750 F1000
G0 Z3.0 ; Pen up

G0 X88.320 Y119.750 F3000 ; Travel to line 360
G0 Z0.0 ; Pen down
G1 X63.835 Y140.400 F1000
G0 Z3.0 ; Pen up

G0 X63.540 Y140.400 F3000 ; Travel to line 361
G0 Z0.0 ; Pen down
G1 X88.025 Y119.750 F1000
G1 X88.025 Y119.750 F1000
G1 X63.540 Y140.400 F1000
G0 Z3.0 ; Pen up

G0 X62.950 Y140.400 F3000 ; Travel to line 362
G0 Z0.0 ; Pen down
G1 X87.140 Y119.750 F1000
G1 X87.140 Y119.750 F1000
G1 X62.950 Y140.400 F1000
G0 Z3.0 ; Pen up

G0 X62.655 Y140.400 F3000 ; Travel to line 363
G0 Z0.0 ; Pen down
G1 X86.550 Y119.750 F1000
G0 Z3.0 ; Pen up

G0 X85.960 Y119.750 F3000 ; Travel to line 364
G0 Z0.0 ; Pen down
G1 X62.065 Y140.400 F1000
G1 X62.065 Y140.400 F1000
G1 X85.665 Y119.750 F1000
G1 X85.665 Y119.750 F1000
G1 X62.065 Y140.400 F1000
G0 Z3.0 ; Pen up

G0 X62.360 Y140.400 F3000 ; Travel to line 365
G0 Z0.0 ; Pen down
G1 X86.255 Y119.750 F1000
G1 X86.255 Y119.750 F1000
G1 X62.360 Y140.400 F1000
G0 Z3.0 ; Pen up

G0 X61.770 Y140.400 F3000 ; Travel to line 366
G0 Z0.0 ; Pen down
G1 X85.370 Y119.750 F1000
G0 Z3.0 ; Pen up

G0 X84.780 Y119.750 F3000 ; Travel to line 367
G0 Z0.0 ; Pen down
G1 X61.180 Y140.400 F1000
G1 X61.180 Y140.400 F1000
G1 X84.485 Y119.750 F1000
G0 Z3.0 ; Pen up

G0 X83.895 Y119.750 F3000 ; Travel to line 368
G0 Z0.0 ; Pen down
G1 X60.590 Y140.400 F1000
G0 Z3.0 ; Pen up

G0 X60.885 Y140.400 F3000 ; Travel to line 369
G0 Z0.0 ; Pen down
G1 X84.190 Y119.750 F1000
G1 X84.190 Y119.750 F1000
G1 X60.885 Y140.400 F1000
G0 Z3.0 ; Pen up

G0 X61.475 Y140.400 F3000 ; Travel to line 370
G0 Z0.0 ; Pen down
G1 X85.075 Y119.750 F1000
G1 X85.075 Y119.750 F1000
G1 X61.475 Y140.400 F1000
G0 Z3.0 ; Pen up

G0 X60.295 Y140.400 F3000 ; Travel to line 371
G0 Z0.0 ; Pen down
G1 X83.305 Y119.750 F1000
G1 X83.305 Y119.750 F1000
G1 X60.295 Y140.400 F1000
G1 X60.295 Y140.400 F1000
G1 X83.600 Y119.750 F1000
G0 Z3.0 ; Pen up

G0 X83.010 Y119.750 F3000 ; Travel to line 372
G0 Z0.0 ; Pen down
G1 X60.000 Y140.400 F1000
G0 Z3.0 ; Pen up

G0 X59.705 Y140.400 F3000 ; Travel to line 373
G0 Z0.0 ; Pen down
G1 X82.715 Y119.750 F1000
G1 X82.715 Y119.750 F1000
G1 X59.705 Y140.400 F1000
G0 Z3.0 ; Pen up

G0 X59.410 Y140.400 F3000 ; Travel to line 374
G0 Z0.0 ; Pen down
G1 X82.125 Y119.750 F1000
G1 X82.125 Y119.750 F1000
G1 X59.410 Y140.400 F1000
G1 X59.410 Y140.400 F1000
G1 X82.420 Y119.750 F1000
G0 Z3.0 ; Pen up

G0 X81.830 Y119.750 F3000 ; Travel to line 375
G0 Z0.0 ; Pen down
G1 X59.115 Y140.400 F1000
G0 Z3.0 ; Pen up

G0 X58.230 Y140.400 F3000 ; Travel to line 376
G0 Z0.0 ; Pen down
G1 X80.355 Y119.750 F1000
G1 X80.355 Y119.750 F1000
G1 X58.230 Y140.400 F1000
G0 Z3.0 ; Pen up

G0 X57.935 Y140.400 F3000 ; Travel to line 377
G0 Z0.0 ; Pen down
G1 X80.060 Y119.750 F1000
G0 Z3.0 ; Pen up

G0 X80.650 Y119.750 F3000 ; Travel to line 378
G0 Z0.0 ; Pen down
G1 X58.525 Y140.400 F1000
G1 X58.525 Y140.400 F1000
G1 X80.945 Y119.750 F1000
G0 Z3.0 ; Pen up

G0 X81.240 Y119.750 F3000 ; Travel to line 379
G0 Z0.0 ; Pen down
G1 X58.820 Y140.400 F1000
G1 X58.820 Y140.400 F1000
G1 X81.535 Y119.750 F1000
G0 Z3.0 ; Pen up

G0 X79.470 Y119.750 F3000 ; Travel to line 380
G0 Z0.0 ; Pen down
G1 X57.640 Y140.400 F1000
G1 X57.640 Y140.400 F1000
G1 X79.765 Y119.750 F1000
G1 X79.765 Y119.750 F1000
G1 X57.640 Y140.400 F1000
G0 Z3.0 ; Pen up

G0 X57.345 Y140.400 F3000 ; Travel to line 381
G0 Z0.0 ; Pen down
G1 X79.175 Y119.750 F1000
G0 Z3.0 ; Pen up

G0 X78.585 Y119.750 F3000 ; Travel to line 382
G0 Z0.0 ; Pen down
G1 X57.050 Y140.400 F1000
G1 X57.050 Y140.400 F1000
G1 X78.880 Y119.750 F1000
G1 X78.880 Y119.750 F1000
G1 X57.050 Y140.400 F1000
G0 Z3.0 ; Pen up

G0 X56.755 Y140.400 F3000 ; Travel to line 383
G0 Z0.0 ; Pen down
G1 X78.290 Y119.750 F1000
G1 X78.290 Y119.750 F1000
G1 X56.755 Y140.400 F1000
G0 Z3.0 ; Pen up

G0 X56.460 Y140.400 F3000 ; Travel to line 384
G0 Z0.0 ; Pen down
G1 X77.995 Y119.750 F1000
G1 X77.995 Y119.750 F1000
G1 X56.460 Y140.400 F1000
G0 Z3.0 ; Pen up

G0 X56.165 Y140.400 F3000 ; Travel to line 385
G0 Z0.0 ; Pen down
G1 X77.700 Y119.750 F1000
G1 X77.700 Y119.750 F1000
G1 X56.165 Y140.400 F1000
G0 Z3.0 ; Pen up

G0 X55.870 Y140.400 F3000 ; Travel to line 386
G0 Z0.0 ; Pen down
G1 X77.405 Y119.750 F1000
G0 Z3.0 ; Pen up

G0 X76.815 Y119.750 F3000 ; Travel to line 387
G0 Z0.0 ; Pen down
G1 X55.575 Y140.400 F1000
G1 X55.575 Y140.400 F1000
G1 X77.110 Y119.750 F1000
G1 X77.110 Y119.750 F1000
G1 X55.575 Y140.400 F1000
G0 Z3.0 ; Pen up

G0 X54.690 Y140.400 F3000 ; Travel to line 388
G0 Z0.0 ; Pen down
G1 X75.635 Y119.750 F1000
G1 X75.635 Y119.750 F1000
G1 X54.690 Y140.400 F1000
G0 Z3.0 ; Pen up

G0 X54.100 Y140.400 F3000 ; Travel to line 389
G0 Z0.0 ; Pen down
G1 X74.750 Y119.750 F1000
G1 X74.750 Y119.750 F1000
G1 X54.100 Y140.400 F1000
G0 Z3.0 ; Pen up

G0 X53.805 Y140.400 F3000 ; Travel to line 390
G0 Z0.0 ; Pen down
G1 X74.160 Y119.750 F1000
G1 X74.160 Y119.750 F1000
G1 X53.805 Y140.400 F1000
G1 X53.805 Y140.400 F1000
G1 X74.455 Y119.750 F1000
G0 Z3.0 ; Pen up

G0 X75.045 Y119.750 F3000 ; Travel to line 391
G0 Z0.0 ; Pen down
G1 X54.395 Y140.400 F1000
G1 X54.395 Y140.400 F1000
G1 X75.340 Y119.750 F1000
G0 Z3.0 ; Pen up

G0 X75.930 Y119.750 F3000 ; Travel to line 392
G0 Z0.0 ; Pen down
G1 X54.985 Y140.400 F1000
G1 X54.985 Y140.400 F1000
G1 X76.225 Y119.750 F1000
G1 X76.225 Y119.750 F1000
G1 X55.280 Y140.400 F1000
G1 X55.280 Y140.400 F1000
G1 X76.520 Y119.750 F1000
G0 Z3.0 ; Pen up

G0 X73.865 Y119.750 F3000 ; Travel to line 393
G0 Z0.0 ; Pen down
G1 X53.510 Y140.400 F1000
G0 Z3.0 ; Pen up

G0 X53.215 Y140.400 F3000 ; Travel to line 394
G0 Z0.0 ; Pen down
G1 X73.570 Y119.750 F1000
G1 X73.570 Y119.750 F1000
G1 X53.215 Y140.400 F1000
G1 X53.215 Y140.400 F1000
G1 X73.275 Y119.750 F1000
G0 Z3.0 ; Pen up

G0 X72.980 Y119.750 F3000 ; Travel to line 395
G0 Z0.0 ; Pen down
G1 X52.625 Y140.400 F1000
G1 X52.625 Y140.400 F1000
G1 X72.685 Y119.750 F1000
G0 Z3.0 ; Pen up

G0 X72.095 Y119.750 F3000 ; Travel to line 396
G0 Z0.0 ; Pen down
G1 X52.035 Y140.400 F1000
G1 X52.035 Y140.400 F1000
G1 X71.800 Y119.750 F1000
G0 Z3.0 ; Pen up

G0 X71.210 Y119.750 F3000 ; Travel to line 397
G0 Z0.0 ; Pen down
G1 X51.445 Y140.400 F1000
G1 X51.445 Y140.400 F1000
G1 X70.915 Y119.750 F1000
G1 X70.915 Y119.750 F1000
G1 X51.445 Y140.400 F1000
G0 Z3.0 ; Pen up

G0 X51.740 Y140.400 F3000 ; Travel to line 398
G0 Z0.0 ; Pen down
G1 X71.505 Y119.750 F1000
G1 X71.505 Y119.750 F1000
G1 X51.740 Y140.400 F1000
G0 Z3.0 ; Pen up

G0 X52.330 Y140.400 F3000 ; Travel to line 399
G0 Z0.0 ; Pen down
G1 X72.390 Y119.750 F1000
G1 X72.390 Y119.750 F1000
G1 X52.330 Y140.400 F1000
G0 Z3.0 ; Pen up

G0 X52.920 Y140.400 F3000 ; Travel to line 400
G0 Z0.0 ; Pen down
G1 X72.980 Y119.750 F1000
G1 X72.980 Y119.750 F1000
G1 X52.920 Y140.400 F1000
G0 Z3.0 ; Pen up

G0 X50.855 Y140.400 F3000 ; Travel to line 401
G0 Z0.0 ; Pen down
G1 X70.325 Y119.750 F1000
G1 X70.325 Y119.750 F1000
G1 X50.855 Y140.400 F1000
G0 Z3.0 ; Pen up

G0 X50.560 Y140.400 F3000 ; Travel to line 402
G0 Z0.0 ; Pen down
G1 X69.735 Y119.750 F1000
G1 X69.735 Y119.750 F1000
G1 X50.560 Y140.400 F1000
G1 X50.560 Y140.400 F1000
G1 X70.030 Y119.750 F1000
G0 Z3.0 ; Pen up

G0 X70.325 Y119.750 F3000 ; Travel to line 403
G0 Z0.0 ; Pen down
G1 X51.150 Y140.400 F1000
G1 X51.150 Y140.400 F1000
G1 X70.620 Y119.750 F1000
G0 Z3.0 ; Pen up

G0 X69.440 Y119.750 F3000 ; Travel to line 404
G0 Z0.0 ; Pen down
G1 X50.265 Y140.400 F1000
G0 Z3.0 ; Pen up

G0 X49.970 Y140.400 F3000 ; Travel to line 405
G0 Z0.0 ; Pen down
G1 X69.145 Y119.750 F1000
G1 X69.145 Y119.750 F1000
G1 X49.970 Y140.400 F1000
G1 X49.970 Y140.400 F1000
G1 X68.850 Y119.750 F1000
G0 Z3.0 ; Pen up

G0 X68.555 Y119.750 F3000 ; Travel to line 406
G0 Z0.0 ; Pen down
G1 X49.675 Y140.400 F1000
G1 X49.675 Y140.400 F1000
G1 X68.555 Y119.750 F1000
G1 X68.555 Y119.750 F1000
G1 X49.675 Y140.400 F1000
G0 Z3.0 ; Pen up

G0 X49.380 Y140.400 F3000 ; Travel to line 407
G0 Z0.0 ; Pen down
G1 X68.260 Y119.750 F1000
G0 Z3.0 ; Pen up

G0 X67.670 Y119.750 F3000 ; Travel to line 408
G0 Z0.0 ; Pen down
G1 X49.085 Y140.400 F1000
G1 X49.085 Y140.400 F1000
G1 X67.965 Y119.750 F1000
G1 X67.965 Y119.750 F1000
G1 X49.085 Y140.400 F1000
G0 Z3.0 ; Pen up

G0 X48.790 Y140.400 F3000 ; Travel to line 409
G0 Z0.0 ; Pen down
G1 X67.375 Y119.750 F1000
G1 X67.375 Y119.750 F1000
G1 X48.790 Y140.400 F1000
G0 Z3.0 ; Pen up

G0 X48.200 Y140.400 F3000 ; Travel to line 410
G0 Z0.0 ; Pen down
G1 X66.785 Y119.750 F1000
G1 X66.785 Y119.750 F1000
G1 X48.200 Y140.400 F1000
G1 X48.200 Y140.400 F1000
G1 X66.490 Y119.750 F1000
G0 Z3.0 ; Pen up

G0 X66.785 Y119.750 F3000 ; Travel to line 411
G0 Z0.0 ; Pen down
G1 X48.495 Y140.400 F1000
G1 X48.495 Y140.400 F1000
G1 X67.080 Y119.750 F1000
G0 Z3.0 ; Pen up

G0 X65.900 Y119.750 F3000 ; Travel to line 412
G0 Z0.0 ; Pen down
G1 X47.610 Y140.400 F1000
G1 X47.610 Y140.400 F1000
G1 X65.605 Y119.750 F1000
G1 X65.605 Y119.750 F1000
G1 X47.610 Y140.400 F1000
G0 Z3.0 ; Pen up

G0 X47.905 Y140.400 F3000 ; Travel to line 413
G0 Z0.0 ; Pen down
G1 X66.195 Y119.750 F1000
G1 X66.195 Y119.750 F1000
G1 X47.905 Y140.400 F1000
G0 Z3.0 ; Pen up

G0 X47.315 Y140.400 F3000 ; Travel to line 414
G0 Z0.0 ; Pen down
G1 X65.310 Y119.750 F1000
G1 X65.310 Y119.750 F1000
G1 X47.315 Y140.400 F1000
G0 Z3.0 ; Pen up

G0 X47.020 Y140.400 F3000 ; Travel to line 415
G0 Z0.0 ; Pen down
G1 X65.015 Y119.750 F1000
G1 X65.015 Y119.750 F1000
G1 X47.020 Y140.400 F1000
G1 X47.020 Y140.400 F1000
G1 X64.720 Y119.750 F1000
G0 Z3.0 ; Pen up

G0 X63.540 Y119.750 F3000 ; Travel to line 416
G0 Z0.0 ; Pen down
G1 X46.135 Y140.400 F1000
G1 X46.135 Y140.400 F1000
G1 X63.835 Y119.750 F1000
G1 X63.835 Y119.750 F1000
G1 X46.135 Y140.400 F1000
G0 Z3.0 ; Pen up

G0 X46.430 Y140.400 F3000 ; Travel to line 417
G0 Z0.0 ; Pen down
G1 X64.130 Y119.750 F1000
G1 X64.130 Y119.750 F1000
G1 X46.430 Y140.400 F1000
G0 Z3.0 ; Pen up

G0 X46.725 Y140.400 F3000 ; Travel to line 418
G0 Z0.0 ; Pen down
G1 X64.425 Y119.750 F1000
G1 X64.425 Y119.750 F1000
G1 X46.725 Y140.400 F1000
G0 Z3.0 ; Pen up

G0 X45.840 Y140.400 F3000 ; Travel to line 419
G0 Z0.0 ; Pen down
G1 X63.245 Y119.750 F1000
G1 X63.245 Y119.750 F1000
G1 X45.840 Y140.400 F1000
G0 Z3.0 ; Pen up

G0 X45.545 Y140.400 F3000 ; Travel to line 420
G0 Z0.0 ; Pen down
G1 X62.950 Y119.750 F1000
G1 X62.950 Y119.750 F1000
G1 X45.545 Y140.400 F1000
G1 X45.545 Y140.400 F1000
G1 X62.655 Y119.750 F1000
G1 X62.655 Y119.750 F1000
G1 X45.250 Y140.400 F1000
G1 X45.250 Y140.400 F1000
G1 X62.360 Y119.750 F1000
G0 Z3.0 ; Pen up

G0 X61.180 Y119.750 F3000 ; Travel to line 421
G0 Z0.0 ; Pen down
G1 X44.365 Y140.400 F1000
G0 Z3.0 ; Pen up

G0 X44.070 Y140.400 F3000 ; Travel to line 422
G0 Z0.0 ; Pen down
G1 X60.885 Y119.750 F1000
G1 X60.885 Y119.750 F1000
G1 X44.070 Y140.400 F1000
G1 X44.070 Y140.400 F1000
G1 X60.885 Y119.750 F1000
G0 Z3.0 ; Pen up

G0 X60.590 Y119.750 F3000 ; Travel to line 423
G0 Z0.0 ; Pen down
G1 X43.775 Y140.400 F1000
G1 X43.775 Y140.400 F1000
G1 X60.295 Y119.750 F1000
G1 X60.295 Y119.750 F1000
G1 X43.775 Y140.400 F1000
G0 Z3.0 ; Pen up

G0 X43.480 Y140.400 F3000 ; Travel to line 424
G0 Z0.0 ; Pen down
G1 X60.000 Y119.750 F1000
G1 X60.000 Y119.750 F1000
G1 X43.480 Y140.400 F1000
G1 X43.480 Y140.400 F1000
G1 X60.000 Y119.750 F1000
G0 Z3.0 ; Pen up

G0 X59.705 Y119.750 F3000 ; Travel to line 425
G0 Z0.0 ; Pen down
G1 X43.185 Y140.400 F1000
G1 X43.185 Y140.400 F1000
G1 X59.410 Y119.750 F1000
G1 X59.410 Y119.750 F1000
G1 X43.185 Y140.400 F1000
G0 Z3.0 ; Pen up

G0 X42.890 Y140.400 F3000 ; Travel to line 426
G0 Z0.0 ; Pen down
G1 X59.115 Y119.750 F1000
G1 X59.115 Y119.750 F1000
G1 X42.890 Y140.400 F1000
G0 Z3.0 ; Pen up

G0 X42.595 Y140.400 F3000 ; Travel to line 427
G0 Z0.0 ; Pen down
G1 X58.820 Y119.750 F1000
G1 X58.820 Y119.750 F1000
G1 X42.595 Y140.400 F1000
G1 X42.595 Y140.400 F1000
G1 X58.525 Y119.750 F1000
G1 X58.525 Y119.750 F1000
G1 X42.300 Y140.400 F1000
G1 X42.300 Y140.400 F1000
G1 X58.230 Y119.750 F1000
G1 X58.230 Y119.750 F1000
G1 X42.005 Y140.400 F1000
G1 X42.005 Y140.400 F1000
G1 X58.230 Y119.750 F1000
G0 Z3.0 ; Pen up

G0 X58.525 Y119.750 F3000 ; Travel to line 428
G0 Z0.0 ; Pen down
G1 X42.595 Y140.400 F1000
G1 X42.595 Y140.400 F1000
G1 X58.820 Y119.750 F1000
G0 Z3.0 ; Pen up

G0 X57.935 Y119.750 F3000 ; Travel to line 429
G0 Z0.0 ; Pen down
G1 X41.710 Y140.400 F1000
G1 X41.710 Y140.400 F1000
G1 X57.640 Y119.750 F1000
G1 X57.640 Y119.750 F1000
G1 X41.710 Y140.400 F1000
G0 Z3.0 ; Pen up

G0 X41.415 Y140.400 F3000 ; Travel to line 430
G0 Z0.0 ; Pen down
G1 X57.345 Y119.750 F1000
G0 Z3.0 ; Pen up

G0 X56.755 Y119.750 F3000 ; Travel to line 431
G0 Z0.0 ; Pen down
G1 X40.825 Y140.400 F1000
G0 Z3.0 ; Pen up

G0 X40.530 Y140.400 F3000 ; Travel to line 432
G0 Z0.0 ; Pen down
G1 X56.460 Y119.750 F1000
G1 X56.460 Y119.750 F1000
G1 X40.235 Y140.400 F1000
G1 X40.235 Y140.400 F1000
G1 X56.460 Y119.750 F1000
G0 Z3.0 ; Pen up

G0 X56.165 Y119.750 F3000 ; Travel to line 433
G0 Z0.0 ; Pen down
G1 X39.940 Y140.400 F1000
G1 X39.940 Y140.400 F1000
G1 X55.870 Y119.750 F1000
G1 X55.870 Y119.750 F1000
G1 X39.940 Y140.400 F1000
G0 Z3.0 ; Pen up

G0 X39.645 Y140.400 F3000 ; Travel to line 434
G0 Z0.0 ; Pen down
G1 X55.575 Y119.750 F1000
G0 Z3.0 ; Pen up

G0 X55.280 Y119.750 F3000 ; Travel to line 435
G0 Z0.0 ; Pen down
G1 X39.350 Y140.400 F1000
G0 Z3.0 ; Pen up

G0 X39.055 Y140.400 F3000 ; Travel to line 436
G0 Z0.0 ; Pen down
G1 X54.985 Y119.750 F1000
G1 X54.985 Y119.750 F1000
G1 X39.055 Y140.400 F1000
G0 Z3.0 ; Pen up

G0 X38.760 Y140.400 F3000 ; Travel to line 437
G0 Z0.0 ; Pen down
G1 X54.690 Y119.750 F1000
G0 Z3.0 ; Pen up

G0 X54.395 Y119.750 F3000 ; Travel to line 438
G0 Z0.0 ; Pen down
G1 X38.465 Y140.400 F1000
G1 X38.465 Y140.400 F1000
G1 X54.395 Y119.750 F1000
G1 X54.395 Y119.750 F1000
G1 X38.465 Y140.400 F1000
G0 Z3.0 ; Pen up

G0 X38.170 Y140.400 F3000 ; Travel to line 439
G0 Z0.0 ; Pen down
G1 X54.100 Y119.750 F1000
G0 Z3.0 ; Pen up

G0 X53.510 Y119.750 F3000 ; Travel to line 440
G0 Z0.0 ; Pen down
G1 X37.580 Y140.400 F1000
G0 Z3.0 ; Pen up

G0 X37.875 Y140.400 F3000 ; Travel to line 441
G0 Z0.0 ; Pen down
G1 X53.805 Y119.750 F1000
G1 X53.805 Y119.750 F1000
G1 X37.875 Y140.400 F1000
G0 Z3.0 ; Pen up

G0 X37.285 Y140.400 F3000 ; Travel to line 442
G0 Z0.0 ; Pen down
G1 X53.215 Y119.750 F1000
G1 X53.215 Y119.750 F1000
G1 X37.285 Y140.400 F1000
G0 Z3.0 ; Pen up

G0 X36.990 Y140.400 F3000 ; Travel to line 443
G0 Z0.0 ; Pen down
G1 X52.625 Y119.750 F1000
G1 X52.625 Y119.750 F1000
G1 X36.695 Y140.400 F1000
G0 Z3.0 ; Pen up

G0 X36.400 Y140.400 F3000 ; Travel to line 444
G0 Z0.0 ; Pen down
G1 X52.330 Y119.750 F1000
G0 Z3.0 ; Pen up

G0 X52.625 Y119.750 F3000 ; Travel to line 445
G0 Z0.0 ; Pen down
G1 X36.990 Y140.400 F1000
G1 X36.990 Y140.400 F1000
G1 X52.920 Y119.750 F1000
G0 Z3.0 ; Pen up

G0 X51.740 Y119.750 F3000 ; Travel to line 446
G0 Z0.0 ; Pen down
G1 X35.810 Y140.400 F1000
G0 Z3.0 ; Pen up

G0 X35.515 Y140.400 F3000 ; Travel to line 447
G0 Z0.0 ; Pen down
G1 X51.445 Y119.750 F1000
G1 X51.445 Y119.750 F1000
G1 X35.515 Y140.400 F1000
G1 X35.515 Y140.400 F1000
G1 X51.150 Y119.750 F1000
G0 Z3.0 ; Pen up

G0 X50.855 Y119.750 F3000 ; Travel to line 448
G0 Z0.0 ; Pen down
G1 X34.925 Y140.400 F1000
G1 X34.925 Y140.400 F1000
G1 X50.855 Y119.750 F1000
G1 X50.855 Y119.750 F1000
G1 X35.220 Y140.400 F1000
G0 Z3.0 ; Pen up

G0 X34.630 Y140.400 F3000 ; Travel to line 449
G0 Z0.0 ; Pen down
G1 X50.560 Y119.750 F1000
G0 Z3.0 ; Pen up

G0 X49.970 Y119.750 F3000 ; Travel to line 450
G0 Z0.0 ; Pen down
G1 X34.040 Y140.400 F1000
G1 X34.040 Y140.400 F1000
G1 X49.675 Y119.750 F1000
G1 X49.675 Y119.750 F1000
G1 X34.040 Y140.400 F1000
G0 Z3.0 ; Pen up

G0 X34.335 Y140.400 F3000 ; Travel to line 451
G0 Z0.0 ; Pen down
G1 X50.265 Y119.750 F1000
G1 X50.265 Y119.750 F1000
G1 X34.335 Y140.400 F1000
G0 Z3.0 ; Pen up

G0 X33.745 Y140.400 F3000 ; Travel to line 452
G0 Z0.0 ; Pen down
G1 X49.380 Y119.750 F1000
G0 Z3.0 ; Pen up

G0 X49.085 Y119.750 F3000 ; Travel to line 453
G0 Z0.0 ; Pen down
G1 X33.155 Y140.400 F1000
G1 X33.155 Y140.400 F1000
G1 X49.085 Y119.750 F1000
G1 X49.085 Y119.750 F1000
G1 X33.450 Y140.400 F1000
G0 Z3.0 ; Pen up

G0 X32.860 Y140.400 F3000 ; Travel to line 454
G0 Z0.0 ; Pen down
G1 X48.495 Y119.750 F1000
G1 X48.495 Y119.750 F1000
G1 X32.860 Y140.400 F1000
G1 X32.860 Y140.400 F1000
G1 X48.790 Y119.750 F1000
G0 Z3.0 ; Pen up

G0 X48.200 Y119.750 F3000 ; Travel to line 455
G0 Z0.0 ; Pen down
G1 X32.565 Y140.400 F1000
G0 Z3.0 ; Pen up

G0 X32.270 Y140.400 F3000 ; Travel to line 456
G0 Z0.0 ; Pen down
G1 X47.905 Y119.750 F1000
G0 Z3.0 ; Pen up

G0 X47.315 Y119.750 F3000 ; Travel to line 457
G0 Z0.0 ; Pen down
G1 X31.385 Y140.400 F1000
G1 X31.385 Y140.400 F1000
G1 X47.020 Y119.750 F1000
G0 Z3.0 ; Pen up

G0 X46.725 Y119.750 F3000 ; Travel to line 458
G0 Z0.0 ; Pen down
G1 X31.090 Y140.400 F1000
G0 Z3.0 ; Pen up

G0 X31.385 Y140.400 F3000 ; Travel to line 459
G0 Z0.0 ; Pen down
G1 X47.315 Y119.750 F1000
G1 X47.315 Y119.750 F1000
G1 X31.680 Y140.400 F1000
G0 Z3.0 ; Pen up

G0 X31.975 Y140.400 F3000 ; Travel to line 460
G0 Z0.0 ; Pen down
G1 X47.610 Y119.750 F1000
G1 X47.610 Y119.750 F1000
G1 X31.975 Y140.400 F1000
G0 Z3.0 ; Pen up

G0 X30.795 Y140.400 F3000 ; Travel to line 461
G0 Z0.0 ; Pen down
G1 X46.430 Y119.750 F1000
G1 X46.430 Y119.750 F1000
G1 X30.795 Y140.400 F1000
G0 Z3.0 ; Pen up

G0 X30.500 Y140.400 F3000 ; Travel to line 462
G0 Z0.0 ; Pen down
G1 X46.135 Y119.750 F1000
G0 Z3.0 ; Pen up

G0 X45.840 Y119.750 F3000 ; Travel to line 463
G0 Z0.0 ; Pen down
G1 X30.205 Y140.400 F1000
G1 X30.205 Y140.400 F1000
G1 X45.840 Y119.750 F1000
G1 X45.840 Y119.750 F1000
G1 X30.205 Y140.400 F1000
G0 Z3.0 ; Pen up

G0 X29.910 Y140.400 F3000 ; Travel to line 464
G0 Z0.0 ; Pen down
G1 X45.545 Y119.750 F1000
G1 X45.545 Y119.750 F1000
G1 X29.910 Y140.400 F1000
G0 Z3.0 ; Pen up

G0 X29.615 Y140.400 F3000 ; Travel to line 465
G0 Z0.0 ; Pen down
G1 X45.250 Y119.750 F1000
G0 Z3.0 ; Pen up

G0 X44.955 Y119.750 F3000 ; Travel to line 466
G0 Z0.0 ; Pen down
G1 X29.320 Y140.400 F1000
G0 Z3.0 ; Pen up

G0 X29.025 Y140.400 F3000 ; Travel to line 467
G0 Z0.0 ; Pen down
G1 X44.660 Y119.750 F1000
G1 X44.660 Y119.750 F1000
G1 X29.025 Y140.400 F1000
G0 Z3.0 ; Pen up

G0 X28.730 Y140.400 F3000 ; Travel to line 468
G0 Z0.0 ; Pen down
G1 X44.070 Y119.750 F1000
G1 X44.070 Y119.750 F1000
G1 X28.435 Y140.400 F1000
G0 Z3.0 ; Pen up

G0 X28.140 Y140.400 F3000 ; Travel to line 469
G0 Z0.0 ; Pen down
G1 X43.775 Y119.750 F1000
G0 Z3.0 ; Pen up

G0 X44.070 Y119.750 F3000 ; Travel to line 470
G0 Z0.0 ; Pen down
G1 X28.730 Y140.400 F1000
G1 X28.730 Y140.400 F1000
G1 X44.365 Y119.750 F1000
G0 Z3.0 ; Pen up

G0 X43.185 Y119.750 F3000 ; Travel to line 471
G0 Z0.0 ; Pen down
G1 X27.550 Y140.400 F1000
G1 X27.550 Y140.400 F1000
G1 X42.890 Y119.750 F1000
G1 X42.890 Y119.750 F1000
G1 X27.550 Y140.400 F1000
G0 Z3.0 ; Pen up

G0 X27.255 Y140.400 F3000 ; Travel to line 472
G0 Z0.0 ; Pen down
G1 X42.595 Y119.750 F1000
G1 X42.595 Y119.750 F1000
G1 X26.960 Y140.400 F1000
G1 X26.960 Y140.400 F1000
G1 X42.595 Y119.750 F1000
G0 Z3.0 ; Pen up

G0 X42.300 Y119.750 F3000 ; Travel to line 473
G0 Z0.0 ; Pen down
G1 X26.665 Y140.400 F1000
G0 Z3.0 ; Pen up

G0 X26.370 Y140.400 F3000 ; Travel to line 474
G0 Z0.0 ; Pen down
G1 X41.710 Y119.750 F1000
G1 X41.710 Y119.750 F1000
G1 X26.370 Y140.400 F1000
G1 X26.370 Y140.400 F1000
G1 X42.005 Y119.750 F1000
G0 Z3.0 ; Pen up

G0 X41.415 Y119.750 F3000 ; Travel to line 475
G0 Z0.0 ; Pen down
G1 X26.075 Y140.400 F1000
G0 Z3.0 ; Pen up

G0 X25.780 Y140.400 F3000 ; Travel to line 476
G0 Z0.0 ; Pen down
G1 X41.120 Y119.750 F1000
G1 X41.120 Y119.750 F1000
G1 X25.780 Y140.400 F1000
G0 Z3.0 ; Pen up

G0 X25.485 Y140.400 F3000 ; Travel to line 477
G0 Z0.0 ; Pen down
G1 X41.120 Y119.750 F1000
G0 Z3.0 ; Pen up

G0 X40.825 Y119.750 F3000 ; Travel to line 478
G0 Z0.0 ; Pen down
G1 X25.190 Y140.400 F1000
G1 X25.190 Y140.400 F1000
G1 X40.530 Y119.750 F1000
G1 X40.530 Y119.750 F1000
G1 X25.190 Y140.400 F1000
G0 Z3.0 ; Pen up

G0 X24.895 Y140.400 F3000 ; Travel to line 479
G0 Z0.0 ; Pen down
G1 X40.235 Y119.750 F1000
G0 Z3.0 ; Pen up

G0 X39.645 Y119.750 F3000 ; Travel to line 480
G0 Z0.0 ; Pen down
G1 X24.010 Y140.400 F1000
G1 X24.010 Y140.400 F1000
G1 X39.350 Y119.750 F1000
G0 Z3.0 ; Pen up

G0 X39.055 Y119.750 F3000 ; Travel to line 481
G0 Z0.0 ; Pen down
G1 X23.715 Y140.400 F1000
G0 Z3.0 ; Pen up

G0 X24.010 Y140.400 F3000 ; Travel to line 482
G0 Z0.0 ; Pen down
G1 X39.645 Y119.750 F1000
G1 X39.645 Y119.750 F1000
G1 X24.305 Y140.400 F1000
G0 Z3.0 ; Pen up

G0 X24.600 Y140.400 F3000 ; Travel to line 483
G0 Z0.0 ; Pen down
G1 X39.940 Y119.750 F1000
G1 X39.940 Y119.750 F1000
G1 X24.600 Y140.400 F1000
G1 X24.600 Y140.400 F1000
G1 X15.750 Y140.400 F1000
G1 X15.750 Y140.400 F1000
G1 X30.795 Y119.750 F1000
G0 Z3.0 ; Pen up

G0 X30.500 Y119.750 F3000 ; Travel to line 484
G0 Z0.0 ; Pen down
G1 X15.750 Y139.810 F1000
G0 Z3.0 ; Pen up

G0 X15.750 Y140.105 F3000 ; Travel to line 485
G0 Z0.0 ; Pen down
G1 X30.500 Y119.750 F1000
G1 X30.500 Y119.750 F1000
G1 X15.750 Y140.105 F1000
G0 Z3.0 ; Pen up

G0 X15.750 Y140.400 F3000 ; Travel to line 486
G0 Z0.0 ; Pen down
G1 X15.750 Y131.550 F1000
G1 X15.750 Y131.550 F1000
G1 X24.010 Y119.750 F1000
G0 Z3.0 ; Pen up

G0 X23.715 Y119.750 F3000 ; Travel to line 487
G0 Z0.0 ; Pen down
G1 X15.750 Y130.960 F1000
G0 Z3.0 ; Pen up

G0 X15.750 Y130.665 F3000 ; Travel to line 488
G0 Z0.0 ; Pen down
G1 X23.420 Y119.750 F1000
G1 X23.420 Y119.750 F1000
G1 X15.750 Y130.665 F1000
G0 Z3.0 ; Pen up

G0 X15.750 Y130.370 F3000 ; Travel to line 489
G0 Z0.0 ; Pen down
G1 X23.125 Y119.750 F1000
G0 Z3.0 ; Pen up

G0 X21.945 Y119.750 F3000 ; Travel to line 490
G0 Z0.0 ; Pen down
G1 X15.750 Y128.600 F1000
G1 X15.750 Y128.600 F1000
G1 X15.750 Y119.750 F1000
G1 X15.750 Y119.750 F1000
G1 X24.600 Y119.750 F1000
G1 X24.600 Y119.750 F1000
G1 X15.750 Y132.140 F1000
G1 X15.750 Y132.140 F1000
G1 X24.600 Y119.750 F1000
G1 X24.600 Y119.750 F1000
G1 X15.750 Y132.435 F1000
G0 Z3.0 ; Pen up

G0 X15.750 Y132.730 F3000 ; Travel to line 491
G0 Z0.0 ; Pen down
G1 X24.895 Y119.750 F1000
G1 X24.895 Y119.750 F1000
G1 X15.750 Y132.730 F1000
G0 Z3.0 ; Pen up

G0 X15.750 Y133.025 F3000 ; Travel to line 492
G0 Z0.0 ; Pen down
G1 X25.190 Y119.750 F1000
G0 Z3.0 ; Pen up

G0 X25.485 Y119.750 F3000 ; Travel to line 493
G0 Z0.0 ; Pen down
G1 X15.750 Y133.320 F1000
G0 Z3.0 ; Pen up

G0 X15.750 Y133.910 F3000 ; Travel to line 494
G0 Z0.0 ; Pen down
G1 X25.780 Y119.750 F1000
G1 X25.780 Y119.750 F1000
G1 X15.750 Y133.615 F1000
G1 X15.750 Y133.615 F1000
G1 X25.780 Y119.750 F1000
G0 Z3.0 ; Pen up

G0 X26.370 Y119.750 F3000 ; Travel to line 495
G0 Z0.0 ; Pen down
G1 X15.750 Y134.500 F1000
G0 Z3.0 ; Pen up

G0 X15.750 Y134.795 F3000 ; Travel to line 496
G0 Z0.0 ; Pen down
G1 X26.665 Y119.750 F1000
G1 X26.665 Y119.750 F1000
G1 X15.750 Y134.795 F1000
G0 Z3.0 ; Pen up

G0 X15.750 Y135.385 F3000 ; Travel to line 497
G0 Z0.0 ; Pen down
G1 X26.960 Y119.750 F1000
G1 X26.960 Y119.750 F1000
G1 X15.750 Y135.680 F1000
G0 Z3.0 ; Pen up

G0 X15.750 Y135.975 F3000 ; Travel to line 498
G0 Z0.0 ; Pen down
G1 X27.255 Y119.750 F1000
G1 X27.255 Y119.750 F1000
G1 X15.750 Y135.975 F1000
G0 Z3.0 ; Pen up

G0 X15.750 Y136.270 F3000 ; Travel to line 499
G0 Z0.0 ; Pen down
G1 X27.550 Y119.750 F1000
G0 Z3.0 ; Pen up

G0 X28.730 Y119.750 F3000 ; Travel to line 500
G0 Z0.0 ; Pen down
G1 X15.750 Y137.745 F1000
G0 Z3.0 ; Pen up

G0 X15.750 Y138.040 F3000 ; Travel to line 501
G0 Z0.0 ; Pen down
G1 X29.025 Y119.750 F1000
G1 X29.025 Y119.750 F1000
G1 X15.750 Y138.040 F1000
G0 Z3.0 ; Pen up

G0 X15.750 Y138.335 F3000 ; Travel to line 502
G0 Z0.0 ; Pen down
G1 X29.320 Y119.750 F1000
G0 Z3.0 ; Pen up

G0 X29.615 Y119.750 F3000 ; Travel to line 503
G0 Z0.0 ; Pen down
G1 X15.750 Y138.925 F1000
G0 Z3.0 ; Pen up

G0 X15.750 Y139.220 F3000 ; Travel to line 504
G0 Z0.0 ; Pen down
G1 X29.910 Y119.750 F1000
G0 Z3.0 ; Pen up

G0 X31.090 Y119.750 F3000 ; Travel to line 505
G0 Z0.0 ; Pen down
G1 X16.045 Y140.400 F1000
G0 Z3.0 ; Pen up

G0 X16.340 Y140.400 F3000 ; Travel to line 506
G0 Z0.0 ; Pen down
G1 X31.385 Y119.750 F1000
G1 X31.385 Y119.750 F1000
G1 X16.340 Y140.400 F1000
G1 X16.340 Y140.400 F1000
G1 X31.680 Y119.750 F1000
G0 Z3.0 ; Pen up

G0 X31.975 Y119.750 F3000 ; Travel to line 507
G0 Z0.0 ; Pen down
G1 X16.930 Y140.400 F1000
G0 Z3.0 ; Pen up

G0 X17.225 Y140.400 F3000 ; Travel to line 508
G0 Z0.0 ; Pen down
G1 X32.270 Y119.750 F1000
G0 Z3.0 ; Pen up

G0 X32.860 Y119.750 F3000 ; Travel to line 509
G0 Z0.0 ; Pen down
G1 X17.520 Y140.400 F1000
G1 X17.520 Y140.400 F1000
G1 X32.565 Y119.750 F1000
G1 X32.565 Y119.750 F1000
G1 X17.520 Y140.400 F1000
G0 Z3.0 ; Pen up

G0 X17.815 Y140.400 F3000 ; Travel to line 510
G0 Z0.0 ; Pen down
G1 X32.860 Y119.750 F1000
G1 X32.860 Y119.750 F1000
G1 X17.815 Y140.400 F1000
G0 Z3.0 ; Pen up

G0 X18.110 Y140.400 F3000 ; Travel to line 511
G0 Z0.0 ; Pen down
G1 X33.155 Y119.750 F1000
G0 Z3.0 ; Pen up

G0 X33.745 Y119.750 F3000 ; Travel to line 512
G0 Z0.0 ; Pen down
G1 X18.405 Y140.400 F1000
G1 X18.405 Y140.400 F1000
G1 X33.450 Y119.750 F1000
G1 X33.450 Y119.750 F1000
G1 X18.405 Y140.400 F1000
G0 Z3.0 ; Pen up

G0 X18.700 Y140.400 F3000 ; Travel to line 513
G0 Z0.0 ; Pen down
G1 X34.040 Y119.750 F1000
G0 Z3.0 ; Pen up

G0 X34.335 Y119.750 F3000 ; Travel to line 514
G0 Z0.0 ; Pen down
G1 X19.290 Y140.400 F1000
G0 Z3.0 ; Pen up

G0 X19.585 Y140.400 F3000 ; Travel to line 515
G0 Z0.0 ; Pen down
G1 X34.630 Y119.750 F1000
G1 X34.630 Y119.750 F1000
G1 X19.585 Y140.400 F1000
G1 X19.585 Y140.400 F1000
G1 X34.925 Y119.750 F1000
G0 Z3.0 ; Pen up

G0 X35.220 Y119.750 F3000 ; Travel to line 516
G0 Z0.0 ; Pen down
G1 X19.880 Y140.400 F1000
G0 Z3.0 ; Pen up

G0 X20.470 Y140.400 F3000 ; Travel to line 517
G0 Z0.0 ; Pen down
G1 X35.810 Y119.750 F1000
G1 X35.810 Y119.750 F1000
G1 X20.470 Y140.400 F1000
G1 X20.470 Y140.400 F1000
G1 X35.515 Y119.750 F1000
G1 X35.515 Y119.750 F1000
G1 X20.175 Y140.400 F1000
G1 X20.175 Y140.400 F1000
G1 X35.515 Y119.750 F1000
G0 Z3.0 ; Pen up

G0 X36.105 Y119.750 F3000 ; Travel to line 518
G0 Z0.0 ; Pen down
G1 X20.765 Y140.400 F1000
G0 Z3.0 ; Pen up

G0 X21.060 Y140.400 F3000 ; Travel to line 519
G0 Z0.0 ; Pen down
G1 X36.400 Y119.750 F1000
G1 X36.400 Y119.750 F1000
G1 X21.060 Y140.400 F1000
G0 Z3.0 ; Pen up

G0 X21.355 Y140.400 F3000 ; Travel to line 520
G0 Z0.0 ; Pen down
G1 X36.695 Y119.750 F1000
G1 X36.695 Y119.750 F1000
G1 X21.650 Y140.400 F1000
G1 X21.650 Y140.400 F1000
G1 X36.990 Y119.750 F1000
G1 X36.990 Y119.750 F1000
G1 X21.650 Y140.400 F1000
G0 Z3.0 ; Pen up

G0 X21.945 Y140.400 F3000 ; Travel to line 521
G0 Z0.0 ; Pen down
G1 X37.285 Y119.750 F1000
G0 Z3.0 ; Pen up

G0 X37.875 Y119.750 F3000 ; Travel to line 522
G0 Z0.0 ; Pen down
G1 X22.535 Y140.400 F1000
G0 Z3.0 ; Pen up

G0 X22.830 Y140.400 F3000 ; Travel to line 523
G0 Z0.0 ; Pen down
G1 X38.170 Y119.750 F1000
G1 X38.170 Y119.750 F1000
G1 X22.830 Y140.400 F1000
G1 X22.830 Y140.400 F1000
G1 X38.170 Y119.750 F1000
G0 Z3.0 ; Pen up

G0 X38.465 Y119.750 F3000 ; Travel to line 524
G0 Z0.0 ; Pen down
G1 X23.125 Y140.400 F1000
G0 Z3.0 ; Pen up

G0 X23.420 Y140.400 F3000 ; Travel to line 525
G0 Z0.0 ; Pen down
G1 X38.760 Y119.750 F1000
G1 X38.760 Y119.750 F1000
G1 X23.420 Y140.400 F1000
G0 Z3.0 ; Pen up

G0 X22.240 Y140.400 F3000 ; Travel to line 526
G0 Z0.0 ; Pen down
G1 X37.580 Y119.750 F1000
G1 X37.580 Y119.750 F1000
G1 X22.240 Y140.400 F1000
G0 Z3.0 ; Pen up

G0 X18.995 Y140.400 F3000 ; Travel to line 527
G0 Z0.0 ; Pen down
G1 X34.040 Y119.750 F1000
G1 X34.040 Y119.750 F1000
G1 X18.995 Y140.400 F1000
G0 Z3.0 ; Pen up

G0 X16.635 Y140.400 F3000 ; Travel to line 528
G0 Z0.0 ; Pen down
G1 X31.680 Y119.750 F1000
G1 X31.680 Y119.750 F1000
G1 X16.635 Y140.400 F1000
G0 Z3.0 ; Pen up

G0 X15.750 Y139.515 F3000 ; Travel to line 529
G0 Z0.0 ; Pen down
G1 X30.205 Y119.750 F1000
G1 X30.205 Y119.750 F1000
G1 X15.750 Y139.515 F1000
G0 Z3.0 ; Pen up

G0 X15.750 Y138.630 F3000 ; Travel to line 530
G0 Z0.0 ; Pen down
G1 X29.320 Y119.750 F1000
G1 X29.320 Y119.750 F1000
G1 X15.750 Y138.630 F1000
G0 Z3.0 ; Pen up

G0 X15.750 Y137.450 F3000 ; Travel to line 531
G0 Z0.0 ; Pen down
G1 X28.435 Y119.750 F1000
G1 X28.435 Y119.750 F1000
G1 X15.750 Y137.450 F1000
G0 Z3.0 ; Pen up

G0 X15.750 Y137.155 F3000 ; Travel to line 532
G0 Z0.0 ; Pen down
G1 X28.140 Y119.750 F1000
G1 X28.140 Y119.750 F1000
G1 X15.750 Y136.860 F1000
G0 Z3.0 ; Pen up

G0 X15.750 Y136.565 F3000 ; Travel to line 533
G0 Z0.0 ; Pen down
G1 X27.845 Y119.750 F1000
G1 X27.845 Y119.750 F1000
G1 X15.750 Y136.565 F1000
G0 Z3.0 ; Pen up

G0 X15.750 Y134.205 F3000 ; Travel to line 534
G0 Z0.0 ; Pen down
G1 X26.075 Y119.750 F1000
G1 X26.075 Y119.750 F1000
G1 X15.750 Y134.205 F1000
G0 Z3.0 ; Pen up

G0 X15.750 Y131.845 F3000 ; Travel to line 535
G0 Z0.0 ; Pen down
G1 X24.305 Y119.750 F1000
G0 Z3.0 ; Pen up

G0 X21.650 Y119.750 F3000 ; Travel to line 536
G0 Z0.0 ; Pen down
G1 X15.750 Y128.010 F1000
G0 Z3.0 ; Pen up

G0 X15.750 Y127.715 F3000 ; Travel to line 537
G0 Z0.0 ; Pen down
G1 X21.355 Y119.750 F1000
G0 Z3.0 ; Pen up

G0 X20.765 Y119.750 F3000 ; Travel to line 538
G0 Z0.0 ; Pen down
G1 X15.750 Y126.830 F1000
G1 X15.750 Y126.830 F1000
G1 X20.765 Y119.750 F1000
G1 X20.765 Y119.750 F1000
G1 X15.750 Y127.125 F1000
G0 Z3.0 ; Pen up

G0 X15.750 Y127.420 F3000 ; Travel to line 539
G0 Z0.0 ; Pen down
G1 X21.060 Y119.750 F1000
G1 X21.060 Y119.750 F1000
G1 X15.750 Y127.420 F1000
G0 Z3.0 ; Pen up

G0 X15.750 Y126.535 F3000 ; Travel to line 540
G0 Z0.0 ; Pen down
G1 X20.470 Y119.750 F1000
G0 Z3.0 ; Pen up

G0 X20.175 Y119.750 F3000 ; Travel to line 541
G0 Z0.0 ; Pen down
G1 X15.750 Y126.240 F1000
G0 Z3.0 ; Pen up

G0 X15.750 Y125.945 F3000 ; Travel to line 542
G0 Z0.0 ; Pen down
G1 X19.880 Y119.750 F1000
G1 X19.880 Y119.750 F1000
G1 X15.750 Y125.945 F1000
G0 Z3.0 ; Pen up

G0 X15.750 Y125.650 F3000 ; Travel to line 543
G0 Z0.0 ; Pen down
G1 X19.585 Y119.750 F1000
G1 X19.585 Y119.750 F1000
G1 X15.750 Y125.060 F1000
G1 X15.750 Y125.060 F1000
G1 X19.585 Y119.750 F1000
G0 Z3.0 ; Pen up

G0 X19.290 Y119.750 F3000 ; Travel to line 544
G0 Z0.0 ; Pen down
G1 X15.750 Y124.765 F1000
G0 Z3.0 ; Pen up

G0 X15.750 Y124.470 F3000 ; Travel to line 545
G0 Z0.0 ; Pen down
G1 X18.995 Y119.750 F1000
G1 X18.995 Y119.750 F1000
G1 X15.750 Y124.470 F1000
G0 Z3.0 ; Pen up

G0 X15.750 Y124.175 F3000 ; Travel to line 546
G0 Z0.0 ; Pen down
G1 X18.700 Y119.750 F1000
G1 X18.700 Y119.750 F1000
G1 X15.750 Y123.880 F1000
G0 Z3.0 ; Pen up

G0 X15.750 Y123.585 F3000 ; Travel to line 547
G0 Z0.0 ; Pen down
G1 X18.405 Y119.750 F1000
G1 X18.405 Y119.750 F1000
G1 X15.750 Y123.585 F1000
G0 Z3.0 ; Pen up

G0 X15.750 Y123.290 F3000 ; Travel to line 548
G0 Z0.0 ; Pen down
G1 X18.110 Y119.750 F1000
G0 Z3.0 ; Pen up

G0 X17.815 Y119.750 F3000 ; Travel to line 549
G0 Z0.0 ; Pen down
G1 X15.750 Y122.700 F1000
G0 Z3.0 ; Pen up

G0 X15.750 Y122.405 F3000 ; Travel to line 550
G0 Z0.0 ; Pen down
G1 X17.520 Y119.750 F1000
G0 Z3.0 ; Pen up

G0 X16.930 Y119.750 F3000 ; Travel to line 551
G0 Z0.0 ; Pen down
G1 X15.750 Y121.520 F1000
G1 X15.750 Y121.520 F1000
G1 X16.930 Y119.750 F1000
G1 X16.930 Y119.750 F1000
G1 X15.750 Y121.815 F1000
G0 Z3.0 ; Pen up

G0 X15.750 Y122.110 F3000 ; Travel to line 552
G0 Z0.0 ; Pen down
G1 X17.225 Y119.750 F1000
G1 X17.225 Y119.750 F1000
G1 X15.750 Y122.110 F1000
G0 Z3.0 ; Pen up

G0 X15.750 Y122.995 F3000 ; Travel to line 553
G0 Z0.0 ; Pen down
G1 X17.815 Y119.750 F1000
G1 X17.815 Y119.750 F1000
G1 X15.750 Y122.995 F1000
G0 Z3.0 ; Pen up

G0 X15.750 Y121.225 F3000 ; Travel to line 554
G0 Z0.0 ; Pen down
G1 X16.635 Y119.750 F1000
G0 Z3.0 ; Pen up

G0 X15.750 Y120.045 F3000 ; Travel to line 555
G0 Z0.0 ; Pen down
G1 X16.045 Y119.750 F1000
G1 X16.045 Y119.750 F1000
G1 X15.750 Y120.340 F1000
G0 Z3.0 ; Pen up

G0 X15.750 Y120.635 F3000 ; Travel to line 556
G0 Z0.0 ; Pen down
G1 X16.340 Y119.750 F1000
G1 X16.340 Y119.750 F1000
G1 X15.750 Y120.635 F1000
G0 Z3.0 ; Pen up

G0 X15.750 Y128.305 F3000 ; Travel to line 557
G0 Z0.0 ; Pen down
G1 X21.650 Y119.750 F1000
G1 X21.650 Y119.750 F1000
G1 X15.750 Y128.305 F1000
G0 Z3.0 ; Pen up

G0 X15.750 Y128.895 F3000 ; Travel to line 558
G0 Z0.0 ; Pen down
G1 X22.240 Y119.750 F1000
G1 X22.240 Y119.750 F1000
G1 X15.750 Y128.895 F1000
G0 Z3.0 ; Pen up

G0 X15.750 Y129.190 F3000 ; Travel to line 559
G0 Z0.0 ; Pen down
G1 X22.535 Y119.750 F1000
G1 X22.535 Y119.750 F1000
G1 X15.750 Y129.485 F1000
G0 Z3.0 ; Pen up

G0 X15.750 Y129.780 F3000 ; Travel to line 560
G0 Z0.0 ; Pen down
G1 X22.830 Y119.750 F1000
G1 X22.830 Y119.750 F1000
G1 X15.750 Y129.780 F1000
G0 Z3.0 ; Pen up

G0 X15.750 Y131.255 F3000 ; Travel to line 561
G0 Z0.0 ; Pen down
G1 X23.715 Y119.750 F1000
G1 X23.715 Y119.750 F1000
G1 X15.750 Y131.255 F1000
G0 Z3.0 ; Pen up

G0 X27.845 Y140.400 F3000 ; Travel to line 562
G0 Z0.0 ; Pen down
G1 X43.480 Y119.750 F1000
G1 X43.480 Y119.750 F1000
G1 X27.845 Y140.400 F1000
G0 Z3.0 ; Pen up

G0 X36.105 Y140.400 F3000 ; Travel to line 563
G0 Z0.0 ; Pen down
G1 X52.035 Y119.750 F1000
G1 X52.035 Y119.750 F1000
G1 X36.105 Y140.400 F1000
G0 Z3.0 ; Pen up

G0 X41.120 Y140.400 F3000 ; Travel to line 564
G0 Z0.0 ; Pen down
G1 X57.050 Y119.750 F1000
G1 X57.050 Y119.750 F1000
G1 X41.120 Y140.400 F1000
G0 Z3.0 ; Pen up

G0 X44.660 Y140.400 F3000 ; Travel to line 565
G0 Z0.0 ; Pen down
G1 X61.475 Y119.750 F1000
G1 X61.475 Y119.750 F1000
G1 X44.660 Y140.400 F1000
G1 X44.660 Y140.400 F1000
G1 X61.770 Y119.750 F1000
G1 X61.770 Y119.750 F1000
G1 X44.955 Y140.400 F1000
G1 X44.955 Y140.400 F1000
G1 X62.065 Y119.750 F1000
G1 X62.065 Y119.750 F1000
G1 X44.955 Y140.400 F1000
G0 Z3.0 ; Pen up

G0 X44.955 Y158.100 F3000 ; Travel to line 566
G0 Z0.0 ; Pen down
G1 X19.290 Y178.750 F1000
G1 X19.290 Y178.750 F1000
G1 X45.250 Y158.100 F1000
G0 Z3.0 ; Pen up

G0 X45.545 Y158.100 F3000 ; Travel to line 567
G0 Z0.0 ; Pen down
G1 X19.585 Y178.750 F1000
G1 X19.585 Y178.750 F1000
G1 X45.545 Y158.100 F1000
G1 X45.545 Y158.100 F1000
G1 X19.585 Y178.750 F1000
G1 X19.585 Y178.750 F1000
G1 X46.135 Y158.100 F1000
G1 X46.135 Y158.100 F1000
G1 X19.880 Y178.750 F1000
G1 X19.880 Y178.750 F1000
G1 X46.430 Y158.100 F1000
G1 X46.430 Y158.100 F1000
G1 X19.880 Y178.750 F1000
G1 X19.880 Y178.750 F1000
G1 X46.725 Y158.100 F1000
G1 X46.725 Y158.100 F1000
G1 X19.880 Y178.750 F1000
G0 Z3.0 ; Pen up

G0 X20.175 Y178.750 F3000 ; Travel to line 568
G0 Z0.0 ; Pen down
G1 X47.315 Y158.100 F1000
G1 X47.315 Y158.100 F1000
G1 X20.175 Y178.750 F1000
G1 X20.175 Y178.750 F1000
G1 X47.020 Y158.100 F1000
G1 X47.020 Y158.100 F1000
G1 X20.175 Y178.750 F1000
G1 X20.175 Y178.750 F1000
G1 X47.315 Y158.100 F1000
G0 Z3.0 ; Pen up

G0 X47.610 Y158.100 F3000 ; Travel to line 569
G0 Z0.0 ; Pen down
G1 X20.470 Y178.750 F1000
G1 X20.470 Y178.750 F1000
G1 X47.905 Y158.100 F1000
G1 X47.905 Y158.100 F1000
G1 X20.470 Y178.750 F1000
G0 Z3.0 ; Pen up

G0 X20.765 Y178.750 F3000 ; Travel to line 570
G0 Z0.0 ; Pen down
G1 X48.495 Y158.100 F1000
G1 X48.495 Y158.100 F1000
G1 X20.765 Y178.750 F1000
G1 X20.765 Y178.750 F1000
G1 X48.495 Y158.100 F1000
G0 Z3.0 ; Pen up

G0 X48.790 Y158.100 F3000 ; Travel to line 571
G0 Z0.0 ; Pen down
G1 X20.765 Y178.750 F1000
G1 X20.765 Y178.750 F1000
G1 X49.085 Y158.100 F1000
G1 X49.085 Y158.100 F1000
G1 X21.060 Y178.750 F1000
G1 X21.060 Y178.750 F1000
G1 X49.380 Y158.100 F1000
G0 Z3.0 ; Pen up

G0 X49.675 Y158.100 F3000 ; Travel to line 572
G0 Z0.0 ; Pen down
G1 X21.355 Y178.750 F1000
G1 X21.355 Y178.750 F1000
G1 X49.970 Y158.100 F1000
G1 X49.970 Y158.100 F1000
G1 X21.355 Y178.750 F1000
G0 Z3.0 ; Pen up

G0 X21.650 Y178.750 F3000 ; Travel to line 573
G0 Z0.0 ; Pen down
G1 X50.855 Y158.100 F1000
G1 X50.855 Y158.100 F1000
G1 X21.650 Y178.750 F1000
G1 X21.650 Y178.750 F1000
G1 X50.560 Y158.100 F1000
G1 X50.560 Y158.100 F1000
G1 X21.650 Y178.750 F1000
G1 X21.650 Y178.750 F1000
G1 X50.855 Y158.100 F1000
G0 Z3.0 ; Pen up

G0 X51.150 Y158.100 F3000 ; Travel to line 574
G0 Z0.0 ; Pen down
G1 X21.945 Y178.750 F1000
G1 X21.945 Y178.750 F1000
G1 X51.445 Y158.100 F1000
G1 X51.445 Y158.100 F1000
G1 X21.945 Y178.750 F1000
G1 X21.945 Y178.750 F1000
G1 X51.740 Y158.100 F1000
G1 X51.740 Y158.100 F1000
G1 X22.240 Y178.750 F1000
G1 X22.240 Y178.750 F1000
G1 X52.035 Y158.100 F1000
G1 X52.035 Y158.100 F1000
G1 X22.240 Y178.750 F1000
G1 X22.240 Y178.750 F1000
G1 X52.330 Y158.100 F1000
G0 Z3.0 ; Pen up

G0 X53.510 Y158.100 F3000 ; Travel to line 575
G0 Z0.0 ; Pen down
G1 X22.830 Y178.750 F1000
G1 X22.830 Y178.750 F1000
G1 X53.805 Y158.100 F1000
G0 Z3.0 ; Pen up

G0 X54.100 Y158.100 F3000 ; Travel to line 576
G0 Z0.0 ; Pen down
G1 X23.125 Y178.750 F1000
G1 X23.125 Y178.750 F1000
G1 X54.395 Y158.100 F1000
G1 X54.395 Y158.100 F1000
G1 X23.125 Y178.750 F1000
G1 X23.125 Y178.750 F1000
G1 X54.690 Y158.100 F1000
G0 Z3.0 ; Pen up

G0 X54.985 Y158.100 F3000 ; Travel to line 577
G0 Z0.0 ; Pen down
G1 X23.420 Y178.750 F1000
G1 X23.420 Y178.750 F1000
G1 X55.280 Y158.100 F1000
G0 Z3.0 ; Pen up

G0 X55.870 Y158.100 F3000 ; Travel to line 578
G0 Z0.0 ; Pen down
G1 X23.715 Y178.750 F1000
G1 X23.715 Y178.750 F1000
G1 X55.575 Y158.100 F1000
G1 X55.575 Y158.100 F1000
G1 X23.715 Y178.750 F1000
G1 X23.715 Y178.750 F1000
G1 X56.165 Y158.100 F1000
G1 X56.165 Y158.100 F1000
G1 X23.715 Y178.750 F1000
G0 Z3.0 ; Pen up

G0 X24.010 Y178.750 F3000 ; Travel to line 579
G0 Z0.0 ; Pen down
G1 X56.460 Y158.100 F1000
G1 X56.460 Y158.100 F1000
G1 X24.010 Y178.750 F1000
G0 Z3.0 ; Pen up

G0 X24.305 Y178.750 F3000 ; Travel to line 580
G0 Z0.0 ; Pen down
G1 X57.345 Y158.100 F1000
G1 X57.345 Y158.100 F1000
G1 X24.305 Y178.750 F1000
G1 X24.305 Y178.750 F1000
G1 X57.050 Y158.100 F1000
G0 Z3.0 ; Pen up

G0 X56.755 Y158.100 F3000 ; Travel to line 581
G0 Z0.0 ; Pen down
G1 X24.010 Y178.750 F1000
G1 X24.010 Y178.750 F1000
G1 X56.460 Y158.100 F1000
G0 Z3.0 ; Pen up

G0 X57.640 Y158.100 F3000 ; Travel to line 582
G0 Z0.0 ; Pen down
G1 X24.600 Y178.750 F1000
G1 X24.600 Y178.750 F1000
G1 X57.935 Y158.100 F1000
G1 X57.935 Y158.100 F1000
G1 X24.600 Y178.750 F1000
G1 X24.600 Y178.750 F1000
G1 X58.230 Y158.100 F1000
G0 Z3.0 ; Pen up

G0 X58.525 Y158.100 F3000 ; Travel to line 583
G0 Z0.0 ; Pen down
G1 X24.895 Y178.750 F1000
G1 X24.895 Y178.750 F1000
G1 X58.820 Y158.100 F1000
G0 Z3.0 ; Pen up

G0 X59.410 Y158.100 F3000 ; Travel to line 584
G0 Z0.0 ; Pen down
G1 X25.190 Y178.750 F1000
G1 X25.190 Y178.750 F1000
G1 X59.705 Y158.100 F1000
G0 Z3.0 ; Pen up

G0 X60.590 Y158.100 F3000 ; Travel to line 585
G0 Z0.0 ; Pen down
G1 X25.780 Y178.750 F1000
G1 X25.780 Y178.750 F1000
G1 X60.885 Y158.100 F1000
G0 Z3.0 ; Pen up

G0 X61.180 Y158.100 F3000 ; Travel to line 586
G0 Z0.0 ; Pen down
G1 X26.075 Y178.750 F1000
G1 X26.075 Y178.750 F1000
G1 X61.475 Y158.100 F1000
G0 Z3.0 ; Pen up

G0 X62.065 Y158.100 F3000 ; Travel to line 587
G0 Z0.0 ; Pen down
G1 X26.370 Y178.750 F1000
G1 X26.370 Y178.750 F1000
G1 X62.360 Y158.100 F1000
G1 X62.360 Y158.100 F1000
G1 X26.370 Y178.750 F1000
G0 Z3.0 ; Pen up

G0 X26.075 Y178.750 F3000 ; Travel to line 588
G0 Z0.0 ; Pen down
G1 X61.770 Y158.100 F1000
G1 X61.770 Y158.100 F1000
G1 X26.075 Y178.750 F1000
G0 Z3.0 ; Pen up

G0 X25.780 Y178.750 F3000 ; Travel to line 589
G0 Z0.0 ; Pen down
G1 X61.180 Y158.100 F1000
G1 X61.180 Y158.100 F1000
G1 X25.780 Y178.750 F1000
G0 Z3.0 ; Pen up

G0 X25.485 Y178.750 F3000 ; Travel to line 590
G0 Z0.0 ; Pen down
G1 X60.295 Y158.100 F1000
G1 X60.295 Y158.100 F1000
G1 X25.485 Y178.750 F1000
G1 X25.485 Y178.750 F1000
G1 X60.000 Y158.100 F1000
G1 X60.000 Y158.100 F1000
G1 X25.485 Y178.750 F1000
G0 Z3.0 ; Pen up

G0 X25.190 Y178.750 F3000 ; Travel to line 591
G0 Z0.0 ; Pen down
G1 X59.115 Y158.100 F1000
G1 X59.115 Y158.100 F1000
G1 X25.190 Y178.750 F1000
G0 Z3.0 ; Pen up

G0 X24.895 Y178.750 F3000 ; Travel to line 592
G0 Z0.0 ; Pen down
G1 X58.525 Y158.100 F1000
G1 X58.525 Y158.100 F1000
G1 X24.895 Y178.750 F1000
G0 Z3.0 ; Pen up

G0 X24.600 Y178.750 F3000 ; Travel to line 593
G0 Z0.0 ; Pen down
G1 X15.750 Y178.750 F1000
G1 X15.750 Y178.750 F1000
G1 X36.105 Y158.100 F1000
G0 Z3.0 ; Pen up

G0 X35.810 Y158.100 F3000 ; Travel to line 594
G0 Z0.0 ; Pen down
G1 X15.750 Y178.455 F1000
G1 X15.750 Y178.455 F1000
G1 X35.515 Y158.100 F1000
G1 X35.515 Y158.100 F1000
G1 X15.750 Y178.455 F1000
G1 X15.750 Y178.455 F1000
G1 X35.220 Y158.100 F1000
G0 Z3.0 ; Pen up

G0 X34.630 Y158.100 F3000 ; Travel to line 595
G0 Z0.0 ; Pen down
G1 X15.750 Y177.865 F1000
G1 X15.750 Y177.865 F1000
G1 X34.335 Y158.100 F1000
G0 Z3.0 ; Pen up

G0 X34.040 Y158.100 F3000 ; Travel to line 596
G0 Z0.0 ; Pen down
G1 X15.750 Y177.570 F1000
G1 X15.750 Y177.570 F1000
G1 X33.745 Y158.100 F1000
G0 Z3.0 ; Pen up

G0 X33.155 Y158.100 F3000 ; Travel to line 597
G0 Z0.0 ; Pen down
G1 X15.750 Y177.275 F1000
G1 X15.750 Y177.275 F1000
G1 X32.860 Y158.100 F1000
G0 Z3.0 ; Pen up

G0 X32.270 Y158.100 F3000 ; Travel to line 598
G0 Z0.0 ; Pen down
G1 X15.750 Y176.685 F1000
G1 X15.750 Y176.685 F1000
G1 X31.975 Y158.100 F1000
G0 Z3.0 ; Pen up

G0 X31.680 Y158.100 F3000 ; Travel to line 599
G0 Z0.0 ; Pen down
G1 X15.750 Y176.390 F1000
G1 X15.750 Y176.390 F1000
G1 X31.385 Y158.100 F1000
G0 Z3.0 ; Pen up

G0 X30.795 Y158.100 F3000 ; Travel to line 600
G0 Z0.0 ; Pen down
G1 X15.750 Y176.095 F1000
G1 X15.750 Y176.095 F1000
G1 X30.795 Y158.100 F1000
G1 X30.795 Y158.100 F1000
G1 X15.750 Y176.095 F1000
G1 X15.750 Y176.095 F1000
G1 X31.090 Y158.100 F1000
G1 X31.090 Y158.100 F1000
G1 X15.750 Y176.095 F1000
G1 X15.750 Y176.095 F1000
G1 X31.090 Y158.100 F1000
G1 X31.090 Y158.100 F1000
G1 X15.750 Y176.390 F1000
G1 X15.750 Y176.390 F1000
G1 X31.385 Y158.100 F1000
G1 X31.385 Y158.100 F1000
G1 X15.750 Y176.390 F1000
G1 X15.750 Y176.390 F1000
G1 X31.680 Y158.100 F1000
G1 X31.680 Y158.100 F1000
G1 X15.750 Y176.685 F1000
G1 X15.750 Y176.685 F1000
G1 X31.975 Y158.100 F1000
G1 X31.975 Y158.100 F1000
G1 X15.750 Y176.685 F1000
G1 X15.750 Y176.685 F1000
G1 X32.270 Y158.100 F1000
G1 X32.270 Y158.100 F1000
G1 X15.750 Y176.980 F1000
G1 X15.750 Y176.980 F1000
G1 X32.565 Y158.100 F1000
G1 X32.565 Y158.100 F1000
G1 X15.750 Y176.980 F1000
G1 X15.750 Y176.980 F1000
G1 X32.565 Y158.100 F1000
G1 X32.565 Y158.100 F1000
G1 X15.750 Y176.980 F1000
G1 X15.750 Y176.980 F1000
G1 X32.860 Y158.100 F1000
G1 X32.860 Y158.100 F1000
G1 X15.750 Y177.275 F1000
G1 X15.750 Y177.275 F1000
G1 X33.155 Y158.100 F1000
G1 X33.155 Y158.100 F1000
G1 X15.750 Y177.275 F1000
G1 X15.750 Y177.275 F1000
G1 X33.450 Y158.100 F1000
G1 X33.450 Y158.100 F1000
G1 X15.750 Y177.570 F1000
G1 X15.750 Y177.570 F1000
G1 X33.745 Y158.100 F1000
G1 X33.745 Y158.100 F1000
G1 X15.750 Y177.570 F1000
G1 X15.750 Y177.570 F1000
G1 X34.040 Y158.100 F1000
G1 X34.040 Y158.100 F1000
G1 X15.750 Y177.865 F1000
G1 X15.750 Y177.865 F1000
G1 X34.335 Y158.100 F1000
G1 X34.335 Y158.100 F1000
G1 X15.750 Y177.865 F1000
G1 X15.750 Y177.865 F1000
G1 X34.630 Y158.100 F1000
G1 X34.630 Y158.100 F1000
G1 X15.750 Y178.160 F1000
G1 X15.750 Y178.160 F1000
G1 X34.925 Y158.100 F1000
G1 X34.925 Y158.100 F1000
G1 X15.750 Y178.160 F1000
G1 X15.750 Y178.160 F1000
G1 X34.925 Y158.100 F1000
G1 X34.925 Y158.100 F1000
G1 X15.750 Y178.160 F1000
G1 X15.750 Y178.160 F1000
G1 X35.220 Y158.100 F1000
G1 X35.220 Y158.100 F1000
G1 X15.750 Y178.455 F1000
G1 X15.750 Y178.455 F1000
G1 X35.810 Y158.100 F1000
G1 X35.810 Y158.100 F1000
G1 X15.750 Y178.455 F1000
G0 Z3.0 ; Pen up

G0 X15.750 Y178.750 F3000 ; Travel to line 601
G0 Z0.0 ; Pen down
G1 X36.695 Y158.100 F1000
G1 X36.695 Y158.100 F1000
G1 X15.750 Y178.750 F1000
G1 X15.750 Y178.750 F1000
G1 X36.400 Y158.100 F1000
G1 X36.400 Y158.100 F1000
G1 X15.750 Y178.750 F1000
G1 X15.750 Y178.750 F1000
G1 X36.105 Y158.100 F1000
G1 X36.105 Y158.100 F1000
G1 X15.750 Y178.750 F1000
G1 X15.750 Y178.750 F1000
G1 X15.750 Y169.900 F1000
G1 X15.750 Y169.900 F1000
G1 X23.125 Y158.100 F1000
G1 X23.125 Y158.100 F1000
G1 X15.750 Y169.900 F1000
G1 X15.750 Y169.900 F1000
G1 X22.830 Y158.100 F1000
G1 X22.830 Y158.100 F1000
G1 X15.750 Y169.605 F1000
G1 X15.750 Y169.605 F1000
G1 X22.535 Y158.100 F1000
G1 X22.535 Y158.100 F1000
G1 X15.750 Y169.310 F1000
G1 X15.750 Y169.310 F1000
G1 X22.535 Y158.100 F1000
G1 X22.535 Y158.100 F1000
G1 X15.750 Y169.310 F1000
G1 X15.750 Y169.310 F1000
G1 X22.240 Y158.100 F1000
G1 X22.240 Y158.100 F1000
G1 X15.750 Y169.015 F1000
G1 X15.750 Y169.015 F1000
G1 X22.240 Y158.100 F1000
G1 X22.240 Y158.100 F1000
G1 X15.750 Y169.015 F1000
G0 Z3.0 ; Pen up

G0 X15.750 Y168.720 F3000 ; Travel to line 602
G0 Z0.0 ; Pen down
G1 X21.945 Y158.100 F1000
G1 X21.945 Y158.100 F1000
G1 X15.750 Y168.720 F1000
G0 Z3.0 ; Pen up

G0 X15.750 Y168.425 F3000 ; Travel to line 603
G0 Z0.0 ; Pen down
G1 X21.650 Y158.100 F1000
G1 X21.650 Y158.100 F1000
G1 X15.750 Y168.425 F1000
G0 Z3.0 ; Pen up

G0 X15.750 Y168.130 F3000 ; Travel to line 604
G0 Z0.0 ; Pen down
G1 X21.650 Y158.100 F1000
G1 X21.650 Y158.100 F1000
G1 X15.750 Y168.130 F1000
G1 X15.750 Y168.130 F1000
G1 X21.355 Y158.100 F1000
G1 X21.355 Y158.100 F1000
G1 X15.750 Y167.835 F1000
G1 X15.750 Y167.835 F1000
G1 X21.355 Y158.100 F1000
G1 X21.355 Y158.100 F1000
G1 X15.750 Y167.835 F1000
G1 X15.750 Y167.835 F1000
G1 X21.060 Y158.100 F1000
G1 X21.060 Y158.100 F1000
G1 X15.750 Y167.540 F1000
G1 X15.750 Y167.540 F1000
G1 X21.060 Y158.100 F1000
G1 X21.060 Y158.100 F1000
G1 X15.750 Y167.540 F1000
G1 X15.750 Y167.540 F1000
G1 X21.060 Y158.100 F1000
G1 X21.060 Y158.100 F1000
G1 X15.750 Y167.540 F1000
G1 X15.750 Y167.540 F1000
G1 X21.060 Y158.100 F1000
G0 Z3.0 ; Pen up

G0 X20.765 Y158.100 F3000 ; Travel to line 605
G0 Z0.0 ; Pen down
G1 X15.750 Y166.950 F1000
G1 X15.750 Y166.950 F1000
G1 X15.750 Y158.100 F1000
G0 Z3.0 ; Pen up

G0 X15.750 Y158.395 F3000 ; Travel to line 606
G0 Z0.0 ; Pen down
G1 X15.750 Y158.100 F1000
G1 X15.750 Y158.100 F1000
G1 X24.600 Y158.100 F1000
G0 Z3.0 ; Pen up

G0 X25.190 Y158.100 F3000 ; Travel to line 607
G0 Z0.0 ; Pen down
G1 X15.750 Y171.965 F1000
G1 X15.750 Y171.965 F1000
G1 X24.895 Y158.100 F1000
G1 X24.895 Y158.100 F1000
G1 X15.750 Y171.670 F1000
G1 X15.750 Y171.670 F1000
G1 X24.600 Y158.100 F1000
G1 X24.600 Y158.100 F1000
G1 X15.750 Y171.375 F1000
G1 X15.750 Y171.375 F1000
G1 X24.305 Y158.100 F1000
G1 X24.305 Y158.100 F1000
G1 X15.750 Y171.080 F1000
G1 X15.750 Y171.080 F1000
G1 X24.010 Y158.100 F1000
G0 Z3.0 ; Pen up

G0 X23.420 Y158.100 F3000 ; Travel to line 608
G0 Z0.0 ; Pen down
G1 X15.750 Y170.195 F1000
G1 X15.750 Y170.195 F1000
G1 X23.125 Y158.100 F1000
G1 X23.125 Y158.100 F1000
G1 X15.750 Y169.900 F1000
G1 X15.750 Y169.900 F1000
G1 X22.830 Y158.100 F1000
G1 X22.830 Y158.100 F1000
G1 X15.750 Y169.605 F1000
G1 X15.750 Y169.605 F1000
G1 X22.535 Y158.100 F1000
G0 Z3.0 ; Pen up

G0 X22.240 Y158.100 F3000 ; Travel to line 609
G0 Z0.0 ; Pen down
G1 X15.750 Y168.720 F1000
G1 X15.750 Y168.720 F1000
G1 X21.945 Y158.100 F1000
G1 X21.945 Y158.100 F1000
G1 X15.750 Y168.425 F1000
G1 X15.750 Y168.425 F1000
G1 X21.650 Y158.100 F1000
G0 Z3.0 ; Pen up

G0 X20.470 Y158.100 F3000 ; Travel to line 610
G0 Z0.0 ; Pen down
G1 X15.750 Y166.655 F1000
G0 Z3.0 ; Pen up

G0 X15.750 Y166.950 F3000 ; Travel to line 611
G0 Z0.0 ; Pen down
G1 X20.765 Y158.100 F1000
G1 X20.765 Y158.100 F1000
G1 X15.750 Y167.245 F1000
G0 Z3.0 ; Pen up

G0 X15.750 Y166.360 F3000 ; Travel to line 612
G0 Z0.0 ; Pen down
G1 X20.175 Y158.100 F1000
G1 X20.175 Y158.100 F1000
G1 X15.750 Y166.360 F1000
G0 Z3.0 ; Pen up

G0 X15.750 Y166.065 F3000 ; Travel to line 613
G0 Z0.0 ; Pen down
G1 X20.175 Y158.100 F1000
G0 Z3.0 ; Pen up

G0 X19.880 Y158.100 F3000 ; Travel to line 614
G0 Z0.0 ; Pen down
G1 X15.750 Y165.770 F1000
G0 Z3.0 ; Pen up

G0 X15.750 Y165.475 F3000 ; Travel to line 615
G0 Z0.0 ; Pen down
G1 X19.585 Y158.100 F1000
G1 X19.585 Y158.100 F1000
G1 X15.750 Y165.475 F1000
G0 Z3.0 ; Pen up

G0 X15.750 Y164.885 F3000 ; Travel to line 616
G0 Z0.0 ; Pen down
G1 X19.585 Y158.100 F1000
G0 Z3.0 ; Pen up

G0 X19.290 Y158.100 F3000 ; Travel to line 617
G0 Z0.0 ; Pen down
G1 X15.750 Y164.295 F1000
G0 Z3.0 ; Pen up

G0 X15.750 Y164.000 F3000 ; Travel to line 618
G0 Z0.0 ; Pen down
G1 X18.995 Y158.100 F1000
G0 Z3.0 ; Pen up

G0 X18.700 Y158.100 F3000 ; Travel to line 619
G0 Z0.0 ; Pen down
G1 X15.750 Y163.410 F1000
G0 Z3.0 ; Pen up

G0 X15.750 Y163.705 F3000 ; Travel to line 620
G0 Z0.0 ; Pen down
G1 X18.700 Y158.100 F1000
G1 X18.700 Y158.100 F1000
G1 X15.750 Y163.705 F1000
G0 Z3.0 ; Pen up

G0 X15.750 Y163.115 F3000 ; Travel to line 621
G0 Z0.0 ; Pen down
G1 X18.405 Y158.100 F1000
G1 X18.405 Y158.100 F1000
G1 X15.750 Y163.115 F1000
G0 Z3.0 ; Pen up

G0 X15.750 Y162.820 F3000 ; Travel to line 622
G0 Z0.0 ; Pen down
G1 X18.110 Y158.100 F1000
G1 X18.110 Y158.100 F1000
G1 X15.750 Y162.230 F1000
G1 X15.750 Y162.230 F1000
G1 X18.110 Y158.100 F1000
G0 Z3.0 ; Pen up

G0 X17.815 Y158.100 F3000 ; Travel to line 623
G0 Z0.0 ; Pen down
G1 X15.750 Y161.935 F1000
G0 Z3.0 ; Pen up

G0 X15.750 Y161.640 F3000 ; Travel to line 624
G0 Z0.0 ; Pen down
G1 X17.520 Y158.100 F1000
G1 X17.520 Y158.100 F1000
G1 X15.750 Y161.345 F1000
G1 X15.750 Y161.345 F1000
G1 X17.520 Y158.100 F1000
G0 Z3.0 ; Pen up

G0 X17.225 Y158.100 F3000 ; Travel to line 625
G0 Z0.0 ; Pen down
G1 X15.750 Y160.755 F1000
G1 X15.750 Y160.755 F1000
G1 X17.225 Y158.100 F1000
G1 X17.225 Y158.100 F1000
G1 X15.750 Y161.050 F1000
G0 Z3.0 ; Pen up

G0 X15.750 Y160.460 F3000 ; Travel to line 626
G0 Z0.0 ; Pen down
G1 X16.930 Y158.100 F1000
G0 Z3.0 ; Pen up

G0 X16.635 Y158.100 F3000 ; Travel to line 627
G0 Z0.0 ; Pen down
G1 X15.750 Y159.575 F1000
G1 X15.750 Y159.575 F1000
G1 X16.635 Y158.100 F1000
G1 X16.635 Y158.100 F1000
G1 X15.750 Y160.165 F1000
G0 Z3.0 ; Pen up

G0 X15.750 Y159.280 F3000 ; Travel to line 628
G0 Z0.0 ; Pen down
G1 X16.340 Y158.100 F1000
G0 Z3.0 ; Pen up

G0 X16.045 Y158.100 F3000 ; Travel to line 629
G0 Z0.0 ; Pen down
G1 X15.750 Y158.690 F1000
G0 Z3.0 ; Pen up

G0 X15.750 Y158.985 F3000 ; Travel to line 630
G0 Z0.0 ; Pen down
G1 X16.045 Y158.100 F1000
G1 X16.045 Y158.100 F1000
G1 X15.750 Y158.985 F1000
G0 Z3.0 ; Pen up

G0 X15.750 Y164.590 F3000 ; Travel to line 631
G0 Z0.0 ; Pen down
G1 X19.290 Y158.100 F1000
G1 X19.290 Y158.100 F1000
G1 X15.750 Y164.590 F1000
G0 Z3.0 ; Pen up

G0 X15.750 Y170.195 F3000 ; Travel to line 632
G0 Z0.0 ; Pen down
G1 X23.420 Y158.100 F1000
G1 X23.420 Y158.100 F1000
G1 X15.750 Y170.490 F1000
G1 X15.750 Y170.490 F1000
G1 X23.715 Y158.100 F1000
G1 X23.715 Y158.100 F1000
G1 X15.750 Y170.490 F1000
G1 X15.750 Y170.490 F1000
G1 X23.715 Y158.100 F1000
G1 X23.715 Y158.100 F1000
G1 X15.750 Y170.785 F1000
G1 X15.750 Y170.785 F1000
G1 X24.010 Y158.100 F1000
G1 X24.010 Y158.100 F1000
G1 X15.750 Y170.785 F1000
G1 X15.750 Y170.785 F1000
G1 X24.010 Y158.100 F1000
G1 X24.010 Y158.100 F1000
G1 X15.750 Y171.080 F1000
G1 X15.750 Y171.080 F1000
G1 X24.305 Y158.100 F1000
G1 X24.305 Y158.100 F1000
G1 X15.750 Y171.375 F1000
G1 X15.750 Y171.375 F1000
G1 X24.600 Y158.100 F1000
G1 X24.600 Y158.100 F1000
G1 X15.750 Y171.375 F1000
G0 Z3.0 ; Pen up

G0 X15.750 Y171.670 F3000 ; Travel to line 633
G0 Z0.0 ; Pen down
G1 X24.895 Y158.100 F1000
G1 X24.895 Y158.100 F1000
G1 X15.750 Y171.670 F1000
G0 Z3.0 ; Pen up

G0 X15.750 Y171.965 F3000 ; Travel to line 634
G0 Z0.0 ; Pen down
G1 X25.190 Y158.100 F1000
G1 X25.190 Y158.100 F1000
G1 X15.750 Y171.965 F1000
G0 Z3.0 ; Pen up

G0 X15.750 Y172.260 F3000 ; Travel to line 635
G0 Z0.0 ; Pen down
G1 X25.780 Y158.100 F1000
G1 X25.780 Y158.100 F1000
G1 X15.750 Y172.260 F1000
G1 X15.750 Y172.260 F1000
G1 X25.485 Y158.100 F1000
G1 X25.485 Y158.100 F1000
G1 X15.750 Y172.260 F1000
G1 X15.750 Y172.260 F1000
G1 X25.485 Y158.100 F1000
G1 X25.485 Y158.100 F1000
G1 X15.750 Y172.260 F1000
G0 Z3.0 ; Pen up

G0 X15.750 Y172.555 F3000 ; Travel to line 636
G0 Z0.0 ; Pen down
G1 X26.075 Y158.100 F1000
G1 X26.075 Y158.100 F1000
G1 X15.750 Y172.555 F1000
G1 X15.750 Y172.555 F1000
G1 X25.780 Y158.100 F1000
G1 X25.780 Y158.100 F1000
G1 X15.750 Y172.555 F1000
G0 Z3.0 ; Pen up

G0 X15.750 Y172.850 F3000 ; Travel to line 637
G0 Z0.0 ; Pen down
G1 X26.075 Y158.100 F1000
G1 X26.075 Y158.100 F1000
G1 X15.750 Y172.850 F1000
G0 Z3.0 ; Pen up

G0 X15.750 Y173.145 F3000 ; Travel to line 638
G0 Z0.0 ; Pen down
G1 X26.665 Y158.100 F1000
G1 X26.665 Y158.100 F1000
G1 X15.750 Y173.145 F1000
G1 X15.750 Y173.145 F1000
G1 X26.665 Y158.100 F1000
G1 X26.665 Y158.100 F1000
G1 X15.750 Y173.145 F1000
G1 X15.750 Y173.145 F1000
G1 X26.370 Y158.100 F1000
G1 X26.370 Y158.100 F1000
G1 X15.750 Y173.145 F1000
G0 Z3.0 ; Pen up

G0 X15.750 Y173.440 F3000 ; Travel to line 639
G0 Z0.0 ; Pen down
G1 X26.960 Y158.100 F1000
G1 X26.960 Y158.100 F1000
G1 X15.750 Y173.440 F1000
G0 Z3.0 ; Pen up

G0 X15.750 Y173.735 F3000 ; Travel to line 640
G0 Z0.0 ; Pen down
G1 X27.255 Y158.100 F1000
G1 X27.255 Y158.100 F1000
G1 X15.750 Y173.735 F1000
G0 Z3.0 ; Pen up

G0 X15.750 Y174.030 F3000 ; Travel to line 641
G0 Z0.0 ; Pen down
G1 X27.845 Y158.100 F1000
G1 X27.845 Y158.100 F1000
G1 X15.750 Y174.030 F1000
G1 X15.750 Y174.030 F1000
G1 X27.550 Y158.100 F1000
G1 X27.550 Y158.100 F1000
G1 X15.750 Y174.030 F1000
G0 Z3.0 ; Pen up

G0 X15.750 Y174.325 F3000 ; Travel to line 642
G0 Z0.0 ; Pen down
G1 X28.140 Y158.100 F1000
G1 X28.140 Y158.100 F1000
G1 X15.750 Y174.325 F1000
G1 X15.750 Y174.325 F1000
G1 X28.140 Y158.100 F1000
G1 X28.140 Y158.100 F1000
G1 X15.750 Y174.325 F1000
G0 Z3.0 ; Pen up

