; Blueprint to G-code
; Input: test_images/test8_interlocking_gears.png
; Generated with blueprint2gcode.py

G21 ; Set units to millimeters
G90 ; Absolute positioning
G0 Z3.0 ; Pen up
G0 X0 Y0 ; Move to origin

G0 X19.410 Y37.153 F3000 ; Travel to line 1
G0 Z0.0 ; Pen down
G1 X19.513 Y37.050 F1000
G1 X56.387 Y37.050 F1000
G1 X56.490 Y37.153 F1000
G1 X56.490 Y38.080 F1000
G1 X56.490 Y36.947 F1000
G1 X56.387 Y37.050 F1000
G1 X19.513 Y37.050 F1000
G1 X19.410 Y36.947 F1000
G1 X19.410 Y36.020 F1000
G1 X19.410 Y38.080 F1000
G0 Z3.0 ; Pen up

G0 X32.903 Y38.080 F3000 ; Travel to line 2
G0 Z0.0 ; Pen down
G1 X32.903 Y37.771 F1000
G1 X33.006 Y37.668 F1000
G1 X33.418 Y38.080 F1000
G1 X33.418 Y38.183 F1000
G1 X33.315 Y38.286 F1000
G1 X33.109 Y38.286 F1000
G1 X33.109 Y38.286 F1000
G1 X32.903 Y38.080 F1000
G1 X32.903 Y37.668 F1000
G1 X33.109 Y37.462 F1000
G1 X33.418 Y37.462 F1000
G1 X33.521 Y37.565 F1000
G1 X33.521 Y38.183 F1000
G1 X33.624 Y38.286 F1000
G1 X33.521 Y38.183 F1000
G1 X33.418 Y38.286 F1000
G0 Z3.0 ; Pen up

G0 X33.418 Y38.080 F3000 ; Travel to line 3
G0 Z0.0 ; Pen down
G1 X33.521 Y37.977 F1000
G1 X33.521 Y37.668 F1000
G1 X33.315 Y37.462 F1000
G1 X33.109 Y37.462 F1000
G1 X33.006 Y37.565 F1000
G1 X33.109 Y37.668 F1000
G1 X33.109 Y37.771 F1000
G0 Z3.0 ; Pen up

G0 X33.933 Y38.286 F3000 ; Travel to line 4
G0 Z0.0 ; Pen down
G1 X33.830 Y38.183 F1000
G1 X33.933 Y38.286 F1000
G1 X34.139 Y38.286 F1000
G1 X34.242 Y38.183 F1000
G1 X34.242 Y37.977 F1000
G1 X34.139 Y37.874 F1000
G1 X33.933 Y37.874 F1000
G1 X34.139 Y37.874 F1000
G1 X34.242 Y37.771 F1000
G1 X34.242 Y37.565 F1000
G1 X34.139 Y37.462 F1000
G1 X33.933 Y37.462 F1000
G1 X33.830 Y37.565 F1000
G1 X33.933 Y37.462 F1000
G1 X34.139 Y37.462 F1000
G1 X34.242 Y37.565 F1000
G1 X34.242 Y37.771 F1000
G1 X34.139 Y37.874 F1000
G1 X34.242 Y37.977 F1000
G1 X34.242 Y38.183 F1000
G1 X34.139 Y38.286 F1000
G0 Z3.0 ; Pen up

G0 X34.860 Y38.286 F3000 ; Travel to line 5
G0 Z0.0 ; Pen down
G1 X34.654 Y38.080 F1000
G1 X34.654 Y37.565 F1000
G1 X34.757 Y37.462 F1000
G1 X35.066 Y37.462 F1000
G1 X35.169 Y37.565 F1000
G1 X35.169 Y37.874 F1000
G1 X35.066 Y37.977 F1000
G1 X34.860 Y37.977 F1000
G1 X34.757 Y37.874 F1000
G1 X34.654 Y37.977 F1000
G1 X34.654 Y38.080 F1000
G1 X34.860 Y38.286 F1000
G1 X35.066 Y38.286 F1000
G0 Z3.0 ; Pen up

G0 X34.860 Y37.977 F3000 ; Travel to line 6
G0 Z0.0 ; Pen down
G1 X34.963 Y37.977 F1000
G1 X35.169 Y37.771 F1000
G1 X35.169 Y37.668 F1000
G1 X34.963 Y37.462 F1000
G1 X34.860 Y37.462 F1000
G1 X34.654 Y37.668 F1000
G1 X34.654 Y37.771 F1000
G0 Z3.0 ; Pen up

G0 X35.478 Y38.080 F3000 ; Travel to line 7
G0 Z0.0 ; Pen down
G1 X35.478 Y37.668 F1000
G1 X35.684 Y37.462 F1000
G1 X35.787 Y37.462 F1000
G1 X35.890 Y37.565 F1000
G1 X35.890 Y37.668 F1000
G1 X35.993 Y37.771 F1000
G1 X35.993 Y37.977 F1000
G1 X35.890 Y38.080 F1000
G1 X35.890 Y38.183 F1000
G1 X35.787 Y38.286 F1000
G1 X35.684 Y38.286 F1000
G0 Z3.0 ; Pen up

G0 X35.581 Y38.286 F3000 ; Travel to line 8
G0 Z0.0 ; Pen down
G1 X35.478 Y38.183 F1000
G1 X35.478 Y37.565 F1000
G1 X35.581 Y37.462 F1000
G1 X35.787 Y37.462 F1000
G1 X35.993 Y37.668 F1000
G1 X35.993 Y38.080 F1000
G1 X35.787 Y38.286 F1000
G0 Z3.0 ; Pen up

G0 X36.302 Y38.080 F3000 ; Travel to line 9
G0 Z0.0 ; Pen down
G1 X36.199 Y37.977 F1000
G1 X36.199 Y37.462 F1000
G1 X36.199 Y37.977 F1000
G1 X36.302 Y38.080 F1000
G1 X36.508 Y38.080 F1000
G1 X36.611 Y37.977 F1000
G1 X36.611 Y37.462 F1000
G1 X36.611 Y37.874 F1000
G1 X36.817 Y38.080 F1000
G1 X36.920 Y38.080 F1000
G1 X37.126 Y37.874 F1000
G1 X37.126 Y37.462 F1000
G1 X37.126 Y37.874 F1000
G1 X37.023 Y37.977 F1000
G1 X37.023 Y38.080 F1000
G1 X36.817 Y38.080 F1000
G1 X36.714 Y37.977 F1000
G1 X36.611 Y38.080 F1000
G0 Z3.0 ; Pen up

G0 X37.538 Y38.080 F3000 ; Travel to line 10
G0 Z0.0 ; Pen down
G1 X37.435 Y37.977 F1000
G1 X37.435 Y37.462 F1000
G1 X37.435 Y37.977 F1000
G1 X37.538 Y38.080 F1000
G1 X37.744 Y38.080 F1000
G1 X37.847 Y37.977 F1000
G1 X37.847 Y37.462 F1000
G1 X37.847 Y37.874 F1000
G1 X38.053 Y38.080 F1000
G1 X38.156 Y38.080 F1000
G1 X38.362 Y37.874 F1000
G1 X38.362 Y37.462 F1000
G1 X38.362 Y37.874 F1000
G1 X38.259 Y37.977 F1000
G1 X38.259 Y38.080 F1000
G1 X38.053 Y38.080 F1000
G1 X37.950 Y37.977 F1000
G1 X37.847 Y38.080 F1000
G0 Z3.0 ; Pen up

G0 X35.684 Y39.419 F3000 ; Travel to line 11
G0 Z0.0 ; Pen down
G1 X35.787 Y39.419 F1000
G1 X35.993 Y39.213 F1000
G1 X35.787 Y39.007 F1000
G1 X35.684 Y39.007 F1000
G1 X35.478 Y39.213 F1000
G0 Z3.0 ; Pen up

G0 X35.478 Y39.625 F3000 ; Travel to line 12
G0 Z0.0 ; Pen down
G1 X35.684 Y39.419 F1000
G1 X35.787 Y39.419 F1000
G1 X35.890 Y39.522 F1000
G1 X35.890 Y39.728 F1000
G1 X35.787 Y39.831 F1000
G1 X35.684 Y39.831 F1000
G0 Z3.0 ; Pen up

G0 X35.581 Y39.831 F3000 ; Travel to line 13
G0 Z0.0 ; Pen down
G1 X35.478 Y39.728 F1000
G1 X35.478 Y39.522 F1000
G1 X35.581 Y39.419 F1000
G1 X35.478 Y39.316 F1000
G1 X35.478 Y39.110 F1000
G1 X35.581 Y39.007 F1000
G1 X35.890 Y39.007 F1000
G1 X35.993 Y39.110 F1000
G1 X35.993 Y39.316 F1000
G1 X35.890 Y39.419 F1000
G1 X35.890 Y39.831 F1000
G0 Z3.0 ; Pen up

G0 X35.066 Y39.728 F3000 ; Travel to line 14
G0 Z0.0 ; Pen down
G1 X35.066 Y39.007 F1000
G1 X35.066 Y39.110 F1000
G1 X34.963 Y39.213 F1000
G1 X34.654 Y39.213 F1000
G1 X34.654 Y39.419 F1000
G1 X34.860 Y39.625 F1000
G1 X34.860 Y39.728 F1000
G0 Z3.0 ; Pen up

G0 X34.963 Y39.728 F3000 ; Travel to line 15
G0 Z0.0 ; Pen down
G1 X35.066 Y39.625 F1000
G1 X35.066 Y39.316 F1000
G1 X34.963 Y39.213 F1000
G1 X34.757 Y39.213 F1000
G1 X34.654 Y39.316 F1000
G1 X34.654 Y39.419 F1000
G0 Z3.0 ; Pen up

G0 X34.345 Y39.419 F3000 ; Travel to line 16
G0 Z0.0 ; Pen down
G1 X33.624 Y39.419 F1000
G0 Z3.0 ; Pen up

G0 X33.624 Y39.213 F3000 ; Travel to line 17
G0 Z0.0 ; Pen down
G1 X34.345 Y39.213 F1000
G0 Z3.0 ; Pen up

G0 X33.418 Y39.831 F3000 ; Travel to line 18
G0 Z0.0 ; Pen down
G1 X33.212 Y39.831 F1000
G1 X33.109 Y39.728 F1000
G1 X33.109 Y39.007 F1000
G1 X33.109 Y39.728 F1000
G1 X33.006 Y39.831 F1000
G1 X32.800 Y39.831 F1000
G0 Z3.0 ; Pen up

G0 X33.109 Y41.891 F3000 ; Travel to line 19
G0 Z0.0 ; Pen down
G1 X32.903 Y41.685 F1000
G1 X32.903 Y41.170 F1000
G1 X33.109 Y40.964 F1000
G1 X33.624 Y40.964 F1000
G1 X33.624 Y41.376 F1000
G1 X33.418 Y41.376 F1000
G1 X33.521 Y41.376 F1000
G1 X33.624 Y41.273 F1000
G1 X33.624 Y41.067 F1000
G1 X33.521 Y40.964 F1000
G1 X33.212 Y40.964 F1000
G1 X32.903 Y41.273 F1000
G1 X32.903 Y41.582 F1000
G1 X33.212 Y41.891 F1000
G1 X33.521 Y41.891 F1000
G1 X33.624 Y41.788 F1000
G1 X33.521 Y41.891 F1000
G0 Z3.0 ; Pen up

G0 X34.139 Y41.891 F3000 ; Travel to line 20
G0 Z0.0 ; Pen down
G1 X34.036 Y41.788 F1000
G1 X34.036 Y41.067 F1000
G1 X34.139 Y40.964 F1000
G1 X34.654 Y40.964 F1000
G1 X34.139 Y40.964 F1000
G1 X34.036 Y41.067 F1000
G1 X34.036 Y41.376 F1000
G1 X34.139 Y41.479 F1000
G1 X34.654 Y41.479 F1000
G1 X34.139 Y41.479 F1000
G1 X34.036 Y41.582 F1000
G1 X34.036 Y41.788 F1000
G1 X34.139 Y41.891 F1000
G1 X34.654 Y41.891 F1000
G0 Z3.0 ; Pen up

G0 X35.169 Y41.788 F3000 ; Travel to line 21
G0 Z0.0 ; Pen down
G1 X35.169 Y41.582 F1000
G1 X35.066 Y41.479 F1000
G1 X35.066 Y41.376 F1000
G1 X34.963 Y41.273 F1000
G1 X34.963 Y40.964 F1000
G1 X34.963 Y41.170 F1000
G1 X35.066 Y41.273 F1000
G1 X35.478 Y41.273 F1000
G1 X35.684 Y41.067 F1000
G1 X35.684 Y40.964 F1000
G1 X35.684 Y41.170 F1000
G1 X35.478 Y41.376 F1000
G1 X35.478 Y41.685 F1000
G1 X35.375 Y41.788 F1000
G0 Z3.0 ; Pen up

G0 X35.169 Y41.685 F3000 ; Travel to line 22
G0 Z0.0 ; Pen down
G1 X35.272 Y41.788 F1000
G1 X35.478 Y41.582 F1000
G1 X35.478 Y41.376 F1000
G1 X35.375 Y41.273 F1000
G1 X35.169 Y41.273 F1000
G1 X35.066 Y41.376 F1000
G1 X35.169 Y41.479 F1000
G0 Z3.0 ; Pen up

G0 X35.890 Y41.479 F3000 ; Travel to line 23
G0 Z0.0 ; Pen down
G1 X35.993 Y41.376 F1000
G1 X36.302 Y41.376 F1000
G1 X36.405 Y41.479 F1000
G1 X36.405 Y41.788 F1000
G1 X36.302 Y41.891 F1000
G1 X35.993 Y41.891 F1000
G1 X35.890 Y41.788 F1000
G0 Z3.0 ; Pen up

G0 X35.993 Y41.891 F3000 ; Travel to line 24
G0 Z0.0 ; Pen down
G1 X35.890 Y41.788 F1000
G1 X35.890 Y41.067 F1000
G1 X35.890 Y41.273 F1000
G1 X35.993 Y41.376 F1000
G1 X36.302 Y41.376 F1000
G1 X36.405 Y41.273 F1000
G1 X36.405 Y41.170 F1000
G1 X36.405 Y41.891 F1000
G0 Z3.0 ; Pen up

G0 X37.538 Y41.788 F3000 ; Travel to line 25
G0 Z0.0 ; Pen down
G1 X37.538 Y41.582 F1000
G1 X37.435 Y41.479 F1000
G1 X37.435 Y41.376 F1000
G1 X37.332 Y41.273 F1000
G1 X37.332 Y40.964 F1000
G1 X37.332 Y41.170 F1000
G1 X37.435 Y41.273 F1000
G1 X37.847 Y41.273 F1000
G1 X38.053 Y41.067 F1000
G1 X38.053 Y40.964 F1000
G1 X38.053 Y41.170 F1000
G1 X37.847 Y41.376 F1000
G1 X37.847 Y41.685 F1000
G1 X37.744 Y41.788 F1000
G0 Z3.0 ; Pen up

G0 X37.538 Y41.685 F3000 ; Travel to line 26
G0 Z0.0 ; Pen down
G1 X37.641 Y41.788 F1000
G1 X37.847 Y41.582 F1000
G1 X37.847 Y41.376 F1000
G1 X37.744 Y41.273 F1000
G1 X37.538 Y41.273 F1000
G1 X37.435 Y41.376 F1000
G1 X37.538 Y41.479 F1000
G0 Z3.0 ; Pen up

G0 X37.332 Y44.466 F3000 ; Travel to line 27
G0 Z0.0 ; Pen down
G1 X37.435 Y44.363 F1000
G1 X38.362 Y44.363 F1000
G1 X38.465 Y44.466 F1000
G1 X38.465 Y46.320 F1000
G1 X38.362 Y46.423 F1000
G1 X37.435 Y46.423 F1000
G1 X37.332 Y46.320 F1000
G0 Z3.0 ; Pen up

G0 X36.302 Y46.423 F3000 ; Travel to line 28
G0 Z0.0 ; Pen down
G1 X36.405 Y46.526 F1000
G1 X36.508 Y46.526 F1000
G1 X36.611 Y46.423 F1000
G1 X37.229 Y46.423 F1000
G1 X37.332 Y46.320 F1000
G1 X37.332 Y44.466 F1000
G1 X37.229 Y44.363 F1000
G1 X36.508 Y44.363 F1000
G1 X36.405 Y44.466 F1000
G1 X36.199 Y44.466 F1000
G1 X36.096 Y44.569 F1000
G1 X36.096 Y44.672 F1000
G1 X36.199 Y44.775 F1000
G1 X36.199 Y45.702 F1000
G1 X36.302 Y45.805 F1000
G0 Z3.0 ; Pen up

G0 X35.169 Y46.217 F3000 ; Travel to line 29
G0 Z0.0 ; Pen down
G1 X35.066 Y46.114 F1000
G1 X35.066 Y45.496 F1000
G1 X34.963 Y45.393 F1000
G1 X34.963 Y44.878 F1000
G1 X34.860 Y44.775 F1000
G1 X34.860 Y44.672 F1000
G1 X34.963 Y44.569 F1000
G1 X35.375 Y44.569 F1000
G1 X35.478 Y44.466 F1000
G1 X35.993 Y44.466 F1000
G1 X36.096 Y44.569 F1000
G1 X36.096 Y44.672 F1000
G1 X36.199 Y44.775 F1000
G1 X36.199 Y45.702 F1000
G1 X36.302 Y45.805 F1000
G1 X36.302 Y46.423 F1000
G1 X36.199 Y46.526 F1000
G1 X35.684 Y46.526 F1000
G1 X35.581 Y46.629 F1000
G1 X35.272 Y46.629 F1000
G1 X35.169 Y46.526 F1000
G0 Z3.0 ; Pen up

G0 X34.139 Y46.526 F3000 ; Travel to line 30
G0 Z0.0 ; Pen down
G1 X34.036 Y46.423 F1000
G1 X34.036 Y46.011 F1000
G1 X33.933 Y45.908 F1000
G1 X33.933 Y45.496 F1000
G1 X33.830 Y45.393 F1000
G1 X33.830 Y44.981 F1000
G1 X33.727 Y44.878 F1000
G1 X33.830 Y44.775 F1000
G1 X34.139 Y44.775 F1000
G1 X34.242 Y44.672 F1000
G1 X34.757 Y44.672 F1000
G1 X34.963 Y44.878 F1000
G1 X34.963 Y45.393 F1000
G1 X35.066 Y45.496 F1000
G1 X35.066 Y46.114 F1000
G1 X35.169 Y46.217 F1000
G1 X35.169 Y46.526 F1000
G1 X35.066 Y46.629 F1000
G1 X34.963 Y46.629 F1000
G1 X34.860 Y46.732 F1000
G1 X34.448 Y46.732 F1000
G1 X34.345 Y46.835 F1000
G1 X34.242 Y46.835 F1000
G1 X34.139 Y46.732 F1000
G0 Z3.0 ; Pen up

G0 X33.109 Y46.835 F3000 ; Travel to line 31
G0 Z0.0 ; Pen down
G1 X33.006 Y46.732 F1000
G1 X33.006 Y46.526 F1000
G1 X32.903 Y46.423 F1000
G1 X32.903 Y46.217 F1000
G1 X32.800 Y46.114 F1000
G1 X32.800 Y45.805 F1000
G1 X32.697 Y45.702 F1000
G1 X32.697 Y45.496 F1000
G1 X32.594 Y45.393 F1000
G1 X32.594 Y45.187 F1000
G1 X32.697 Y45.084 F1000
G1 X32.903 Y45.084 F1000
G1 X33.006 Y44.981 F1000
G1 X33.212 Y44.981 F1000
G1 X33.315 Y44.878 F1000
G1 X33.727 Y44.878 F1000
G1 X33.830 Y44.981 F1000
G1 X33.830 Y45.393 F1000
G1 X33.933 Y45.496 F1000
G1 X33.933 Y45.908 F1000
G1 X34.036 Y46.011 F1000
G1 X34.036 Y46.423 F1000
G1 X34.139 Y46.526 F1000
G1 X34.139 Y46.732 F1000
G1 X33.933 Y46.938 F1000
G1 X33.624 Y46.938 F1000
G1 X33.521 Y47.041 F1000
G1 X33.212 Y47.041 F1000
G1 X33.109 Y46.938 F1000
G0 Z3.0 ; Pen up

G0 X32.079 Y47.247 F3000 ; Travel to line 32
G0 Z0.0 ; Pen down
G1 X31.976 Y47.144 F1000
G1 X31.976 Y46.938 F1000
G1 X31.873 Y46.835 F1000
G1 X31.873 Y46.732 F1000
G1 X31.770 Y46.629 F1000
G1 X31.770 Y46.423 F1000
G1 X31.667 Y46.320 F1000
G1 X31.667 Y46.114 F1000
G1 X31.564 Y46.011 F1000
G1 X31.564 Y45.908 F1000
G1 X31.461 Y45.805 F1000
G1 X31.461 Y45.599 F1000
G1 X31.667 Y45.393 F1000
G1 X31.873 Y45.393 F1000
G1 X31.976 Y45.290 F1000
G1 X32.182 Y45.290 F1000
G1 X32.285 Y45.187 F1000
G1 X32.491 Y45.187 F1000
G1 X32.594 Y45.290 F1000
G1 X32.594 Y45.393 F1000
G1 X32.697 Y45.496 F1000
G1 X32.697 Y45.702 F1000
G1 X32.800 Y45.805 F1000
G1 X32.800 Y46.114 F1000
G1 X32.903 Y46.217 F1000
G1 X32.903 Y46.423 F1000
G1 X33.006 Y46.526 F1000
G1 X33.006 Y46.732 F1000
G1 X33.109 Y46.835 F1000
G1 X33.109 Y47.041 F1000
G1 X33.006 Y47.144 F1000
G1 X32.903 Y47.144 F1000
G1 X32.800 Y47.247 F1000
G1 X32.594 Y47.247 F1000
G1 X32.491 Y47.350 F1000
G1 X32.285 Y47.350 F1000
G1 X32.182 Y47.453 F1000
G1 X32.079 Y47.350 F1000
G0 Z3.0 ; Pen up

G0 X31.049 Y47.659 F3000 ; Travel to line 33
G0 Z0.0 ; Pen down
G1 X30.946 Y47.556 F1000
G1 X30.946 Y47.453 F1000
G1 X30.843 Y47.350 F1000
G1 X30.843 Y47.247 F1000
G1 X30.740 Y47.144 F1000
G1 X30.740 Y47.041 F1000
G1 X30.637 Y46.938 F1000
G1 X30.637 Y46.732 F1000
G1 X30.534 Y46.629 F1000
G1 X30.534 Y46.526 F1000
G1 X30.431 Y46.423 F1000
G1 X30.431 Y46.320 F1000
G1 X30.328 Y46.217 F1000
G1 X30.328 Y46.011 F1000
G1 X30.431 Y45.908 F1000
G1 X30.534 Y45.908 F1000
G1 X30.637 Y45.805 F1000
G1 X30.843 Y45.805 F1000
G1 X30.946 Y45.702 F1000
G1 X31.049 Y45.702 F1000
G1 X31.152 Y45.599 F1000
G1 X31.358 Y45.599 F1000
G1 X31.461 Y45.702 F1000
G1 X31.461 Y45.805 F1000
G1 X31.564 Y45.908 F1000
G1 X31.564 Y46.011 F1000
G1 X31.667 Y46.114 F1000
G1 X31.667 Y46.320 F1000
G1 X31.770 Y46.423 F1000
G1 X31.770 Y46.629 F1000
G1 X31.873 Y46.732 F1000
G1 X31.873 Y46.835 F1000
G1 X31.976 Y46.938 F1000
G1 X31.976 Y47.144 F1000
G1 X32.079 Y47.247 F1000
G1 X32.079 Y47.453 F1000
G1 X31.976 Y47.556 F1000
G1 X31.770 Y47.556 F1000
G1 X31.667 Y47.659 F1000
G1 X31.564 Y47.659 F1000
G1 X31.461 Y47.762 F1000
G1 X31.255 Y47.762 F1000
G1 X31.152 Y47.865 F1000
G1 X31.049 Y47.762 F1000
G0 Z3.0 ; Pen up

G0 X30.225 Y48.277 F3000 ; Travel to line 34
G0 Z0.0 ; Pen down
G1 X30.328 Y48.277 F1000
G1 X30.431 Y48.174 F1000
G1 X30.534 Y48.174 F1000
G1 X30.637 Y48.071 F1000
G1 X30.740 Y48.071 F1000
G1 X30.843 Y47.968 F1000
G1 X30.946 Y47.968 F1000
G1 X31.049 Y47.865 F1000
G1 X31.049 Y47.659 F1000
G1 X30.946 Y47.556 F1000
G1 X30.946 Y47.453 F1000
G1 X30.843 Y47.350 F1000
G1 X30.843 Y47.247 F1000
G1 X30.740 Y47.144 F1000
G1 X30.740 Y47.041 F1000
G1 X30.637 Y46.938 F1000
G1 X30.637 Y46.732 F1000
G1 X30.534 Y46.629 F1000
G1 X30.534 Y46.526 F1000
G1 X30.431 Y46.423 F1000
G1 X30.431 Y46.320 F1000
G1 X30.225 Y46.114 F1000
G1 X29.916 Y46.114 F1000
G1 X29.813 Y46.217 F1000
G1 X29.710 Y46.217 F1000
G1 X29.607 Y46.320 F1000
G1 X29.504 Y46.320 F1000
G1 X29.298 Y46.526 F1000
G1 X29.298 Y46.629 F1000
G1 X29.401 Y46.732 F1000
G1 X29.401 Y46.835 F1000
G1 X29.504 Y46.938 F1000
G1 X29.504 Y47.041 F1000
G1 X29.607 Y47.144 F1000
G1 X29.607 Y47.247 F1000
G1 X29.710 Y47.350 F1000
G1 X29.710 Y47.453 F1000
G1 X29.813 Y47.556 F1000
G1 X29.813 Y47.659 F1000
G1 X29.916 Y47.762 F1000
G1 X29.916 Y47.865 F1000
G1 X30.019 Y47.968 F1000
G1 X30.019 Y48.071 F1000
G0 Z3.0 ; Pen up

G0 X29.195 Y48.792 F3000 ; Travel to line 35
G0 Z0.0 ; Pen down
G1 X29.401 Y48.792 F1000
G1 X29.504 Y48.689 F1000
G1 X29.607 Y48.689 F1000
G1 X29.813 Y48.483 F1000
G1 X29.916 Y48.483 F1000
G1 X30.122 Y48.277 F1000
G1 X30.122 Y48.174 F1000
G1 X30.019 Y48.071 F1000
G1 X30.019 Y47.968 F1000
G1 X29.916 Y47.865 F1000
G1 X29.916 Y47.762 F1000
G1 X29.813 Y47.659 F1000
G1 X29.813 Y47.556 F1000
G1 X29.710 Y47.453 F1000
G1 X29.710 Y47.350 F1000
G1 X29.607 Y47.247 F1000
G1 X29.607 Y47.144 F1000
G1 X29.504 Y47.041 F1000
G1 X29.504 Y46.938 F1000
G1 X29.401 Y46.835 F1000
G1 X29.401 Y46.732 F1000
G1 X29.298 Y46.629 F1000
G1 X28.989 Y46.629 F1000
G1 X28.886 Y46.732 F1000
G1 X28.783 Y46.732 F1000
G1 X28.680 Y46.835 F1000
G1 X28.577 Y46.835 F1000
G1 X28.371 Y47.041 F1000
G1 X28.268 Y47.041 F1000
G1 X28.165 Y47.144 F1000
G1 X28.165 Y47.350 F1000
G1 X28.371 Y47.556 F1000
G1 X28.371 Y47.659 F1000
G1 X28.577 Y47.865 F1000
G1 X28.577 Y47.968 F1000
G1 X28.680 Y48.071 F1000
G1 X28.680 Y48.174 F1000
G1 X28.886 Y48.380 F1000
G1 X28.886 Y48.483 F1000
G0 Z3.0 ; Pen up

G0 X28.165 Y49.204 F3000 ; Travel to line 36
G0 Z0.0 ; Pen down
G1 X27.959 Y48.998 F1000
G1 X27.959 Y48.895 F1000
G1 X27.753 Y48.689 F1000
G1 X27.753 Y48.586 F1000
G1 X27.444 Y48.277 F1000
G1 X27.444 Y48.174 F1000
G1 X27.238 Y47.968 F1000
G1 X27.238 Y47.762 F1000
G1 X27.444 Y47.556 F1000
G1 X27.547 Y47.556 F1000
G1 X27.753 Y47.350 F1000
G1 X27.856 Y47.350 F1000
G1 X27.959 Y47.247 F1000
G1 X28.062 Y47.247 F1000
G1 X28.371 Y47.556 F1000
G1 X28.371 Y47.659 F1000
G1 X28.577 Y47.865 F1000
G1 X28.577 Y47.968 F1000
G1 X28.680 Y48.071 F1000
G1 X28.680 Y48.174 F1000
G1 X28.886 Y48.380 F1000
G1 X28.886 Y48.483 F1000
G1 X29.092 Y48.689 F1000
G1 X29.092 Y48.895 F1000
G1 X28.783 Y49.204 F1000
G1 X28.680 Y49.204 F1000
G1 X28.474 Y49.410 F1000
G1 X28.268 Y49.410 F1000
G1 X28.165 Y49.307 F1000
G0 Z3.0 ; Pen up

G0 X27.444 Y50.131 F3000 ; Travel to line 37
G0 Z0.0 ; Pen down
G1 X27.547 Y50.028 F1000
G1 X27.650 Y50.028 F1000
G1 X27.959 Y49.719 F1000
G1 X28.062 Y49.719 F1000
G1 X28.165 Y49.616 F1000
G1 X28.165 Y49.204 F1000
G1 X27.959 Y48.998 F1000
G1 X27.959 Y48.895 F1000
G1 X27.753 Y48.689 F1000
G1 X27.753 Y48.586 F1000
G1 X27.444 Y48.277 F1000
G1 X27.444 Y48.174 F1000
G1 X27.135 Y47.865 F1000
G1 X27.032 Y47.865 F1000
G1 X26.826 Y48.071 F1000
G1 X26.723 Y48.071 F1000
G1 X26.414 Y48.380 F1000
G1 X26.311 Y48.380 F1000
G1 X26.208 Y48.483 F1000
G1 X26.208 Y48.586 F1000
G1 X26.311 Y48.689 F1000
G1 X26.311 Y48.792 F1000
G1 X26.826 Y49.307 F1000
G1 X26.826 Y49.410 F1000
G1 X27.238 Y49.822 F1000
G1 X27.238 Y49.925 F1000
G0 Z3.0 ; Pen up

G0 X26.620 Y50.852 F3000 ; Travel to line 38
G0 Z0.0 ; Pen down
G1 X26.929 Y50.543 F1000
G1 X27.032 Y50.543 F1000
G1 X27.341 Y50.234 F1000
G1 X27.341 Y50.028 F1000
G1 X27.238 Y49.925 F1000
G1 X27.238 Y49.822 F1000
G1 X26.826 Y49.410 F1000
G1 X26.826 Y49.307 F1000
G1 X26.105 Y48.586 F1000
G1 X25.281 Y49.410 F1000
G1 X25.899 Y50.028 F1000
G1 X25.899 Y50.131 F1000
G0 Z3.0 ; Pen up

G0 X25.178 Y50.852 F3000 ; Travel to line 39
G0 Z0.0 ; Pen down
G1 X25.075 Y50.852 F1000
G1 X24.457 Y50.234 F1000
G1 X24.457 Y50.131 F1000
G1 X25.178 Y49.410 F1000
G1 X25.281 Y49.513 F1000
G1 X25.384 Y49.513 F1000
G1 X25.899 Y50.028 F1000
G1 X25.899 Y50.131 F1000
G1 X26.517 Y50.749 F1000
G1 X26.517 Y50.955 F1000
G1 X25.899 Y51.573 F1000
G0 Z3.0 ; Pen up

G0 X25.178 Y52.397 F3000 ; Travel to line 40
G0 Z0.0 ; Pen down
G1 X25.693 Y51.882 F1000
G1 X25.693 Y51.779 F1000
G1 X25.796 Y51.676 F1000
G1 X25.796 Y51.470 F1000
G1 X25.281 Y50.955 F1000
G1 X25.178 Y50.955 F1000
G1 X24.560 Y50.337 F1000
G1 X24.354 Y50.337 F1000
G1 X23.736 Y50.955 F1000
G1 X23.736 Y51.058 F1000
G1 X23.633 Y51.161 F1000
G1 X23.839 Y51.367 F1000
G1 X23.942 Y51.367 F1000
G1 X24.354 Y51.779 F1000
G1 X24.457 Y51.779 F1000
G1 X24.869 Y52.191 F1000
G1 X24.972 Y52.191 F1000
G0 Z3.0 ; Pen up

G0 X24.354 Y53.118 F3000 ; Travel to line 41
G0 Z0.0 ; Pen down
G1 X24.457 Y53.221 F1000
G1 X24.560 Y53.221 F1000
G1 X24.869 Y52.912 F1000
G1 X24.869 Y52.809 F1000
G1 X25.075 Y52.603 F1000
G1 X25.075 Y52.294 F1000
G1 X24.972 Y52.191 F1000
G1 X24.869 Y52.191 F1000
G1 X24.457 Y51.779 F1000
G1 X24.354 Y51.779 F1000
G1 X23.942 Y51.367 F1000
G1 X23.839 Y51.367 F1000
G1 X23.736 Y51.264 F1000
G1 X23.633 Y51.264 F1000
G1 X23.530 Y51.161 F1000
G1 X23.324 Y51.367 F1000
G1 X23.324 Y51.470 F1000
G1 X23.118 Y51.676 F1000
G1 X23.118 Y51.779 F1000
G1 X22.912 Y51.985 F1000
G1 X22.912 Y52.191 F1000
G1 X23.015 Y52.294 F1000
G1 X23.118 Y52.294 F1000
G1 X23.324 Y52.500 F1000
G1 X23.427 Y52.500 F1000
G1 X23.633 Y52.706 F1000
G1 X23.736 Y52.706 F1000
G1 X23.942 Y52.912 F1000
G1 X24.045 Y52.912 F1000
G1 X24.251 Y53.118 F1000
G0 Z3.0 ; Pen up

G0 X23.633 Y53.942 F3000 ; Travel to line 42
G0 Z0.0 ; Pen down
G1 X23.530 Y53.942 F1000
G1 X23.324 Y53.736 F1000
G1 X23.221 Y53.736 F1000
G1 X23.015 Y53.530 F1000
G1 X22.912 Y53.530 F1000
G1 X22.706 Y53.324 F1000
G1 X22.603 Y53.324 F1000
G1 X22.294 Y53.015 F1000
G1 X22.294 Y52.912 F1000
G1 X22.500 Y52.706 F1000
G1 X22.500 Y52.603 F1000
G1 X22.706 Y52.397 F1000
G1 X22.706 Y52.294 F1000
G1 X22.809 Y52.191 F1000
G1 X22.912 Y52.294 F1000
G1 X23.118 Y52.294 F1000
G1 X23.324 Y52.500 F1000
G1 X23.427 Y52.500 F1000
G1 X23.633 Y52.706 F1000
G1 X23.736 Y52.706 F1000
G1 X23.942 Y52.912 F1000
G1 X24.045 Y52.912 F1000
G1 X24.251 Y53.118 F1000
G1 X24.354 Y53.118 F1000
G1 X24.457 Y53.221 F1000
G1 X24.457 Y53.427 F1000
G1 X24.354 Y53.530 F1000
G1 X24.354 Y53.633 F1000
G1 X24.148 Y53.839 F1000
G1 X24.148 Y53.942 F1000
G1 X23.942 Y54.148 F1000
G1 X23.839 Y54.148 F1000
G0 Z3.0 ; Pen up

G0 X23.118 Y54.972 F3000 ; Travel to line 43
G0 Z0.0 ; Pen down
G1 X23.221 Y55.075 F1000
G1 X23.427 Y55.075 F1000
G1 X23.530 Y54.972 F1000
G1 X23.530 Y54.869 F1000
G1 X23.633 Y54.766 F1000
G1 X23.633 Y54.663 F1000
G1 X23.839 Y54.457 F1000
G1 X23.839 Y54.148 F1000
G1 X23.633 Y53.942 F1000
G1 X23.530 Y53.942 F1000
G1 X23.324 Y53.736 F1000
G1 X23.221 Y53.736 F1000
G1 X23.015 Y53.530 F1000
G1 X22.912 Y53.530 F1000
G1 X22.706 Y53.324 F1000
G1 X22.603 Y53.324 F1000
G1 X22.397 Y53.118 F1000
G1 X22.191 Y53.118 F1000
G1 X21.985 Y53.324 F1000
G1 X21.985 Y53.427 F1000
G1 X21.882 Y53.530 F1000
G1 X21.882 Y53.633 F1000
G1 X21.779 Y53.736 F1000
G1 X21.779 Y53.839 F1000
G1 X21.573 Y54.045 F1000
G1 X21.573 Y54.148 F1000
G1 X21.676 Y54.251 F1000
G1 X21.779 Y54.251 F1000
G1 X21.882 Y54.354 F1000
G1 X21.985 Y54.354 F1000
G1 X22.088 Y54.457 F1000
G1 X22.191 Y54.457 F1000
G1 X22.294 Y54.560 F1000
G1 X22.397 Y54.560 F1000
G1 X22.603 Y54.766 F1000
G1 X22.706 Y54.766 F1000
G1 X22.809 Y54.869 F1000
G1 X22.912 Y54.869 F1000
G1 X23.015 Y54.972 F1000
G0 Z3.0 ; Pen up

G0 X22.706 Y55.899 F3000 ; Travel to line 44
G0 Z0.0 ; Pen down
G1 X22.809 Y56.002 F1000
G1 X22.912 Y56.002 F1000
G1 X23.118 Y55.796 F1000
G1 X23.118 Y55.693 F1000
G1 X23.221 Y55.590 F1000
G1 X23.221 Y55.487 F1000
G1 X23.324 Y55.384 F1000
G1 X23.324 Y55.178 F1000
G1 X23.221 Y55.075 F1000
G1 X23.118 Y55.075 F1000
G1 X23.015 Y54.972 F1000
G1 X22.912 Y54.972 F1000
G1 X22.809 Y54.869 F1000
G1 X22.706 Y54.869 F1000
G1 X22.603 Y54.766 F1000
G1 X22.500 Y54.766 F1000
G1 X22.294 Y54.560 F1000
G1 X22.191 Y54.560 F1000
G1 X22.088 Y54.457 F1000
G1 X21.985 Y54.457 F1000
G1 X21.882 Y54.354 F1000
G1 X21.779 Y54.354 F1000
G1 X21.676 Y54.251 F1000
G1 X21.573 Y54.251 F1000
G1 X21.470 Y54.354 F1000
G1 X21.470 Y54.457 F1000
G1 X21.367 Y54.560 F1000
G1 X21.367 Y54.663 F1000
G1 X21.264 Y54.766 F1000
G1 X21.264 Y54.869 F1000
G1 X21.161 Y54.972 F1000
G1 X21.161 Y55.075 F1000
G1 X21.058 Y55.178 F1000
G1 X21.161 Y55.281 F1000
G1 X21.264 Y55.281 F1000
G1 X21.367 Y55.384 F1000
G1 X21.470 Y55.384 F1000
G1 X21.573 Y55.487 F1000
G1 X21.779 Y55.487 F1000
G1 X21.882 Y55.590 F1000
G1 X21.985 Y55.590 F1000
G1 X22.088 Y55.693 F1000
G1 X22.191 Y55.693 F1000
G1 X22.294 Y55.796 F1000
G1 X22.397 Y55.796 F1000
G1 X22.500 Y55.899 F1000
G0 Z3.0 ; Pen up

G0 X22.191 Y56.929 F3000 ; Travel to line 45
G0 Z0.0 ; Pen down
G1 X22.294 Y57.032 F1000
G1 X22.500 Y57.032 F1000
G1 X22.603 Y56.929 F1000
G1 X22.603 Y56.826 F1000
G1 X22.706 Y56.723 F1000
G1 X22.706 Y56.620 F1000
G1 X22.809 Y56.517 F1000
G1 X22.809 Y56.311 F1000
G1 X22.912 Y56.208 F1000
G1 X22.912 Y56.105 F1000
G1 X22.809 Y56.002 F1000
G1 X22.706 Y56.002 F1000
G1 X22.603 Y55.899 F1000
G1 X22.500 Y55.899 F1000
G1 X22.397 Y55.796 F1000
G1 X22.191 Y55.796 F1000
G1 X22.088 Y55.693 F1000
G1 X21.985 Y55.693 F1000
G1 X21.882 Y55.590 F1000
G1 X21.779 Y55.590 F1000
G1 X21.676 Y55.487 F1000
G1 X21.573 Y55.487 F1000
G1 X21.470 Y55.384 F1000
G1 X21.264 Y55.384 F1000
G1 X21.161 Y55.281 F1000
G1 X21.058 Y55.281 F1000
G1 X20.955 Y55.384 F1000
G1 X20.955 Y55.487 F1000
G1 X20.852 Y55.590 F1000
G1 X20.852 Y55.693 F1000
G1 X20.749 Y55.796 F1000
G1 X20.749 Y55.899 F1000
G1 X20.646 Y56.002 F1000
G1 X20.646 Y56.311 F1000
G1 X20.749 Y56.414 F1000
G1 X20.852 Y56.414 F1000
G1 X20.955 Y56.517 F1000
G1 X21.058 Y56.517 F1000
G1 X21.161 Y56.620 F1000
G1 X21.367 Y56.620 F1000
G1 X21.470 Y56.723 F1000
G1 X21.676 Y56.723 F1000
G1 X21.779 Y56.826 F1000
G1 X21.985 Y56.826 F1000
G1 X22.088 Y56.929 F1000
G0 Z3.0 ; Pen up

G0 X21.779 Y57.959 F3000 ; Travel to line 46
G0 Z0.0 ; Pen down
G1 X21.882 Y58.062 F1000
G1 X22.088 Y58.062 F1000
G1 X22.294 Y57.856 F1000
G1 X22.294 Y57.650 F1000
G1 X22.397 Y57.547 F1000
G1 X22.397 Y57.341 F1000
G1 X22.500 Y57.238 F1000
G1 X22.500 Y57.135 F1000
G1 X22.397 Y57.032 F1000
G1 X22.191 Y57.032 F1000
G1 X22.088 Y56.929 F1000
G1 X21.985 Y56.929 F1000
G1 X21.882 Y56.826 F1000
G1 X21.676 Y56.826 F1000
G1 X21.573 Y56.723 F1000
G1 X21.367 Y56.723 F1000
G1 X21.264 Y56.620 F1000
G1 X21.058 Y56.620 F1000
G1 X20.955 Y56.517 F1000
G1 X20.852 Y56.517 F1000
G1 X20.749 Y56.414 F1000
G1 X20.646 Y56.414 F1000
G1 X20.543 Y56.517 F1000
G1 X20.543 Y56.620 F1000
G1 X20.440 Y56.723 F1000
G1 X20.440 Y56.929 F1000
G1 X20.337 Y57.032 F1000
G1 X20.337 Y57.238 F1000
G1 X20.234 Y57.341 F1000
G1 X20.234 Y57.444 F1000
G1 X20.337 Y57.547 F1000
G1 X20.440 Y57.547 F1000
G1 X20.543 Y57.650 F1000
G1 X20.749 Y57.650 F1000
G1 X20.852 Y57.753 F1000
G1 X21.058 Y57.753 F1000
G1 X21.161 Y57.856 F1000
G1 X21.470 Y57.856 F1000
G1 X21.573 Y57.959 F1000
G0 Z3.0 ; Pen up

G0 X21.367 Y58.989 F3000 ; Travel to line 47
G0 Z0.0 ; Pen down
G1 X21.470 Y59.092 F1000
G1 X21.882 Y59.092 F1000
G1 X21.985 Y58.989 F1000
G1 X21.985 Y58.680 F1000
G1 X22.088 Y58.577 F1000
G1 X22.088 Y58.165 F1000
G1 X21.985 Y58.062 F1000
G1 X21.779 Y58.062 F1000
G1 X21.676 Y57.959 F1000
G1 X21.470 Y57.959 F1000
G1 X21.367 Y57.856 F1000
G1 X21.161 Y57.856 F1000
G1 X21.058 Y57.753 F1000
G1 X20.749 Y57.753 F1000
G1 X20.646 Y57.650 F1000
G1 X20.440 Y57.650 F1000
G1 X20.337 Y57.547 F1000
G1 X20.234 Y57.547 F1000
G1 X20.131 Y57.650 F1000
G1 X20.131 Y57.753 F1000
G1 X20.028 Y57.856 F1000
G1 X20.028 Y58.062 F1000
G1 X19.925 Y58.165 F1000
G1 X19.925 Y58.680 F1000
G1 X20.028 Y58.783 F1000
G1 X20.337 Y58.783 F1000
G1 X20.440 Y58.886 F1000
G1 X20.852 Y58.886 F1000
G1 X20.955 Y58.989 F1000
G0 Z3.0 ; Pen up

G0 X20.955 Y60.019 F3000 ; Travel to line 48
G0 Z0.0 ; Pen down
G1 X21.058 Y60.122 F1000
G1 X21.573 Y60.122 F1000
G1 X21.779 Y59.916 F1000
G1 X21.779 Y59.504 F1000
G1 X21.882 Y59.401 F1000
G1 X21.882 Y59.195 F1000
G1 X21.779 Y59.092 F1000
G1 X21.367 Y59.092 F1000
G1 X21.264 Y58.989 F1000
G1 X20.852 Y58.989 F1000
G1 X20.749 Y58.886 F1000
G1 X20.337 Y58.886 F1000
G1 X20.234 Y58.783 F1000
G1 X19.925 Y58.783 F1000
G1 X19.822 Y58.886 F1000
G1 X19.822 Y59.195 F1000
G1 X19.719 Y59.298 F1000
G1 X19.719 Y59.813 F1000
G1 X19.822 Y59.916 F1000
G1 X20.337 Y59.916 F1000
G1 X20.440 Y60.019 F1000
G0 Z3.0 ; Pen up

G0 X20.440 Y61.152 F3000 ; Travel to line 49
G0 Z0.0 ; Pen down
G1 X20.543 Y61.255 F1000
G1 X21.470 Y61.255 F1000
G1 X21.573 Y61.152 F1000
G1 X21.573 Y60.740 F1000
G1 X21.676 Y60.637 F1000
G1 X21.676 Y60.225 F1000
G1 X21.573 Y60.122 F1000
G1 X20.955 Y60.122 F1000
G1 X20.852 Y60.019 F1000
G1 X20.337 Y60.019 F1000
G1 X20.234 Y59.916 F1000
G1 X19.719 Y59.916 F1000
G1 X19.616 Y60.019 F1000
G1 X19.616 Y60.225 F1000
G1 X19.513 Y60.328 F1000
G1 X19.513 Y61.049 F1000
G1 X19.616 Y61.152 F1000
G0 Z3.0 ; Pen up

G0 X19.410 Y61.564 F3000 ; Travel to line 50
G0 Z0.0 ; Pen down
G1 X19.513 Y61.461 F1000
G1 X19.513 Y61.255 F1000
G1 X19.616 Y61.152 F1000
G1 X20.337 Y61.152 F1000
G1 X20.440 Y61.255 F1000
G1 X21.470 Y61.255 F1000
G1 X21.573 Y61.358 F1000
G1 X21.573 Y61.564 F1000
G1 X21.470 Y61.667 F1000
G1 X21.470 Y62.285 F1000
G1 X21.367 Y62.388 F1000
G1 X19.513 Y62.388 F1000
G1 X19.410 Y62.285 F1000
G0 Z3.0 ; Pen up

G0 X19.410 Y62.491 F3000 ; Travel to line 51
G0 Z0.0 ; Pen down
G1 X19.513 Y62.388 F1000
G1 X21.367 Y62.388 F1000
G1 X21.470 Y62.491 F1000
G1 X21.470 Y63.418 F1000
G1 X21.367 Y63.521 F1000
G1 X19.513 Y63.521 F1000
G1 X19.410 Y63.418 F1000
G0 Z3.0 ; Pen up

G0 X19.513 Y64.139 F3000 ; Travel to line 52
G0 Z0.0 ; Pen down
G1 X19.410 Y64.036 F1000
G1 X19.410 Y63.624 F1000
G1 X19.513 Y63.521 F1000
G1 X21.367 Y63.521 F1000
G1 X21.470 Y63.624 F1000
G1 X21.470 Y63.933 F1000
G1 X21.573 Y64.036 F1000
G1 X21.573 Y64.448 F1000
G1 X21.470 Y64.551 F1000
G1 X20.440 Y64.551 F1000
G1 X20.337 Y64.654 F1000
G1 X19.616 Y64.654 F1000
G1 X19.513 Y64.551 F1000
G0 Z3.0 ; Pen up

G0 X19.616 Y65.375 F3000 ; Travel to line 53
G0 Z0.0 ; Pen down
G1 X19.513 Y65.272 F1000
G1 X19.513 Y64.757 F1000
G1 X19.616 Y64.654 F1000
G1 X20.440 Y64.654 F1000
G1 X20.543 Y64.551 F1000
G1 X21.470 Y64.551 F1000
G1 X21.573 Y64.654 F1000
G1 X21.573 Y64.860 F1000
G1 X21.676 Y64.963 F1000
G1 X21.676 Y65.581 F1000
G1 X21.573 Y65.684 F1000
G1 X20.955 Y65.684 F1000
G1 X20.852 Y65.787 F1000
G1 X20.337 Y65.787 F1000
G1 X20.234 Y65.890 F1000
G1 X19.719 Y65.890 F1000
G1 X19.616 Y65.787 F1000
G0 Z3.0 ; Pen up

G0 X19.925 Y66.817 F3000 ; Travel to line 54
G0 Z0.0 ; Pen down
G1 X19.822 Y66.714 F1000
G1 X19.822 Y66.405 F1000
G1 X19.719 Y66.302 F1000
G1 X19.719 Y65.993 F1000
G1 X19.822 Y65.890 F1000
G1 X20.337 Y65.890 F1000
G1 X20.440 Y65.787 F1000
G1 X20.955 Y65.787 F1000
G1 X21.058 Y65.684 F1000
G1 X21.676 Y65.684 F1000
G1 X21.779 Y65.787 F1000
G1 X21.779 Y66.096 F1000
G1 X21.882 Y66.199 F1000
G1 X21.882 Y66.611 F1000
G1 X21.779 Y66.714 F1000
G1 X21.367 Y66.714 F1000
G1 X21.264 Y66.817 F1000
G1 X20.852 Y66.817 F1000
G1 X20.749 Y66.920 F1000
G1 X20.337 Y66.920 F1000
G1 X20.234 Y67.023 F1000
G1 X20.028 Y67.023 F1000
G1 X19.925 Y66.920 F1000
G0 Z3.0 ; Pen up

G0 X20.131 Y67.847 F3000 ; Travel to line 55
G0 Z0.0 ; Pen down
G1 X20.028 Y67.744 F1000
G1 X20.028 Y67.538 F1000
G1 X19.925 Y67.435 F1000
G1 X19.925 Y67.126 F1000
G1 X20.028 Y67.023 F1000
G1 X20.337 Y67.023 F1000
G1 X20.440 Y66.920 F1000
G1 X20.852 Y66.920 F1000
G1 X20.955 Y66.817 F1000
G1 X21.367 Y66.817 F1000
G1 X21.470 Y66.714 F1000
G1 X21.882 Y66.714 F1000
G1 X21.985 Y66.817 F1000
G1 X21.985 Y66.920 F1000
G1 X22.088 Y67.023 F1000
G1 X22.088 Y67.332 F1000
G1 X22.191 Y67.435 F1000
G1 X22.191 Y67.641 F1000
G1 X22.088 Y67.744 F1000
G1 X21.779 Y67.744 F1000
G1 X21.676 Y67.847 F1000
G1 X21.470 Y67.847 F1000
G1 X21.367 Y67.950 F1000
G1 X21.161 Y67.950 F1000
G1 X21.058 Y68.053 F1000
G1 X20.749 Y68.053 F1000
G1 X20.646 Y68.156 F1000
G1 X20.440 Y68.156 F1000
G1 X20.337 Y68.259 F1000
G1 X20.234 Y68.259 F1000
G1 X20.131 Y68.156 F1000
G0 Z3.0 ; Pen up

G0 X20.543 Y68.980 F3000 ; Travel to line 56
G0 Z0.0 ; Pen down
G1 X20.440 Y68.877 F1000
G1 X20.440 Y68.671 F1000
G1 X20.337 Y68.568 F1000
G1 X20.337 Y68.259 F1000
G1 X20.440 Y68.156 F1000
G1 X20.749 Y68.156 F1000
G1 X20.852 Y68.053 F1000
G1 X21.058 Y68.053 F1000
G1 X21.161 Y67.950 F1000
G1 X21.470 Y67.950 F1000
G1 X21.573 Y67.847 F1000
G1 X21.779 Y67.847 F1000
G1 X21.882 Y67.744 F1000
G1 X22.191 Y67.744 F1000
G1 X22.294 Y67.847 F1000
G1 X22.294 Y67.950 F1000
G1 X22.397 Y68.053 F1000
G1 X22.397 Y68.259 F1000
G1 X22.500 Y68.362 F1000
G1 X22.500 Y68.671 F1000
G1 X22.397 Y68.774 F1000
G1 X22.191 Y68.774 F1000
G1 X22.088 Y68.877 F1000
G1 X21.985 Y68.877 F1000
G1 X21.882 Y68.980 F1000
G1 X21.676 Y68.980 F1000
G1 X21.573 Y69.083 F1000
G1 X21.367 Y69.083 F1000
G1 X21.264 Y69.186 F1000
G1 X21.058 Y69.186 F1000
G1 X20.955 Y69.289 F1000
G1 X20.852 Y69.289 F1000
G1 X20.749 Y69.392 F1000
G1 X20.646 Y69.392 F1000
G1 X20.543 Y69.289 F1000
G0 Z3.0 ; Pen up

G0 X20.955 Y70.216 F3000 ; Travel to line 57
G0 Z0.0 ; Pen down
G1 X20.852 Y70.113 F1000
G1 X20.852 Y70.010 F1000
G1 X20.749 Y69.907 F1000
G1 X20.749 Y69.598 F1000
G1 X20.646 Y69.495 F1000
G1 X20.749 Y69.392 F1000
G1 X20.852 Y69.392 F1000
G1 X20.955 Y69.289 F1000
G1 X21.058 Y69.289 F1000
G1 X21.161 Y69.186 F1000
G1 X21.367 Y69.186 F1000
G1 X21.470 Y69.083 F1000
G1 X21.676 Y69.083 F1000
G1 X21.779 Y68.980 F1000
G1 X21.985 Y68.980 F1000
G1 X22.088 Y68.877 F1000
G1 X22.191 Y68.877 F1000
G1 X22.294 Y68.774 F1000
G1 X22.603 Y68.774 F1000
G1 X22.706 Y68.877 F1000
G1 X22.706 Y68.980 F1000
G1 X22.809 Y69.083 F1000
G1 X22.809 Y69.289 F1000
G1 X22.912 Y69.392 F1000
G1 X22.912 Y69.701 F1000
G1 X22.809 Y69.804 F1000
G1 X22.706 Y69.804 F1000
G1 X22.603 Y69.907 F1000
G1 X22.500 Y69.907 F1000
G1 X22.397 Y70.010 F1000
G1 X22.191 Y70.010 F1000
G1 X22.088 Y70.113 F1000
G1 X21.985 Y70.113 F1000
G1 X21.882 Y70.216 F1000
G1 X21.779 Y70.216 F1000
G1 X21.676 Y70.319 F1000
G1 X21.573 Y70.319 F1000
G1 X21.470 Y70.422 F1000
G1 X21.058 Y70.422 F1000
G1 X20.955 Y70.319 F1000
G0 Z3.0 ; Pen up

G0 X21.573 Y71.349 F3000 ; Travel to line 58
G0 Z0.0 ; Pen down
G1 X21.470 Y71.246 F1000
G1 X21.470 Y71.143 F1000
G1 X21.367 Y71.040 F1000
G1 X21.367 Y70.937 F1000
G1 X21.264 Y70.834 F1000
G1 X21.264 Y70.731 F1000
G1 X21.161 Y70.628 F1000
G1 X21.161 Y70.525 F1000
G1 X21.264 Y70.422 F1000
G1 X21.470 Y70.422 F1000
G1 X21.573 Y70.319 F1000
G1 X21.779 Y70.319 F1000
G1 X21.882 Y70.216 F1000
G1 X21.985 Y70.216 F1000
G1 X22.088 Y70.113 F1000
G1 X22.191 Y70.113 F1000
G1 X22.294 Y70.010 F1000
G1 X22.397 Y70.010 F1000
G1 X22.500 Y69.907 F1000
G1 X22.706 Y69.907 F1000
G1 X22.809 Y69.804 F1000
G1 X23.015 Y69.804 F1000
G1 X23.221 Y70.010 F1000
G1 X23.221 Y70.113 F1000
G1 X23.324 Y70.216 F1000
G1 X23.324 Y70.319 F1000
G1 X23.427 Y70.422 F1000
G1 X23.427 Y70.525 F1000
G1 X23.221 Y70.731 F1000
G1 X23.118 Y70.731 F1000
G1 X23.015 Y70.834 F1000
G1 X22.912 Y70.834 F1000
G1 X22.809 Y70.937 F1000
G1 X22.706 Y70.937 F1000
G1 X22.603 Y71.040 F1000
G1 X22.500 Y71.040 F1000
G1 X22.294 Y71.246 F1000
G1 X22.191 Y71.246 F1000
G1 X22.088 Y71.349 F1000
G1 X21.985 Y71.349 F1000
G1 X21.882 Y71.452 F1000
G1 X21.779 Y71.452 F1000
G1 X21.676 Y71.555 F1000
G1 X21.573 Y71.452 F1000
G0 Z3.0 ; Pen up

G0 X21.985 Y72.379 F3000 ; Travel to line 59
G0 Z0.0 ; Pen down
G1 X21.985 Y72.276 F1000
G1 X21.882 Y72.173 F1000
G1 X21.882 Y72.070 F1000
G1 X21.779 Y71.967 F1000
G1 X21.779 Y71.864 F1000
G1 X21.676 Y71.761 F1000
G1 X21.676 Y71.555 F1000
G1 X21.779 Y71.452 F1000
G1 X21.985 Y71.452 F1000
G1 X22.088 Y71.349 F1000
G1 X22.191 Y71.349 F1000
G1 X22.294 Y71.246 F1000
G1 X22.397 Y71.246 F1000
G1 X22.603 Y71.040 F1000
G1 X22.706 Y71.040 F1000
G1 X22.809 Y70.937 F1000
G1 X22.912 Y70.937 F1000
G1 X23.015 Y70.834 F1000
G1 X23.118 Y70.834 F1000
G1 X23.221 Y70.731 F1000
G1 X23.324 Y70.731 F1000
G1 X23.427 Y70.628 F1000
G1 X23.633 Y70.834 F1000
G1 X23.633 Y70.937 F1000
G1 X23.839 Y71.143 F1000
G1 X23.839 Y71.246 F1000
G1 X23.942 Y71.349 F1000
G1 X23.942 Y71.555 F1000
G1 X23.839 Y71.658 F1000
G1 X23.736 Y71.658 F1000
G1 X23.530 Y71.864 F1000
G1 X23.427 Y71.864 F1000
G1 X23.221 Y72.070 F1000
G1 X23.118 Y72.070 F1000
G1 X22.912 Y72.276 F1000
G1 X22.809 Y72.276 F1000
G1 X22.603 Y72.482 F1000
G1 X22.500 Y72.482 F1000
G1 X22.397 Y72.585 F1000
G1 X22.191 Y72.585 F1000
G0 Z3.0 ; Pen up

G0 X23.427 Y74.336 F3000 ; Travel to line 60
G0 Z0.0 ; Pen down
G1 X23.118 Y74.027 F1000
G1 X23.118 Y73.924 F1000
G1 X23.015 Y73.821 F1000
G1 X23.015 Y73.718 F1000
G1 X22.912 Y73.615 F1000
G1 X23.221 Y73.306 F1000
G1 X23.324 Y73.306 F1000
G1 X23.530 Y73.100 F1000
G1 X23.633 Y73.100 F1000
G1 X23.839 Y72.894 F1000
G1 X23.942 Y72.894 F1000
G1 X24.148 Y72.688 F1000
G1 X24.251 Y72.688 F1000
G1 X24.354 Y72.585 F1000
G1 X24.251 Y72.688 F1000
G1 X24.148 Y72.688 F1000
G1 X23.942 Y72.894 F1000
G1 X23.839 Y72.894 F1000
G1 X23.633 Y73.100 F1000
G1 X23.530 Y73.100 F1000
G1 X23.324 Y73.306 F1000
G1 X23.221 Y73.306 F1000
G1 X23.015 Y73.512 F1000
G1 X22.912 Y73.512 F1000
G1 X22.706 Y73.306 F1000
G1 X22.706 Y73.203 F1000
G1 X22.500 Y72.997 F1000
G1 X22.500 Y72.894 F1000
G1 X22.397 Y72.791 F1000
G1 X22.397 Y72.585 F1000
G1 X22.500 Y72.482 F1000
G1 X22.603 Y72.482 F1000
G1 X22.809 Y72.276 F1000
G1 X22.912 Y72.276 F1000
G1 X23.118 Y72.070 F1000
G1 X23.221 Y72.070 F1000
G1 X23.427 Y71.864 F1000
G1 X23.530 Y71.864 F1000
G1 X23.736 Y71.658 F1000
G1 X24.045 Y71.658 F1000
G1 X24.354 Y71.967 F1000
G1 X24.354 Y72.070 F1000
G1 X24.560 Y72.276 F1000
G1 X24.560 Y72.379 F1000
G1 X24.869 Y72.688 F1000
G1 X24.869 Y72.791 F1000
G1 X25.178 Y73.100 F1000
G1 X25.178 Y73.203 F1000
G1 X25.075 Y73.306 F1000
G1 X25.075 Y73.409 F1000
G1 X24.869 Y73.615 F1000
G1 X24.766 Y73.615 F1000
G1 X24.354 Y74.027 F1000
G1 X24.251 Y74.027 F1000
G1 X23.839 Y74.439 F1000
G1 X23.736 Y74.439 F1000
G1 X23.633 Y74.542 F1000
G1 X23.530 Y74.542 F1000
G1 X23.427 Y74.439 F1000
G0 Z3.0 ; Pen up

G0 X23.736 Y74.645 F3000 ; Travel to line 61
G0 Z0.0 ; Pen down
G1 X23.736 Y74.542 F1000
G1 X24.251 Y74.027 F1000
G1 X24.354 Y74.027 F1000
G1 X24.766 Y73.615 F1000
G1 X24.869 Y73.615 F1000
G1 X25.075 Y73.409 F1000
G1 X25.178 Y73.409 F1000
G1 X25.281 Y73.306 F1000
G1 X25.693 Y73.718 F1000
G1 X25.693 Y73.821 F1000
G1 X25.899 Y74.027 F1000
G1 X25.796 Y74.130 F1000
G1 X25.796 Y74.233 F1000
G1 X25.178 Y74.851 F1000
G1 X25.075 Y74.851 F1000
G1 X24.560 Y75.366 F1000
G1 X24.457 Y75.366 F1000
G0 Z3.0 ; Pen up

G0 X25.075 Y76.190 F3000 ; Travel to line 62
G0 Z0.0 ; Pen down
G1 X24.560 Y75.675 F1000
G1 X24.560 Y75.572 F1000
G1 X24.457 Y75.469 F1000
G1 X24.972 Y74.954 F1000
G1 X25.075 Y74.954 F1000
G1 X25.796 Y74.233 F1000
G1 X25.899 Y74.233 F1000
G1 X26.002 Y74.130 F1000
G1 X26.620 Y74.748 F1000
G1 X26.517 Y74.851 F1000
G1 X26.517 Y74.954 F1000
G1 X25.796 Y75.675 F1000
G1 X25.796 Y75.778 F1000
G1 X25.281 Y76.293 F1000
G1 X25.178 Y76.190 F1000
G0 Z3.0 ; Pen up

G0 X25.281 Y76.602 F3000 ; Travel to line 63
G0 Z0.0 ; Pen down
G1 X25.178 Y76.499 F1000
G1 X25.178 Y76.396 F1000
G1 X25.281 Y76.293 F1000
G1 X25.590 Y76.602 F1000
G1 X25.590 Y76.705 F1000
G1 X25.384 Y76.911 F1000
G1 X25.281 Y76.808 F1000
G0 Z3.0 ; Pen up

G0 X25.693 Y76.705 F3000 ; Travel to line 64
G0 Z0.0 ; Pen down
G1 X25.590 Y76.602 F1000
G1 X25.590 Y76.499 F1000
G1 X25.384 Y76.293 F1000
G1 X25.384 Y76.190 F1000
G1 X25.796 Y75.778 F1000
G1 X25.796 Y75.675 F1000
G1 X26.517 Y74.954 F1000
G1 X26.620 Y74.954 F1000
G1 X26.723 Y74.851 F1000
G1 X26.929 Y75.057 F1000
G1 X27.032 Y75.057 F1000
G1 X27.444 Y75.469 F1000
G1 X27.341 Y75.572 F1000
G1 X27.341 Y75.675 F1000
G1 X27.135 Y75.881 F1000
G1 X27.135 Y75.984 F1000
G1 X26.723 Y76.396 F1000
G1 X26.723 Y76.499 F1000
G1 X26.517 Y76.705 F1000
G1 X26.414 Y76.602 F1000
G1 X26.105 Y76.602 F1000
G1 X25.899 Y76.808 F1000
G1 X25.796 Y76.705 F1000
G0 Z3.0 ; Pen up

G0 X26.002 Y76.911 F3000 ; Travel to line 65
G0 Z0.0 ; Pen down
G1 X26.002 Y76.808 F1000
G1 X26.208 Y76.602 F1000
G1 X26.311 Y76.602 F1000
G1 X26.414 Y76.705 F1000
G1 X26.414 Y77.014 F1000
G1 X26.311 Y77.117 F1000
G1 X26.208 Y77.117 F1000
G0 Z3.0 ; Pen up

G0 X27.238 Y77.117 F3000 ; Travel to line 66
G0 Z0.0 ; Pen down
G1 X27.341 Y77.014 F1000
G1 X27.547 Y77.014 F1000
G1 X27.650 Y77.117 F1000
G1 X27.650 Y77.220 F1000
G1 X27.444 Y77.426 F1000
G1 X27.341 Y77.426 F1000
G1 X27.238 Y77.323 F1000
G0 Z3.0 ; Pen up

G0 X27.753 Y78.250 F3000 ; Travel to line 67
G0 Z0.0 ; Pen down
G1 X27.547 Y78.044 F1000
G1 X27.444 Y78.044 F1000
G1 X27.238 Y77.838 F1000
G1 X27.238 Y77.735 F1000
G1 X27.341 Y77.632 F1000
G1 X27.341 Y77.529 F1000
G1 X27.444 Y77.426 F1000
G1 X27.547 Y77.426 F1000
G1 X27.547 Y77.323 F1000
G1 X27.650 Y77.220 F1000
G1 X27.650 Y77.117 F1000
G1 X27.753 Y77.014 F1000
G1 X27.856 Y77.014 F1000
G1 X27.959 Y77.117 F1000
G1 X27.959 Y77.426 F1000
G1 X27.959 Y77.014 F1000
G1 X27.856 Y76.911 F1000
G1 X27.856 Y76.808 F1000
G1 X28.062 Y76.602 F1000
G1 X28.062 Y76.499 F1000
G1 X28.165 Y76.396 F1000
G1 X28.062 Y76.499 F1000
G1 X28.062 Y76.602 F1000
G1 X27.856 Y76.808 F1000
G1 X27.856 Y76.911 F1000
G1 X27.753 Y77.014 F1000
G1 X27.341 Y77.014 F1000
G1 X27.238 Y76.911 F1000
G1 X27.238 Y76.602 F1000
G1 X27.238 Y77.426 F1000
G1 X27.341 Y77.529 F1000
G1 X27.341 Y77.632 F1000
G1 X27.238 Y77.735 F1000
G1 X26.929 Y77.735 F1000
G1 X26.723 Y77.529 F1000
G1 X26.620 Y77.529 F1000
G1 X26.311 Y77.220 F1000
G1 X26.311 Y77.117 F1000
G1 X26.414 Y77.014 F1000
G1 X26.414 Y76.808 F1000
G1 X26.723 Y76.499 F1000
G1 X26.723 Y76.396 F1000
G1 X27.135 Y75.984 F1000
G1 X27.135 Y75.881 F1000
G1 X27.341 Y75.675 F1000
G1 X27.444 Y75.675 F1000
G1 X27.547 Y75.572 F1000
G1 X27.650 Y75.572 F1000
G1 X27.959 Y75.881 F1000
G1 X28.062 Y75.881 F1000
G1 X28.371 Y76.190 F1000
G1 X28.474 Y76.190 F1000
G1 X28.680 Y76.396 F1000
G1 X28.783 Y76.396 F1000
G1 X29.092 Y76.705 F1000
G1 X29.092 Y76.911 F1000
G1 X28.989 Y77.014 F1000
G1 X28.989 Y77.117 F1000
G1 X28.783 Y77.323 F1000
G1 X28.783 Y77.426 F1000
G1 X28.680 Y77.529 F1000
G1 X28.474 Y77.323 F1000
G1 X28.474 Y76.602 F1000
G1 X28.474 Y77.323 F1000
G1 X28.371 Y77.426 F1000
G1 X28.165 Y77.426 F1000
G1 X28.474 Y77.426 F1000
G1 X28.577 Y77.529 F1000
G1 X28.577 Y77.735 F1000
G1 X28.474 Y77.838 F1000
G1 X28.474 Y77.941 F1000
G1 X28.268 Y78.147 F1000
G1 X28.268 Y78.250 F1000
G1 X28.165 Y78.353 F1000
G1 X27.959 Y78.353 F1000
G1 X27.856 Y78.250 F1000
G0 Z3.0 ; Pen up

G0 X28.783 Y78.765 F3000 ; Travel to line 68
G0 Z0.0 ; Pen down
G1 X28.474 Y78.765 F1000
G1 X28.165 Y78.456 F1000
G1 X28.165 Y78.353 F1000
G1 X28.268 Y78.250 F1000
G1 X28.268 Y78.147 F1000
G1 X28.474 Y77.941 F1000
G1 X28.474 Y77.838 F1000
G1 X28.577 Y77.735 F1000
G1 X28.577 Y77.632 F1000
G1 X28.783 Y77.426 F1000
G1 X28.783 Y77.323 F1000
G1 X28.989 Y77.117 F1000
G1 X28.989 Y77.014 F1000
G1 X29.195 Y76.808 F1000
G1 X29.401 Y76.808 F1000
G1 X29.504 Y76.911 F1000
G1 X29.607 Y76.911 F1000
G1 X29.813 Y77.117 F1000
G1 X29.916 Y77.117 F1000
G1 X30.122 Y77.323 F1000
G1 X30.019 Y77.426 F1000
G1 X30.019 Y77.529 F1000
G1 X29.916 Y77.632 F1000
G1 X29.916 Y77.735 F1000
G1 X29.813 Y77.838 F1000
G1 X29.813 Y77.941 F1000
G1 X29.710 Y78.044 F1000
G1 X29.710 Y78.147 F1000
G1 X29.607 Y78.250 F1000
G1 X29.607 Y78.353 F1000
G1 X29.504 Y78.456 F1000
G1 X29.504 Y78.559 F1000
G1 X29.298 Y78.765 F1000
G1 X29.195 Y78.765 F1000
G1 X29.195 Y78.868 F1000
G1 X29.092 Y78.971 F1000
G1 X28.989 Y78.971 F1000
G0 Z3.0 ; Pen up

G0 X29.195 Y79.074 F3000 ; Travel to line 69
G0 Z0.0 ; Pen down
G1 X29.195 Y78.868 F1000
G1 X29.298 Y78.765 F1000
G1 X29.401 Y78.868 F1000
G1 X29.607 Y78.868 F1000
G1 X29.710 Y78.971 F1000
G1 X29.607 Y79.074 F1000
G1 X29.607 Y79.177 F1000
G1 X29.504 Y79.280 F1000
G1 X29.401 Y79.280 F1000
G0 Z3.0 ; Pen up

G0 X29.710 Y79.383 F3000 ; Travel to line 70
G0 Z0.0 ; Pen down
G1 X29.607 Y79.280 F1000
G1 X29.607 Y79.074 F1000
G1 X29.710 Y78.971 F1000
G1 X29.710 Y78.868 F1000
G1 X29.504 Y78.868 F1000
G1 X29.401 Y78.765 F1000
G1 X29.401 Y78.662 F1000
G1 X29.504 Y78.559 F1000
G1 X29.504 Y78.456 F1000
G1 X29.607 Y78.353 F1000
G1 X29.607 Y78.250 F1000
G1 X29.710 Y78.147 F1000
G1 X29.710 Y78.044 F1000
G1 X29.813 Y77.941 F1000
G1 X29.813 Y77.838 F1000
G1 X29.916 Y77.735 F1000
G1 X29.916 Y77.632 F1000
G1 X30.225 Y77.323 F1000
G1 X30.328 Y77.323 F1000
G1 X30.431 Y77.426 F1000
G1 X30.534 Y77.426 F1000
G1 X30.637 Y77.529 F1000
G1 X30.740 Y77.529 F1000
G1 X30.946 Y77.735 F1000
G1 X30.946 Y78.044 F1000
G1 X30.843 Y78.147 F1000
G1 X30.843 Y78.250 F1000
G1 X30.740 Y78.353 F1000
G1 X30.740 Y78.456 F1000
G1 X30.637 Y78.559 F1000
G1 X30.637 Y78.662 F1000
G1 X30.534 Y78.765 F1000
G1 X30.534 Y78.971 F1000
G1 X30.431 Y79.074 F1000
G1 X30.122 Y79.074 F1000
G1 X30.019 Y78.971 F1000
G1 X30.019 Y78.662 F1000
G1 X30.019 Y79.383 F1000
G1 X29.916 Y79.486 F1000
G1 X29.813 Y79.383 F1000
G0 Z3.0 ; Pen up

G0 X30.019 Y79.383 F3000 ; Travel to line 71
G0 Z0.0 ; Pen down
G1 X30.122 Y79.486 F1000
G1 X30.225 Y79.486 F1000
G1 X30.431 Y79.280 F1000
G1 X30.431 Y79.177 F1000
G1 X30.328 Y79.074 F1000
G1 X30.122 Y79.074 F1000
G1 X30.019 Y79.177 F1000
G0 Z3.0 ; Pen up

G0 X30.843 Y79.177 F3000 ; Travel to line 72
G0 Z0.0 ; Pen down
G1 X30.946 Y79.074 F1000
G1 X31.152 Y79.074 F1000
G1 X31.358 Y79.280 F1000
G1 X31.152 Y79.486 F1000
G1 X30.946 Y79.486 F1000
G1 X30.843 Y79.383 F1000
G0 Z3.0 ; Pen up

G0 X30.843 Y78.971 F3000 ; Travel to line 73
G0 Z0.0 ; Pen down
G1 X30.946 Y79.074 F1000
G1 X31.255 Y79.074 F1000
G1 X31.358 Y78.971 F1000
G1 X31.358 Y78.765 F1000
G1 X31.255 Y78.662 F1000
G1 X30.946 Y78.662 F1000
G1 X30.843 Y78.765 F1000
G0 Z3.0 ; Pen up

G0 X30.740 Y79.898 F3000 ; Travel to line 74
G0 Z0.0 ; Pen down
G1 X30.637 Y79.795 F1000
G1 X30.534 Y79.795 F1000
G1 X30.328 Y79.589 F1000
G1 X30.328 Y79.383 F1000
G1 X30.431 Y79.280 F1000
G1 X30.431 Y79.074 F1000
G1 X30.534 Y78.971 F1000
G1 X30.534 Y78.765 F1000
G1 X30.740 Y78.559 F1000
G1 X30.843 Y78.662 F1000
G1 X30.843 Y79.486 F1000
G1 X31.255 Y79.486 F1000
G1 X31.358 Y79.383 F1000
G1 X31.358 Y79.177 F1000
G1 X31.255 Y79.074 F1000
G1 X31.358 Y78.971 F1000
G1 X31.358 Y78.765 F1000
G1 X31.255 Y78.662 F1000
G1 X30.843 Y78.662 F1000
G1 X30.740 Y78.559 F1000
G1 X30.740 Y78.353 F1000
G1 X30.843 Y78.250 F1000
G1 X30.843 Y78.147 F1000
G1 X30.946 Y78.044 F1000
G1 X30.946 Y77.941 F1000
G1 X31.049 Y77.838 F1000
G1 X31.358 Y77.838 F1000
G1 X31.461 Y77.941 F1000
G1 X31.667 Y77.941 F1000
G1 X31.770 Y78.044 F1000
G1 X31.873 Y78.044 F1000
G1 X31.976 Y78.147 F1000
G1 X31.976 Y78.456 F1000
G1 X31.873 Y78.559 F1000
G1 X31.873 Y78.662 F1000
G1 X31.770 Y78.765 F1000
G1 X31.770 Y78.868 F1000
G1 X31.667 Y78.971 F1000
G1 X31.667 Y79.280 F1000
G1 X31.564 Y79.383 F1000
G1 X31.564 Y79.589 F1000
G1 X31.461 Y79.692 F1000
G1 X31.461 Y79.795 F1000
G1 X31.255 Y80.001 F1000
G1 X31.049 Y80.001 F1000
G1 X30.946 Y79.898 F1000
G0 Z3.0 ; Pen up

G0 X31.873 Y80.310 F3000 ; Travel to line 75
G0 Z0.0 ; Pen down
G1 X31.770 Y80.207 F1000
G1 X31.461 Y80.207 F1000
G1 X31.358 Y80.104 F1000
G1 X31.358 Y79.898 F1000
G1 X31.461 Y79.795 F1000
G1 X31.461 Y79.692 F1000
G1 X31.564 Y79.589 F1000
G1 X31.564 Y79.383 F1000
G1 X31.667 Y79.280 F1000
G1 X31.667 Y78.971 F1000
G1 X31.770 Y78.868 F1000
G1 X31.770 Y78.765 F1000
G1 X31.873 Y78.662 F1000
G1 X32.079 Y78.662 F1000
G1 X32.182 Y78.765 F1000
G1 X32.182 Y78.868 F1000
G1 X32.285 Y78.971 F1000
G1 X32.285 Y79.486 F1000
G1 X32.285 Y78.868 F1000
G1 X32.079 Y78.662 F1000
G1 X31.976 Y78.662 F1000
G1 X31.873 Y78.559 F1000
G1 X31.976 Y78.456 F1000
G1 X31.976 Y78.353 F1000
G1 X32.079 Y78.250 F1000
G1 X32.388 Y78.250 F1000
G1 X32.491 Y78.353 F1000
G1 X32.697 Y78.353 F1000
G1 X32.800 Y78.456 F1000
G1 X32.903 Y78.456 F1000
G1 X33.006 Y78.559 F1000
G1 X33.006 Y78.868 F1000
G1 X32.800 Y79.074 F1000
G1 X32.697 Y79.074 F1000
G1 X32.594 Y78.971 F1000
G1 X32.594 Y78.662 F1000
G1 X32.594 Y79.486 F1000
G1 X32.697 Y79.589 F1000
G1 X32.697 Y79.898 F1000
G1 X32.594 Y80.001 F1000
G1 X32.594 Y80.207 F1000
G1 X32.388 Y80.413 F1000
G1 X32.182 Y80.413 F1000
G1 X32.079 Y80.310 F1000
G0 Z3.0 ; Pen up

G0 X33.006 Y80.722 F3000 ; Travel to line 76
G0 Z0.0 ; Pen down
G1 X32.903 Y80.619 F1000
G1 X32.594 Y80.619 F1000
G1 X32.491 Y80.516 F1000
G1 X32.491 Y80.310 F1000
G1 X32.594 Y80.207 F1000
G1 X32.594 Y80.001 F1000
G1 X32.697 Y79.898 F1000
G1 X32.697 Y79.589 F1000
G1 X32.903 Y79.383 F1000
G1 X33.109 Y79.383 F1000
G1 X33.109 Y79.177 F1000
G1 X33.006 Y79.177 F1000
G1 X32.903 Y79.074 F1000
G1 X32.903 Y78.971 F1000
G1 X33.006 Y78.868 F1000
G1 X33.006 Y78.662 F1000
G1 X33.109 Y78.559 F1000
G1 X33.212 Y78.559 F1000
G1 X33.418 Y78.765 F1000
G1 X33.418 Y79.486 F1000
G1 X33.418 Y78.765 F1000
G1 X33.521 Y78.662 F1000
G1 X33.727 Y78.662 F1000
G1 X33.830 Y78.765 F1000
G1 X33.933 Y78.765 F1000
G1 X34.036 Y78.868 F1000
G1 X34.036 Y79.177 F1000
G1 X33.933 Y79.280 F1000
G1 X33.933 Y79.692 F1000
G1 X33.830 Y79.795 F1000
G1 X33.830 Y80.207 F1000
G1 X33.727 Y80.310 F1000
G1 X33.727 Y80.722 F1000
G1 X33.624 Y80.825 F1000
G1 X33.418 Y80.825 F1000
G1 X33.315 Y80.722 F1000
G0 Z3.0 ; Pen up

G0 X33.418 Y80.928 F3000 ; Travel to line 77
G0 Z0.0 ; Pen down
G1 X33.521 Y80.825 F1000
G1 X33.830 Y80.825 F1000
G1 X33.933 Y80.928 F1000
G1 X33.933 Y81.031 F1000
G1 X33.830 Y81.134 F1000
G1 X33.521 Y81.134 F1000
G1 X33.418 Y81.031 F1000
G0 Z3.0 ; Pen up

G0 X33.418 Y81.237 F3000 ; Travel to line 78
G0 Z0.0 ; Pen down
G1 X33.521 Y81.134 F1000
G1 X33.727 Y81.134 F1000
G1 X33.933 Y81.340 F1000
G1 X33.727 Y81.546 F1000
G1 X33.521 Y81.546 F1000
G1 X33.418 Y81.443 F1000
G0 Z3.0 ; Pen up

G0 X32.697 Y81.546 F3000 ; Travel to line 79
G0 Z0.0 ; Pen down
G1 X32.903 Y81.546 F1000
G1 X33.109 Y81.340 F1000
G1 X33.109 Y80.825 F1000
G1 X32.903 Y80.619 F1000
G1 X32.800 Y80.619 F1000
G1 X32.491 Y80.928 F1000
G1 X32.491 Y81.340 F1000
G0 Z3.0 ; Pen up

G0 X31.564 Y81.237 F3000 ; Travel to line 80
G0 Z0.0 ; Pen down
G1 X31.667 Y81.134 F1000
G1 X32.079 Y81.134 F1000
G1 X32.182 Y81.237 F1000
G1 X32.182 Y81.546 F1000
G1 X32.182 Y81.031 F1000
G1 X32.079 Y81.134 F1000
G1 X31.667 Y81.134 F1000
G1 X31.564 Y81.031 F1000
G1 X31.564 Y80.722 F1000
G1 X31.564 Y81.546 F1000
G0 Z3.0 ; Pen up

G0 X30.740 Y81.546 F3000 ; Travel to line 81
G0 Z0.0 ; Pen down
G1 X30.843 Y81.443 F1000
G1 X30.843 Y81.237 F1000
G1 X30.740 Y81.134 F1000
G1 X30.740 Y81.031 F1000
G1 X30.843 Y80.928 F1000
G1 X30.843 Y80.722 F1000
G1 X30.843 Y80.928 F1000
G1 X30.637 Y81.134 F1000
G1 X30.431 Y81.134 F1000
G1 X30.328 Y81.031 F1000
G1 X30.328 Y80.722 F1000
G1 X30.328 Y81.546 F1000
G0 Z3.0 ; Pen up

G0 X30.328 Y81.443 F3000 ; Travel to line 82
G0 Z0.0 ; Pen down
G1 X30.431 Y81.546 F1000
G1 X30.637 Y81.546 F1000
G1 X30.843 Y81.340 F1000
G1 X30.637 Y81.134 F1000
G1 X30.431 Y81.134 F1000
G1 X30.328 Y81.237 F1000
G0 Z3.0 ; Pen up

G0 X29.710 Y81.443 F3000 ; Travel to line 83
G0 Z0.0 ; Pen down
G1 X29.813 Y81.340 F1000
G1 X29.813 Y81.134 F1000
G1 X29.916 Y81.031 F1000
G1 X29.813 Y80.928 F1000
G1 X29.607 Y80.928 F1000
G1 X29.504 Y81.031 F1000
G1 X29.504 Y81.237 F1000
G0 Z3.0 ; Pen up

G0 X29.195 Y81.546 F3000 ; Travel to line 84
G0 Z0.0 ; Pen down
G1 X28.783 Y81.546 F1000
G1 X28.680 Y81.443 F1000
G1 X28.680 Y81.237 F1000
G1 X28.783 Y81.134 F1000
G1 X29.195 Y81.134 F1000
G1 X28.783 Y81.134 F1000
G1 X28.680 Y81.031 F1000
G1 X28.680 Y80.825 F1000
G1 X28.783 Y80.722 F1000
G1 X29.298 Y80.722 F1000
G1 X29.401 Y80.825 F1000
G1 X29.401 Y80.928 F1000
G1 X29.504 Y81.031 F1000
G1 X29.504 Y81.340 F1000
G1 X29.607 Y81.443 F1000
G1 X29.710 Y81.443 F1000
G1 X29.813 Y81.340 F1000
G1 X29.813 Y81.134 F1000
G1 X29.916 Y81.031 F1000
G1 X29.916 Y80.928 F1000
G1 X29.504 Y80.928 F1000
G1 X29.401 Y80.825 F1000
G1 X29.401 Y80.722 F1000
G1 X28.680 Y80.722 F1000
G1 X28.680 Y81.546 F1000
G0 Z3.0 ; Pen up

G0 X28.268 Y81.546 F3000 ; Travel to line 85
G0 Z0.0 ; Pen down
G1 X28.371 Y81.443 F1000
G1 X28.268 Y81.546 F1000
G1 X27.959 Y81.546 F1000
G1 X27.753 Y81.340 F1000
G1 X27.753 Y80.928 F1000
G1 X27.959 Y80.722 F1000
G1 X28.268 Y80.722 F1000
G1 X28.371 Y80.825 F1000
G1 X28.371 Y81.031 F1000
G1 X28.268 Y81.134 F1000
G1 X28.165 Y81.134 F1000
G1 X28.371 Y81.134 F1000
G1 X28.371 Y80.825 F1000
G1 X28.268 Y80.722 F1000
G1 X27.959 Y80.722 F1000
G1 X27.753 Y80.928 F1000
G1 X27.753 Y81.340 F1000
G1 X27.959 Y81.546 F1000
G0 Z3.0 ; Pen up

G0 X26.414 Y81.546 F3000 ; Travel to line 86
G0 Z0.0 ; Pen down
G1 X26.414 Y80.722 F1000
G1 X26.414 Y81.031 F1000
G1 X26.517 Y81.134 F1000
G1 X26.929 Y81.134 F1000
G1 X27.032 Y81.031 F1000
G1 X27.032 Y81.546 F1000
G1 X27.032 Y81.237 F1000
G1 X26.929 Y81.134 F1000
G1 X26.517 Y81.134 F1000
G1 X26.414 Y81.237 F1000
G0 Z3.0 ; Pen up

G0 X26.105 Y81.546 F3000 ; Travel to line 87
G0 Z0.0 ; Pen down
G1 X25.899 Y81.546 F1000
G1 X25.796 Y81.443 F1000
G1 X25.796 Y80.722 F1000
G1 X25.796 Y81.443 F1000
G1 X25.693 Y81.546 F1000
G1 X25.487 Y81.546 F1000
G0 Z3.0 ; Pen up

G0 X25.281 Y81.546 F3000 ; Travel to line 88
G0 Z0.0 ; Pen down
G1 X25.281 Y80.722 F1000
G0 Z3.0 ; Pen up

G0 X25.178 Y79.486 F3000 ; Travel to line 89
G0 Z0.0 ; Pen down
G1 X25.178 Y78.662 F1000
G0 Z3.0 ; Pen up

G0 X24.972 Y79.486 F3000 ; Travel to line 90
G0 Z0.0 ; Pen down
G1 X24.766 Y79.486 F1000
G1 X24.663 Y79.383 F1000
G1 X24.663 Y78.662 F1000
G1 X24.663 Y79.383 F1000
G1 X24.560 Y79.486 F1000
G1 X24.045 Y79.486 F1000
G1 X23.942 Y79.383 F1000
G1 X23.942 Y78.662 F1000
G1 X23.942 Y79.383 F1000
G1 X23.839 Y79.486 F1000
G1 X23.633 Y79.486 F1000
G0 Z3.0 ; Pen up

G0 X22.809 Y79.486 F3000 ; Travel to line 91
G0 Z0.0 ; Pen down
G1 X22.809 Y78.868 F1000
G1 X22.912 Y78.765 F1000
G1 X22.912 Y78.662 F1000
G1 X23.221 Y78.662 F1000
G1 X23.427 Y78.868 F1000
G1 X23.427 Y79.486 F1000
G1 X23.427 Y78.971 F1000
G1 X23.324 Y78.868 F1000
G1 X23.324 Y78.765 F1000
G1 X23.221 Y78.662 F1000
G1 X23.015 Y78.662 F1000
G1 X22.809 Y78.868 F1000
G0 Z3.0 ; Pen up

G0 X22.500 Y79.486 F3000 ; Travel to line 92
G0 Z0.0 ; Pen down
G1 X22.603 Y79.383 F1000
G1 X22.500 Y79.486 F1000
G1 X22.191 Y79.486 F1000
G1 X21.985 Y79.280 F1000
G1 X21.985 Y78.868 F1000
G1 X22.191 Y78.662 F1000
G1 X22.500 Y78.662 F1000
G1 X22.603 Y78.765 F1000
G1 X22.500 Y78.662 F1000
G1 X22.191 Y78.662 F1000
G1 X21.985 Y78.868 F1000
G1 X21.985 Y79.280 F1000
G1 X22.191 Y79.486 F1000
G0 Z3.0 ; Pen up

G0 X21.161 Y79.486 F3000 ; Travel to line 93
G0 Z0.0 ; Pen down
G1 X21.264 Y79.383 F1000
G1 X21.264 Y79.177 F1000
G1 X21.161 Y79.074 F1000
G1 X21.161 Y78.971 F1000
G1 X21.264 Y78.868 F1000
G1 X21.264 Y78.662 F1000
G1 X21.264 Y78.868 F1000
G1 X21.058 Y79.074 F1000
G1 X20.852 Y79.074 F1000
G1 X20.749 Y78.971 F1000
G1 X20.749 Y78.662 F1000
G1 X20.749 Y79.486 F1000
G0 Z3.0 ; Pen up

G0 X20.749 Y79.383 F3000 ; Travel to line 94
G0 Z0.0 ; Pen down
G1 X20.852 Y79.486 F1000
G1 X21.058 Y79.486 F1000
G1 X21.264 Y79.280 F1000
G1 X21.058 Y79.074 F1000
G1 X20.852 Y79.074 F1000
G1 X20.749 Y79.177 F1000
G0 Z3.0 ; Pen up

G0 X20.440 Y79.486 F3000 ; Travel to line 95
G0 Z0.0 ; Pen down
G1 X20.028 Y79.486 F1000
G1 X19.925 Y79.383 F1000
G1 X19.925 Y79.177 F1000
G1 X20.028 Y79.074 F1000
G1 X20.440 Y79.074 F1000
G1 X20.028 Y79.074 F1000
G1 X19.925 Y78.971 F1000
G1 X19.925 Y78.765 F1000
G1 X20.028 Y78.662 F1000
G1 X20.440 Y78.662 F1000
G1 X19.925 Y78.662 F1000
G1 X19.925 Y79.486 F1000
G0 Z3.0 ; Pen up

G0 X19.719 Y79.486 F3000 ; Travel to line 96
G0 Z0.0 ; Pen down
G1 X19.513 Y79.486 F1000
G1 X19.410 Y79.383 F1000
G1 X19.410 Y78.662 F1000
G1 X19.410 Y79.383 F1000
G1 X19.307 Y79.486 F1000
G1 X19.101 Y79.486 F1000
G0 Z3.0 ; Pen up

G0 X18.895 Y79.486 F3000 ; Travel to line 97
G0 Z0.0 ; Pen down
G1 X18.586 Y79.486 F1000
G1 X18.483 Y79.383 F1000
G1 X18.483 Y79.177 F1000
G1 X18.586 Y79.074 F1000
G1 X18.895 Y79.074 F1000
G1 X18.586 Y79.074 F1000
G1 X18.483 Y78.971 F1000
G1 X18.483 Y78.662 F1000
G1 X18.483 Y79.486 F1000
G0 Z3.0 ; Pen up

G0 X17.865 Y79.383 F3000 ; Travel to line 98
G0 Z0.0 ; Pen down
G1 X17.762 Y79.280 F1000
G1 X17.762 Y78.971 F1000
G1 X17.659 Y78.868 F1000
G1 X17.659 Y78.662 F1000
G1 X17.659 Y78.765 F1000
G1 X17.762 Y78.868 F1000
G1 X18.174 Y78.868 F1000
G1 X18.174 Y78.971 F1000
G1 X18.071 Y79.074 F1000
G1 X18.071 Y79.280 F1000
G1 X17.968 Y79.383 F1000
G1 X17.968 Y79.383 F1000
G1 X18.071 Y79.280 F1000
G1 X18.071 Y79.074 F1000
G1 X18.174 Y78.971 F1000
G1 X18.071 Y78.868 F1000
G1 X17.865 Y78.868 F1000
G1 X17.762 Y78.971 F1000
G1 X17.762 Y79.177 F1000
G0 Z3.0 ; Pen up

G0 X17.041 Y79.486 F3000 ; Travel to line 99
G0 Z0.0 ; Pen down
G1 X16.835 Y79.486 F1000
G1 X16.732 Y79.383 F1000
G1 X16.732 Y78.662 F1000
G1 X16.732 Y79.383 F1000
G1 X16.629 Y79.486 F1000
G1 X16.423 Y79.486 F1000
G0 Z3.0 ; Pen up

G0 X16.011 Y79.383 F3000 ; Travel to line 100
G0 Z0.0 ; Pen down
G1 X15.908 Y79.280 F1000
G1 X15.908 Y78.971 F1000
G1 X15.805 Y78.868 F1000
G1 X15.805 Y78.662 F1000
G1 X15.805 Y78.765 F1000
G1 X15.908 Y78.868 F1000
G1 X16.320 Y78.868 F1000
G1 X16.320 Y78.971 F1000
G1 X16.217 Y79.074 F1000
G1 X16.217 Y79.280 F1000
G1 X16.114 Y79.383 F1000
G1 X16.114 Y79.383 F1000
G1 X16.217 Y79.280 F1000
G1 X16.217 Y79.074 F1000
G1 X16.320 Y78.971 F1000
G1 X16.217 Y78.868 F1000
G1 X16.011 Y78.868 F1000
G1 X15.908 Y78.971 F1000
G1 X15.908 Y79.177 F1000
G0 Z3.0 ; Pen up

G0 X15.496 Y79.486 F3000 ; Travel to line 101
G0 Z0.0 ; Pen down
G1 X15.084 Y79.486 F1000
G1 X14.981 Y79.383 F1000
G1 X14.981 Y79.177 F1000
G1 X15.084 Y79.074 F1000
G1 X15.496 Y79.074 F1000
G1 X15.084 Y79.074 F1000
G1 X14.981 Y78.971 F1000
G1 X14.981 Y78.765 F1000
G1 X15.084 Y78.662 F1000
G1 X15.496 Y78.662 F1000
G1 X14.981 Y78.662 F1000
G1 X14.981 Y79.486 F1000
G0 Z3.0 ; Pen up

G0 X14.569 Y79.486 F3000 ; Travel to line 102
G0 Z0.0 ; Pen down
G1 X14.672 Y79.383 F1000
G1 X14.672 Y79.177 F1000
G1 X14.569 Y79.074 F1000
G1 X14.569 Y78.971 F1000
G1 X14.672 Y78.868 F1000
G1 X14.672 Y78.662 F1000
G1 X14.672 Y78.868 F1000
G1 X14.466 Y79.074 F1000
G1 X14.260 Y79.074 F1000
G1 X14.157 Y78.971 F1000
G1 X14.157 Y78.662 F1000
G1 X14.157 Y79.486 F1000
G0 Z3.0 ; Pen up

G0 X14.157 Y79.383 F3000 ; Travel to line 103
G0 Z0.0 ; Pen down
G1 X14.260 Y79.486 F1000
G1 X14.466 Y79.486 F1000
G1 X14.672 Y79.280 F1000
G1 X14.466 Y79.074 F1000
G1 X14.260 Y79.074 F1000
G1 X14.157 Y79.177 F1000
G0 Z3.0 ; Pen up

G0 X13.848 Y79.486 F3000 ; Travel to line 104
G0 Z0.0 ; Pen down
G1 X13.642 Y79.486 F1000
G1 X13.539 Y79.383 F1000
G1 X13.539 Y78.662 F1000
G1 X13.539 Y79.383 F1000
G1 X13.436 Y79.486 F1000
G1 X13.230 Y79.486 F1000
G0 Z3.0 ; Pen up

G0 X12.715 Y79.486 F3000 ; Travel to line 105
G0 Z0.0 ; Pen down
G1 X12.509 Y79.486 F1000
G1 X12.406 Y79.383 F1000
G1 X12.406 Y78.662 F1000
G1 X12.406 Y79.383 F1000
G1 X12.303 Y79.486 F1000
G1 X12.097 Y79.486 F1000
G0 Z3.0 ; Pen up

G0 X11.685 Y79.383 F3000 ; Travel to line 106
G0 Z0.0 ; Pen down
G1 X11.582 Y79.280 F1000
G1 X11.582 Y78.971 F1000
G1 X11.479 Y78.868 F1000
G1 X11.479 Y78.662 F1000
G1 X11.479 Y78.765 F1000
G1 X11.582 Y78.868 F1000
G1 X11.994 Y78.868 F1000
G1 X11.994 Y78.971 F1000
G1 X11.891 Y79.074 F1000
G1 X11.891 Y79.280 F1000
G1 X11.788 Y79.383 F1000
G1 X11.788 Y79.383 F1000
G1 X11.891 Y79.280 F1000
G1 X11.891 Y79.074 F1000
G1 X11.994 Y78.971 F1000
G1 X11.891 Y78.868 F1000
G1 X11.685 Y78.868 F1000
G1 X11.582 Y78.971 F1000
G1 X11.582 Y79.177 F1000
G0 Z3.0 ; Pen up

G0 X11.170 Y79.486 F3000 ; Travel to line 107
G0 Z0.0 ; Pen down
G1 X10.758 Y79.486 F1000
G1 X10.655 Y79.383 F1000
G1 X10.655 Y79.177 F1000
G1 X10.758 Y79.074 F1000
G1 X11.170 Y79.074 F1000
G1 X10.758 Y79.074 F1000
G1 X10.655 Y78.971 F1000
G1 X10.655 Y78.765 F1000
G1 X10.758 Y78.662 F1000
G1 X11.170 Y78.662 F1000
G1 X10.655 Y78.662 F1000
G1 X10.655 Y79.486 F1000
G0 Z3.0 ; Pen up

G0 X9.728 Y79.486 F3000 ; Travel to line 108
G0 Z0.0 ; Pen down
G1 X9.728 Y78.662 F1000
G1 X9.728 Y78.971 F1000
G1 X9.831 Y79.074 F1000
G1 X10.243 Y79.074 F1000
G1 X10.346 Y78.971 F1000
G1 X10.346 Y79.486 F1000
G1 X10.346 Y79.177 F1000
G1 X10.243 Y79.074 F1000
G1 X9.831 Y79.074 F1000
G1 X9.728 Y79.177 F1000
G0 Z3.0 ; Pen up

G0 X8.492 Y79.486 F3000 ; Travel to line 109
G0 Z0.0 ; Pen down
G1 X8.595 Y79.383 F1000
G1 X8.595 Y79.074 F1000
G1 X8.286 Y78.765 F1000
G1 X8.389 Y78.662 F1000
G1 X8.595 Y78.662 F1000
G1 X8.286 Y78.662 F1000
G1 X8.286 Y78.868 F1000
G1 X8.595 Y79.177 F1000
G1 X8.595 Y79.383 F1000
G1 X8.492 Y79.486 F1000
G1 X8.286 Y79.486 F1000
G1 X8.183 Y79.383 F1000
G1 X8.286 Y79.486 F1000
G0 Z3.0 ; Pen up

G0 X8.286 Y77.426 F3000 ; Travel to line 110
G0 Z0.0 ; Pen down
G1 X8.183 Y77.323 F1000
G1 X8.286 Y77.426 F1000
G1 X8.492 Y77.426 F1000
G1 X8.595 Y77.323 F1000
G1 X8.595 Y77.117 F1000
G1 X8.492 Y77.014 F1000
G1 X8.286 Y77.014 F1000
G1 X8.492 Y77.014 F1000
G1 X8.595 Y76.911 F1000
G1 X8.595 Y76.705 F1000
G1 X8.492 Y76.602 F1000
G1 X8.286 Y76.602 F1000
G1 X8.183 Y76.705 F1000
G1 X8.286 Y76.602 F1000
G1 X8.492 Y76.602 F1000
G1 X8.595 Y76.705 F1000
G1 X8.595 Y76.911 F1000
G1 X8.492 Y77.014 F1000
G1 X8.595 Y77.117 F1000
G1 X8.595 Y77.323 F1000
G1 X8.492 Y77.426 F1000
G0 Z3.0 ; Pen up

G0 X9.831 Y77.426 F3000 ; Travel to line 111
G0 Z0.0 ; Pen down
G1 X9.728 Y77.323 F1000
G1 X9.728 Y77.117 F1000
G1 X9.831 Y77.014 F1000
G1 X10.037 Y77.014 F1000
G1 X10.243 Y76.808 F1000
G1 X10.037 Y76.602 F1000
G1 X9.831 Y76.602 F1000
G1 X9.728 Y76.705 F1000
G1 X9.831 Y76.602 F1000
G1 X10.140 Y76.602 F1000
G1 X10.243 Y76.705 F1000
G1 X10.243 Y76.911 F1000
G1 X10.140 Y77.014 F1000
G1 X9.934 Y77.014 F1000
G1 X9.728 Y77.220 F1000
G1 X9.934 Y77.426 F1000
G1 X10.140 Y77.426 F1000
G0 Z3.0 ; Pen up

G0 X10.552 Y77.426 F3000 ; Travel to line 112
G0 Z0.0 ; Pen down
G1 X10.552 Y76.602 F1000
G1 X10.552 Y76.911 F1000
G1 X10.655 Y77.014 F1000
G1 X11.067 Y77.014 F1000
G1 X11.170 Y76.911 F1000
G1 X11.170 Y77.426 F1000
G1 X11.170 Y77.117 F1000
G1 X11.067 Y77.014 F1000
G1 X10.655 Y77.014 F1000
G1 X10.552 Y77.117 F1000
G0 Z3.0 ; Pen up

G0 X11.582 Y77.117 F3000 ; Travel to line 113
G0 Z0.0 ; Pen down
G1 X11.582 Y76.911 F1000
G1 X11.685 Y76.808 F1000
G1 X11.891 Y76.808 F1000
G1 X11.994 Y76.911 F1000
G1 X11.891 Y77.014 F1000
G1 X11.891 Y77.220 F1000
G1 X11.788 Y77.323 F1000
G1 X11.788 Y77.323 F1000
G1 X11.891 Y77.220 F1000
G1 X11.891 Y77.014 F1000
G1 X11.994 Y76.911 F1000
G1 X11.994 Y76.808 F1000
G1 X11.582 Y76.808 F1000
G1 X11.479 Y76.705 F1000
G1 X11.479 Y76.602 F1000
G1 X11.479 Y76.808 F1000
G1 X11.582 Y76.911 F1000
G1 X11.582 Y77.220 F1000
G1 X11.685 Y77.323 F1000
G0 Z3.0 ; Pen up

G0 X12.303 Y77.426 F3000 ; Travel to line 114
G0 Z0.0 ; Pen down
G1 X12.303 Y76.602 F1000
G1 X12.303 Y76.911 F1000
G1 X12.406 Y77.014 F1000
G1 X12.715 Y77.014 F1000
G1 X12.406 Y77.014 F1000
G1 X12.303 Y77.117 F1000
G1 X12.303 Y77.323 F1000
G1 X12.406 Y77.426 F1000
G1 X12.715 Y77.426 F1000
G0 Z3.0 ; Pen up

G0 X12.921 Y77.426 F3000 ; Travel to line 115
G0 Z0.0 ; Pen down
G1 X13.127 Y77.426 F1000
G1 X13.230 Y77.323 F1000
G1 X13.230 Y76.602 F1000
G1 X13.230 Y77.323 F1000
G1 X13.333 Y77.426 F1000
G1 X13.539 Y77.426 F1000
G0 Z3.0 ; Pen up

G0 X14.054 Y77.426 F3000 ; Travel to line 116
G0 Z0.0 ; Pen down
G1 X14.260 Y77.426 F1000
G1 X14.363 Y77.323 F1000
G1 X14.363 Y76.602 F1000
G1 X14.363 Y77.323 F1000
G1 X14.466 Y77.426 F1000
G1 X14.672 Y77.426 F1000
G0 Z3.0 ; Pen up

G0 X14.878 Y77.220 F3000 ; Travel to line 117
G0 Z0.0 ; Pen down
G1 X14.878 Y76.808 F1000
G1 X15.084 Y76.602 F1000
G1 X15.290 Y76.602 F1000
G1 X15.496 Y76.808 F1000
G1 X15.496 Y77.220 F1000
G1 X15.290 Y77.426 F1000
G1 X15.084 Y77.426 F1000
G1 X15.084 Y77.426 F1000
G1 X14.878 Y77.220 F1000
G1 X14.878 Y76.808 F1000
G1 X15.084 Y76.602 F1000
G1 X15.393 Y76.602 F1000
G1 X15.496 Y76.705 F1000
G1 X15.496 Y77.323 F1000
G1 X15.393 Y77.426 F1000
G0 Z3.0 ; Pen up

G0 X15.908 Y77.426 F3000 ; Travel to line 118
G0 Z0.0 ; Pen down
G1 X15.908 Y76.602 F1000
G1 X17.041 Y76.602 F1000
G1 X16.629 Y76.602 F1000
G1 X16.526 Y76.705 F1000
G1 X16.526 Y76.911 F1000
G1 X16.629 Y77.014 F1000
G1 X17.041 Y77.014 F1000
G1 X16.629 Y77.014 F1000
G1 X16.526 Y77.117 F1000
G1 X16.526 Y77.323 F1000
G1 X16.629 Y77.426 F1000
G1 X17.041 Y77.426 F1000
G1 X16.526 Y77.426 F1000
G1 X16.526 Y76.705 F1000
G1 X16.423 Y76.602 F1000
G1 X16.011 Y76.602 F1000
G1 X15.908 Y76.705 F1000
G0 Z3.0 ; Pen up

G0 X17.350 Y77.117 F3000 ; Travel to line 119
G0 Z0.0 ; Pen down
G1 X17.453 Y77.014 F1000
G1 X17.659 Y77.014 F1000
G1 X17.865 Y77.220 F1000
G1 X17.659 Y77.426 F1000
G1 X17.453 Y77.426 F1000
G1 X17.350 Y77.323 F1000
G0 Z3.0 ; Pen up

G0 X17.350 Y77.426 F3000 ; Travel to line 120
G0 Z0.0 ; Pen down
G1 X17.350 Y76.602 F1000
G1 X17.350 Y76.911 F1000
G1 X17.453 Y77.014 F1000
G1 X17.659 Y77.014 F1000
G1 X17.865 Y76.808 F1000
G1 X17.865 Y76.602 F1000
G1 X18.174 Y76.602 F1000
G1 X18.174 Y76.705 F1000
G1 X18.277 Y76.808 F1000
G1 X18.689 Y76.808 F1000
G1 X18.689 Y76.911 F1000
G1 X18.586 Y77.014 F1000
G1 X18.586 Y77.220 F1000
G1 X18.483 Y77.323 F1000
G1 X18.380 Y77.323 F1000
G1 X18.277 Y77.220 F1000
G1 X18.277 Y76.911 F1000
G1 X18.174 Y76.808 F1000
G1 X18.174 Y76.705 F1000
G1 X18.071 Y76.602 F1000
G1 X17.968 Y76.602 F1000
G1 X17.865 Y76.705 F1000
G1 X17.865 Y76.808 F1000
G1 X17.762 Y76.911 F1000
G1 X17.762 Y77.014 F1000
G1 X17.865 Y77.117 F1000
G1 X17.865 Y77.323 F1000
G1 X17.762 Y77.426 F1000
G0 Z3.0 ; Pen up

G0 X18.277 Y77.117 F3000 ; Travel to line 121
G0 Z0.0 ; Pen down
G1 X18.277 Y76.911 F1000
G1 X18.380 Y76.808 F1000
G1 X18.586 Y76.808 F1000
G1 X18.689 Y76.911 F1000
G1 X18.586 Y77.014 F1000
G1 X18.586 Y77.220 F1000
G1 X18.483 Y77.323 F1000
G0 Z3.0 ; Pen up

G0 X19.616 Y77.426 F3000 ; Travel to line 122
G0 Z0.0 ; Pen down
G1 X19.616 Y76.911 F1000
G1 X19.513 Y76.808 F1000
G1 X19.307 Y77.014 F1000
G1 X19.307 Y77.117 F1000
G1 X19.204 Y77.220 F1000
G1 X18.998 Y77.220 F1000
G1 X18.998 Y76.602 F1000
G1 X18.998 Y77.117 F1000
G1 X19.101 Y77.220 F1000
G1 X19.307 Y77.014 F1000
G1 X19.307 Y76.911 F1000
G1 X19.410 Y76.808 F1000
G1 X19.616 Y76.808 F1000
G0 Z3.0 ; Pen up

G0 X20.131 Y77.426 F3000 ; Travel to line 123
G0 Z0.0 ; Pen down
G1 X19.925 Y77.220 F1000
G1 X19.925 Y76.808 F1000
G1 X20.131 Y76.602 F1000
G1 X20.440 Y76.602 F1000
G1 X20.543 Y76.705 F1000
G1 X20.440 Y76.602 F1000
G1 X20.131 Y76.602 F1000
G1 X19.925 Y76.808 F1000
G1 X19.925 Y77.220 F1000
G1 X20.131 Y77.426 F1000
G1 X20.440 Y77.426 F1000
G1 X20.543 Y77.323 F1000
G1 X20.440 Y77.426 F1000
G0 Z3.0 ; Pen up

G0 X20.749 Y77.426 F3000 ; Travel to line 124
G0 Z0.0 ; Pen down
G1 X20.749 Y76.602 F1000
G1 X21.264 Y76.602 F1000
G1 X20.852 Y76.602 F1000
G1 X20.749 Y76.705 F1000
G1 X20.749 Y76.911 F1000
G1 X20.852 Y77.014 F1000
G1 X21.264 Y77.014 F1000
G1 X20.852 Y77.014 F1000
G1 X20.749 Y77.117 F1000
G1 X20.749 Y77.323 F1000
G1 X20.852 Y77.426 F1000
G1 X21.264 Y77.426 F1000
G0 Z3.0 ; Pen up

G0 X21.676 Y77.426 F3000 ; Travel to line 125
G0 Z0.0 ; Pen down
G1 X21.573 Y77.323 F1000
G1 X21.573 Y77.117 F1000
G1 X21.676 Y77.014 F1000
G1 X21.882 Y77.014 F1000
G1 X22.088 Y76.808 F1000
G1 X21.882 Y76.602 F1000
G1 X21.676 Y76.602 F1000
G1 X21.573 Y76.705 F1000
G1 X21.676 Y76.602 F1000
G1 X21.985 Y76.602 F1000
G1 X22.088 Y76.705 F1000
G1 X22.088 Y76.911 F1000
G1 X21.985 Y77.014 F1000
G1 X21.779 Y77.014 F1000
G1 X21.573 Y77.220 F1000
G1 X21.779 Y77.426 F1000
G1 X21.985 Y77.426 F1000
G0 Z3.0 ; Pen up

G0 X23.118 Y77.426 F3000 ; Travel to line 126
G0 Z0.0 ; Pen down
G1 X23.118 Y76.602 F1000
G1 X23.118 Y76.911 F1000
G1 X23.221 Y77.014 F1000
G1 X23.633 Y77.014 F1000
G1 X23.736 Y76.911 F1000
G1 X23.736 Y77.426 F1000
G1 X23.736 Y77.117 F1000
G1 X23.633 Y77.014 F1000
G1 X23.221 Y77.014 F1000
G1 X23.118 Y77.117 F1000
G0 Z3.0 ; Pen up

G0 X24.148 Y77.426 F3000 ; Travel to line 127
G0 Z0.0 ; Pen down
G1 X24.457 Y77.426 F1000
G1 X24.560 Y77.323 F1000
G1 X24.560 Y77.220 F1000
G1 X24.457 Y77.117 F1000
G1 X24.457 Y77.014 F1000
G1 X24.354 Y76.911 F1000
G1 X24.354 Y76.602 F1000
G1 X24.354 Y76.808 F1000
G1 X24.457 Y76.911 F1000
G1 X24.457 Y77.014 F1000
G1 X24.560 Y77.117 F1000
G1 X24.560 Y77.426 F1000
G0 Z3.0 ; Pen up

G0 X25.075 Y77.426 F3000 ; Travel to line 128
G0 Z0.0 ; Pen down
G1 X25.075 Y77.323 F1000
G1 X24.972 Y77.220 F1000
G1 X24.972 Y77.014 F1000
G1 X24.869 Y76.911 F1000
G1 X24.869 Y76.705 F1000
G1 X24.766 Y76.602 F1000
G1 X24.766 Y76.499 F1000
G1 X24.766 Y76.602 F1000
G1 X24.869 Y76.705 F1000
G1 X24.869 Y76.911 F1000
G1 X24.972 Y77.014 F1000
G1 X24.972 Y77.220 F1000
G1 X25.075 Y77.323 F1000
G0 Z3.0 ; Pen up

G0 X26.208 Y78.868 F3000 ; Travel to line 129
G0 Z0.0 ; Pen down
G1 X26.002 Y78.868 F1000
G1 X25.899 Y78.971 F1000
G1 X25.899 Y79.074 F1000
G1 X25.693 Y79.280 F1000
G1 X25.590 Y79.177 F1000
G1 X25.590 Y78.662 F1000
G1 X25.590 Y79.280 F1000
G1 X25.796 Y79.280 F1000
G1 X25.899 Y79.177 F1000
G1 X25.899 Y79.074 F1000
G1 X26.105 Y78.868 F1000
G1 X26.208 Y78.971 F1000
G1 X26.208 Y79.486 F1000
G0 Z3.0 ; Pen up

G0 X26.723 Y79.486 F3000 ; Travel to line 130
G0 Z0.0 ; Pen down
G1 X26.517 Y79.280 F1000
G1 X26.517 Y78.868 F1000
G1 X26.723 Y78.662 F1000
G1 X27.032 Y78.662 F1000
G1 X27.135 Y78.765 F1000
G1 X27.135 Y79.074 F1000
G1 X26.929 Y79.074 F1000
G1 X27.032 Y79.074 F1000
G1 X27.135 Y78.971 F1000
G1 X27.135 Y78.765 F1000
G1 X27.032 Y78.662 F1000
G1 X26.723 Y78.662 F1000
G1 X26.517 Y78.868 F1000
G1 X26.517 Y79.280 F1000
G1 X26.723 Y79.486 F1000
G1 X27.032 Y79.486 F1000
G1 X27.135 Y79.383 F1000
G1 X27.032 Y79.486 F1000
G0 Z3.0 ; Pen up

G0 X24.045 Y81.237 F3000 ; Travel to line 131
G0 Z0.0 ; Pen down
G1 X24.148 Y81.134 F1000
G1 X24.148 Y80.928 F1000
G1 X24.251 Y80.825 F1000
G1 X24.354 Y80.928 F1000
G1 X24.354 Y81.237 F1000
G1 X24.457 Y81.340 F1000
G1 X24.560 Y81.340 F1000
G1 X24.560 Y81.237 F1000
G1 X24.663 Y81.134 F1000
G1 X24.663 Y80.928 F1000
G1 X24.766 Y80.825 F1000
G1 X24.869 Y80.928 F1000
G1 X24.869 Y81.237 F1000
G1 X24.972 Y81.340 F1000
G1 X24.972 Y81.546 F1000
G1 X24.972 Y81.237 F1000
G1 X24.869 Y81.134 F1000
G1 X24.869 Y80.825 F1000
G1 X24.663 Y80.825 F1000
G1 X24.663 Y81.134 F1000
G1 X24.457 Y81.340 F1000
G1 X24.354 Y81.237 F1000
G1 X24.354 Y80.928 F1000
G1 X24.251 Y80.825 F1000
G1 X24.148 Y80.825 F1000
G1 X24.148 Y81.031 F1000
G1 X24.045 Y81.134 F1000
G1 X24.045 Y81.546 F1000
G0 Z3.0 ; Pen up

G0 X23.427 Y81.546 F3000 ; Travel to line 132
G0 Z0.0 ; Pen down
G1 X23.221 Y81.546 F1000
G1 X23.118 Y81.443 F1000
G1 X23.118 Y80.722 F1000
G1 X23.118 Y81.443 F1000
G1 X23.015 Y81.546 F1000
G1 X22.809 Y81.546 F1000
G0 Z3.0 ; Pen up

G0 X21.985 Y81.546 F3000 ; Travel to line 133
G0 Z0.0 ; Pen down
G1 X21.985 Y80.928 F1000
G1 X22.088 Y80.825 F1000
G1 X22.088 Y80.722 F1000
G1 X22.397 Y80.722 F1000
G1 X22.603 Y80.928 F1000
G1 X22.603 Y81.546 F1000
G1 X22.603 Y81.031 F1000
G1 X22.500 Y80.928 F1000
G1 X22.500 Y80.825 F1000
G1 X22.397 Y80.722 F1000
G1 X22.191 Y80.722 F1000
G1 X21.985 Y80.928 F1000
G0 Z3.0 ; Pen up

G0 X21.676 Y81.546 F3000 ; Travel to line 134
G0 Z0.0 ; Pen down
G1 X21.779 Y81.443 F1000
G1 X21.676 Y81.546 F1000
G1 X21.367 Y81.546 F1000
G1 X21.161 Y81.340 F1000
G1 X21.161 Y80.928 F1000
G1 X21.367 Y80.722 F1000
G1 X21.676 Y80.722 F1000
G1 X21.779 Y80.825 F1000
G1 X21.676 Y80.722 F1000
G1 X21.367 Y80.722 F1000
G1 X21.161 Y80.928 F1000
G1 X21.161 Y81.340 F1000
G1 X21.367 Y81.546 F1000
G0 Z3.0 ; Pen up

G0 X20.440 Y81.546 F3000 ; Travel to line 135
G0 Z0.0 ; Pen down
G1 X20.028 Y81.546 F1000
G1 X19.925 Y81.443 F1000
G1 X19.925 Y81.237 F1000
G1 X20.028 Y81.134 F1000
G1 X20.440 Y81.134 F1000
G1 X20.028 Y81.134 F1000
G1 X19.925 Y81.031 F1000
G1 X19.925 Y80.825 F1000
G1 X20.028 Y80.722 F1000
G1 X20.440 Y80.722 F1000
G1 X19.925 Y80.722 F1000
G1 X19.925 Y81.546 F1000
G0 Z3.0 ; Pen up

G0 X19.513 Y81.546 F3000 ; Travel to line 136
G0 Z0.0 ; Pen down
G1 X19.616 Y81.443 F1000
G1 X19.616 Y81.237 F1000
G1 X19.513 Y81.134 F1000
G1 X19.616 Y81.031 F1000
G1 X19.616 Y80.825 F1000
G1 X19.513 Y80.722 F1000
G1 X19.101 Y80.722 F1000
G1 X19.101 Y81.546 F1000
G0 Z3.0 ; Pen up

G0 X19.101 Y81.443 F3000 ; Travel to line 137
G0 Z0.0 ; Pen down
G1 X19.204 Y81.546 F1000
G1 X19.410 Y81.546 F1000
G1 X19.616 Y81.340 F1000
G1 X19.410 Y81.134 F1000
G1 X19.204 Y81.134 F1000
G1 X19.101 Y81.237 F1000
G0 Z3.0 ; Pen up

G0 X19.101 Y81.031 F3000 ; Travel to line 138
G0 Z0.0 ; Pen down
G1 X19.204 Y81.134 F1000
G1 X19.513 Y81.134 F1000
G1 X19.616 Y81.031 F1000
G1 X19.616 Y80.825 F1000
G1 X19.513 Y80.722 F1000
G1 X19.204 Y80.722 F1000
G1 X19.101 Y80.825 F1000
G0 Z3.0 ; Pen up

G0 X18.277 Y81.546 F3000 ; Travel to line 139
G0 Z0.0 ; Pen down
G1 X18.380 Y81.443 F1000
G1 X18.380 Y80.825 F1000
G1 X18.277 Y80.722 F1000
G1 X17.968 Y80.722 F1000
G1 X17.762 Y80.928 F1000
G1 X17.762 Y81.340 F1000
G1 X17.968 Y81.546 F1000
G1 X17.968 Y81.546 F1000
G1 X18.174 Y81.546 F1000
G1 X18.380 Y81.340 F1000
G1 X18.380 Y80.928 F1000
G1 X18.174 Y80.722 F1000
G1 X17.968 Y80.722 F1000
G1 X17.762 Y80.928 F1000
G1 X17.762 Y81.340 F1000
G0 Z3.0 ; Pen up

G0 X17.556 Y81.546 F3000 ; Travel to line 140
G0 Z0.0 ; Pen down
G1 X17.350 Y81.546 F1000
G1 X17.247 Y81.443 F1000
G1 X17.247 Y80.722 F1000
G1 X17.247 Y81.443 F1000
G1 X17.144 Y81.546 F1000
G1 X16.938 Y81.546 F1000
G0 Z3.0 ; Pen up

G0 X16.217 Y81.546 F3000 ; Travel to line 141
G0 Z0.0 ; Pen down
G1 X16.011 Y81.546 F1000
G1 X15.805 Y81.340 F1000
G1 X16.011 Y81.134 F1000
G1 X16.217 Y81.134 F1000
G1 X16.320 Y81.031 F1000
G1 X16.320 Y80.825 F1000
G1 X16.217 Y80.722 F1000
G1 X15.908 Y80.722 F1000
G1 X15.805 Y80.825 F1000
G1 X15.908 Y80.722 F1000
G1 X16.114 Y80.722 F1000
G1 X16.320 Y80.928 F1000
G1 X16.114 Y81.134 F1000
G1 X15.908 Y81.134 F1000
G1 X15.805 Y81.237 F1000
G1 X15.805 Y81.443 F1000
G1 X15.908 Y81.546 F1000
G0 Z3.0 ; Pen up

G0 X15.393 Y81.546 F3000 ; Travel to line 142
G0 Z0.0 ; Pen down
G1 X15.496 Y81.443 F1000
G1 X15.496 Y81.237 F1000
G1 X15.393 Y81.134 F1000
G1 X15.393 Y81.031 F1000
G1 X15.496 Y80.928 F1000
G1 X15.496 Y80.722 F1000
G1 X15.496 Y80.928 F1000
G1 X15.290 Y81.134 F1000
G1 X15.084 Y81.134 F1000
G1 X14.981 Y81.031 F1000
G1 X14.981 Y80.722 F1000
G1 X14.981 Y81.546 F1000
G0 Z3.0 ; Pen up

G0 X14.981 Y81.443 F3000 ; Travel to line 143
G0 Z0.0 ; Pen down
G1 X15.084 Y81.546 F1000
G1 X15.290 Y81.546 F1000
G1 X15.496 Y81.340 F1000
G1 X15.290 Y81.134 F1000
G1 X15.084 Y81.134 F1000
G1 X14.981 Y81.237 F1000
G0 Z3.0 ; Pen up

G0 X14.363 Y81.443 F3000 ; Travel to line 144
G0 Z0.0 ; Pen down
G1 X14.260 Y81.340 F1000
G1 X14.260 Y81.031 F1000
G1 X14.157 Y80.928 F1000
G1 X14.157 Y80.722 F1000
G1 X14.157 Y80.825 F1000
G1 X14.260 Y80.928 F1000
G1 X14.672 Y80.928 F1000
G1 X14.672 Y81.031 F1000
G1 X14.569 Y81.134 F1000
G1 X14.569 Y81.340 F1000
G1 X14.466 Y81.443 F1000
G1 X14.466 Y81.443 F1000
G1 X14.569 Y81.340 F1000
G1 X14.569 Y81.134 F1000
G1 X14.672 Y81.031 F1000
G1 X14.569 Y80.928 F1000
G1 X14.363 Y80.928 F1000
G1 X14.260 Y81.031 F1000
G1 X14.260 Y81.237 F1000
G0 Z3.0 ; Pen up

G0 X13.848 Y81.546 F3000 ; Travel to line 145
G0 Z0.0 ; Pen down
G1 X13.436 Y81.546 F1000
G1 X13.333 Y81.443 F1000
G1 X13.333 Y81.237 F1000
G1 X13.436 Y81.134 F1000
G1 X13.848 Y81.134 F1000
G1 X13.436 Y81.134 F1000
G1 X13.333 Y81.031 F1000
G1 X13.333 Y80.825 F1000
G1 X13.436 Y80.722 F1000
G1 X13.848 Y80.722 F1000
G1 X13.333 Y80.722 F1000
G1 X13.333 Y81.546 F1000
G0 Z3.0 ; Pen up

G0 X12.921 Y81.546 F3000 ; Travel to line 146
G0 Z0.0 ; Pen down
G1 X13.024 Y81.443 F1000
G1 X12.921 Y81.546 F1000
G1 X12.612 Y81.546 F1000
G1 X12.406 Y81.340 F1000
G1 X12.406 Y80.928 F1000
G1 X12.612 Y80.722 F1000
G1 X12.921 Y80.722 F1000
G1 X13.024 Y80.825 F1000
G1 X13.024 Y81.031 F1000
G1 X12.921 Y81.134 F1000
G1 X12.818 Y81.134 F1000
G1 X13.024 Y81.134 F1000
G1 X13.024 Y80.825 F1000
G1 X12.921 Y80.722 F1000
G1 X12.612 Y80.722 F1000
G1 X12.406 Y80.928 F1000
G1 X12.406 Y81.340 F1000
G1 X12.612 Y81.546 F1000
G0 Z3.0 ; Pen up

G0 X11.273 Y81.546 F3000 ; Travel to line 147
G0 Z0.0 ; Pen down
G1 X11.273 Y80.722 F1000
G1 X11.788 Y80.722 F1000
G1 X11.376 Y80.722 F1000
G1 X11.273 Y80.825 F1000
G0 Z3.0 ; Pen up

G0 X10.552 Y80.825 F3000 ; Travel to line 148
G0 Z0.0 ; Pen down
G1 X10.655 Y80.722 F1000
G1 X11.067 Y80.722 F1000
G1 X10.552 Y80.722 F1000
G1 X10.552 Y81.546 F1000
G0 Z3.0 ; Pen up

G0 X9.934 Y81.443 F3000 ; Travel to line 149
G0 Z0.0 ; Pen down
G1 X9.831 Y81.340 F1000
G1 X9.831 Y81.031 F1000
G1 X9.728 Y80.928 F1000
G1 X9.728 Y80.722 F1000
G1 X9.728 Y80.825 F1000
G1 X9.831 Y80.928 F1000
G1 X10.243 Y80.928 F1000
G1 X10.243 Y81.031 F1000
G1 X10.140 Y81.134 F1000
G1 X10.140 Y81.340 F1000
G1 X10.037 Y81.443 F1000
G1 X10.037 Y81.443 F1000
G1 X10.140 Y81.340 F1000
G1 X10.140 Y81.134 F1000
G1 X10.243 Y81.031 F1000
G1 X10.140 Y80.928 F1000
G1 X9.934 Y80.928 F1000
G1 X9.831 Y81.031 F1000
G1 X9.831 Y81.237 F1000
G0 Z3.0 ; Pen up

G0 X8.389 Y81.546 F3000 ; Travel to line 150
G0 Z0.0 ; Pen down
G1 X8.389 Y80.825 F1000
G1 X8.492 Y80.722 F1000
G1 X8.698 Y80.722 F1000
G1 X8.286 Y80.722 F1000
G1 X8.389 Y80.825 F1000
G1 X8.389 Y81.443 F1000
G1 X8.286 Y81.546 F1000
G1 X8.183 Y81.546 F1000
G0 Z3.0 ; Pen up

G0 X8.904 Y83.400 F3000 ; Travel to line 151
G0 Z0.0 ; Pen down
G1 X8.698 Y83.400 F1000
G1 X8.595 Y83.503 F1000
G1 X8.595 Y83.606 F1000
G1 X8.492 Y83.709 F1000
G1 X8.492 Y83.812 F1000
G1 X8.389 Y83.915 F1000
G1 X8.286 Y83.915 F1000
G1 X8.183 Y83.812 F1000
G1 X8.183 Y83.297 F1000
G1 X8.183 Y83.915 F1000
G1 X8.492 Y83.915 F1000
G1 X8.492 Y83.812 F1000
G1 X8.595 Y83.709 F1000
G1 X8.595 Y83.606 F1000
G1 X8.801 Y83.400 F1000
G1 X8.904 Y83.503 F1000
G1 X8.904 Y84.121 F1000
G0 Z3.0 ; Pen up

G0 X9.213 Y83.812 F3000 ; Travel to line 152
G0 Z0.0 ; Pen down
G1 X9.213 Y83.503 F1000
G1 X9.522 Y83.194 F1000
G1 X9.728 Y83.194 F1000
G1 X10.037 Y83.503 F1000
G1 X10.037 Y83.812 F1000
G1 X9.728 Y84.121 F1000
G1 X9.522 Y84.121 F1000
G0 Z3.0 ; Pen up

G0 X9.419 Y84.121 F3000 ; Travel to line 153
G0 Z0.0 ; Pen down
G1 X9.213 Y83.915 F1000
G1 X9.213 Y83.400 F1000
G1 X9.419 Y83.194 F1000
G1 X9.831 Y83.194 F1000
G1 X10.037 Y83.400 F1000
G1 X10.037 Y83.915 F1000
G1 X9.831 Y84.121 F1000
G0 Z3.0 ; Pen up

G0 X10.243 Y84.121 F3000 ; Travel to line 154
G0 Z0.0 ; Pen down
G1 X10.552 Y84.121 F1000
G1 X10.655 Y84.018 F1000
G1 X10.655 Y83.194 F1000
G1 X10.655 Y84.018 F1000
G1 X10.758 Y84.121 F1000
G1 X11.067 Y84.121 F1000
G0 Z3.0 ; Pen up

G0 X11.376 Y84.121 F3000 ; Travel to line 155
G0 Z0.0 ; Pen down
G1 X11.273 Y84.018 F1000
G1 X11.273 Y83.297 F1000
G1 X11.376 Y83.194 F1000
G1 X11.891 Y83.194 F1000
G1 X11.376 Y83.194 F1000
G1 X11.273 Y83.297 F1000
G1 X11.273 Y83.606 F1000
G1 X11.376 Y83.709 F1000
G1 X11.891 Y83.709 F1000
G1 X11.376 Y83.709 F1000
G1 X11.273 Y83.812 F1000
G1 X11.273 Y84.018 F1000
G1 X11.376 Y84.121 F1000
G1 X11.891 Y84.121 F1000
G0 Z3.0 ; Pen up

G0 X12.303 Y84.121 F3000 ; Travel to line 156
G0 Z0.0 ; Pen down
G1 X12.200 Y84.018 F1000
G1 X12.200 Y83.812 F1000
G1 X12.303 Y83.709 F1000
G1 X12.406 Y83.709 F1000
G1 X12.509 Y83.606 F1000
G1 X12.612 Y83.606 F1000
G1 X12.818 Y83.400 F1000
G1 X12.612 Y83.194 F1000
G1 X12.303 Y83.194 F1000
G1 X12.200 Y83.297 F1000
G1 X12.303 Y83.194 F1000
G1 X12.715 Y83.194 F1000
G1 X12.818 Y83.297 F1000
G1 X12.818 Y83.503 F1000
G1 X12.715 Y83.606 F1000
G1 X12.612 Y83.606 F1000
G1 X12.509 Y83.709 F1000
G1 X12.406 Y83.709 F1000
G1 X12.200 Y83.915 F1000
G1 X12.406 Y84.121 F1000
G1 X12.715 Y84.121 F1000
G0 Z3.0 ; Pen up

G0 X13.230 Y83.812 F3000 ; Travel to line 157
G0 Z0.0 ; Pen down
G1 X13.230 Y83.709 F1000
G0 Z3.0 ; Pen up

G0 X13.230 Y83.297 F3000 ; Travel to line 158
G0 Z0.0 ; Pen down
G1 X13.230 Y83.194 F1000
G0 Z3.0 ; Pen up

G0 X15.805 Y92.773 F3000 ; Travel to line 159
G0 Z0.0 ; Pen down
G1 X15.805 Y93.906 F1000
G0 Z3.0 ; Pen up

G0 X16.938 Y93.803 F3000 ; Travel to line 160
G0 Z0.0 ; Pen down
G1 X16.938 Y93.082 F1000
G1 X16.938 Y93.700 F1000
G1 X17.041 Y93.803 F1000
G1 X17.144 Y93.700 F1000
G1 X17.144 Y93.597 F1000
G1 X17.247 Y93.494 F1000
G1 X17.247 Y93.391 F1000
G1 X17.350 Y93.391 F1000
G1 X17.453 Y93.494 F1000
G1 X17.453 Y93.597 F1000
G1 X17.556 Y93.700 F1000
G1 X17.659 Y93.597 F1000
G1 X17.659 Y93.082 F1000
G1 X17.659 Y93.700 F1000
G1 X17.453 Y93.700 F1000
G1 X17.453 Y93.494 F1000
G1 X17.350 Y93.391 F1000
G1 X17.144 Y93.597 F1000
G1 X17.144 Y93.803 F1000
G0 Z3.0 ; Pen up

G0 X18.071 Y93.597 F3000 ; Travel to line 161
G0 Z0.0 ; Pen down
G1 X18.071 Y93.391 F1000
G1 X18.174 Y93.288 F1000
G1 X18.380 Y93.288 F1000
G1 X18.483 Y93.391 F1000
G1 X18.380 Y93.494 F1000
G1 X18.380 Y93.700 F1000
G1 X18.277 Y93.803 F1000
G1 X18.277 Y93.803 F1000
G1 X18.380 Y93.700 F1000
G1 X18.380 Y93.494 F1000
G1 X18.483 Y93.391 F1000
G1 X18.483 Y93.288 F1000
G1 X18.071 Y93.288 F1000
G1 X17.968 Y93.185 F1000
G1 X17.968 Y93.082 F1000
G1 X17.968 Y93.288 F1000
G1 X18.071 Y93.391 F1000
G1 X18.071 Y93.700 F1000
G1 X18.174 Y93.803 F1000
G0 Z3.0 ; Pen up

G0 X18.689 Y93.906 F3000 ; Travel to line 162
G0 Z0.0 ; Pen down
G1 X18.895 Y93.906 F1000
G1 X18.998 Y93.803 F1000
G1 X18.998 Y93.082 F1000
G1 X18.998 Y93.803 F1000
G1 X19.101 Y93.906 F1000
G1 X19.307 Y93.906 F1000
G0 Z3.0 ; Pen up

G0 X19.513 Y93.906 F3000 ; Travel to line 163
G0 Z0.0 ; Pen down
G1 X19.513 Y93.082 F1000
G1 X20.028 Y93.082 F1000
G1 X19.616 Y93.082 F1000
G1 X19.513 Y93.185 F1000
G1 X19.513 Y93.391 F1000
G1 X19.616 Y93.494 F1000
G1 X20.028 Y93.494 F1000
G1 X19.616 Y93.494 F1000
G1 X19.513 Y93.597 F1000
G1 X19.513 Y93.803 F1000
G1 X19.616 Y93.906 F1000
G1 X20.028 Y93.906 F1000
G0 Z3.0 ; Pen up

G0 X20.234 Y93.906 F3000 ; Travel to line 164
G0 Z0.0 ; Pen down
G1 X20.234 Y93.082 F1000
G1 X20.234 Y93.391 F1000
G1 X20.337 Y93.494 F1000
G1 X20.543 Y93.494 F1000
G1 X20.749 Y93.288 F1000
G1 X20.749 Y93.082 F1000
G1 X20.749 Y93.288 F1000
G1 X20.646 Y93.391 F1000
G1 X20.646 Y93.494 F1000
G1 X20.749 Y93.597 F1000
G1 X20.749 Y93.803 F1000
G1 X20.646 Y93.906 F1000
G0 Z3.0 ; Pen up

G0 X20.234 Y93.803 F3000 ; Travel to line 165
G0 Z0.0 ; Pen down
G1 X20.337 Y93.906 F1000
G1 X20.543 Y93.906 F1000
G1 X20.749 Y93.700 F1000
G1 X20.543 Y93.494 F1000
G1 X20.337 Y93.494 F1000
G1 X20.234 Y93.597 F1000
G0 Z3.0 ; Pen up

G0 X21.161 Y93.906 F3000 ; Travel to line 166
G0 Z0.0 ; Pen down
G1 X21.161 Y93.082 F1000
G0 Z3.0 ; Pen up

G0 X21.573 Y93.597 F3000 ; Travel to line 167
G0 Z0.0 ; Pen down
G1 X21.573 Y93.391 F1000
G1 X21.676 Y93.288 F1000
G1 X21.882 Y93.288 F1000
G1 X21.985 Y93.391 F1000
G1 X21.882 Y93.494 F1000
G1 X21.882 Y93.700 F1000
G1 X21.779 Y93.803 F1000
G1 X21.779 Y93.803 F1000
G1 X21.882 Y93.700 F1000
G1 X21.882 Y93.494 F1000
G1 X21.985 Y93.391 F1000
G1 X21.985 Y93.288 F1000
G1 X21.573 Y93.288 F1000
G1 X21.470 Y93.185 F1000
G1 X21.470 Y93.082 F1000
G1 X21.470 Y93.288 F1000
G1 X21.573 Y93.391 F1000
G1 X21.573 Y93.700 F1000
G1 X21.676 Y93.803 F1000
G0 Z3.0 ; Pen up

G0 X22.397 Y93.906 F3000 ; Travel to line 168
G0 Z0.0 ; Pen down
G1 X22.397 Y93.082 F1000
G1 X23.015 Y93.082 F1000
G1 X22.500 Y93.082 F1000
G1 X22.397 Y93.185 F1000
G0 Z3.0 ; Pen up

G0 X23.942 Y93.906 F3000 ; Travel to line 169
G0 Z0.0 ; Pen down
G1 X23.839 Y93.803 F1000
G1 X23.839 Y93.597 F1000
G1 X23.942 Y93.494 F1000
G1 X24.148 Y93.494 F1000
G1 X24.354 Y93.288 F1000
G1 X24.148 Y93.082 F1000
G1 X23.942 Y93.082 F1000
G1 X23.839 Y93.185 F1000
G1 X23.942 Y93.082 F1000
G1 X24.251 Y93.082 F1000
G1 X24.354 Y93.185 F1000
G1 X24.354 Y93.391 F1000
G1 X24.251 Y93.494 F1000
G1 X24.045 Y93.494 F1000
G1 X23.839 Y93.700 F1000
G1 X24.045 Y93.906 F1000
G1 X24.251 Y93.906 F1000
G0 Z3.0 ; Pen up

G0 X24.560 Y93.906 F3000 ; Travel to line 170
G0 Z0.0 ; Pen down
G1 X24.766 Y93.906 F1000
G1 X24.869 Y93.803 F1000
G1 X24.869 Y93.082 F1000
G1 X24.869 Y93.803 F1000
G1 X24.972 Y93.906 F1000
G1 X25.178 Y93.906 F1000
G0 Z3.0 ; Pen up

G0 X25.384 Y93.906 F3000 ; Travel to line 171
G0 Z0.0 ; Pen down
G1 X25.384 Y93.082 F1000
G1 X25.899 Y93.082 F1000
G1 X25.487 Y93.082 F1000
G1 X25.384 Y93.185 F1000
G1 X25.384 Y93.391 F1000
G1 X25.487 Y93.494 F1000
G1 X25.899 Y93.494 F1000
G1 X25.487 Y93.494 F1000
G1 X25.384 Y93.597 F1000
G1 X25.384 Y93.803 F1000
G1 X25.487 Y93.906 F1000
G1 X25.899 Y93.906 F1000
G0 Z3.0 ; Pen up

G0 X26.208 Y93.906 F3000 ; Travel to line 172
G0 Z0.0 ; Pen down
G1 X26.208 Y93.082 F1000
G1 X26.723 Y93.082 F1000
G1 X26.311 Y93.082 F1000
G1 X26.208 Y93.185 F1000
G1 X26.208 Y93.391 F1000
G1 X26.311 Y93.494 F1000
G1 X26.723 Y93.494 F1000
G1 X26.311 Y93.494 F1000
G1 X26.208 Y93.597 F1000
G1 X26.208 Y93.803 F1000
G1 X26.311 Y93.906 F1000
G1 X26.723 Y93.906 F1000
G0 Z3.0 ; Pen up

G0 X26.929 Y93.906 F3000 ; Travel to line 173
G0 Z0.0 ; Pen down
G1 X26.929 Y93.082 F1000
G1 X27.444 Y93.082 F1000
G1 X27.032 Y93.082 F1000
G1 X26.929 Y93.185 F1000
G0 Z3.0 ; Pen up

G0 X28.577 Y92.773 F3000 ; Travel to line 174
G0 Z0.0 ; Pen down
G1 X28.577 Y93.906 F1000
G0 Z3.0 ; Pen up

G0 X29.607 Y93.906 F3000 ; Travel to line 175
G0 Z0.0 ; Pen down
G1 X29.607 Y93.082 F1000
G1 X30.019 Y93.082 F1000
G1 X30.122 Y93.185 F1000
G1 X30.225 Y93.185 F1000
G1 X30.225 Y93.803 F1000
G1 X30.122 Y93.803 F1000
G1 X30.019 Y93.906 F1000
G0 Z3.0 ; Pen up

G0 X29.607 Y93.803 F3000 ; Travel to line 176
G0 Z0.0 ; Pen down
G1 X29.710 Y93.906 F1000
G1 X30.019 Y93.906 F1000
G1 X30.225 Y93.700 F1000
G1 X30.225 Y93.288 F1000
G1 X30.019 Y93.082 F1000
G1 X29.710 Y93.082 F1000
G1 X29.607 Y93.185 F1000
G0 Z3.0 ; Pen up

G0 X30.534 Y93.597 F3000 ; Travel to line 177
G0 Z0.0 ; Pen down
G1 X30.637 Y93.494 F1000
G1 X30.637 Y93.288 F1000
G1 X30.740 Y93.185 F1000
G1 X30.843 Y93.288 F1000
G1 X30.843 Y93.597 F1000
G1 X30.946 Y93.700 F1000
G1 X31.049 Y93.700 F1000
G1 X31.049 Y93.597 F1000
G1 X31.152 Y93.494 F1000
G1 X31.152 Y93.288 F1000
G1 X31.255 Y93.185 F1000
G1 X31.358 Y93.288 F1000
G1 X31.358 Y93.597 F1000
G1 X31.461 Y93.700 F1000
G1 X31.461 Y93.906 F1000
G1 X31.461 Y93.597 F1000
G1 X31.358 Y93.494 F1000
G1 X31.358 Y93.185 F1000
G1 X31.152 Y93.185 F1000
G1 X31.152 Y93.494 F1000
G1 X30.946 Y93.700 F1000
G1 X30.843 Y93.597 F1000
G1 X30.843 Y93.288 F1000
G1 X30.740 Y93.185 F1000
G1 X30.637 Y93.185 F1000
G1 X30.637 Y93.391 F1000
G1 X30.534 Y93.494 F1000
G1 X30.534 Y93.906 F1000
G0 Z3.0 ; Pen up

G0 X31.976 Y93.906 F3000 ; Travel to line 178
G0 Z0.0 ; Pen down
G1 X31.770 Y93.700 F1000
G1 X31.770 Y93.288 F1000
G1 X31.976 Y93.082 F1000
G1 X32.285 Y93.082 F1000
G1 X32.388 Y93.185 F1000
G1 X32.388 Y93.494 F1000
G1 X32.182 Y93.494 F1000
G1 X32.285 Y93.494 F1000
G1 X32.388 Y93.391 F1000
G1 X32.388 Y93.185 F1000
G1 X32.285 Y93.082 F1000
G1 X31.976 Y93.082 F1000
G1 X31.770 Y93.288 F1000
G1 X31.770 Y93.700 F1000
G1 X31.976 Y93.906 F1000
G1 X32.285 Y93.906 F1000
G1 X32.388 Y93.803 F1000
G1 X32.285 Y93.906 F1000
G0 Z3.0 ; Pen up

G0 X33.727 Y93.906 F3000 ; Travel to line 179
G0 Z0.0 ; Pen down
G1 X33.727 Y93.391 F1000
G1 X33.624 Y93.288 F1000
G1 X33.418 Y93.494 F1000
G1 X33.418 Y93.597 F1000
G1 X33.315 Y93.700 F1000
G1 X33.109 Y93.700 F1000
G1 X33.109 Y93.082 F1000
G1 X33.109 Y93.597 F1000
G1 X33.212 Y93.700 F1000
G1 X33.418 Y93.494 F1000
G1 X33.418 Y93.391 F1000
G1 X33.521 Y93.288 F1000
G1 X33.727 Y93.288 F1000
G0 Z3.0 ; Pen up

G0 X34.036 Y93.700 F3000 ; Travel to line 180
G0 Z0.0 ; Pen down
G1 X34.036 Y93.288 F1000
G1 X34.242 Y93.082 F1000
G1 X34.448 Y93.082 F1000
G1 X34.654 Y93.288 F1000
G1 X34.654 Y93.700 F1000
G1 X34.448 Y93.906 F1000
G1 X34.242 Y93.906 F1000
G1 X34.242 Y93.906 F1000
G1 X34.036 Y93.700 F1000
G1 X34.036 Y93.288 F1000
G1 X34.242 Y93.082 F1000
G1 X34.551 Y93.082 F1000
G1 X34.654 Y93.185 F1000
G1 X34.654 Y93.803 F1000
G1 X34.551 Y93.906 F1000
G0 Z3.0 ; Pen up

G0 X36.096 Y93.906 F3000 ; Travel to line 181
G0 Z0.0 ; Pen down
G1 X35.890 Y93.700 F1000
G1 X35.890 Y93.288 F1000
G1 X36.096 Y93.082 F1000
G1 X36.405 Y93.082 F1000
G1 X36.508 Y93.185 F1000
G1 X36.508 Y93.494 F1000
G1 X36.302 Y93.494 F1000
G1 X36.405 Y93.494 F1000
G1 X36.508 Y93.391 F1000
G1 X36.508 Y93.185 F1000
G1 X36.405 Y93.082 F1000
G1 X36.096 Y93.082 F1000
G1 X35.890 Y93.288 F1000
G1 X35.890 Y93.700 F1000
G1 X36.096 Y93.906 F1000
G1 X36.405 Y93.906 F1000
G1 X36.508 Y93.803 F1000
G1 X36.611 Y93.906 F1000
G1 X36.817 Y93.906 F1000
G1 X36.920 Y93.803 F1000
G1 X36.920 Y93.082 F1000
G1 X36.920 Y93.803 F1000
G1 X37.023 Y93.906 F1000
G1 X37.229 Y93.906 F1000
G1 X36.611 Y93.906 F1000
G1 X36.508 Y93.803 F1000
G1 X36.405 Y93.906 F1000
G0 Z3.0 ; Pen up

G0 X37.435 Y93.391 F3000 ; Travel to line 182
G0 Z0.0 ; Pen down
G1 X37.641 Y93.391 F1000
G0 Z3.0 ; Pen up

G0 X37.950 Y93.906 F3000 ; Travel to line 183
G0 Z0.0 ; Pen down
G1 X37.847 Y93.803 F1000
G1 X37.950 Y93.906 F1000
G1 X38.156 Y93.906 F1000
G1 X38.259 Y93.803 F1000
G1 X38.259 Y93.597 F1000
G1 X37.950 Y93.288 F1000
G1 X37.950 Y93.082 F1000
G1 X38.259 Y93.082 F1000
G1 X38.053 Y93.082 F1000
G1 X37.950 Y93.185 F1000
G1 X38.259 Y93.494 F1000
G1 X38.259 Y93.803 F1000
G1 X38.156 Y93.906 F1000
G0 Z3.0 ; Pen up

G0 X38.671 Y93.700 F3000 ; Travel to line 184
G0 Z0.0 ; Pen down
G1 X38.671 Y93.288 F1000
G1 X38.877 Y93.082 F1000
G1 X38.980 Y93.082 F1000
G1 X39.083 Y93.185 F1000
G1 X39.083 Y93.288 F1000
G1 X39.186 Y93.391 F1000
G1 X39.186 Y93.597 F1000
G1 X39.083 Y93.700 F1000
G1 X39.083 Y93.803 F1000
G1 X38.980 Y93.906 F1000
G1 X38.877 Y93.906 F1000
G0 Z3.0 ; Pen up

G0 X38.774 Y93.906 F3000 ; Travel to line 185
G0 Z0.0 ; Pen down
G1 X38.671 Y93.803 F1000
G1 X38.671 Y93.185 F1000
G1 X38.774 Y93.082 F1000
G1 X38.980 Y93.082 F1000
G1 X39.186 Y93.288 F1000
G1 X39.186 Y93.700 F1000
G1 X38.980 Y93.906 F1000
G0 Z3.0 ; Pen up

G0 X39.495 Y93.906 F3000 ; Travel to line 186
G0 Z0.0 ; Pen down
G1 X39.392 Y93.803 F1000
G1 X39.495 Y93.906 F1000
G1 X39.701 Y93.906 F1000
G1 X39.804 Y93.803 F1000
G1 X39.804 Y93.597 F1000
G1 X39.495 Y93.288 F1000
G1 X39.495 Y93.082 F1000
G1 X39.804 Y93.082 F1000
G1 X39.598 Y93.082 F1000
G1 X39.495 Y93.185 F1000
G1 X39.804 Y93.494 F1000
G1 X39.804 Y93.803 F1000
G1 X39.701 Y93.906 F1000
G0 Z3.0 ; Pen up

G0 X40.216 Y93.906 F3000 ; Travel to line 187
G0 Z0.0 ; Pen down
G1 X40.216 Y93.597 F1000
G1 X40.525 Y93.597 F1000
G1 X40.628 Y93.494 F1000
G1 X40.628 Y93.185 F1000
G1 X40.525 Y93.082 F1000
G1 X40.319 Y93.082 F1000
G1 X40.216 Y93.185 F1000
G1 X40.319 Y93.082 F1000
G1 X40.525 Y93.082 F1000
G1 X40.628 Y93.185 F1000
G1 X40.628 Y93.494 F1000
G1 X40.525 Y93.597 F1000
G1 X40.319 Y93.597 F1000
G1 X40.216 Y93.700 F1000
G1 X40.216 Y93.803 F1000
G1 X40.319 Y93.906 F1000
G1 X40.628 Y93.906 F1000
G0 Z3.0 ; Pen up

G0 X40.937 Y93.391 F3000 ; Travel to line 188
G0 Z0.0 ; Pen down
G1 X41.143 Y93.391 F1000
G0 Z3.0 ; Pen up

G0 X41.452 Y93.700 F3000 ; Travel to line 189
G0 Z0.0 ; Pen down
G1 X41.452 Y93.288 F1000
G1 X41.658 Y93.082 F1000
G1 X41.761 Y93.082 F1000
G1 X41.864 Y93.185 F1000
G1 X41.864 Y93.288 F1000
G1 X41.967 Y93.391 F1000
G1 X41.967 Y93.597 F1000
G1 X41.864 Y93.700 F1000
G1 X41.864 Y93.803 F1000
G1 X41.761 Y93.906 F1000
G1 X41.658 Y93.906 F1000
G0 Z3.0 ; Pen up

G0 X41.555 Y93.906 F3000 ; Travel to line 190
G0 Z0.0 ; Pen down
G1 X41.452 Y93.803 F1000
G1 X41.452 Y93.185 F1000
G1 X41.555 Y93.082 F1000
G1 X41.761 Y93.082 F1000
G1 X41.967 Y93.288 F1000
G1 X41.967 Y93.700 F1000
G1 X41.761 Y93.906 F1000
G0 Z3.0 ; Pen up

G0 X42.173 Y93.700 F3000 ; Travel to line 191
G0 Z0.0 ; Pen down
G1 X42.173 Y93.288 F1000
G1 X42.379 Y93.082 F1000
G1 X42.482 Y93.082 F1000
G1 X42.585 Y93.185 F1000
G1 X42.585 Y93.288 F1000
G1 X42.688 Y93.391 F1000
G1 X42.688 Y93.597 F1000
G1 X42.585 Y93.700 F1000
G1 X42.585 Y93.803 F1000
G1 X42.482 Y93.906 F1000
G1 X42.379 Y93.906 F1000
G0 Z3.0 ; Pen up

G0 X42.276 Y93.906 F3000 ; Travel to line 192
G0 Z0.0 ; Pen down
G1 X42.173 Y93.803 F1000
G1 X42.173 Y93.185 F1000
G1 X42.276 Y93.082 F1000
G1 X42.482 Y93.082 F1000
G1 X42.688 Y93.288 F1000
G1 X42.688 Y93.700 F1000
G1 X42.482 Y93.906 F1000
G0 Z3.0 ; Pen up

G0 X42.997 Y93.906 F3000 ; Travel to line 193
G0 Z0.0 ; Pen down
G1 X43.100 Y93.906 F1000
G1 X43.203 Y93.803 F1000
G1 X43.203 Y93.185 F1000
G1 X43.100 Y93.082 F1000
G1 X43.512 Y93.082 F1000
G1 X43.306 Y93.082 F1000
G1 X43.203 Y93.185 F1000
G1 X43.203 Y93.906 F1000
G0 Z3.0 ; Pen up

G0 X43.409 Y97.717 F3000 ; Travel to line 194
G0 Z0.0 ; Pen down
G1 X43.306 Y97.614 F1000
G1 X43.203 Y97.614 F1000
G1 X42.997 Y97.408 F1000
G1 X42.997 Y97.305 F1000
G1 X42.894 Y97.202 F1000
G1 X42.894 Y96.687 F1000
G1 X42.997 Y96.584 F1000
G1 X42.997 Y96.481 F1000
G1 X43.203 Y96.275 F1000
G1 X43.306 Y96.275 F1000
G1 X43.409 Y96.172 F1000
G1 X43.924 Y96.172 F1000
G1 X44.027 Y96.275 F1000
G1 X44.130 Y96.275 F1000
G1 X44.130 Y96.893 F1000
G1 X43.821 Y96.893 F1000
G1 X44.027 Y96.893 F1000
G1 X44.130 Y96.790 F1000
G1 X44.130 Y96.378 F1000
G1 X43.924 Y96.172 F1000
G1 X43.409 Y96.172 F1000
G1 X43.306 Y96.275 F1000
G1 X43.203 Y96.275 F1000
G1 X43.100 Y96.378 F1000
G1 X43.100 Y96.481 F1000
G1 X42.894 Y96.687 F1000
G1 X42.894 Y97.202 F1000
G1 X43.100 Y97.408 F1000
G1 X43.100 Y97.511 F1000
G1 X43.203 Y97.614 F1000
G1 X43.306 Y97.614 F1000
G1 X43.409 Y97.717 F1000
G1 X44.027 Y97.717 F1000
G1 X44.233 Y97.511 F1000
G1 X44.027 Y97.717 F1000
G0 Z3.0 ; Pen up

G0 X44.954 Y97.717 F3000 ; Travel to line 195
G0 Z0.0 ; Pen down
G1 X44.954 Y96.275 F1000
G1 X45.057 Y96.172 F1000
G1 X45.778 Y96.172 F1000
G1 X45.057 Y96.172 F1000
G1 X44.954 Y96.275 F1000
G1 X44.954 Y96.893 F1000
G1 X45.057 Y96.996 F1000
G1 X45.675 Y96.996 F1000
G1 X45.057 Y96.996 F1000
G1 X44.954 Y97.099 F1000
G1 X44.954 Y97.614 F1000
G1 X45.057 Y97.717 F1000
G1 X45.675 Y97.717 F1000
G0 Z3.0 ; Pen up

G0 X46.911 Y97.305 F3000 ; Travel to line 196
G0 Z0.0 ; Pen down
G1 X46.911 Y97.099 F1000
G1 X46.808 Y96.996 F1000
G1 X46.808 Y96.790 F1000
G1 X46.705 Y96.687 F1000
G1 X46.705 Y96.584 F1000
G1 X46.808 Y96.481 F1000
G1 X47.529 Y96.481 F1000
G1 X47.632 Y96.584 F1000
G1 X47.632 Y96.893 F1000
G1 X47.529 Y96.996 F1000
G1 X47.529 Y97.202 F1000
G1 X47.426 Y97.305 F1000
G1 X47.426 Y97.408 F1000
G1 X47.323 Y97.511 F1000
G1 X47.117 Y97.511 F1000
G0 Z3.0 ; Pen up

G0 X47.014 Y97.511 F3000 ; Travel to line 197
G0 Z0.0 ; Pen down
G1 X47.014 Y97.408 F1000
G1 X46.911 Y97.305 F1000
G1 X46.911 Y97.099 F1000
G1 X46.808 Y96.996 F1000
G1 X46.808 Y96.790 F1000
G1 X46.705 Y96.687 F1000
G1 X46.705 Y96.584 F1000
G1 X46.602 Y96.481 F1000
G1 X46.602 Y96.275 F1000
G1 X46.602 Y96.378 F1000
G1 X46.705 Y96.481 F1000
G1 X47.529 Y96.481 F1000
G1 X47.632 Y96.584 F1000
G1 X47.735 Y96.481 F1000
G1 X47.735 Y96.378 F1000
G1 X47.838 Y96.275 F1000
G1 X47.735 Y96.378 F1000
G1 X47.735 Y96.481 F1000
G1 X47.632 Y96.584 F1000
G1 X47.632 Y96.893 F1000
G1 X47.529 Y96.996 F1000
G1 X47.529 Y97.202 F1000
G1 X47.426 Y97.305 F1000
G1 X47.426 Y97.408 F1000
G1 X47.323 Y97.511 F1000
G0 Z3.0 ; Pen up

G0 X48.559 Y97.614 F3000 ; Travel to line 198
G0 Z0.0 ; Pen down
G1 X48.662 Y97.717 F1000
G1 X49.177 Y97.717 F1000
G1 X49.383 Y97.511 F1000
G1 X49.383 Y96.996 F1000
G1 X49.280 Y96.893 F1000
G1 X48.662 Y96.893 F1000
G1 X48.559 Y96.996 F1000
G0 Z3.0 ; Pen up

G0 X48.559 Y97.717 F3000 ; Travel to line 199
G0 Z0.0 ; Pen down
G1 X48.559 Y96.378 F1000
G1 X48.559 Y96.790 F1000
G1 X48.662 Y96.893 F1000
G1 X49.280 Y96.893 F1000
G1 X49.383 Y96.790 F1000
G1 X49.383 Y96.584 F1000
G1 X49.486 Y96.481 F1000
G1 X49.486 Y96.378 F1000
G1 X49.589 Y96.275 F1000
G1 X49.589 Y96.172 F1000
G1 X49.692 Y96.172 F1000
G1 X49.795 Y96.069 F1000
G1 X49.486 Y96.378 F1000
G1 X49.486 Y96.584 F1000
G1 X49.383 Y96.687 F1000
G1 X49.383 Y96.790 F1000
G1 X49.280 Y96.893 F1000
G1 X49.383 Y96.996 F1000
G1 X49.383 Y97.614 F1000
G1 X49.280 Y97.717 F1000
G0 Z3.0 ; Pen up

G0 X51.031 Y97.717 F3000 ; Travel to line 200
G0 Z0.0 ; Pen down
G1 X51.546 Y97.717 F1000
G1 X51.649 Y97.614 F1000
G1 X51.649 Y96.275 F1000
G1 X51.649 Y97.614 F1000
G1 X51.752 Y97.717 F1000
G1 X52.267 Y97.717 F1000
G0 Z3.0 ; Pen up

G0 X52.988 Y97.717 F3000 ; Travel to line 201
G0 Z0.0 ; Pen down
G1 X52.988 Y96.378 F1000
G1 X52.988 Y96.790 F1000
G1 X53.091 Y96.893 F1000
G1 X53.709 Y96.893 F1000
G1 X53.812 Y96.790 F1000
G1 X53.812 Y96.584 F1000
G1 X53.915 Y96.481 F1000
G1 X53.915 Y96.378 F1000
G1 X54.018 Y96.275 F1000
G1 X54.018 Y96.172 F1000
G1 X54.121 Y96.172 F1000
G1 X54.224 Y96.069 F1000
G1 X53.915 Y96.378 F1000
G1 X53.915 Y96.584 F1000
G1 X53.812 Y96.687 F1000
G1 X53.812 Y96.790 F1000
G1 X53.709 Y96.893 F1000
G1 X53.812 Y96.996 F1000
G1 X53.812 Y97.614 F1000
G1 X53.709 Y97.717 F1000
G0 Z3.0 ; Pen up

G0 X52.988 Y97.614 F3000 ; Travel to line 202
G0 Z0.0 ; Pen down
G1 X53.091 Y97.717 F1000
G1 X53.606 Y97.717 F1000
G1 X53.812 Y97.511 F1000
G1 X53.812 Y96.996 F1000
G1 X53.709 Y96.893 F1000
G1 X53.091 Y96.893 F1000
G1 X52.988 Y96.996 F1000
G0 Z3.0 ; Pen up

G0 X55.151 Y97.305 F3000 ; Travel to line 203
G0 Z0.0 ; Pen down
G1 X55.151 Y97.099 F1000
G1 X55.048 Y96.996 F1000
G1 X55.048 Y96.790 F1000
G1 X54.945 Y96.687 F1000
G1 X54.945 Y96.584 F1000
G1 X55.048 Y96.481 F1000
G1 X55.769 Y96.481 F1000
G1 X55.872 Y96.584 F1000
G1 X55.872 Y96.893 F1000
G1 X55.769 Y96.996 F1000
G1 X55.769 Y97.202 F1000
G1 X55.666 Y97.305 F1000
G1 X55.666 Y97.408 F1000
G1 X55.563 Y97.511 F1000
G1 X55.357 Y97.511 F1000
G0 Z3.0 ; Pen up

G0 X55.254 Y97.511 F3000 ; Travel to line 204
G0 Z0.0 ; Pen down
G1 X55.254 Y97.408 F1000
G1 X55.151 Y97.305 F1000
G1 X55.151 Y97.099 F1000
G1 X55.048 Y96.996 F1000
G1 X55.048 Y96.790 F1000
G1 X54.945 Y96.687 F1000
G1 X54.945 Y96.584 F1000
G1 X54.842 Y96.481 F1000
G1 X54.842 Y96.275 F1000
G1 X54.842 Y96.378 F1000
G1 X54.945 Y96.481 F1000
G1 X55.769 Y96.481 F1000
G1 X55.872 Y96.584 F1000
G1 X55.975 Y96.481 F1000
G1 X55.975 Y96.378 F1000
G1 X56.078 Y96.275 F1000
G1 X55.975 Y96.378 F1000
G1 X55.975 Y96.481 F1000
G1 X55.872 Y96.584 F1000
G1 X55.872 Y96.893 F1000
G1 X55.769 Y96.996 F1000
G1 X55.769 Y97.202 F1000
G1 X55.666 Y97.305 F1000
G1 X55.666 Y97.408 F1000
G1 X55.563 Y97.511 F1000
G0 Z3.0 ; Pen up

G0 X56.799 Y97.614 F3000 ; Travel to line 205
G0 Z0.0 ; Pen down
G1 X56.799 Y96.378 F1000
G0 Z3.0 ; Pen up

G0 X58.859 Y96.481 F3000 ; Travel to line 206
G0 Z0.0 ; Pen down
G1 X58.756 Y96.481 F1000
G1 X58.653 Y96.584 F1000
G1 X58.550 Y96.584 F1000
G1 X58.344 Y96.790 F1000
G1 X58.344 Y96.893 F1000
G1 X58.035 Y97.202 F1000
G1 X57.932 Y97.202 F1000
G1 X57.829 Y97.305 F1000
G1 X57.726 Y97.202 F1000
G1 X57.726 Y96.378 F1000
G1 X57.726 Y97.305 F1000
G1 X57.829 Y97.305 F1000
G1 X57.932 Y97.202 F1000
G1 X58.035 Y97.202 F1000
G1 X58.138 Y97.099 F1000
G1 X58.241 Y97.099 F1000
G1 X58.241 Y96.996 F1000
G1 X58.344 Y96.893 F1000
G1 X58.344 Y96.790 F1000
G1 X58.550 Y96.584 F1000
G1 X58.653 Y96.584 F1000
G1 X58.756 Y96.481 F1000
G1 X58.859 Y96.584 F1000
G1 X58.859 Y97.614 F1000
G0 Z3.0 ; Pen up

G0 X60.919 Y97.305 F3000 ; Travel to line 207
G0 Z0.0 ; Pen down
G1 X60.919 Y97.099 F1000
G1 X60.816 Y96.996 F1000
G1 X60.816 Y96.790 F1000
G1 X60.713 Y96.687 F1000
G1 X60.713 Y96.584 F1000
G1 X60.816 Y96.481 F1000
G1 X61.537 Y96.481 F1000
G1 X61.640 Y96.584 F1000
G1 X61.640 Y96.893 F1000
G1 X61.537 Y96.996 F1000
G1 X61.537 Y97.202 F1000
G1 X61.434 Y97.305 F1000
G1 X61.434 Y97.408 F1000
G1 X61.331 Y97.511 F1000
G1 X61.125 Y97.511 F1000
G0 Z3.0 ; Pen up

G0 X61.022 Y97.511 F3000 ; Travel to line 208
G0 Z0.0 ; Pen down
G1 X61.022 Y97.408 F1000
G1 X60.919 Y97.305 F1000
G1 X60.919 Y97.099 F1000
G1 X60.816 Y96.996 F1000
G1 X60.816 Y96.790 F1000
G1 X60.713 Y96.687 F1000
G1 X60.713 Y96.584 F1000
G1 X60.610 Y96.481 F1000
G1 X60.610 Y96.275 F1000
G1 X60.610 Y96.378 F1000
G1 X60.713 Y96.481 F1000
G1 X61.537 Y96.481 F1000
G1 X61.640 Y96.584 F1000
G1 X61.743 Y96.481 F1000
G1 X61.743 Y96.378 F1000
G1 X61.846 Y96.275 F1000
G1 X61.743 Y96.378 F1000
G1 X61.743 Y96.481 F1000
G1 X61.640 Y96.584 F1000
G1 X61.640 Y96.893 F1000
G1 X61.537 Y96.996 F1000
G1 X61.537 Y97.202 F1000
G1 X61.434 Y97.305 F1000
G1 X61.434 Y97.408 F1000
G1 X61.331 Y97.511 F1000
G0 Z3.0 ; Pen up

G0 X62.773 Y97.717 F3000 ; Travel to line 209
G0 Z0.0 ; Pen down
G1 X62.670 Y97.614 F1000
G1 X62.567 Y97.614 F1000
G1 X62.567 Y97.511 F1000
G1 X62.464 Y97.408 F1000
G1 X62.464 Y97.305 F1000
G1 X62.567 Y97.202 F1000
G1 X62.567 Y97.099 F1000
G1 X62.670 Y96.996 F1000
G1 X62.876 Y96.996 F1000
G1 X62.979 Y96.893 F1000
G1 X63.185 Y96.893 F1000
G1 X63.391 Y96.687 F1000
G1 X63.391 Y96.378 F1000
G1 X63.185 Y96.172 F1000
G1 X62.670 Y96.172 F1000
G1 X62.567 Y96.275 F1000
G1 X62.464 Y96.275 F1000
G1 X62.567 Y96.275 F1000
G1 X62.670 Y96.172 F1000
G1 X63.185 Y96.172 F1000
G1 X63.288 Y96.275 F1000
G1 X63.391 Y96.275 F1000
G1 X63.391 Y96.790 F1000
G1 X63.288 Y96.893 F1000
G1 X62.979 Y96.893 F1000
G1 X62.876 Y96.996 F1000
G1 X62.773 Y96.996 F1000
G1 X62.464 Y97.305 F1000
G1 X62.464 Y97.408 F1000
G1 X62.773 Y97.717 F1000
G1 X63.288 Y97.717 F1000
G0 Z3.0 ; Pen up

G0 X64.524 Y97.717 F3000 ; Travel to line 210
G0 Z0.0 ; Pen down
G1 X64.421 Y97.614 F1000
G1 X64.318 Y97.614 F1000
G1 X64.318 Y97.511 F1000
G1 X64.215 Y97.408 F1000
G1 X64.215 Y97.305 F1000
G1 X64.318 Y97.202 F1000
G1 X64.318 Y97.099 F1000
G1 X64.421 Y96.996 F1000
G1 X64.627 Y96.996 F1000
G1 X64.730 Y96.893 F1000
G1 X64.936 Y96.893 F1000
G1 X65.142 Y96.687 F1000
G1 X65.142 Y96.378 F1000
G1 X64.936 Y96.172 F1000
G1 X64.421 Y96.172 F1000
G1 X64.318 Y96.275 F1000
G1 X64.215 Y96.275 F1000
G1 X64.318 Y96.275 F1000
G1 X64.421 Y96.172 F1000
G1 X64.936 Y96.172 F1000
G1 X65.039 Y96.275 F1000
G1 X65.142 Y96.275 F1000
G1 X65.142 Y96.790 F1000
G1 X65.039 Y96.893 F1000
G1 X64.730 Y96.893 F1000
G1 X64.627 Y96.996 F1000
G1 X64.524 Y96.996 F1000
G1 X64.215 Y97.305 F1000
G1 X64.215 Y97.408 F1000
G1 X64.524 Y97.717 F1000
G1 X65.039 Y97.717 F1000
G0 Z3.0 ; Pen up

G0 X66.069 Y97.717 F3000 ; Travel to line 211
G0 Z0.0 ; Pen down
G1 X66.069 Y96.275 F1000
G1 X66.172 Y96.172 F1000
G1 X66.893 Y96.172 F1000
G1 X66.172 Y96.172 F1000
G1 X66.069 Y96.275 F1000
G1 X66.069 Y96.893 F1000
G1 X66.172 Y96.996 F1000
G1 X66.790 Y96.996 F1000
G1 X66.172 Y96.996 F1000
G1 X66.069 Y97.099 F1000
G1 X66.069 Y97.614 F1000
G1 X66.172 Y97.717 F1000
G1 X66.790 Y97.717 F1000
G0 Z3.0 ; Pen up

G0 X69.056 Y97.408 F3000 ; Travel to line 212
G0 Z0.0 ; Pen down
G1 X68.850 Y97.202 F1000
G1 X68.747 Y97.202 F1000
G1 X68.747 Y96.996 F1000
G1 X68.541 Y96.790 F1000
G1 X68.335 Y96.790 F1000
G1 X68.232 Y96.893 F1000
G1 X68.232 Y97.099 F1000
G1 X68.129 Y97.099 F1000
G1 X68.026 Y97.202 F1000
G1 X67.923 Y97.202 F1000
G1 X67.820 Y97.305 F1000
G1 X67.717 Y97.305 F1000
G1 X67.717 Y96.378 F1000
G1 X67.717 Y97.202 F1000
G1 X67.820 Y97.305 F1000
G1 X67.923 Y97.202 F1000
G1 X68.026 Y97.202 F1000
G1 X68.232 Y96.996 F1000
G1 X68.232 Y96.893 F1000
G1 X68.438 Y96.687 F1000
G1 X68.438 Y96.584 F1000
G1 X68.438 Y96.687 F1000
G1 X68.541 Y96.790 F1000
G1 X68.644 Y96.790 F1000
G1 X68.644 Y96.893 F1000
G1 X68.747 Y96.996 F1000
G1 X68.747 Y97.099 F1000
G1 X68.953 Y97.305 F1000
G1 X69.056 Y97.305 F1000
G1 X69.159 Y97.408 F1000
G1 X69.262 Y97.305 F1000
G1 X69.262 Y96.378 F1000
G1 X69.262 Y97.305 F1000
G1 X69.159 Y97.408 F1000
G0 Z3.0 ; Pen up

G0 X70.189 Y97.614 F3000 ; Travel to line 213
G0 Z0.0 ; Pen down
G1 X70.292 Y97.717 F1000
G1 X70.910 Y97.717 F1000
G1 X71.013 Y97.614 F1000
G1 X71.013 Y97.099 F1000
G1 X70.910 Y96.996 F1000
G1 X70.292 Y96.996 F1000
G1 X70.189 Y97.099 F1000
G0 Z3.0 ; Pen up

G0 X70.189 Y96.893 F3000 ; Travel to line 214
G0 Z0.0 ; Pen down
G1 X70.292 Y96.996 F1000
G1 X71.013 Y96.996 F1000
G1 X71.116 Y96.893 F1000
G1 X71.116 Y96.378 F1000
G1 X70.910 Y96.172 F1000
