; Blueprint to G-code
; Input: test_images_solid/test5_mechanical_part.png
; Generated with blueprint2gcode.py

G21 ; Set units to millimeters
G90 ; Absolute positioning
G0 Z3.0 ; Pen up
G0 X0 Y0 ; Move to origin

G0 X100.920 Y107.860 F3000 ; Travel to line 1
G0 Z0.0 ; Pen down
G1 X99.360 Y109.420 F1000
G0 Z3.0 ; Pen up

G0 X98.060 Y111.240 F3000 ; Travel to line 2
G0 Z0.0 ; Pen down
G1 X102.740 Y106.560 F1000
G0 Z3.0 ; Pen up

G0 X103.260 Y106.300 F3000 ; Travel to line 3
G0 Z0.0 ; Pen down
G1 X97.800 Y111.760 F1000
G0 Z3.0 ; Pen up

G0 X97.280 Y112.800 F3000 ; Travel to line 4
G0 Z0.0 ; Pen down
G1 X104.300 Y105.780 F1000
G0 Z3.0 ; Pen up

G0 X104.820 Y105.520 F3000 ; Travel to line 5
G0 Z0.0 ; Pen down
G1 X97.020 Y113.320 F1000
G0 Z3.0 ; Pen up

G0 X97.020 Y113.580 F3000 ; Travel to line 6
G0 Z0.0 ; Pen down
G1 X105.600 Y105.260 F1000
G0 Z3.0 ; Pen up

G0 X105.860 Y105.260 F3000 ; Travel to line 7
G0 Z0.0 ; Pen down
G1 X96.760 Y114.360 F1000
G0 Z3.0 ; Pen up

G0 X96.500 Y114.880 F3000 ; Travel to line 8
G0 Z0.0 ; Pen down
G1 X106.380 Y105.000 F1000
G0 Z3.0 ; Pen up

G0 X106.900 Y105.000 F3000 ; Travel to line 9
G0 Z0.0 ; Pen down
G1 X96.500 Y115.400 F1000
G0 Z3.0 ; Pen up

G0 X96.500 Y115.660 F3000 ; Travel to line 10
G0 Z0.0 ; Pen down
G1 X107.160 Y105.000 F1000
G0 Z3.0 ; Pen up

G0 X107.420 Y105.000 F3000 ; Travel to line 11
G0 Z0.0 ; Pen down
G1 X96.240 Y116.440 F1000
G0 Z3.0 ; Pen up

G0 X96.240 Y116.700 F3000 ; Travel to line 12
G0 Z0.0 ; Pen down
G1 X107.940 Y105.000 F1000
G0 Z3.0 ; Pen up

G0 X108.200 Y105.000 F3000 ; Travel to line 13
G0 Z0.0 ; Pen down
G1 X96.240 Y116.960 F1000
G0 Z3.0 ; Pen up

G0 X96.240 Y117.480 F3000 ; Travel to line 14
G0 Z0.0 ; Pen down
G1 X108.720 Y105.000 F1000
G0 Z3.0 ; Pen up

G0 X108.980 Y105.000 F3000 ; Travel to line 15
G0 Z0.0 ; Pen down
G1 X96.240 Y117.740 F1000
G0 Z3.0 ; Pen up

G0 X96.240 Y118.260 F3000 ; Travel to line 16
G0 Z0.0 ; Pen down
G1 X109.500 Y105.000 F1000
G0 Z3.0 ; Pen up

G0 X109.760 Y105.000 F3000 ; Travel to line 17
G0 Z0.0 ; Pen down
G1 X96.240 Y118.520 F1000
G0 Z3.0 ; Pen up

G0 X96.240 Y118.780 F3000 ; Travel to line 18
G0 Z0.0 ; Pen down
G1 X110.020 Y105.000 F1000
G0 Z3.0 ; Pen up

G0 X110.540 Y105.000 F3000 ; Travel to line 19
G0 Z0.0 ; Pen down
G1 X96.240 Y119.300 F1000
G0 Z3.0 ; Pen up

G0 X96.240 Y119.560 F3000 ; Travel to line 20
G0 Z0.0 ; Pen down
G1 X110.800 Y105.000 F1000
G0 Z3.0 ; Pen up

G0 X111.320 Y105.000 F3000 ; Travel to line 21
G0 Z0.0 ; Pen down
G1 X96.500 Y119.820 F1000
G0 Z3.0 ; Pen up

G0 X96.500 Y120.080 F3000 ; Travel to line 22
G0 Z0.0 ; Pen down
G1 X111.580 Y105.000 F1000
G0 Z3.0 ; Pen up

G0 X112.100 Y105.000 F3000 ; Travel to line 23
G0 Z0.0 ; Pen down
G1 X96.500 Y120.340 F1000
G0 Z3.0 ; Pen up

G0 X96.500 Y120.860 F3000 ; Travel to line 24
G0 Z0.0 ; Pen down
G1 X112.360 Y105.000 F1000
G0 Z3.0 ; Pen up

G0 X112.620 Y105.000 F3000 ; Travel to line 25
G0 Z0.0 ; Pen down
G1 X96.500 Y121.120 F1000
G0 Z3.0 ; Pen up

G0 X96.760 Y121.380 F3000 ; Travel to line 26
G0 Z0.0 ; Pen down
G1 X112.880 Y105.260 F1000
G0 Z3.0 ; Pen up

G0 X113.140 Y105.260 F3000 ; Travel to line 27
G0 Z0.0 ; Pen down
G1 X96.760 Y121.640 F1000
G0 Z3.0 ; Pen up

G0 X97.020 Y121.900 F3000 ; Travel to line 28
G0 Z0.0 ; Pen down
G1 X113.400 Y105.260 F1000
G0 Z3.0 ; Pen up

G0 X113.660 Y105.520 F3000 ; Travel to line 29
G0 Z0.0 ; Pen down
G1 X97.020 Y122.160 F1000
G0 Z3.0 ; Pen up

G0 X97.020 Y122.420 F3000 ; Travel to line 30
G0 Z0.0 ; Pen down
G1 X113.920 Y105.520 F1000
G0 Z3.0 ; Pen up

G0 X114.180 Y105.780 F3000 ; Travel to line 31
G0 Z0.0 ; Pen down
G1 X97.280 Y122.680 F1000
G0 Z3.0 ; Pen up

G0 X97.280 Y122.940 F3000 ; Travel to line 32
G0 Z0.0 ; Pen down
G1 X114.440 Y105.780 F1000
G0 Z3.0 ; Pen up

G0 X114.700 Y106.040 F3000 ; Travel to line 33
G0 Z0.0 ; Pen down
G1 X97.540 Y123.200 F1000
G0 Z3.0 ; Pen up

G0 X97.540 Y123.460 F3000 ; Travel to line 34
G0 Z0.0 ; Pen down
G1 X114.960 Y106.040 F1000
G0 Z3.0 ; Pen up

G0 X115.220 Y106.040 F3000 ; Travel to line 35
G0 Z0.0 ; Pen down
G1 X97.800 Y123.720 F1000
G0 Z3.0 ; Pen up

G0 X97.800 Y123.980 F3000 ; Travel to line 36
G0 Z0.0 ; Pen down
G1 X115.480 Y106.300 F1000
G0 Z3.0 ; Pen up

G0 X115.740 Y106.300 F3000 ; Travel to line 37
G0 Z0.0 ; Pen down
G1 X97.800 Y124.240 F1000
G0 Z3.0 ; Pen up

G0 X98.060 Y124.500 F3000 ; Travel to line 38
G0 Z0.0 ; Pen down
G1 X116.000 Y106.560 F1000
G0 Z3.0 ; Pen up

G0 X116.260 Y106.560 F3000 ; Travel to line 39
G0 Z0.0 ; Pen down
G1 X98.060 Y124.760 F1000
G0 Z3.0 ; Pen up

G0 X98.320 Y124.760 F3000 ; Travel to line 40
G0 Z0.0 ; Pen down
G1 X116.520 Y106.820 F1000
G0 Z3.0 ; Pen up

G0 X116.520 Y107.080 F3000 ; Travel to line 41
G0 Z0.0 ; Pen down
G1 X98.580 Y125.020 F1000
G0 Z3.0 ; Pen up

G0 X98.580 Y125.280 F3000 ; Travel to line 42
G0 Z0.0 ; Pen down
G1 X116.780 Y107.080 F1000
G0 Z3.0 ; Pen up

G0 X117.040 Y107.340 F3000 ; Travel to line 43
G0 Z0.0 ; Pen down
G1 X98.840 Y125.540 F1000
G0 Z3.0 ; Pen up

G0 X98.840 Y125.800 F3000 ; Travel to line 44
G0 Z0.0 ; Pen down
G1 X117.300 Y107.340 F1000
G0 Z3.0 ; Pen up

G0 X117.560 Y107.600 F3000 ; Travel to line 45
G0 Z0.0 ; Pen down
G1 X99.100 Y126.060 F1000
G0 Z3.0 ; Pen up

G0 X99.360 Y126.060 F3000 ; Travel to line 46
G0 Z0.0 ; Pen down
G1 X117.560 Y107.860 F1000
G0 Z3.0 ; Pen up

G0 X117.820 Y107.860 F3000 ; Travel to line 47
G0 Z0.0 ; Pen down
G1 X99.360 Y126.320 F1000
G0 Z3.0 ; Pen up

G0 X99.620 Y126.580 F3000 ; Travel to line 48
G0 Z0.0 ; Pen down
G1 X118.080 Y108.120 F1000
G0 Z3.0 ; Pen up

G0 X118.340 Y108.120 F3000 ; Travel to line 49
G0 Z0.0 ; Pen down
G1 X99.620 Y126.840 F1000
G0 Z3.0 ; Pen up

G0 X99.880 Y127.100 F3000 ; Travel to line 50
G0 Z0.0 ; Pen down
G1 X118.600 Y108.380 F1000
G0 Z3.0 ; Pen up

G0 X118.600 Y108.640 F3000 ; Travel to line 51
G0 Z0.0 ; Pen down
G1 X100.140 Y127.100 F1000
G0 Z3.0 ; Pen up

G0 X100.400 Y127.360 F3000 ; Travel to line 52
G0 Z0.0 ; Pen down
G1 X118.860 Y108.640 F1000
G0 Z3.0 ; Pen up

G0 X119.120 Y108.900 F3000 ; Travel to line 53
G0 Z0.0 ; Pen down
G1 X100.400 Y127.620 F1000
G0 Z3.0 ; Pen up

G0 X100.660 Y127.620 F3000 ; Travel to line 54
G0 Z0.0 ; Pen down
G1 X119.120 Y109.160 F1000
G0 Z3.0 ; Pen up

G0 X119.380 Y109.420 F3000 ; Travel to line 55
G0 Z0.0 ; Pen down
G1 X100.920 Y127.880 F1000
G0 Z3.0 ; Pen up

G0 X100.920 Y128.140 F3000 ; Travel to line 56
G0 Z0.0 ; Pen down
G1 X119.640 Y109.420 F1000
G0 Z3.0 ; Pen up

G0 X119.640 Y109.940 F3000 ; Travel to line 57
G0 Z0.0 ; Pen down
G1 X101.440 Y128.140 F1000
G0 Z3.0 ; Pen up

G0 X101.440 Y128.400 F3000 ; Travel to line 58
G0 Z0.0 ; Pen down
G1 X119.900 Y109.940 F1000
G0 Z3.0 ; Pen up

G0 X119.900 Y110.200 F3000 ; Travel to line 59
G0 Z0.0 ; Pen down
G1 X101.700 Y128.400 F1000
G0 Z3.0 ; Pen up

G0 X101.960 Y128.660 F3000 ; Travel to line 60
G0 Z0.0 ; Pen down
G1 X120.160 Y110.460 F1000
G0 Z3.0 ; Pen up

G0 X120.420 Y110.460 F3000 ; Travel to line 61
G0 Z0.0 ; Pen down
G1 X101.960 Y128.920 F1000
G0 Z3.0 ; Pen up

G0 X102.480 Y128.920 F3000 ; Travel to line 62
G0 Z0.0 ; Pen down
G1 X120.420 Y110.980 F1000
G0 Z3.0 ; Pen up

G0 X120.680 Y110.980 F3000 ; Travel to line 63
G0 Z0.0 ; Pen down
G1 X102.480 Y129.180 F1000
G0 Z3.0 ; Pen up

G0 X102.740 Y129.180 F3000 ; Travel to line 64
G0 Z0.0 ; Pen down
G1 X120.940 Y111.240 F1000
G0 Z3.0 ; Pen up

G0 X120.940 Y111.500 F3000 ; Travel to line 65
G0 Z0.0 ; Pen down
G1 X103.000 Y129.440 F1000
G0 Z3.0 ; Pen up

G0 X103.260 Y129.440 F3000 ; Travel to line 66
G0 Z0.0 ; Pen down
G1 X120.940 Y111.760 F1000
G0 Z3.0 ; Pen up

G0 X121.200 Y112.020 F3000 ; Travel to line 67
G0 Z0.0 ; Pen down
G1 X103.520 Y129.700 F1000
G0 Z3.0 ; Pen up

G0 X103.780 Y129.700 F3000 ; Travel to line 68
G0 Z0.0 ; Pen down
G1 X121.200 Y112.280 F1000
G0 Z3.0 ; Pen up

G0 X121.460 Y112.280 F3000 ; Travel to line 69
G0 Z0.0 ; Pen down
G1 X104.040 Y129.960 F1000
G0 Z3.0 ; Pen up

G0 X104.300 Y129.960 F3000 ; Travel to line 70
G0 Z0.0 ; Pen down
G1 X121.460 Y112.800 F1000
G0 Z3.0 ; Pen up

G0 X121.720 Y112.800 F3000 ; Travel to line 71
G0 Z0.0 ; Pen down
G1 X104.300 Y130.220 F1000
G0 Z3.0 ; Pen up

G0 X104.820 Y130.220 F3000 ; Travel to line 72
G0 Z0.0 ; Pen down
G1 X121.720 Y113.320 F1000
G0 Z3.0 ; Pen up

G0 X121.980 Y113.320 F3000 ; Travel to line 73
G0 Z0.0 ; Pen down
G1 X104.820 Y130.480 F1000
G0 Z3.0 ; Pen up

G0 X105.340 Y130.480 F3000 ; Travel to line 74
G0 Z0.0 ; Pen down
G1 X121.980 Y113.840 F1000
G0 Z3.0 ; Pen up

G0 X121.980 Y114.100 F3000 ; Travel to line 75
G0 Z0.0 ; Pen down
G1 X105.600 Y130.480 F1000
G0 Z3.0 ; Pen up

G0 X105.860 Y130.740 F3000 ; Travel to line 76
G0 Z0.0 ; Pen down
G1 X122.240 Y114.100 F1000
G0 Z3.0 ; Pen up

G0 X122.240 Y114.620 F3000 ; Travel to line 77
G0 Z0.0 ; Pen down
G1 X106.120 Y130.740 F1000
G0 Z3.0 ; Pen up

G0 X106.380 Y130.740 F3000 ; Travel to line 78
G0 Z0.0 ; Pen down
G1 X122.240 Y114.880 F1000
G0 Z3.0 ; Pen up

G0 X122.500 Y115.140 F3000 ; Travel to line 79
G0 Z0.0 ; Pen down
G1 X106.640 Y131.000 F1000
G0 Z3.0 ; Pen up

G0 X106.900 Y131.000 F3000 ; Travel to line 80
G0 Z0.0 ; Pen down
G1 X122.500 Y115.400 F1000
G0 Z3.0 ; Pen up

G0 X122.500 Y115.920 F3000 ; Travel to line 81
G0 Z0.0 ; Pen down
G1 X107.160 Y131.000 F1000
G0 Z3.0 ; Pen up

G0 X107.680 Y131.000 F3000 ; Travel to line 82
G0 Z0.0 ; Pen down
G1 X122.500 Y116.180 F1000
G0 Z3.0 ; Pen up

G0 X122.760 Y116.180 F3000 ; Travel to line 83
G0 Z0.0 ; Pen down
G1 X107.680 Y131.260 F1000
G0 Z3.0 ; Pen up

G0 X108.200 Y131.260 F3000 ; Travel to line 84
G0 Z0.0 ; Pen down
G1 X122.760 Y116.700 F1000
G0 Z3.0 ; Pen up

G0 X122.760 Y116.960 F3000 ; Travel to line 85
G0 Z0.0 ; Pen down
G1 X108.460 Y131.260 F1000
G0 Z3.0 ; Pen up

G0 X108.980 Y131.260 F3000 ; Travel to line 86
G0 Z0.0 ; Pen down
G1 X122.760 Y117.480 F1000
G0 Z3.0 ; Pen up

G0 X122.760 Y117.740 F3000 ; Travel to line 87
G0 Z0.0 ; Pen down
G1 X109.240 Y131.260 F1000
G0 Z3.0 ; Pen up

G0 X109.500 Y131.260 F3000 ; Travel to line 88
G0 Z0.0 ; Pen down
G1 X122.760 Y118.000 F1000
G0 Z3.0 ; Pen up

G0 X122.760 Y118.520 F3000 ; Travel to line 89
G0 Z0.0 ; Pen down
G1 X110.020 Y131.260 F1000
G0 Z3.0 ; Pen up

G0 X110.280 Y131.260 F3000 ; Travel to line 90
G0 Z0.0 ; Pen down
G1 X122.760 Y118.780 F1000
G0 Z3.0 ; Pen up

G0 X122.760 Y119.300 F3000 ; Travel to line 91
G0 Z0.0 ; Pen down
G1 X110.800 Y131.260 F1000
G0 Z3.0 ; Pen up

G0 X111.060 Y131.260 F3000 ; Travel to line 92
G0 Z0.0 ; Pen down
G1 X122.760 Y119.560 F1000
G0 Z3.0 ; Pen up

G0 X122.760 Y119.820 F3000 ; Travel to line 93
G0 Z0.0 ; Pen down
G1 X111.840 Y131.000 F1000
G0 Z3.0 ; Pen up

G0 X112.100 Y131.000 F3000 ; Travel to line 94
G0 Z0.0 ; Pen down
G1 X122.500 Y120.600 F1000
G0 Z3.0 ; Pen up

G0 X122.500 Y120.860 F3000 ; Travel to line 95
G0 Z0.0 ; Pen down
G1 X112.360 Y131.000 F1000
G0 Z3.0 ; Pen up

G0 X113.140 Y130.740 F3000 ; Travel to line 96
G0 Z0.0 ; Pen down
G1 X122.240 Y121.640 F1000
G0 Z3.0 ; Pen up

G0 X122.240 Y121.900 F3000 ; Travel to line 97
G0 Z0.0 ; Pen down
G1 X113.400 Y130.740 F1000
G0 Z3.0 ; Pen up

G0 X113.920 Y130.480 F3000 ; Travel to line 98
G0 Z0.0 ; Pen down
G1 X121.980 Y122.680 F1000
G0 Z3.0 ; Pen up

G0 X121.720 Y123.200 F3000 ; Travel to line 99
G0 Z0.0 ; Pen down
G1 X114.700 Y130.220 F1000
G0 Z3.0 ; Pen up

G0 X115.220 Y129.960 F3000 ; Travel to line 100
G0 Z0.0 ; Pen down
G1 X121.460 Y123.720 F1000
G0 Z3.0 ; Pen up

G0 X120.940 Y124.760 F3000 ; Travel to line 101
G0 Z0.0 ; Pen down
G1 X116.260 Y129.440 F1000
G0 Z3.0 ; Pen up

G0 X117.040 Y128.920 F3000 ; Travel to line 102
G0 Z0.0 ; Pen down
G1 X120.420 Y125.540 F1000
G0 Z3.0 ; Pen up

G0 X148.500 Y132.300 F3000 ; Travel to line 103
G0 Z0.0 ; Pen down
G1 X148.760 Y132.040 F1000
G1 X155.260 Y138.540 F1000
G1 X155.520 Y138.540 F1000
G1 X156.040 Y139.060 F1000
G1 X156.300 Y139.060 F1000
G1 X156.820 Y139.580 F1000
G1 X157.080 Y139.580 F1000
G1 X157.340 Y139.840 F1000
G1 X157.600 Y139.840 F1000
G1 X157.860 Y140.100 F1000
G1 X158.120 Y140.100 F1000
G1 X158.380 Y140.360 F1000
G1 X158.640 Y140.360 F1000
G1 X158.900 Y140.620 F1000
G1 X159.160 Y140.620 F1000
G1 X159.420 Y140.880 F1000
G1 X159.680 Y140.880 F1000
G1 X159.940 Y141.140 F1000
G1 X160.200 Y141.140 F1000
G1 X160.460 Y141.400 F1000
G1 X160.980 Y141.400 F1000
G1 X161.240 Y141.660 F1000
G1 X161.500 Y141.660 F1000
G1 X161.760 Y141.920 F1000
G1 X162.280 Y141.920 F1000
G1 X162.540 Y142.180 F1000
G1 X163.060 Y142.180 F1000
G1 X163.320 Y142.440 F1000
G1 X163.840 Y142.440 F1000
G1 X164.100 Y142.700 F1000
G1 X164.880 Y142.700 F1000
G1 X165.140 Y142.960 F1000
G1 X165.660 Y142.960 F1000
G1 X165.920 Y143.220 F1000
G1 X166.700 Y143.220 F1000
G1 X166.960 Y143.480 F1000
G1 X168.000 Y143.480 F1000
G1 X168.260 Y143.740 F1000
G1 X169.300 Y143.740 F1000
G1 X169.560 Y144.000 F1000
G1 X171.120 Y144.000 F1000
G1 X171.380 Y144.260 F1000
G1 X203.620 Y144.260 F1000
G1 X203.880 Y144.000 F1000
G1 X205.440 Y144.000 F1000
G1 X205.700 Y143.740 F1000
G1 X206.740 Y143.740 F1000
G1 X207.000 Y143.480 F1000
G1 X208.040 Y143.480 F1000
G1 X208.300 Y143.220 F1000
G1 X209.080 Y143.220 F1000
G1 X209.340 Y142.960 F1000
G1 X209.860 Y142.960 F1000
G1 X210.120 Y142.700 F1000
G1 X210.900 Y142.700 F1000
G1 X211.160 Y142.440 F1000
G1 X211.680 Y142.440 F1000
G1 X211.680 Y142.180 F1000
G1 X211.940 Y141.920 F1000
G1 X211.940 Y141.400 F1000
G1 X212.200 Y141.140 F1000
G1 X212.200 Y140.360 F1000
G1 X212.460 Y140.100 F1000
G1 X212.460 Y139.320 F1000
G1 X212.720 Y139.060 F1000
G1 X212.720 Y138.280 F1000
G1 X212.980 Y138.020 F1000
G1 X212.980 Y136.980 F1000
G1 X213.240 Y136.720 F1000
G1 X213.240 Y135.420 F1000
G1 X213.500 Y135.160 F1000
G1 X213.500 Y133.080 F1000
G1 X213.760 Y132.820 F1000
G1 X213.760 Y105.260 F1000
G1 X214.020 Y105.000 F1000
G1 X252.240 Y105.000 F1000
G1 X214.020 Y105.000 F1000
G1 X213.760 Y104.740 F1000
G1 X213.760 Y103.180 F1000
G1 X213.500 Y102.920 F1000
G1 X213.500 Y100.840 F1000
G1 X213.240 Y100.580 F1000
G1 X213.240 Y99.280 F1000
G1 X212.980 Y99.020 F1000
G1 X212.980 Y97.980 F1000
G1 X212.720 Y97.720 F1000
G1 X212.720 Y96.940 F1000
G1 X212.460 Y96.680 F1000
G1 X212.460 Y95.900 F1000
G1 X212.200 Y95.640 F1000
G1 X212.200 Y94.860 F1000
G1 X211.940 Y94.600 F1000
G1 X211.940 Y94.080 F1000
G1 X211.680 Y93.820 F1000
G1 X211.680 Y93.300 F1000
G1 X211.420 Y93.040 F1000
G1 X211.420 Y92.520 F1000
G1 X211.160 Y92.260 F1000
G1 X211.160 Y92.000 F1000
G1 X210.900 Y91.740 F1000
G1 X210.900 Y91.220 F1000
G1 X210.640 Y90.960 F1000
G1 X210.640 Y90.700 F1000
G1 X210.380 Y90.440 F1000
G1 X210.380 Y90.180 F1000
G1 X210.120 Y89.920 F1000
G1 X210.120 Y89.660 F1000
G1 X209.860 Y89.400 F1000
G1 X209.860 Y89.140 F1000
G1 X209.600 Y88.880 F1000
G1 X209.600 Y88.620 F1000
G1 X209.340 Y88.360 F1000
G1 X209.340 Y88.100 F1000
G1 X209.080 Y87.840 F1000
G1 X209.080 Y87.580 F1000
G1 X208.560 Y87.060 F1000
G1 X208.560 Y86.800 F1000
G1 X200.760 Y79.000 F1000
G1 X188.020 Y79.000 F1000
G1 X173.980 Y64.960 F1000
G1 X173.720 Y64.960 F1000
G1 X173.200 Y64.440 F1000
G1 X172.940 Y64.440 F1000
G1 X172.420 Y63.920 F1000
G1 X172.160 Y63.920 F1000
G1 X171.900 Y63.660 F1000
G1 X171.640 Y63.660 F1000
G1 X171.380 Y63.400 F1000
G1 X171.120 Y63.400 F1000
G1 X170.860 Y63.140 F1000
G1 X170.600 Y63.140 F1000
G1 X170.340 Y62.880 F1000
G1 X170.080 Y62.880 F1000
G1 X169.820 Y62.620 F1000
G1 X169.560 Y62.620 F1000
G1 X169.300 Y62.360 F1000
G1 X169.040 Y62.360 F1000
G1 X168.780 Y62.100 F1000
G1 X168.260 Y62.100 F1000
G1 X168.000 Y61.840 F1000
G1 X167.740 Y61.840 F1000
G1 X167.480 Y61.580 F1000
G1 X166.960 Y61.580 F1000
G1 X166.700 Y61.320 F1000
G1 X166.180 Y61.320 F1000
G1 X165.920 Y61.060 F1000
G1 X165.400 Y61.060 F1000
G1 X165.140 Y60.800 F1000
G1 X164.360 Y60.800 F1000
G1 X164.100 Y60.540 F1000
G1 X163.320 Y60.540 F1000
G1 X163.060 Y60.280 F1000
G1 X162.280 Y60.280 F1000
G1 X162.020 Y60.020 F1000
G1 X160.980 Y60.020 F1000
G1 X160.720 Y59.760 F1000
G1 X159.420 Y59.760 F1000
G1 X159.160 Y59.500 F1000
G1 X157.080 Y59.500 F1000
G1 X156.820 Y59.240 F1000
G1 X148.760 Y59.240 F1000
G1 X148.500 Y58.980 F1000
G1 X148.500 Y40.260 F1000
G1 X148.760 Y40.000 F1000
G1 X226.240 Y40.000 F1000
G1 X222.080 Y40.000 F1000
G1 X221.820 Y39.740 F1000
G1 X221.820 Y39.480 F1000
G1 X221.820 Y39.740 F1000
G1 X221.560 Y40.000 F1000
G1 X148.760 Y40.000 F1000
G1 X148.500 Y39.740 F1000
G1 X148.500 Y27.260 F1000
G1 X148.500 Y39.740 F1000
G1 X148.240 Y40.000 F1000
G1 X75.440 Y40.000 F1000
G1 X75.180 Y39.740 F1000
G1 X75.180 Y39.480 F1000
G1 X75.700 Y38.960 F1000
G1 X75.180 Y39.480 F1000
G1 X75.180 Y39.740 F1000
G1 X74.920 Y40.000 F1000
G1 X70.760 Y40.000 F1000
G1 X74.920 Y40.000 F1000
G1 X75.180 Y40.260 F1000
G1 X75.180 Y40.780 F1000
G1 X75.180 Y40.260 F1000
G1 X75.440 Y40.000 F1000
G1 X148.240 Y40.000 F1000
G1 X148.500 Y40.260 F1000
G1 X148.500 Y58.980 F1000
G1 X148.240 Y59.240 F1000
G1 X140.180 Y59.240 F1000
G1 X139.920 Y59.500 F1000
G1 X137.840 Y59.500 F1000
G1 X137.580 Y59.760 F1000
G1 X136.280 Y59.760 F1000
G1 X136.020 Y60.020 F1000
G1 X134.980 Y60.020 F1000
G1 X134.720 Y60.280 F1000
G1 X133.940 Y60.280 F1000
G1 X133.680 Y60.540 F1000
G1 X132.900 Y60.540 F1000
G1 X132.640 Y60.800 F1000
G1 X131.860 Y60.800 F1000
G1 X131.600 Y61.060 F1000
G1 X131.080 Y61.060 F1000
G1 X130.820 Y61.320 F1000
G1 X130.300 Y61.320 F1000
G1 X130.040 Y61.580 F1000
G1 X129.520 Y61.580 F1000
G1 X129.260 Y61.840 F1000
G1 X129.000 Y61.840 F1000
G1 X128.740 Y62.100 F1000
G1 X128.220 Y62.100 F1000
G1 X127.960 Y62.360 F1000
G1 X127.700 Y62.360 F1000
G1 X127.440 Y62.620 F1000
G1 X127.180 Y62.620 F1000
G1 X126.920 Y62.880 F1000
G1 X126.660 Y62.880 F1000
G1 X126.400 Y63.140 F1000
G1 X126.140 Y63.140 F1000
G1 X125.880 Y63.400 F1000
G1 X125.620 Y63.400 F1000
G1 X125.360 Y63.660 F1000
G1 X125.100 Y63.660 F1000
G1 X124.840 Y63.920 F1000
G1 X124.580 Y63.920 F1000
G1 X124.060 Y64.440 F1000
G1 X123.800 Y64.440 F1000
G1 X123.280 Y64.960 F1000
G1 X123.020 Y64.960 F1000
G1 X108.980 Y79.000 F1000
G1 X96.240 Y79.000 F1000
G1 X88.180 Y87.060 F1000
G1 X88.180 Y87.320 F1000
G1 X87.920 Y87.580 F1000
G1 X87.920 Y87.840 F1000
G1 X87.400 Y88.360 F1000
G1 X87.400 Y88.620 F1000
G1 X87.140 Y88.880 F1000
G1 X87.140 Y89.140 F1000
G1 X86.880 Y89.400 F1000
G1 X86.880 Y89.660 F1000
G1 X86.620 Y89.920 F1000
G1 X86.620 Y90.180 F1000
G1 X86.360 Y90.440 F1000
G1 X86.360 Y90.960 F1000
G1 X86.100 Y91.220 F1000
G1 X86.100 Y91.480 F1000
G1 X85.840 Y91.740 F1000
G1 X85.840 Y92.260 F1000
G1 X85.580 Y92.520 F1000
G1 X85.580 Y92.780 F1000
G1 X85.320 Y93.040 F1000
G1 X85.320 Y93.560 F1000
G1 X85.060 Y93.820 F1000
G1 X85.060 Y94.340 F1000
G1 X84.800 Y94.600 F1000
G1 X84.800 Y95.380 F1000
G1 X84.540 Y95.640 F1000
G1 X84.540 Y96.160 F1000
G1 X84.280 Y96.420 F1000
G1 X84.280 Y97.200 F1000
G1 X84.020 Y97.460 F1000
G1 X84.020 Y98.500 F1000
G1 X83.760 Y98.760 F1000
G1 X83.760 Y99.800 F1000
G1 X83.500 Y100.060 F1000
G1 X83.500 Y101.620 F1000
G1 X83.240 Y101.880 F1000
G1 X83.240 Y104.740 F1000
G1 X82.980 Y105.000 F1000
G1 X44.760 Y105.000 F1000
G1 X82.980 Y105.000 F1000
G1 X83.240 Y105.260 F1000
G1 X83.240 Y134.120 F1000
G1 X83.500 Y134.380 F1000
G1 X83.500 Y135.940 F1000
G1 X83.760 Y136.200 F1000
G1 X83.760 Y137.240 F1000
G1 X84.020 Y137.500 F1000
G1 X84.020 Y138.540 F1000
G1 X84.280 Y138.800 F1000
G1 X84.280 Y139.580 F1000
G1 X84.540 Y139.840 F1000
G1 X84.540 Y140.360 F1000
G1 X84.800 Y140.620 F1000
G1 X84.800 Y141.400 F1000
G1 X85.060 Y141.660 F1000
G1 X85.060 Y142.180 F1000
G1 X85.320 Y142.440 F1000
G1 X85.840 Y142.440 F1000
G1 X86.100 Y142.700 F1000
G1 X86.880 Y142.700 F1000
G1 X87.140 Y142.960 F1000
G1 X87.660 Y142.960 F1000
G1 X87.920 Y143.220 F1000
G1 X88.700 Y143.220 F1000
G1 X88.960 Y143.480 F1000
G1 X90.000 Y143.480 F1000
G1 X90.260 Y143.740 F1000
G1 X91.300 Y143.740 F1000
G1 X91.560 Y144.000 F1000
G1 X93.120 Y144.000 F1000
G1 X93.380 Y144.260 F1000
G1 X125.620 Y144.260 F1000
G1 X125.880 Y144.000 F1000
G1 X127.440 Y144.000 F1000
G1 X127.700 Y143.740 F1000
G1 X128.740 Y143.740 F1000
G1 X129.000 Y143.480 F1000
G1 X130.040 Y143.480 F1000
G1 X130.300 Y143.220 F1000
G1 X131.080 Y143.220 F1000
G1 X131.340 Y142.960 F1000
G1 X131.860 Y142.960 F1000
G1 X132.120 Y142.700 F1000
G1 X132.900 Y142.700 F1000
G1 X133.160 Y142.440 F1000
G1 X133.680 Y142.440 F1000
G1 X133.940 Y142.180 F1000
G1 X134.460 Y142.180 F1000
G1 X134.720 Y141.920 F1000
G1 X134.980 Y141.920 F1000
G1 X135.240 Y141.660 F1000
G1 X135.760 Y141.660 F1000
G1 X136.020 Y141.400 F1000
G1 X136.280 Y141.400 F1000
G1 X136.540 Y141.140 F1000
G1 X137.060 Y141.140 F1000
G1 X137.320 Y140.880 F1000
G1 X137.580 Y140.880 F1000
G1 X137.840 Y140.620 F1000
G1 X138.100 Y140.620 F1000
G1 X138.360 Y140.360 F1000
G1 X138.620 Y140.360 F1000
G1 X138.880 Y140.100 F1000
G1 X139.140 Y140.100 F1000
G1 X139.660 Y139.580 F1000
G1 X139.920 Y139.580 F1000
G1 X140.180 Y139.320 F1000
G1 X140.440 Y139.320 F1000
G1 X141.220 Y138.540 F1000
G1 X141.480 Y138.540 F1000
G1 X148.240 Y131.780 F1000
G1 X148.500 Y132.040 F1000
G1 X148.500 Y182.740 F1000
G0 Z3.0 ; Pen up

G0 X169.560 Y144.000 F3000 ; Travel to line 104
G0 Z0.0 ; Pen down
G1 X169.300 Y143.740 F1000
G1 X168.260 Y143.740 F1000
G1 X168.000 Y143.480 F1000
G1 X166.960 Y143.480 F1000
G1 X166.700 Y143.220 F1000
G1 X165.920 Y143.220 F1000
G1 X165.660 Y142.960 F1000
G1 X165.140 Y142.960 F1000
G1 X164.880 Y142.700 F1000
G1 X164.100 Y142.700 F1000
G1 X163.840 Y142.440 F1000
G1 X163.320 Y142.440 F1000
G1 X163.060 Y142.180 F1000
G1 X162.540 Y142.180 F1000
G1 X162.280 Y141.920 F1000
G1 X162.020 Y141.920 F1000
G1 X161.760 Y141.660 F1000
G1 X161.240 Y141.660 F1000
G1 X160.980 Y141.400 F1000
G1 X160.720 Y141.400 F1000
G1 X160.460 Y141.140 F1000
G1 X159.940 Y141.140 F1000
G1 X159.680 Y140.880 F1000
G1 X159.420 Y140.880 F1000
G1 X159.160 Y140.620 F1000
G1 X158.900 Y140.620 F1000
G1 X158.640 Y140.360 F1000
G1 X158.380 Y140.360 F1000
G1 X158.120 Y140.100 F1000
G1 X157.860 Y140.100 F1000
G1 X157.340 Y139.580 F1000
G1 X157.080 Y139.580 F1000
G1 X156.820 Y139.320 F1000
G1 X156.560 Y139.320 F1000
G1 X155.780 Y138.540 F1000
G1 X155.520 Y138.540 F1000
G1 X149.020 Y132.040 F1000
G1 X148.760 Y132.040 F1000
G1 X148.500 Y131.780 F1000
G1 X148.500 Y118.000 F1000
G1 X173.460 Y93.040 F1000
G1 X173.720 Y93.040 F1000
G1 X187.760 Y79.000 F1000
G1 X200.500 Y79.000 F1000
G1 X208.820 Y87.320 F1000
G1 X208.820 Y87.580 F1000
G1 X209.080 Y87.840 F1000
G1 X209.080 Y88.100 F1000
G1 X209.600 Y88.620 F1000
G1 X209.600 Y88.880 F1000
G1 X209.860 Y89.140 F1000
G1 X209.860 Y89.400 F1000
G1 X210.120 Y89.660 F1000
G1 X210.120 Y89.920 F1000
G1 X210.380 Y90.180 F1000
G1 X210.380 Y90.440 F1000
G1 X210.640 Y90.700 F1000
G1 X210.640 Y91.220 F1000
G1 X210.900 Y91.480 F1000
G1 X210.900 Y91.740 F1000
G1 X211.160 Y92.000 F1000
G1 X211.160 Y92.520 F1000
G1 X211.420 Y92.780 F1000
G1 X211.420 Y93.040 F1000
G1 X211.680 Y93.300 F1000
G1 X211.680 Y93.820 F1000
G1 X211.940 Y94.080 F1000
G1 X211.940 Y94.600 F1000
G1 X212.200 Y94.860 F1000
G1 X212.200 Y95.640 F1000
G1 X212.460 Y95.900 F1000
G1 X212.460 Y96.680 F1000
G1 X212.720 Y96.940 F1000
G1 X212.720 Y97.720 F1000
G1 X212.980 Y97.980 F1000
G1 X212.980 Y99.020 F1000
G1 X213.240 Y99.280 F1000
G1 X213.240 Y100.580 F1000
G1 X213.500 Y100.840 F1000
G1 X213.500 Y102.920 F1000
G1 X213.760 Y103.180 F1000
G1 X213.760 Y132.820 F1000
G1 X213.500 Y133.080 F1000
G1 X213.500 Y135.160 F1000
G1 X213.240 Y135.420 F1000
G1 X213.240 Y136.720 F1000
G1 X212.980 Y136.980 F1000
G1 X212.980 Y138.020 F1000
G1 X212.720 Y138.280 F1000
G1 X212.720 Y139.060 F1000
G1 X212.460 Y139.320 F1000
G1 X212.460 Y140.100 F1000
G1 X212.200 Y140.360 F1000
G1 X212.200 Y141.140 F1000
G1 X211.940 Y141.400 F1000
G1 X211.940 Y141.920 F1000
G1 X211.420 Y142.440 F1000
G1 X211.160 Y142.440 F1000
G1 X210.900 Y142.700 F1000
G1 X210.120 Y142.700 F1000
G1 X209.860 Y142.960 F1000
G1 X209.340 Y142.960 F1000
G1 X209.080 Y143.220 F1000
G1 X208.300 Y143.220 F1000
G1 X208.040 Y143.480 F1000
G1 X207.000 Y143.480 F1000
G1 X206.740 Y143.740 F1000
G1 X205.700 Y143.740 F1000
G1 X205.440 Y144.000 F1000
G1 X203.880 Y144.000 F1000
G1 X203.620 Y144.260 F1000
G1 X171.380 Y144.260 F1000
G1 X171.120 Y144.000 F1000
G0 Z3.0 ; Pen up

G0 X179.960 Y128.920 F3000 ; Travel to line 105
G0 Z0.0 ; Pen down
G1 X198.420 Y110.460 F1000
G0 Z3.0 ; Pen up

G0 X198.160 Y110.460 F3000 ; Travel to line 106
G0 Z0.0 ; Pen down
G1 X179.960 Y128.660 F1000
G0 Z3.0 ; Pen up

G0 X179.700 Y128.400 F3000 ; Travel to line 107
G0 Z0.0 ; Pen down
G1 X197.900 Y110.200 F1000
G0 Z3.0 ; Pen up

G0 X197.900 Y109.940 F3000 ; Travel to line 108
G0 Z0.0 ; Pen down
G1 X179.440 Y128.400 F1000
G0 Z3.0 ; Pen up

G0 X179.440 Y128.140 F3000 ; Travel to line 109
G0 Z0.0 ; Pen down
G1 X197.640 Y109.940 F1000
G0 Z3.0 ; Pen up

G0 X197.640 Y109.420 F3000 ; Travel to line 110
G0 Z0.0 ; Pen down
G1 X178.920 Y128.140 F1000
G0 Z3.0 ; Pen up

G0 X178.920 Y127.880 F3000 ; Travel to line 111
G0 Z0.0 ; Pen down
G1 X197.380 Y109.420 F1000
G0 Z3.0 ; Pen up

G0 X197.120 Y109.160 F3000 ; Travel to line 112
G0 Z0.0 ; Pen down
G1 X178.660 Y127.620 F1000
G0 Z3.0 ; Pen up

G0 X178.400 Y127.620 F3000 ; Travel to line 113
G0 Z0.0 ; Pen down
G1 X197.120 Y108.900 F1000
G0 Z3.0 ; Pen up

G0 X196.860 Y108.640 F3000 ; Travel to line 114
G0 Z0.0 ; Pen down
G1 X178.400 Y127.360 F1000
G0 Z3.0 ; Pen up

G0 X178.140 Y127.100 F3000 ; Travel to line 115
G0 Z0.0 ; Pen down
G1 X196.600 Y108.640 F1000
G0 Z3.0 ; Pen up

G0 X196.600 Y108.380 F3000 ; Travel to line 116
G0 Z0.0 ; Pen down
G1 X177.880 Y127.100 F1000
G0 Z3.0 ; Pen up

G0 X177.620 Y126.840 F3000 ; Travel to line 117
G0 Z0.0 ; Pen down
G1 X196.340 Y108.120 F1000
G0 Z3.0 ; Pen up

G0 X196.080 Y108.120 F3000 ; Travel to line 118
G0 Z0.0 ; Pen down
G1 X177.620 Y126.580 F1000
G0 Z3.0 ; Pen up

G0 X177.360 Y126.320 F3000 ; Travel to line 119
G0 Z0.0 ; Pen down
G1 X195.820 Y107.860 F1000
G0 Z3.0 ; Pen up

G0 X195.560 Y107.860 F3000 ; Travel to line 120
G0 Z0.0 ; Pen down
G1 X177.360 Y126.060 F1000
G0 Z3.0 ; Pen up

G0 X177.100 Y126.060 F3000 ; Travel to line 121
G0 Z0.0 ; Pen down
G1 X195.560 Y107.600 F1000
G0 Z3.0 ; Pen up

G0 X195.300 Y107.340 F3000 ; Travel to line 122
G0 Z0.0 ; Pen down
G1 X176.840 Y125.800 F1000
G0 Z3.0 ; Pen up

G0 X176.840 Y125.540 F3000 ; Travel to line 123
G0 Z0.0 ; Pen down
G1 X195.040 Y107.340 F1000
G0 Z3.0 ; Pen up

G0 X194.780 Y107.080 F3000 ; Travel to line 124
G0 Z0.0 ; Pen down
G1 X176.580 Y125.280 F1000
G0 Z3.0 ; Pen up

G0 X176.580 Y125.020 F3000 ; Travel to line 125
G0 Z0.0 ; Pen down
G1 X194.520 Y107.080 F1000
G0 Z3.0 ; Pen up

G0 X194.520 Y106.820 F3000 ; Travel to line 126
G0 Z0.0 ; Pen down
G1 X176.320 Y124.760 F1000
G0 Z3.0 ; Pen up

G0 X176.060 Y124.760 F3000 ; Travel to line 127
G0 Z0.0 ; Pen down
G1 X194.260 Y106.560 F1000
G0 Z3.0 ; Pen up

G0 X194.000 Y106.560 F3000 ; Travel to line 128
G0 Z0.0 ; Pen down
G1 X176.060 Y124.500 F1000
G0 Z3.0 ; Pen up

G0 X175.800 Y124.240 F3000 ; Travel to line 129
G0 Z0.0 ; Pen down
G1 X193.740 Y106.300 F1000
G0 Z3.0 ; Pen up

G0 X193.480 Y106.300 F3000 ; Travel to line 130
G0 Z0.0 ; Pen down
G1 X175.800 Y123.980 F1000
G0 Z3.0 ; Pen up

G0 X175.800 Y123.720 F3000 ; Travel to line 131
G0 Z0.0 ; Pen down
G1 X193.220 Y106.040 F1000
G0 Z3.0 ; Pen up

G0 X192.960 Y106.040 F3000 ; Travel to line 132
G0 Z0.0 ; Pen down
G1 X175.540 Y123.460 F1000
G0 Z3.0 ; Pen up

G0 X175.540 Y123.200 F3000 ; Travel to line 133
G0 Z0.0 ; Pen down
G1 X192.700 Y106.040 F1000
G0 Z3.0 ; Pen up

G0 X192.440 Y105.780 F3000 ; Travel to line 134
G0 Z0.0 ; Pen down
G1 X175.280 Y122.940 F1000
G0 Z3.0 ; Pen up

G0 X175.280 Y122.680 F3000 ; Travel to line 135
G0 Z0.0 ; Pen down
G1 X192.180 Y105.780 F1000
G0 Z3.0 ; Pen up

G0 X191.920 Y105.520 F3000 ; Travel to line 136
G0 Z0.0 ; Pen down
G1 X175.020 Y122.420 F1000
G0 Z3.0 ; Pen up

G0 X175.020 Y122.160 F3000 ; Travel to line 137
G0 Z0.0 ; Pen down
G1 X191.660 Y105.520 F1000
G0 Z3.0 ; Pen up

G0 X191.400 Y105.260 F3000 ; Travel to line 138
G0 Z0.0 ; Pen down
G1 X175.020 Y121.900 F1000
G0 Z3.0 ; Pen up

G0 X174.760 Y121.640 F3000 ; Travel to line 139
G0 Z0.0 ; Pen down
G1 X191.140 Y105.260 F1000
G0 Z3.0 ; Pen up

G0 X190.880 Y105.260 F3000 ; Travel to line 140
G0 Z0.0 ; Pen down
G1 X174.760 Y121.380 F1000
G0 Z3.0 ; Pen up

G0 X174.500 Y121.120 F3000 ; Travel to line 141
G0 Z0.0 ; Pen down
G1 X190.620 Y105.000 F1000
G0 Z3.0 ; Pen up

G0 X190.360 Y105.000 F3000 ; Travel to line 142
G0 Z0.0 ; Pen down
G1 X174.500 Y120.860 F1000
G0 Z3.0 ; Pen up

G0 X174.500 Y120.340 F3000 ; Travel to line 143
G0 Z0.0 ; Pen down
G1 X190.100 Y105.000 F1000
G0 Z3.0 ; Pen up

G0 X189.580 Y105.000 F3000 ; Travel to line 144
G0 Z0.0 ; Pen down
G1 X174.500 Y120.080 F1000
G0 Z3.0 ; Pen up

G0 X174.500 Y119.820 F3000 ; Travel to line 145
G0 Z0.0 ; Pen down
G1 X189.320 Y105.000 F1000
G0 Z3.0 ; Pen up

G0 X188.800 Y105.000 F3000 ; Travel to line 146
G0 Z0.0 ; Pen down
G1 X174.240 Y119.560 F1000
G0 Z3.0 ; Pen up

G0 X174.240 Y119.300 F3000 ; Travel to line 147
G0 Z0.0 ; Pen down
G1 X188.540 Y105.000 F1000
G0 Z3.0 ; Pen up

G0 X188.020 Y105.000 F3000 ; Travel to line 148
G0 Z0.0 ; Pen down
G1 X174.240 Y118.780 F1000
G0 Z3.0 ; Pen up

G0 X174.240 Y118.520 F3000 ; Travel to line 149
G0 Z0.0 ; Pen down
G1 X187.760 Y105.000 F1000
G0 Z3.0 ; Pen up

G0 X187.500 Y105.000 F3000 ; Travel to line 150
G0 Z0.0 ; Pen down
G1 X174.240 Y118.260 F1000
G0 Z3.0 ; Pen up

G0 X174.240 Y117.740 F3000 ; Travel to line 151
G0 Z0.0 ; Pen down
G1 X186.980 Y105.000 F1000
G0 Z3.0 ; Pen up

G0 X186.720 Y105.000 F3000 ; Travel to line 152
G0 Z0.0 ; Pen down
G1 X174.240 Y117.480 F1000
G0 Z3.0 ; Pen up

G0 X174.240 Y116.960 F3000 ; Travel to line 153
G0 Z0.0 ; Pen down
G1 X186.200 Y105.000 F1000
G0 Z3.0 ; Pen up

G0 X185.940 Y105.000 F3000 ; Travel to line 154
G0 Z0.0 ; Pen down
G1 X174.240 Y116.700 F1000
G0 Z3.0 ; Pen up

G0 X174.240 Y116.440 F3000 ; Travel to line 155
G0 Z0.0 ; Pen down
G1 X185.420 Y105.000 F1000
G0 Z3.0 ; Pen up

G0 X185.160 Y105.000 F3000 ; Travel to line 156
G0 Z0.0 ; Pen down
G1 X174.500 Y115.660 F1000
G0 Z3.0 ; Pen up

G0 X174.500 Y115.400 F3000 ; Travel to line 157
G0 Z0.0 ; Pen down
G1 X184.900 Y105.000 F1000
G0 Z3.0 ; Pen up

G0 X184.380 Y105.000 F3000 ; Travel to line 158
G0 Z0.0 ; Pen down
G1 X174.500 Y114.880 F1000
G0 Z3.0 ; Pen up

G0 X174.760 Y114.360 F3000 ; Travel to line 159
G0 Z0.0 ; Pen down
G1 X183.860 Y105.260 F1000
G0 Z3.0 ; Pen up

G0 X183.600 Y105.260 F3000 ; Travel to line 160
G0 Z0.0 ; Pen down
G1 X175.020 Y113.580 F1000
G0 Z3.0 ; Pen up

G0 X175.020 Y113.320 F3000 ; Travel to line 161
G0 Z0.0 ; Pen down
G1 X182.820 Y105.520 F1000
G0 Z3.0 ; Pen up

G0 X182.300 Y105.780 F3000 ; Travel to line 162
G0 Z0.0 ; Pen down
G1 X175.280 Y112.800 F1000
G0 Z3.0 ; Pen up

G0 X175.800 Y111.760 F3000 ; Travel to line 163
G0 Z0.0 ; Pen down
G1 X181.260 Y106.300 F1000
G0 Z3.0 ; Pen up

G0 X180.740 Y106.560 F3000 ; Travel to line 164
G0 Z0.0 ; Pen down
G1 X176.060 Y111.240 F1000
G0 Z3.0 ; Pen up

G0 X177.360 Y109.420 F3000 ; Travel to line 165
G0 Z0.0 ; Pen down
G1 X178.920 Y107.860 F1000
G0 Z3.0 ; Pen up

G0 X198.420 Y110.980 F3000 ; Travel to line 166
G0 Z0.0 ; Pen down
G1 X180.480 Y128.920 F1000
G0 Z3.0 ; Pen up

G0 X180.480 Y129.180 F3000 ; Travel to line 167
G0 Z0.0 ; Pen down
G1 X198.680 Y110.980 F1000
G0 Z3.0 ; Pen up

G0 X198.940 Y111.240 F3000 ; Travel to line 168
G0 Z0.0 ; Pen down
G1 X180.740 Y129.180 F1000
G0 Z3.0 ; Pen up

G0 X181.000 Y129.440 F3000 ; Travel to line 169
G0 Z0.0 ; Pen down
G1 X198.940 Y111.500 F1000
G0 Z3.0 ; Pen up

G0 X198.940 Y111.760 F3000 ; Travel to line 170
G0 Z0.0 ; Pen down
G1 X181.260 Y129.440 F1000
G0 Z3.0 ; Pen up

G0 X181.520 Y129.700 F3000 ; Travel to line 171
G0 Z0.0 ; Pen down
G1 X199.200 Y112.020 F1000
G0 Z3.0 ; Pen up

G0 X199.200 Y112.280 F3000 ; Travel to line 172
G0 Z0.0 ; Pen down
G1 X181.780 Y129.700 F1000
G0 Z3.0 ; Pen up

G0 X182.040 Y129.960 F3000 ; Travel to line 173
G0 Z0.0 ; Pen down
G1 X199.460 Y112.280 F1000
G0 Z3.0 ; Pen up

G0 X199.460 Y112.800 F3000 ; Travel to line 174
G0 Z0.0 ; Pen down
G1 X182.300 Y129.960 F1000
G0 Z3.0 ; Pen up

G0 X182.300 Y130.220 F3000 ; Travel to line 175
G0 Z0.0 ; Pen down
G1 X199.720 Y112.800 F1000
G0 Z3.0 ; Pen up

G0 X199.720 Y113.320 F3000 ; Travel to line 176
G0 Z0.0 ; Pen down
G1 X182.820 Y130.220 F1000
G0 Z3.0 ; Pen up

G0 X182.820 Y130.480 F3000 ; Travel to line 177
G0 Z0.0 ; Pen down
G1 X199.980 Y113.320 F1000
G0 Z3.0 ; Pen up

G0 X199.980 Y113.840 F3000 ; Travel to line 178
G0 Z0.0 ; Pen down
G1 X183.340 Y130.480 F1000
G0 Z3.0 ; Pen up

G0 X183.600 Y130.480 F3000 ; Travel to line 179
G0 Z0.0 ; Pen down
G1 X199.980 Y114.100 F1000
G0 Z3.0 ; Pen up

G0 X200.240 Y114.100 F3000 ; Travel to line 180
G0 Z0.0 ; Pen down
G1 X183.860 Y130.740 F1000
G0 Z3.0 ; Pen up

G0 X184.120 Y130.740 F3000 ; Travel to line 181
G0 Z0.0 ; Pen down
G1 X200.240 Y114.620 F1000
G0 Z3.0 ; Pen up

G0 X200.240 Y114.880 F3000 ; Travel to line 182
G0 Z0.0 ; Pen down
G1 X184.380 Y130.740 F1000
G0 Z3.0 ; Pen up

G0 X184.640 Y131.000 F3000 ; Travel to line 183
G0 Z0.0 ; Pen down
G1 X200.500 Y115.140 F1000
G0 Z3.0 ; Pen up

G0 X200.500 Y115.400 F3000 ; Travel to line 184
G0 Z0.0 ; Pen down
G1 X184.900 Y131.000 F1000
G0 Z3.0 ; Pen up

G0 X185.160 Y131.000 F3000 ; Travel to line 185
G0 Z0.0 ; Pen down
G1 X200.500 Y115.920 F1000
G0 Z3.0 ; Pen up

G0 X200.500 Y116.180 F3000 ; Travel to line 186
G0 Z0.0 ; Pen down
G1 X185.680 Y131.000 F1000
G0 Z3.0 ; Pen up

G0 X185.680 Y131.260 F3000 ; Travel to line 187
G0 Z0.0 ; Pen down
G1 X200.760 Y116.180 F1000
G0 Z3.0 ; Pen up

G0 X200.760 Y116.700 F3000 ; Travel to line 188
G0 Z0.0 ; Pen down
G1 X186.200 Y131.260 F1000
G0 Z3.0 ; Pen up

G0 X186.460 Y131.260 F3000 ; Travel to line 189
G0 Z0.0 ; Pen down
G1 X200.760 Y116.960 F1000
G0 Z3.0 ; Pen up

G0 X200.760 Y117.480 F3000 ; Travel to line 190
G0 Z0.0 ; Pen down
G1 X186.980 Y131.260 F1000
G0 Z3.0 ; Pen up

G0 X187.240 Y131.260 F3000 ; Travel to line 191
G0 Z0.0 ; Pen down
G1 X200.760 Y117.740 F1000
G0 Z3.0 ; Pen up

G0 X200.760 Y118.000 F3000 ; Travel to line 192
G0 Z0.0 ; Pen down
G1 X187.500 Y131.260 F1000
G0 Z3.0 ; Pen up

G0 X188.020 Y131.260 F3000 ; Travel to line 193
G0 Z0.0 ; Pen down
G1 X200.760 Y118.520 F1000
G0 Z3.0 ; Pen up

G0 X200.760 Y118.780 F3000 ; Travel to line 194
G0 Z0.0 ; Pen down
G1 X188.280 Y131.260 F1000
G0 Z3.0 ; Pen up

G0 X188.800 Y131.260 F3000 ; Travel to line 195
G0 Z0.0 ; Pen down
G1 X200.760 Y119.300 F1000
G0 Z3.0 ; Pen up

G0 X200.760 Y119.560 F3000 ; Travel to line 196
G0 Z0.0 ; Pen down
G1 X189.060 Y131.260 F1000
G0 Z3.0 ; Pen up

G0 X189.840 Y131.000 F3000 ; Travel to line 197
G0 Z0.0 ; Pen down
G1 X200.760 Y119.820 F1000
G0 Z3.0 ; Pen up

G0 X200.500 Y120.600 F3000 ; Travel to line 198
G0 Z0.0 ; Pen down
G1 X190.100 Y131.000 F1000
G0 Z3.0 ; Pen up

G0 X190.360 Y131.000 F3000 ; Travel to line 199
G0 Z0.0 ; Pen down
G1 X200.500 Y120.860 F1000
G0 Z3.0 ; Pen up

G0 X200.240 Y121.640 F3000 ; Travel to line 200
G0 Z0.0 ; Pen down
G1 X191.140 Y130.740 F1000
G0 Z3.0 ; Pen up

G0 X191.400 Y130.740 F3000 ; Travel to line 201
G0 Z0.0 ; Pen down
G1 X200.240 Y121.900 F1000
G0 Z3.0 ; Pen up

G0 X199.980 Y122.680 F3000 ; Travel to line 202
G0 Z0.0 ; Pen down
G1 X191.920 Y130.480 F1000
G0 Z3.0 ; Pen up

G0 X192.700 Y130.220 F3000 ; Travel to line 203
G0 Z0.0 ; Pen down
G1 X199.720 Y123.200 F1000
G0 Z3.0 ; Pen up

G0 X199.460 Y123.720 F3000 ; Travel to line 204
G0 Z0.0 ; Pen down
G1 X193.220 Y129.960 F1000
G0 Z3.0 ; Pen up

G0 X194.260 Y129.440 F3000 ; Travel to line 205
G0 Z0.0 ; Pen down
G1 X198.940 Y124.760 F1000
G0 Z3.0 ; Pen up

G0 X198.420 Y125.540 F3000 ; Travel to line 206
G0 Z0.0 ; Pen down
G1 X195.040 Y128.920 F1000
G0 Z3.0 ; Pen up

G0 X148.500 Y118.000 F3000 ; Travel to line 207
G0 Z0.0 ; Pen down
G1 X173.460 Y93.040 F1000
G1 X173.720 Y93.040 F1000
G1 X187.760 Y79.000 F1000
G1 X173.720 Y64.960 F1000
G1 X173.460 Y64.960 F1000
G1 X172.680 Y64.180 F1000
G1 X172.420 Y64.180 F1000
G1 X172.160 Y63.920 F1000
G1 X171.900 Y63.920 F1000
G1 X171.380 Y63.400 F1000
G1 X171.120 Y63.400 F1000
G1 X170.860 Y63.140 F1000
G1 X170.600 Y63.140 F1000
G1 X170.340 Y62.880 F1000
G1 X170.080 Y62.880 F1000
G1 X169.820 Y62.620 F1000
G1 X169.560 Y62.620 F1000
G1 X169.300 Y62.360 F1000
G1 X168.780 Y62.360 F1000
G1 X168.520 Y62.100 F1000
G1 X168.260 Y62.100 F1000
G1 X168.000 Y61.840 F1000
G1 X167.480 Y61.840 F1000
G1 X167.220 Y61.580 F1000
G1 X166.960 Y61.580 F1000
G1 X166.700 Y61.320 F1000
G1 X166.180 Y61.320 F1000
G1 X165.920 Y61.060 F1000
G1 X165.400 Y61.060 F1000
G1 X165.140 Y60.800 F1000
G1 X164.360 Y60.800 F1000
G1 X164.100 Y60.540 F1000
G1 X163.320 Y60.540 F1000
G1 X163.060 Y60.280 F1000
G1 X162.280 Y60.280 F1000
G1 X162.020 Y60.020 F1000
G1 X160.980 Y60.020 F1000
G1 X160.720 Y59.760 F1000
G1 X159.420 Y59.760 F1000
G1 X159.160 Y59.500 F1000
G1 X157.080 Y59.500 F1000
G1 X156.820 Y59.240 F1000
G1 X140.180 Y59.240 F1000
G1 X139.920 Y59.500 F1000
G1 X137.840 Y59.500 F1000
G1 X137.580 Y59.760 F1000
G1 X136.280 Y59.760 F1000
G1 X136.020 Y60.020 F1000
G1 X134.980 Y60.020 F1000
G1 X134.720 Y60.280 F1000
G1 X133.940 Y60.280 F1000
G1 X133.680 Y60.540 F1000
G1 X132.900 Y60.540 F1000
G1 X132.640 Y60.800 F1000
G1 X131.860 Y60.800 F1000
G1 X131.600 Y61.060 F1000
G1 X131.080 Y61.060 F1000
G1 X130.820 Y61.320 F1000
G1 X130.300 Y61.320 F1000
G1 X130.040 Y61.580 F1000
G1 X129.520 Y61.580 F1000
G1 X129.260 Y61.840 F1000
G1 X129.000 Y61.840 F1000
G1 X128.740 Y62.100 F1000
G1 X128.220 Y62.100 F1000
G1 X127.960 Y62.360 F1000
G1 X127.700 Y62.360 F1000
G1 X127.440 Y62.620 F1000
G1 X127.180 Y62.620 F1000
G1 X126.920 Y62.880 F1000
G1 X126.660 Y62.880 F1000
G1 X126.400 Y63.140 F1000
G1 X126.140 Y63.140 F1000
G1 X125.880 Y63.400 F1000
G1 X125.620 Y63.400 F1000
G1 X125.360 Y63.660 F1000
G1 X125.100 Y63.660 F1000
G1 X124.840 Y63.920 F1000
G1 X124.580 Y63.920 F1000
G1 X124.060 Y64.440 F1000
G1 X123.800 Y64.440 F1000
G1 X123.280 Y64.960 F1000
G1 X123.020 Y64.960 F1000
G1 X109.240 Y78.740 F1000
G1 X109.240 Y79.000 F1000
G1 X123.280 Y93.040 F1000
G1 X123.540 Y93.040 F1000
G0 Z3.0 ; Pen up

G0 X136.800 Y85.240 F3000 ; Travel to line 208
G0 Z0.0 ; Pen down
G1 X148.500 Y73.540 F1000
G0 Z3.0 ; Pen up

G0 X148.500 Y73.800 F3000 ; Travel to line 209
G0 Z0.0 ; Pen down
G1 X137.060 Y85.240 F1000
G0 Z3.0 ; Pen up

G0 X137.060 Y85.500 F3000 ; Travel to line 210
G0 Z0.0 ; Pen down
G1 X148.500 Y74.320 F1000
G0 Z3.0 ; Pen up

G0 X148.500 Y74.580 F3000 ; Travel to line 211
G0 Z0.0 ; Pen down
G1 X137.320 Y85.760 F1000
G0 Z3.0 ; Pen up

G0 X137.320 Y86.020 F3000 ; Travel to line 212
G0 Z0.0 ; Pen down
G1 X148.500 Y74.840 F1000
G0 Z3.0 ; Pen up

G0 X148.760 Y74.840 F3000 ; Travel to line 213
G0 Z0.0 ; Pen down
G1 X155.520 Y68.080 F1000
G0 Z3.0 ; Pen up

G0 X155.780 Y68.080 F3000 ; Travel to line 214
G0 Z0.0 ; Pen down
G1 X148.760 Y75.100 F1000
G0 Z3.0 ; Pen up

G0 X148.500 Y75.360 F3000 ; Travel to line 215
G0 Z0.0 ; Pen down
G1 X137.580 Y86.280 F1000
G0 Z3.0 ; Pen up

G0 X137.580 Y86.540 F3000 ; Travel to line 216
G0 Z0.0 ; Pen down
G1 X148.500 Y75.620 F1000
G0 Z3.0 ; Pen up

G0 X148.760 Y75.620 F3000 ; Travel to line 217
G0 Z0.0 ; Pen down
G1 X156.040 Y68.340 F1000
G0 Z3.0 ; Pen up

G0 X156.300 Y68.340 F3000 ; Travel to line 218
G0 Z0.0 ; Pen down
G1 X148.760 Y75.880 F1000
G0 Z3.0 ; Pen up

G0 X148.500 Y76.140 F3000 ; Travel to line 219
G0 Z0.0 ; Pen down
G1 X137.840 Y86.800 F1000
G0 Z3.0 ; Pen up

G0 X138.100 Y86.800 F3000 ; Travel to line 220
G0 Z0.0 ; Pen down
G1 X148.500 Y76.400 F1000
G0 Z3.0 ; Pen up

G0 X148.760 Y76.400 F3000 ; Travel to line 221
G0 Z0.0 ; Pen down
G1 X156.560 Y68.600 F1000
G0 Z3.0 ; Pen up

G0 X156.560 Y68.860 F3000 ; Travel to line 222
G0 Z0.0 ; Pen down
G1 X148.760 Y76.660 F1000
G0 Z3.0 ; Pen up

G0 X148.760 Y76.920 F3000 ; Travel to line 223
G0 Z0.0 ; Pen down
G1 X156.820 Y68.860 F1000
G0 Z3.0 ; Pen up

G0 X157.080 Y69.120 F3000 ; Travel to line 224
G0 Z0.0 ; Pen down
G1 X148.760 Y77.440 F1000
G0 Z3.0 ; Pen up

G0 X148.500 Y77.440 F3000 ; Travel to line 225
G0 Z0.0 ; Pen down
G1 X138.360 Y87.580 F1000
G0 Z3.0 ; Pen up

G0 X138.360 Y87.320 F3000 ; Travel to line 226
G0 Z0.0 ; Pen down
G1 X148.500 Y77.180 F1000
G0 Z3.0 ; Pen up

G0 X148.500 Y76.920 F3000 ; Travel to line 227
G0 Z0.0 ; Pen down
G1 X138.100 Y87.060 F1000
G0 Z3.0 ; Pen up

G0 X138.620 Y87.840 F3000 ; Travel to line 228
G0 Z0.0 ; Pen down
G1 X148.500 Y77.960 F1000
G0 Z3.0 ; Pen up

G0 X148.500 Y78.220 F3000 ; Travel to line 229
G0 Z0.0 ; Pen down
G1 X138.880 Y87.840 F1000
G0 Z3.0 ; Pen up

G0 X139.140 Y88.100 F3000 ; Travel to line 230
G0 Z0.0 ; Pen down
G1 X148.500 Y78.480 F1000
G0 Z3.0 ; Pen up

G0 X148.760 Y78.480 F3000 ; Travel to line 231
G0 Z0.0 ; Pen down
G1 X157.600 Y69.640 F1000
G0 Z3.0 ; Pen up

G0 X157.600 Y69.380 F3000 ; Travel to line 232
G0 Z0.0 ; Pen down
G1 X148.760 Y78.220 F1000
G0 Z3.0 ; Pen up

G0 X148.760 Y77.700 F3000 ; Travel to line 233
G0 Z0.0 ; Pen down
G1 X157.340 Y69.120 F1000
G0 Z3.0 ; Pen up

G0 X157.860 Y69.900 F3000 ; Travel to line 234
G0 Z0.0 ; Pen down
G1 X148.760 Y79.000 F1000
G0 Z3.0 ; Pen up

G0 X148.500 Y79.000 F3000 ; Travel to line 235
G0 Z0.0 ; Pen down
G1 X139.140 Y88.360 F1000
G0 Z3.0 ; Pen up

G0 X139.400 Y88.360 F3000 ; Travel to line 236
G0 Z0.0 ; Pen down
G1 X148.500 Y79.260 F1000
G0 Z3.0 ; Pen up

G0 X148.760 Y79.260 F3000 ; Travel to line 237
G0 Z0.0 ; Pen down
G1 X158.120 Y69.900 F1000
G0 Z3.0 ; Pen up

G0 X158.120 Y70.160 F3000 ; Travel to line 238
G0 Z0.0 ; Pen down
G1 X148.760 Y79.520 F1000
G0 Z3.0 ; Pen up

G0 X148.500 Y79.780 F3000 ; Travel to line 239
G0 Z0.0 ; Pen down
G1 X139.660 Y88.620 F1000
G0 Z3.0 ; Pen up

G0 X139.660 Y88.880 F3000 ; Travel to line 240
G0 Z0.0 ; Pen down
G1 X148.500 Y80.040 F1000
G0 Z3.0 ; Pen up

G0 X148.760 Y80.040 F3000 ; Travel to line 241
G0 Z0.0 ; Pen down
G1 X158.380 Y70.420 F1000
G0 Z3.0 ; Pen up

G0 X158.640 Y70.420 F3000 ; Travel to line 242
G0 Z0.0 ; Pen down
G1 X148.760 Y80.300 F1000
G0 Z3.0 ; Pen up

G0 X148.500 Y80.560 F3000 ; Travel to line 243
G0 Z0.0 ; Pen down
G1 X139.920 Y89.140 F1000
G0 Z3.0 ; Pen up

G0 X140.180 Y89.140 F3000 ; Travel to line 244
G0 Z0.0 ; Pen down
G1 X148.500 Y80.820 F1000
G0 Z3.0 ; Pen up

G0 X148.760 Y80.820 F3000 ; Travel to line 245
G0 Z0.0 ; Pen down
G1 X158.640 Y70.940 F1000
G0 Z3.0 ; Pen up

G0 X158.900 Y70.940 F3000 ; Travel to line 246
G0 Z0.0 ; Pen down
G1 X148.760 Y81.080 F1000
G0 Z3.0 ; Pen up

G0 X148.500 Y81.080 F3000 ; Travel to line 247
G0 Z0.0 ; Pen down
G1 X140.440 Y89.400 F1000
G0 Z3.0 ; Pen up

G0 X140.700 Y89.400 F3000 ; Travel to line 248
G0 Z0.0 ; Pen down
G1 X148.500 Y81.600 F1000
G0 Z3.0 ; Pen up

G0 X148.500 Y81.860 F3000 ; Travel to line 249
G0 Z0.0 ; Pen down
G1 X140.700 Y89.660 F1000
G0 Z3.0 ; Pen up

G0 X140.960 Y89.920 F3000 ; Travel to line 250
G0 Z0.0 ; Pen down
G1 X148.500 Y82.380 F1000
G0 Z3.0 ; Pen up

G0 X148.500 Y82.640 F3000 ; Travel to line 251
G0 Z0.0 ; Pen down
G1 X141.220 Y89.920 F1000
G0 Z3.0 ; Pen up

G0 X141.480 Y89.920 F3000 ; Travel to line 252
G0 Z0.0 ; Pen down
G1 X148.500 Y83.160 F1000
G0 Z3.0 ; Pen up

G0 X148.500 Y83.420 F3000 ; Travel to line 253
G0 Z0.0 ; Pen down
G1 X141.740 Y90.180 F1000
G0 Z3.0 ; Pen up

G0 X141.740 Y90.440 F3000 ; Travel to line 254
G0 Z0.0 ; Pen down
G1 X148.500 Y83.680 F1000
G0 Z3.0 ; Pen up

G0 X148.760 Y83.680 F3000 ; Travel to line 255
G0 Z0.0 ; Pen down
G1 X159.940 Y72.500 F1000
G0 Z3.0 ; Pen up

G0 X159.940 Y72.240 F3000 ; Travel to line 256
G0 Z0.0 ; Pen down
G1 X148.760 Y83.420 F1000
G0 Z3.0 ; Pen up

G0 X148.760 Y83.940 F3000 ; Travel to line 257
G0 Z0.0 ; Pen down
G1 X159.940 Y72.760 F1000
G0 Z3.0 ; Pen up

G0 X160.200 Y73.020 F3000 ; Travel to line 258
G0 Z0.0 ; Pen down
G1 X148.760 Y84.460 F1000
G0 Z3.0 ; Pen up

G0 X148.760 Y84.720 F3000 ; Travel to line 259
G0 Z0.0 ; Pen down
G1 X160.200 Y73.280 F1000
G0 Z3.0 ; Pen up

G0 X160.460 Y73.540 F3000 ; Travel to line 260
G0 Z0.0 ; Pen down
G1 X148.760 Y85.240 F1000
G0 Z3.0 ; Pen up

G0 X148.760 Y85.500 F3000 ; Travel to line 261
G0 Z0.0 ; Pen down
G1 X160.460 Y73.800 F1000
G0 Z3.0 ; Pen up

G0 X160.720 Y73.800 F3000 ; Travel to line 262
G0 Z0.0 ; Pen down
G1 X148.760 Y85.760 F1000
G0 Z3.0 ; Pen up

G0 X148.500 Y86.020 F3000 ; Travel to line 263
G0 Z0.0 ; Pen down
G1 X143.300 Y91.220 F1000
G0 Z3.0 ; Pen up

G0 X143.560 Y91.220 F3000 ; Travel to line 264
G0 Z0.0 ; Pen down
G1 X148.500 Y86.280 F1000
G0 Z3.0 ; Pen up

G0 X148.760 Y86.280 F3000 ; Travel to line 265
G0 Z0.0 ; Pen down
G1 X160.720 Y74.320 F1000
G0 Z3.0 ; Pen up

G0 X160.980 Y74.320 F3000 ; Travel to line 266
G0 Z0.0 ; Pen down
G1 X148.760 Y86.540 F1000
G0 Z3.0 ; Pen up

G0 X148.500 Y86.800 F3000 ; Travel to line 267
G0 Z0.0 ; Pen down
G1 X143.820 Y91.480 F1000
G0 Z3.0 ; Pen up

G0 X144.080 Y91.480 F3000 ; Travel to line 268
G0 Z0.0 ; Pen down
G1 X148.500 Y87.060 F1000
G0 Z3.0 ; Pen up

G0 X148.760 Y87.060 F3000 ; Travel to line 269
G0 Z0.0 ; Pen down
G1 X160.980 Y74.840 F1000
G0 Z3.0 ; Pen up

G0 X160.980 Y75.100 F3000 ; Travel to line 270
G0 Z0.0 ; Pen down
G1 X148.760 Y87.320 F1000
G0 Z3.0 ; Pen up

G0 X148.760 Y87.580 F3000 ; Travel to line 271
G0 Z0.0 ; Pen down
G1 X161.240 Y75.100 F1000
G0 Z3.0 ; Pen up

G0 X161.240 Y75.620 F3000 ; Travel to line 272
G0 Z0.0 ; Pen down
G1 X148.760 Y88.100 F1000
G0 Z3.0 ; Pen up

G0 X148.760 Y88.360 F3000 ; Travel to line 273
G0 Z0.0 ; Pen down
G1 X161.240 Y75.880 F1000
G0 Z3.0 ; Pen up

G0 X161.500 Y76.140 F3000 ; Travel to line 274
G0 Z0.0 ; Pen down
G1 X148.760 Y88.880 F1000
G0 Z3.0 ; Pen up

G0 X148.760 Y89.140 F3000 ; Travel to line 275
G0 Z0.0 ; Pen down
G1 X161.500 Y76.400 F1000
G0 Z3.0 ; Pen up

G0 X161.500 Y76.920 F3000 ; Travel to line 276
G0 Z0.0 ; Pen down
G1 X148.760 Y89.660 F1000
G0 Z3.0 ; Pen up

G0 X148.500 Y89.660 F3000 ; Travel to line 277
G0 Z0.0 ; Pen down
G1 X146.160 Y92.000 F1000
G0 Z3.0 ; Pen up

G0 X146.420 Y92.000 F3000 ; Travel to line 278
G0 Z0.0 ; Pen down
G1 X148.500 Y89.920 F1000
G0 Z3.0 ; Pen up

G0 X148.760 Y89.920 F3000 ; Travel to line 279
G0 Z0.0 ; Pen down
G1 X161.500 Y77.180 F1000
G0 Z3.0 ; Pen up

G0 X161.760 Y77.180 F3000 ; Travel to line 280
G0 Z0.0 ; Pen down
G1 X148.760 Y90.180 F1000
G0 Z3.0 ; Pen up

G0 X148.500 Y90.440 F3000 ; Travel to line 281
G0 Z0.0 ; Pen down
G1 X146.680 Y92.260 F1000
G0 Z3.0 ; Pen up

G0 X146.940 Y92.260 F3000 ; Travel to line 282
G0 Z0.0 ; Pen down
G1 X148.500 Y90.700 F1000
G0 Z3.0 ; Pen up

G0 X148.760 Y90.700 F3000 ; Travel to line 283
G0 Z0.0 ; Pen down
G1 X161.760 Y77.700 F1000
G0 Z3.0 ; Pen up

G0 X161.760 Y77.960 F3000 ; Travel to line 284
G0 Z0.0 ; Pen down
G1 X148.760 Y90.960 F1000
G0 Z3.0 ; Pen up

G0 X148.500 Y91.220 F3000 ; Travel to line 285
G0 Z0.0 ; Pen down
G1 X147.460 Y92.260 F1000
G0 Z3.0 ; Pen up

G0 X147.720 Y92.260 F3000 ; Travel to line 286
G0 Z0.0 ; Pen down
G1 X148.500 Y91.480 F1000
G0 Z3.0 ; Pen up

G0 X148.760 Y91.480 F3000 ; Travel to line 287
G0 Z0.0 ; Pen down
G1 X161.760 Y78.480 F1000
G0 Z3.0 ; Pen up

G0 X161.760 Y78.740 F3000 ; Travel to line 288
G0 Z0.0 ; Pen down
G1 X148.760 Y91.740 F1000
G0 Z3.0 ; Pen up

G0 X148.760 Y92.000 F3000 ; Travel to line 289
G0 Z0.0 ; Pen down
G1 X161.760 Y79.000 F1000
G0 Z3.0 ; Pen up

G0 X161.760 Y79.520 F3000 ; Travel to line 290
G0 Z0.0 ; Pen down
G1 X149.020 Y92.260 F1000
G0 Z3.0 ; Pen up

G0 X149.280 Y92.260 F3000 ; Travel to line 291
G0 Z0.0 ; Pen down
G1 X161.760 Y79.780 F1000
G0 Z3.0 ; Pen up

G0 X161.760 Y80.300 F3000 ; Travel to line 292
G0 Z0.0 ; Pen down
G1 X149.800 Y92.260 F1000
G0 Z3.0 ; Pen up

G0 X150.060 Y92.260 F3000 ; Travel to line 293
G0 Z0.0 ; Pen down
G1 X161.760 Y80.560 F1000
G0 Z3.0 ; Pen up

G0 X161.500 Y81.340 F3000 ; Travel to line 294
G0 Z0.0 ; Pen down
G1 X150.840 Y92.000 F1000
G0 Z3.0 ; Pen up

G0 X151.100 Y92.000 F3000 ; Travel to line 295
G0 Z0.0 ; Pen down
G1 X161.500 Y81.600 F1000
G0 Z3.0 ; Pen up

G0 X161.500 Y81.860 F3000 ; Travel to line 296
G0 Z0.0 ; Pen down
G1 X151.360 Y92.000 F1000
G0 Z3.0 ; Pen up

G0 X152.140 Y91.740 F3000 ; Travel to line 297
G0 Z0.0 ; Pen down
G1 X161.240 Y82.640 F1000
G0 Z3.0 ; Pen up

G0 X161.240 Y82.900 F3000 ; Travel to line 298
G0 Z0.0 ; Pen down
G1 X152.400 Y91.740 F1000
G0 Z3.0 ; Pen up

G0 X153.180 Y91.480 F3000 ; Travel to line 299
G0 Z0.0 ; Pen down
G1 X160.980 Y83.680 F1000
G0 Z3.0 ; Pen up

G0 X160.720 Y84.200 F3000 ; Travel to line 300
G0 Z0.0 ; Pen down
G1 X153.700 Y91.220 F1000
G0 Z3.0 ; Pen up

G0 X154.220 Y90.960 F3000 ; Travel to line 301
G0 Z0.0 ; Pen down
G1 X160.460 Y84.720 F1000
G0 Z3.0 ; Pen up

G0 X159.940 Y85.760 F3000 ; Travel to line 302
G0 Z0.0 ; Pen down
G1 X155.260 Y90.440 F1000
G0 Z3.0 ; Pen up

G0 X156.040 Y89.920 F3000 ; Travel to line 303
G0 Z0.0 ; Pen down
G1 X159.420 Y86.540 F1000
G0 Z3.0 ; Pen up

G0 X148.500 Y87.580 F3000 ; Travel to line 304
G0 Z0.0 ; Pen down
G1 X144.600 Y91.480 F1000
G0 Z3.0 ; Pen up

G0 X144.600 Y91.740 F3000 ; Travel to line 305
G0 Z0.0 ; Pen down
G1 X148.500 Y87.840 F1000
G0 Z3.0 ; Pen up

G0 X148.500 Y88.100 F3000 ; Travel to line 306
G0 Z0.0 ; Pen down
G1 X144.860 Y91.740 F1000
G0 Z3.0 ; Pen up

G0 X145.380 Y91.740 F3000 ; Travel to line 307
G0 Z0.0 ; Pen down
G1 X148.500 Y88.620 F1000
G0 Z3.0 ; Pen up

G0 X148.500 Y88.880 F3000 ; Travel to line 308
G0 Z0.0 ; Pen down
G1 X145.380 Y92.000 F1000
G0 Z3.0 ; Pen up

G0 X145.640 Y92.000 F3000 ; Travel to line 309
G0 Z0.0 ; Pen down
G1 X148.500 Y89.140 F1000
G0 Z3.0 ; Pen up

G0 X148.500 Y91.740 F3000 ; Travel to line 310
G0 Z0.0 ; Pen down
G1 X147.980 Y92.260 F1000
G0 Z3.0 ; Pen up

G0 X143.040 Y90.960 F3000 ; Travel to line 311
G0 Z0.0 ; Pen down
G1 X148.500 Y85.500 F1000
G0 Z3.0 ; Pen up

G0 X148.500 Y85.240 F3000 ; Travel to line 312
G0 Z0.0 ; Pen down
G1 X142.780 Y90.960 F1000
G0 Z3.0 ; Pen up

G0 X142.780 Y90.700 F3000 ; Travel to line 313
G0 Z0.0 ; Pen down
G1 X148.500 Y84.980 F1000
G0 Z3.0 ; Pen up

G0 X148.500 Y84.460 F3000 ; Travel to line 314
G0 Z0.0 ; Pen down
G1 X142.260 Y90.700 F1000
G0 Z3.0 ; Pen up

G0 X142.260 Y90.440 F3000 ; Travel to line 315
G0 Z0.0 ; Pen down
G1 X148.500 Y84.200 F1000
G0 Z3.0 ; Pen up

G0 X148.760 Y82.900 F3000 ; Travel to line 316
G0 Z0.0 ; Pen down
G1 X159.680 Y71.980 F1000
G0 Z3.0 ; Pen up

G0 X159.420 Y71.980 F3000 ; Travel to line 317
G0 Z0.0 ; Pen down
G1 X148.760 Y82.640 F1000
G0 Z3.0 ; Pen up

G0 X148.760 Y82.120 F3000 ; Travel to line 318
G0 Z0.0 ; Pen down
G1 X159.420 Y71.460 F1000
G0 Z3.0 ; Pen up

G0 X159.160 Y71.460 F3000 ; Travel to line 319
G0 Z0.0 ; Pen down
G1 X148.760 Y81.860 F1000
G0 Z3.0 ; Pen up

G0 X148.760 Y81.340 F3000 ; Travel to line 320
G0 Z0.0 ; Pen down
G1 X158.900 Y71.200 F1000
G0 Z3.0 ; Pen up

G0 X155.520 Y67.820 F3000 ; Travel to line 321
G0 Z0.0 ; Pen down
G1 X148.760 Y74.580 F1000
G0 Z3.0 ; Pen up

G0 X148.760 Y74.060 F3000 ; Travel to line 322
G0 Z0.0 ; Pen down
G1 X155.260 Y67.560 F1000
G0 Z3.0 ; Pen up

G0 X155.000 Y67.560 F3000 ; Travel to line 323
G0 Z0.0 ; Pen down
G1 X148.760 Y73.800 F1000
G0 Z3.0 ; Pen up

G0 X148.760 Y73.280 F3000 ; Travel to line 324
G0 Z0.0 ; Pen down
G1 X154.740 Y67.300 F1000
G0 Z3.0 ; Pen up

G0 X154.480 Y67.300 F3000 ; Travel to line 325
G0 Z0.0 ; Pen down
G1 X148.760 Y73.020 F1000
G0 Z3.0 ; Pen up

G0 X148.760 Y72.760 F3000 ; Travel to line 326
G0 Z0.0 ; Pen down
G1 X154.220 Y67.300 F1000
G0 Z3.0 ; Pen up

G0 X153.960 Y67.040 F3000 ; Travel to line 327
G0 Z0.0 ; Pen down
G1 X148.760 Y72.240 F1000
G0 Z3.0 ; Pen up

G0 X148.500 Y72.240 F3000 ; Travel to line 328
G0 Z0.0 ; Pen down
G1 X136.540 Y84.460 F1000
G0 Z3.0 ; Pen up

G0 X136.540 Y84.720 F3000 ; Travel to line 329
G0 Z0.0 ; Pen down
G1 X148.500 Y72.760 F1000
G0 Z3.0 ; Pen up

G0 X148.500 Y73.020 F3000 ; Travel to line 330
G0 Z0.0 ; Pen down
G1 X136.800 Y84.720 F1000
G0 Z3.0 ; Pen up

G0 X136.280 Y84.200 F3000 ; Travel to line 331
G0 Z0.0 ; Pen down
G1 X148.500 Y71.980 F1000
G0 Z3.0 ; Pen up

G0 X148.760 Y71.980 F3000 ; Travel to line 332
G0 Z0.0 ; Pen down
G1 X153.700 Y67.040 F1000
G0 Z3.0 ; Pen up

G0 X153.440 Y66.780 F3000 ; Travel to line 333
G0 Z0.0 ; Pen down
G1 X148.760 Y71.460 F1000
G0 Z3.0 ; Pen up

G0 X148.760 Y71.200 F3000 ; Travel to line 334
G0 Z0.0 ; Pen down
G1 X153.180 Y66.780 F1000
G0 Z3.0 ; Pen up

G0 X152.920 Y66.520 F3000 ; Travel to line 335
G0 Z0.0 ; Pen down
G1 X148.760 Y70.680 F1000
G0 Z3.0 ; Pen up

G0 X148.500 Y70.680 F3000 ; Travel to line 336
G0 Z0.0 ; Pen down
G1 X136.020 Y82.900 F1000
G0 Z3.0 ; Pen up

G0 X135.760 Y82.900 F3000 ; Travel to line 337
G0 Z0.0 ; Pen down
G1 X148.500 Y70.160 F1000
G0 Z3.0 ; Pen up

G0 X148.760 Y70.160 F3000 ; Travel to line 338
G0 Z0.0 ; Pen down
G1 X152.400 Y66.520 F1000
G0 Z3.0 ; Pen up

G0 X152.660 Y66.520 F3000 ; Travel to line 339
G0 Z0.0 ; Pen down
G1 X148.760 Y70.420 F1000
G0 Z3.0 ; Pen up

G0 X148.500 Y70.940 F3000 ; Travel to line 340
G0 Z0.0 ; Pen down
G1 X136.020 Y83.420 F1000
G0 Z3.0 ; Pen up

G0 X136.020 Y83.680 F3000 ; Travel to line 341
G0 Z0.0 ; Pen down
G1 X148.500 Y71.200 F1000
G0 Z3.0 ; Pen up

G0 X148.500 Y71.720 F3000 ; Travel to line 342
G0 Z0.0 ; Pen down
G1 X136.280 Y83.940 F1000
G0 Z3.0 ; Pen up

G0 X135.760 Y82.640 F3000 ; Travel to line 343
G0 Z0.0 ; Pen down
G1 X148.500 Y69.900 F1000
G0 Z3.0 ; Pen up

G0 X148.760 Y69.640 F3000 ; Travel to line 344
G0 Z0.0 ; Pen down
G1 X152.140 Y66.260 F1000
G0 Z3.0 ; Pen up

G0 X151.880 Y66.260 F3000 ; Travel to line 345
G0 Z0.0 ; Pen down
G1 X148.760 Y69.380 F1000
G0 Z3.0 ; Pen up

G0 X148.500 Y69.380 F3000 ; Travel to line 346
G0 Z0.0 ; Pen down
G1 X135.760 Y82.120 F1000
G0 Z3.0 ; Pen up

G0 X135.500 Y82.120 F3000 ; Travel to line 347
G0 Z0.0 ; Pen down
G1 X148.500 Y69.120 F1000
G0 Z3.0 ; Pen up

G0 X148.760 Y68.860 F3000 ; Travel to line 348
G0 Z0.0 ; Pen down
G1 X151.620 Y66.000 F1000
G0 Z3.0 ; Pen up

G0 X151.360 Y66.000 F3000 ; Travel to line 349
G0 Z0.0 ; Pen down
G1 X148.760 Y68.600 F1000
G0 Z3.0 ; Pen up

G0 X148.500 Y68.600 F3000 ; Travel to line 350
G0 Z0.0 ; Pen down
G1 X135.500 Y81.600 F1000
G0 Z3.0 ; Pen up

G0 X135.500 Y81.340 F3000 ; Travel to line 351
G0 Z0.0 ; Pen down
G1 X148.500 Y68.340 F1000
G0 Z3.0 ; Pen up

G0 X148.760 Y68.340 F3000 ; Travel to line 352
G0 Z0.0 ; Pen down
G1 X151.100 Y66.000 F1000
G0 Z3.0 ; Pen up

G0 X150.580 Y66.000 F3000 ; Travel to line 353
G0 Z0.0 ; Pen down
G1 X148.760 Y67.820 F1000
G0 Z3.0 ; Pen up

G0 X148.760 Y67.560 F3000 ; Travel to line 354
G0 Z0.0 ; Pen down
G1 X150.320 Y66.000 F1000
G0 Z3.0 ; Pen up

G0 X150.060 Y65.740 F3000 ; Travel to line 355
G0 Z0.0 ; Pen down
G1 X148.760 Y67.040 F1000
G0 Z3.0 ; Pen up

G0 X148.760 Y66.780 F3000 ; Travel to line 356
G0 Z0.0 ; Pen down
G1 X149.800 Y65.740 F1000
G0 Z3.0 ; Pen up

G0 X149.280 Y65.740 F3000 ; Travel to line 357
G0 Z0.0 ; Pen down
G1 X148.760 Y66.260 F1000
G0 Z3.0 ; Pen up

G0 X148.760 Y66.000 F3000 ; Travel to line 358
G0 Z0.0 ; Pen down
G1 X149.020 Y65.740 F1000
G0 Z3.0 ; Pen up

G0 X148.500 Y66.000 F3000 ; Travel to line 359
G0 Z0.0 ; Pen down
G1 X135.240 Y79.520 F1000
G0 Z3.0 ; Pen up

G0 X135.240 Y79.780 F3000 ; Travel to line 360
G0 Z0.0 ; Pen down
G1 X148.500 Y66.520 F1000
G0 Z3.0 ; Pen up

G0 X148.500 Y66.780 F3000 ; Travel to line 361
G0 Z0.0 ; Pen down
G1 X135.240 Y80.040 F1000
G0 Z3.0 ; Pen up

G0 X135.240 Y80.560 F3000 ; Travel to line 362
G0 Z0.0 ; Pen down
G1 X148.500 Y67.300 F1000
G0 Z3.0 ; Pen up

G0 X148.500 Y67.560 F3000 ; Travel to line 363
G0 Z0.0 ; Pen down
G1 X135.240 Y80.820 F1000
G0 Z3.0 ; Pen up

G0 X135.500 Y80.820 F3000 ; Travel to line 364
G0 Z0.0 ; Pen down
G1 X148.500 Y68.080 F1000
G0 Z3.0 ; Pen up

G0 X148.240 Y66.000 F3000 ; Travel to line 365
G0 Z0.0 ; Pen down
G1 X135.240 Y79.000 F1000
G0 Z3.0 ; Pen up

G0 X135.240 Y78.740 F3000 ; Travel to line 366
G0 Z0.0 ; Pen down
G1 X148.240 Y65.740 F1000
G0 Z3.0 ; Pen up

G0 X147.720 Y65.740 F3000 ; Travel to line 367
G0 Z0.0 ; Pen down
G1 X135.240 Y78.220 F1000
G0 Z3.0 ; Pen up

G0 X135.240 Y77.960 F3000 ; Travel to line 368
G0 Z0.0 ; Pen down
G1 X147.460 Y65.740 F1000
G0 Z3.0 ; Pen up

G0 X146.940 Y65.740 F3000 ; Travel to line 369
G0 Z0.0 ; Pen down
G1 X135.240 Y77.440 F1000
G0 Z3.0 ; Pen up

G0 X135.240 Y77.180 F3000 ; Travel to line 370
G0 Z0.0 ; Pen down
G1 X146.680 Y65.740 F1000
G0 Z3.0 ; Pen up

G0 X145.900 Y66.000 F3000 ; Travel to line 371
G0 Z0.0 ; Pen down
G1 X135.500 Y76.660 F1000
G0 Z3.0 ; Pen up

G0 X135.500 Y76.140 F3000 ; Travel to line 372
G0 Z0.0 ; Pen down
G1 X145.640 Y66.000 F1000
G0 Z3.0 ; Pen up

G0 X145.380 Y66.000 F3000 ; Travel to line 373
G0 Z0.0 ; Pen down
G1 X135.500 Y75.880 F1000
G0 Z3.0 ; Pen up

G0 X135.760 Y75.100 F3000 ; Travel to line 374
G0 Z0.0 ; Pen down
G1 X144.600 Y66.260 F1000
G0 Z3.0 ; Pen up

G0 X144.080 Y66.520 F3000 ; Travel to line 375
G0 Z0.0 ; Pen down
G1 X136.020 Y74.580 F1000
G0 Z3.0 ; Pen up

G0 X136.280 Y73.800 F3000 ; Travel to line 376
G0 Z0.0 ; Pen down
G1 X143.820 Y66.520 F1000
G0 Z3.0 ; Pen up

G0 X142.780 Y67.040 F3000 ; Travel to line 377
G0 Z0.0 ; Pen down
G1 X136.540 Y73.280 F1000
G0 Z3.0 ; Pen up

G0 X136.800 Y72.760 F3000 ; Travel to line 378
G0 Z0.0 ; Pen down
G1 X142.260 Y67.300 F1000
G0 Z3.0 ; Pen up

G0 X140.960 Y68.080 F3000 ; Travel to line 379
G0 Z0.0 ; Pen down
G1 X137.580 Y71.460 F1000
G0 Z3.0 ; Pen up

G0 X138.360 Y70.420 F3000 ; Travel to line 380
G0 Z0.0 ; Pen down
G1 X139.920 Y68.860 F1000
G0 Z3.0 ; Pen up

G0 X93.120 Y144.000 F3000 ; Travel to line 381
G0 Z0.0 ; Pen down
G1 X93.380 Y144.260 F1000
G1 X125.620 Y144.260 F1000
G1 X125.880 Y144.000 F1000
G1 X127.440 Y144.000 F1000
G1 X127.700 Y143.740 F1000
G1 X128.740 Y143.740 F1000
G1 X129.000 Y143.480 F1000
G1 X130.040 Y143.480 F1000
G1 X130.300 Y143.220 F1000
G1 X131.080 Y143.220 F1000
G1 X131.340 Y142.960 F1000
G1 X131.860 Y142.960 F1000
G1 X132.120 Y142.700 F1000
G1 X132.900 Y142.700 F1000
G1 X133.160 Y142.440 F1000
G1 X133.680 Y142.440 F1000
G1 X133.940 Y142.180 F1000
G1 X134.460 Y142.180 F1000
G1 X134.720 Y141.920 F1000
G1 X134.980 Y141.920 F1000
G1 X135.240 Y141.660 F1000
G1 X135.760 Y141.660 F1000
G1 X136.020 Y141.400 F1000
G1 X136.280 Y141.400 F1000
G1 X136.540 Y141.140 F1000
G1 X137.060 Y141.140 F1000
G1 X137.320 Y140.880 F1000
G1 X137.580 Y140.880 F1000
G1 X137.840 Y140.620 F1000
G1 X138.100 Y140.620 F1000
G1 X138.360 Y140.360 F1000
G1 X138.620 Y140.360 F1000
G1 X138.880 Y140.100 F1000
G1 X139.140 Y140.100 F1000
G1 X139.660 Y139.580 F1000
G1 X139.920 Y139.580 F1000
G1 X140.180 Y139.320 F1000
G1 X140.440 Y139.320 F1000
G1 X141.220 Y138.540 F1000
G1 X141.480 Y138.540 F1000
G1 X148.500 Y131.520 F1000
G1 X148.500 Y118.260 F1000
G1 X134.720 Y104.480 F1000
G1 X134.720 Y104.220 F1000
G1 X134.460 Y103.960 F1000
G1 X134.200 Y103.960 F1000
G1 X133.940 Y103.700 F1000
G1 X133.940 Y103.440 F1000
G1 X133.680 Y103.180 F1000
G1 X133.420 Y103.180 F1000
G1 X133.420 Y102.920 F1000
G1 X133.160 Y102.660 F1000
G1 X132.900 Y102.660 F1000
G1 X132.900 Y102.400 F1000
G1 X132.380 Y101.880 F1000
G1 X132.120 Y101.880 F1000
G1 X132.120 Y101.620 F1000
G1 X131.600 Y101.100 F1000
G1 X131.340 Y101.100 F1000
G1 X131.340 Y100.840 F1000
G1 X130.040 Y99.540 F1000
G1 X129.780 Y99.540 F1000
G1 X129.780 Y99.280 F1000
G1 X128.220 Y97.720 F1000
G1 X127.960 Y97.720 F1000
G1 X127.960 Y97.460 F1000
G1 X126.660 Y96.160 F1000
G1 X126.400 Y96.160 F1000
G1 X126.400 Y95.900 F1000
G1 X125.880 Y95.380 F1000
G1 X125.620 Y95.380 F1000
G1 X125.620 Y95.120 F1000
G1 X125.100 Y94.600 F1000
G1 X124.840 Y94.600 F1000
G1 X124.840 Y94.340 F1000
G1 X124.580 Y94.080 F1000
G1 X124.320 Y94.080 F1000
G1 X124.320 Y93.820 F1000
G1 X124.060 Y93.560 F1000
G1 X123.800 Y93.560 F1000
G1 X123.020 Y92.780 F1000
G1 X122.760 Y92.780 F1000
G1 X108.980 Y79.000 F1000
G1 X96.240 Y79.000 F1000
G1 X88.180 Y87.060 F1000
G1 X88.180 Y87.320 F1000
G1 X87.920 Y87.580 F1000
G1 X87.920 Y87.840 F1000
G1 X87.400 Y88.360 F1000
G1 X87.400 Y88.620 F1000
G1 X87.140 Y88.880 F1000
G1 X87.140 Y89.140 F1000
G1 X86.880 Y89.400 F1000
G1 X86.880 Y89.660 F1000
G1 X86.620 Y89.920 F1000
G1 X86.620 Y90.180 F1000
G1 X86.360 Y90.440 F1000
G1 X86.360 Y90.960 F1000
G1 X86.100 Y91.220 F1000
G1 X86.100 Y91.480 F1000
G1 X85.840 Y91.740 F1000
G1 X85.840 Y92.260 F1000
G1 X85.580 Y92.520 F1000
G1 X85.580 Y92.780 F1000
G1 X85.320 Y93.040 F1000
G1 X85.320 Y93.560 F1000
G1 X85.060 Y93.820 F1000
G1 X85.060 Y94.340 F1000
G1 X84.800 Y94.600 F1000
G1 X84.800 Y95.380 F1000
G1 X84.540 Y95.640 F1000
G1 X84.540 Y96.160 F1000
G1 X84.280 Y96.420 F1000
G1 X84.280 Y97.200 F1000
G1 X84.020 Y97.460 F1000
G1 X84.020 Y98.500 F1000
G1 X83.760 Y98.760 F1000
G1 X83.760 Y99.800 F1000
G1 X83.500 Y100.060 F1000
G1 X83.500 Y101.620 F1000
G1 X83.240 Y101.880 F1000
G1 X83.240 Y134.120 F1000
G1 X83.500 Y134.380 F1000
G1 X83.500 Y135.940 F1000
G1 X83.760 Y136.200 F1000
G1 X83.760 Y137.240 F1000
G1 X84.020 Y137.500 F1000
G1 X84.020 Y138.540 F1000
G1 X84.280 Y138.800 F1000
G1 X84.280 Y139.580 F1000
G1 X84.540 Y139.840 F1000
G1 X84.540 Y140.360 F1000
G1 X84.800 Y140.620 F1000
G1 X84.800 Y141.400 F1000
G1 X85.060 Y141.660 F1000
G1 X85.060 Y141.920 F1000
G1 X85.580 Y142.440 F1000
G1 X85.840 Y142.440 F1000
G1 X86.100 Y142.700 F1000
G1 X86.880 Y142.700 F1000
G1 X87.140 Y142.960 F1000
G1 X87.660 Y142.960 F1000
G1 X87.920 Y143.220 F1000
G1 X88.700 Y143.220 F1000
G1 X88.960 Y143.480 F1000
G1 X90.000 Y143.480 F1000
G1 X90.260 Y143.740 F1000
G1 X91.300 Y143.740 F1000
G1 X91.560 Y144.000 F1000
G0 Z3.0 ; Pen up

; Return to origin
G0 X0 Y0
G0 Z3.0

; Total drawing distance: 8314.47 mm
; Total travel distance: 580.03 mm
; Total lines: 381
; Estimated time: 510.5 seconds (8.5 minutes)
M2 ; End program