; Blueprint to G-code
; Input: test_images/test5_circuit.png
; Generated with blueprint2gcode.py

G21 ; Set units to millimeters
G90 ; Absolute positioning
G0 Z3.0 ; Pen up
G0 X0 Y0 ; Move to origin

G0 X93.106 Y68.944 F3000 ; Travel to line 1
G0 Z0.0 ; Pen down
G1 X105.561 Y68.944 F1000
G0 Z3.0 ; Pen up

G0 X102.283 Y65.667 F3000 ; Travel to line 2
G0 Z0.0 ; Pen down
G1 X96.383 Y65.667 F1000
G0 Z3.0 ; Pen up

G0 X132.439 Y89.267 F3000 ; Travel to line 3
G0 Z0.0 ; Pen down
G1 X132.767 Y88.939 F1000
G1 X170.461 Y88.939 F1000
G1 X171.117 Y89.594 F1000
G1 X171.117 Y120.733 F1000
G1 X170.789 Y121.061 F1000
G1 X132.767 Y121.061 F1000
G1 X132.439 Y120.733 F1000
G0 Z3.0 ; Pen up

G0 X132.439 Y121.061 F3000 ; Travel to line 4
G0 Z0.0 ; Pen down
G1 X132.439 Y115.489 F1000
G1 X132.111 Y115.161 F1000
G1 X125.883 Y115.161 F1000
G1 X132.111 Y115.161 F1000
G1 X132.439 Y114.833 F1000
G1 X132.439 Y107.294 F1000
G1 X132.111 Y106.967 F1000
G1 X125.883 Y106.967 F1000
G1 X132.111 Y106.967 F1000
G1 X132.439 Y106.639 F1000
G1 X132.439 Y99.100 F1000
G1 X132.111 Y98.772 F1000
G1 X125.883 Y98.772 F1000
G1 X132.111 Y98.772 F1000
G1 X132.439 Y98.444 F1000
G1 X132.439 Y90.906 F1000
G1 X132.111 Y90.578 F1000
G1 X125.883 Y90.578 F1000
G1 X132.111 Y90.578 F1000
G1 X132.439 Y90.250 F1000
G1 X132.439 Y88.939 F1000
G1 X170.789 Y88.939 F1000
G1 X171.117 Y89.267 F1000
G1 X171.117 Y89.922 F1000
G1 X171.444 Y90.250 F1000
G1 X177.672 Y90.250 F1000
G1 X171.444 Y90.250 F1000
G1 X171.117 Y90.578 F1000
G1 X171.117 Y98.117 F1000
G1 X171.444 Y98.444 F1000
G1 X177.672 Y98.444 F1000
G1 X171.444 Y98.444 F1000
G1 X171.117 Y98.772 F1000
G1 X171.117 Y106.311 F1000
G1 X171.444 Y106.639 F1000
G1 X177.672 Y106.639 F1000
G1 X171.444 Y106.639 F1000
G1 X171.117 Y106.967 F1000
G1 X171.117 Y114.506 F1000
G1 X171.444 Y114.833 F1000
G1 X177.672 Y114.833 F1000
G1 X171.444 Y114.833 F1000
G1 X171.117 Y115.161 F1000
G1 X171.117 Y121.061 F1000
G0 Z3.0 ; Pen up

G0 X214.056 Y110.572 F3000 ; Travel to line 5
G0 Z0.0 ; Pen down
G1 X214.383 Y110.900 F1000
G1 X214.711 Y110.900 F1000
G1 X215.367 Y110.244 F1000
G1 X215.694 Y110.244 F1000
G1 X216.350 Y109.589 F1000
G1 X216.678 Y109.589 F1000
G1 X217.333 Y108.933 F1000
G1 X217.661 Y108.933 F1000
G1 X218.317 Y108.278 F1000
G1 X218.644 Y108.278 F1000
G1 X219.300 Y107.622 F1000
G1 X219.628 Y107.622 F1000
G1 X220.283 Y106.967 F1000
G1 X220.611 Y106.967 F1000
G1 X221.267 Y106.311 F1000
G1 X221.594 Y106.311 F1000
G1 X222.250 Y105.656 F1000
G1 X222.578 Y105.656 F1000
G1 X223.233 Y105.000 F1000
G1 X222.578 Y104.344 F1000
G1 X222.250 Y104.344 F1000
G1 X221.594 Y103.689 F1000
G1 X221.267 Y103.689 F1000
G1 X220.611 Y103.033 F1000
G1 X220.283 Y103.033 F1000
G1 X219.628 Y102.378 F1000
G1 X219.300 Y102.378 F1000
G1 X218.644 Y101.722 F1000
G1 X218.317 Y101.722 F1000
G1 X217.661 Y101.067 F1000
G1 X217.333 Y101.067 F1000
G1 X216.678 Y100.411 F1000
G1 X216.350 Y100.411 F1000
G1 X215.694 Y99.756 F1000
G1 X215.367 Y99.756 F1000
G1 X215.039 Y99.428 F1000
G1 X214.383 Y99.428 F1000
G1 X214.056 Y99.756 F1000
G0 Z3.0 ; Pen up

G0 X223.889 Y105.328 F3000 ; Travel to line 6
G0 Z0.0 ; Pen down
G1 X224.217 Y105.000 F1000
G1 X233.394 Y105.000 F1000
G1 X224.217 Y105.000 F1000
G1 X223.889 Y104.672 F1000
G1 X223.889 Y98.772 F1000
G1 X223.889 Y104.672 F1000
G1 X223.561 Y105.000 F1000
G1 X223.233 Y104.672 F1000
G1 X222.906 Y104.672 F1000
G1 X222.250 Y104.017 F1000
G1 X221.922 Y104.017 F1000
G1 X221.267 Y103.361 F1000
G1 X220.939 Y103.361 F1000
G1 X220.283 Y102.706 F1000
G1 X219.956 Y102.706 F1000
G1 X219.300 Y102.050 F1000
G1 X218.972 Y102.050 F1000
G1 X218.317 Y101.394 F1000
G1 X217.989 Y101.394 F1000
G1 X217.333 Y100.739 F1000
G1 X217.006 Y100.739 F1000
G1 X216.350 Y100.083 F1000
G1 X216.022 Y100.083 F1000
G1 X215.367 Y99.428 F1000
G1 X214.056 Y99.428 F1000
G1 X214.056 Y104.672 F1000
G1 X213.728 Y105.000 F1000
G1 X204.550 Y105.000 F1000
G1 X213.728 Y105.000 F1000
G1 X214.056 Y105.328 F1000
G1 X214.056 Y110.900 F1000
G1 X214.711 Y110.900 F1000
G1 X215.039 Y110.572 F1000
G1 X215.367 Y110.572 F1000
G1 X216.022 Y109.917 F1000
G1 X216.350 Y109.917 F1000
G1 X217.006 Y109.261 F1000
G1 X217.333 Y109.261 F1000
G1 X217.989 Y108.606 F1000
G1 X218.317 Y108.606 F1000
G1 X218.972 Y107.950 F1000
G1 X219.300 Y107.950 F1000
G1 X219.956 Y107.294 F1000
G1 X220.283 Y107.294 F1000
G1 X220.939 Y106.639 F1000
G1 X221.267 Y106.639 F1000
G1 X221.922 Y105.983 F1000
G1 X222.250 Y105.983 F1000
G1 X222.906 Y105.328 F1000
G1 X223.233 Y105.328 F1000
G1 X223.561 Y105.000 F1000
G1 X223.889 Y105.328 F1000
G1 X223.889 Y111.228 F1000
G0 Z3.0 ; Pen up

G0 X220.611 Y116.144 F3000 ; Travel to line 7
G0 Z0.0 ; Pen down
G1 X220.283 Y116.144 F1000
G1 X219.956 Y115.817 F1000
G1 X219.956 Y115.489 F1000
G1 X219.628 Y115.489 F1000
G1 X217.333 Y113.194 F1000
G1 X219.300 Y115.161 F1000
G1 X219.300 Y115.489 F1000
G1 X219.628 Y115.489 F1000
G1 X220.283 Y116.144 F1000
G0 Z3.0 ; Pen up

G0 X72.783 Y142.694 F3000 ; Travel to line 8
G0 Z0.0 ; Pen down
G1 X72.783 Y138.106 F1000
G1 X73.111 Y137.778 F1000
G1 X99.333 Y137.778 F1000
G1 X99.333 Y105.000 F1000
G1 X99.006 Y104.672 F1000
G1 X99.006 Y88.939 F1000
G1 X99.333 Y88.611 F1000
G1 X99.333 Y72.550 F1000
G1 X99.661 Y72.222 F1000
G1 X108.511 Y72.222 F1000
G1 X99.006 Y72.222 F1000
G1 X99.333 Y72.550 F1000
G1 X99.333 Y88.283 F1000
G1 X99.006 Y88.611 F1000
G1 X63.606 Y88.611 F1000
G1 X63.278 Y88.283 F1000
G1 X63.278 Y82.711 F1000
G1 X63.278 Y88.283 F1000
G1 X62.950 Y88.611 F1000
G1 X57.050 Y88.611 F1000
G1 X56.722 Y88.283 F1000
G1 X56.722 Y82.711 F1000
G1 X56.722 Y88.283 F1000
G1 X56.394 Y88.611 F1000
G1 X34.106 Y88.611 F1000
G1 X56.394 Y88.611 F1000
G1 X56.722 Y88.939 F1000
G1 X56.722 Y94.839 F1000
G1 X56.722 Y88.939 F1000
G1 X57.050 Y88.611 F1000
G1 X62.950 Y88.611 F1000
G1 X63.278 Y88.939 F1000
G1 X63.278 Y94.839 F1000
G1 X63.278 Y88.939 F1000
G1 X63.606 Y88.611 F1000
G1 X98.678 Y88.611 F1000
G1 X99.006 Y88.939 F1000
G1 X99.006 Y104.672 F1000
G1 X99.333 Y105.000 F1000
G1 X99.333 Y137.450 F1000
G1 X99.006 Y137.778 F1000
G1 X73.111 Y137.778 F1000
G1 X72.783 Y137.450 F1000
G1 X72.783 Y133.189 F1000
G1 X46.889 Y133.189 F1000
G1 X46.889 Y137.450 F1000
G1 X46.561 Y137.778 F1000
G1 X34.106 Y137.778 F1000
G1 X46.561 Y137.778 F1000
G1 X46.889 Y138.106 F1000
G1 X46.889 Y142.367 F1000
G1 X47.217 Y142.694 F1000
G0 Z3.0 ; Pen up

G0 X47.544 Y142.694 F3000 ; Travel to line 9
G0 Z0.0 ; Pen down
G1 X72.456 Y142.694 F1000
G1 X72.783 Y142.367 F1000
G1 X72.783 Y138.106 F1000
G1 X72.456 Y137.778 F1000
G1 X53.772 Y137.778 F1000
G1 X72.456 Y137.778 F1000
G1 X72.783 Y137.450 F1000
G1 X72.783 Y133.517 F1000
G1 X72.456 Y133.189 F1000
G1 X47.217 Y133.189 F1000
G1 X46.889 Y133.517 F1000
G1 X46.889 Y142.039 F1000
G0 Z3.0 ; Pen up

; Return to origin
G0 X0 Y0
G0 Z3.0

; Total drawing distance: 1377.90 mm
; Total travel distance: 375.52 mm
; Total lines: 9
; Estimated time: 90.2 seconds (1.5 minutes)
M2 ; End program