; Blueprint to G-code
; Input: test_images/test3_geometric.png
; Generated with blueprint2gcode.py

G21 ; Set units to millimeters
G90 ; Absolute positioning
G0 Z3.0 ; Pen up
G0 X0 Y0 ; Move to origin

G0 X41.555 Y42.715 F3000 ; Travel to line 1
G0 Z0.0 ; Pen down
G1 X41.426 Y42.586 F1000
G1 X41.426 Y42.458 F1000
G1 X41.297 Y42.329 F1000
G1 X41.297 Y42.200 F1000
G1 X41.169 Y42.071 F1000
G1 X41.169 Y41.943 F1000
G1 X41.040 Y41.814 F1000
G1 X41.040 Y41.685 F1000
G1 X40.911 Y41.556 F1000
G1 X40.911 Y41.428 F1000
G1 X40.782 Y41.299 F1000
G1 X40.782 Y41.170 F1000
G1 X40.654 Y41.041 F1000
G1 X40.654 Y40.913 F1000
G1 X40.525 Y40.784 F1000
G1 X40.525 Y40.655 F1000
G1 X40.396 Y40.526 F1000
G1 X40.396 Y40.398 F1000
G1 X40.267 Y40.269 F1000
G1 X40.267 Y40.140 F1000
G1 X40.139 Y40.011 F1000
G1 X40.139 Y39.883 F1000
G1 X40.010 Y39.754 F1000
G1 X40.010 Y39.625 F1000
G1 X39.881 Y39.496 F1000
G1 X39.881 Y39.367 F1000
G1 X39.752 Y39.239 F1000
G1 X39.752 Y39.110 F1000
G1 X39.624 Y38.981 F1000
G1 X39.624 Y38.852 F1000
G1 X39.495 Y38.724 F1000
G1 X39.495 Y38.595 F1000
G1 X39.366 Y38.466 F1000
G1 X39.366 Y38.337 F1000
G1 X39.237 Y38.209 F1000
G1 X39.237 Y38.080 F1000
G1 X39.109 Y37.951 F1000
G1 X39.109 Y37.822 F1000
G1 X38.980 Y37.694 F1000
G1 X38.980 Y37.565 F1000
G1 X38.722 Y37.307 F1000
G1 X37.950 Y37.307 F1000
G1 X37.821 Y37.179 F1000
G1 X37.178 Y37.179 F1000
G1 X37.049 Y37.050 F1000
G1 X36.276 Y37.050 F1000
G1 X36.148 Y36.921 F1000
G1 X35.504 Y36.921 F1000
G1 X35.375 Y36.793 F1000
G1 X34.602 Y36.793 F1000
G1 X34.474 Y36.664 F1000
G1 X33.701 Y36.664 F1000
G1 X33.572 Y36.535 F1000
G1 X32.929 Y36.535 F1000
G1 X32.800 Y36.406 F1000
G1 X32.543 Y36.406 F1000
G1 X32.414 Y36.278 F1000
G1 X32.414 Y36.020 F1000
G1 X34.345 Y34.089 F1000
G1 X34.474 Y34.089 F1000
G1 X36.791 Y31.771 F1000
G1 X36.791 Y31.643 F1000
G1 X36.920 Y31.514 F1000
G1 X36.791 Y31.385 F1000
G1 X36.791 Y30.741 F1000
G1 X36.663 Y30.613 F1000
G1 X36.663 Y29.969 F1000
G1 X36.534 Y29.840 F1000
G1 X36.534 Y29.196 F1000
G1 X36.405 Y29.067 F1000
G1 X36.405 Y28.553 F1000
G1 X36.276 Y28.424 F1000
G1 X36.276 Y27.780 F1000
G1 X36.148 Y27.651 F1000
G1 X36.148 Y27.008 F1000
G1 X36.019 Y26.879 F1000
G1 X36.019 Y26.235 F1000
G1 X35.890 Y26.106 F1000
G1 X35.890 Y25.463 F1000
G1 X36.019 Y25.334 F1000
G1 X36.148 Y25.463 F1000
G1 X36.276 Y25.463 F1000
G1 X36.405 Y25.591 F1000
G1 X36.534 Y25.591 F1000
G1 X36.663 Y25.720 F1000
G1 X36.791 Y25.720 F1000
G1 X36.920 Y25.849 F1000
G1 X37.049 Y25.849 F1000
G1 X37.178 Y25.977 F1000
G1 X37.306 Y25.977 F1000
G1 X37.435 Y26.106 F1000
G1 X37.564 Y26.106 F1000
G1 X37.693 Y26.235 F1000
G1 X37.821 Y26.235 F1000
G1 X37.950 Y26.364 F1000
G1 X38.079 Y26.364 F1000
G1 X38.207 Y26.492 F1000
G1 X38.336 Y26.492 F1000
G1 X38.465 Y26.621 F1000
G1 X38.594 Y26.621 F1000
G1 X38.722 Y26.750 F1000
G1 X38.851 Y26.750 F1000
G1 X38.980 Y26.879 F1000
G1 X39.109 Y26.879 F1000
G1 X39.237 Y27.008 F1000
G1 X39.366 Y27.008 F1000
G1 X39.495 Y27.136 F1000
G1 X39.624 Y27.136 F1000
G1 X39.752 Y27.265 F1000
G1 X39.881 Y27.265 F1000
G1 X40.010 Y27.394 F1000
G1 X40.139 Y27.394 F1000
G1 X40.267 Y27.523 F1000
G1 X40.396 Y27.523 F1000
G1 X40.525 Y27.651 F1000
G1 X40.654 Y27.651 F1000
G1 X40.782 Y27.780 F1000
G1 X40.911 Y27.780 F1000
G1 X41.040 Y27.909 F1000
G1 X41.169 Y27.909 F1000
G1 X41.297 Y28.038 F1000
G1 X42.328 Y28.038 F1000
G1 X42.456 Y27.909 F1000
G1 X42.585 Y27.909 F1000
G1 X42.714 Y27.780 F1000
G1 X42.843 Y27.780 F1000
G1 X42.971 Y27.651 F1000
G1 X43.100 Y27.651 F1000
G1 X43.229 Y27.523 F1000
G1 X43.358 Y27.523 F1000
G1 X43.486 Y27.394 F1000
G1 X43.615 Y27.394 F1000
G1 X43.744 Y27.265 F1000
G1 X43.873 Y27.265 F1000
G1 X44.001 Y27.136 F1000
G1 X44.130 Y27.136 F1000
G1 X44.259 Y27.008 F1000
G1 X44.388 Y27.008 F1000
G1 X44.516 Y26.879 F1000
G1 X44.645 Y26.879 F1000
G1 X44.903 Y26.621 F1000
G1 X45.031 Y26.621 F1000
G1 X45.160 Y26.492 F1000
G1 X45.289 Y26.492 F1000
G1 X45.418 Y26.364 F1000
G1 X45.546 Y26.364 F1000
G1 X45.675 Y26.235 F1000
G1 X45.804 Y26.235 F1000
G1 X45.933 Y26.106 F1000
G1 X46.061 Y26.106 F1000
G1 X46.190 Y25.977 F1000
G1 X46.319 Y25.977 F1000
G1 X46.448 Y25.849 F1000
G1 X46.576 Y25.849 F1000
G1 X46.705 Y25.720 F1000
G1 X46.834 Y25.720 F1000
G1 X46.963 Y25.591 F1000
G1 X47.091 Y25.591 F1000
G1 X47.220 Y25.463 F1000
G1 X47.477 Y25.463 F1000
G1 X47.606 Y25.591 F1000
G1 X47.606 Y25.849 F1000
G1 X47.477 Y25.977 F1000
G1 X47.477 Y26.621 F1000
G1 X47.349 Y26.750 F1000
G1 X47.349 Y27.394 F1000
G1 X47.220 Y27.523 F1000
G1 X47.220 Y28.038 F1000
G1 X47.091 Y28.166 F1000
G1 X47.091 Y28.810 F1000
G1 X46.963 Y28.939 F1000
G1 X46.963 Y29.582 F1000
G1 X46.834 Y29.711 F1000
G1 X46.834 Y30.355 F1000
G1 X46.705 Y30.484 F1000
G1 X46.705 Y31.128 F1000
G1 X46.576 Y31.256 F1000
G1 X46.576 Y31.643 F1000
G1 X49.023 Y34.089 F1000
G1 X49.151 Y34.089 F1000
G1 X51.082 Y36.020 F1000
G1 X51.082 Y36.149 F1000
G1 X51.211 Y36.278 F1000
G1 X51.082 Y36.406 F1000
G1 X50.696 Y36.406 F1000
G1 X50.567 Y36.535 F1000
G1 X49.924 Y36.535 F1000
G1 X49.795 Y36.664 F1000
G1 X49.023 Y36.664 F1000
G1 X48.894 Y36.793 F1000
G1 X48.121 Y36.793 F1000
G1 X47.992 Y36.921 F1000
G1 X47.349 Y36.921 F1000
G1 X47.220 Y37.050 F1000
G1 X46.448 Y37.050 F1000
G1 X46.319 Y37.179 F1000
G1 X45.675 Y37.179 F1000
G1 X45.546 Y37.307 F1000
G1 X44.774 Y37.307 F1000
G1 X44.516 Y37.565 F1000
G1 X44.516 Y37.694 F1000
G1 X44.388 Y37.822 F1000
G1 X44.388 Y37.951 F1000
G1 X44.259 Y38.080 F1000
G1 X44.259 Y38.209 F1000
G1 X44.130 Y38.337 F1000
G1 X44.130 Y38.466 F1000
G1 X44.001 Y38.595 F1000
G1 X44.001 Y38.724 F1000
G1 X43.873 Y38.852 F1000
G1 X43.873 Y38.981 F1000
G1 X43.744 Y39.110 F1000
G1 X43.744 Y39.239 F1000
G1 X43.615 Y39.367 F1000
G1 X43.615 Y39.496 F1000
G1 X43.486 Y39.625 F1000
G1 X43.486 Y39.754 F1000
G1 X43.358 Y39.883 F1000
G1 X43.358 Y40.011 F1000
G1 X43.229 Y40.140 F1000
G1 X43.229 Y40.269 F1000
G1 X43.100 Y40.398 F1000
G1 X43.100 Y40.526 F1000
G1 X42.971 Y40.655 F1000
G1 X42.971 Y40.784 F1000
G1 X42.843 Y40.913 F1000
G1 X42.843 Y41.041 F1000
G1 X42.714 Y41.170 F1000
G1 X42.714 Y41.299 F1000
G1 X42.585 Y41.428 F1000
G1 X42.585 Y41.556 F1000
G1 X42.456 Y41.685 F1000
G1 X42.456 Y41.814 F1000
G1 X42.328 Y41.943 F1000
G1 X42.328 Y42.071 F1000
G1 X42.199 Y42.200 F1000
G1 X42.199 Y42.329 F1000
G1 X42.070 Y42.458 F1000
G1 X42.070 Y42.586 F1000
G1 X41.812 Y42.844 F1000
G1 X41.684 Y42.715 F1000
G0 Z3.0 ; Pen up

G0 X41.812 Y42.844 F3000 ; Travel to line 2
G0 Z0.0 ; Pen down
G1 X42.070 Y42.586 F1000
G1 X42.070 Y42.458 F1000
G1 X42.199 Y42.329 F1000
G1 X42.199 Y42.200 F1000
G1 X42.328 Y42.071 F1000
G1 X42.328 Y41.943 F1000
G1 X42.456 Y41.814 F1000
G1 X42.456 Y41.685 F1000
G1 X42.585 Y41.556 F1000
G1 X42.585 Y41.428 F1000
G1 X42.714 Y41.299 F1000
G1 X42.714 Y41.170 F1000
G1 X42.843 Y41.041 F1000
G1 X42.843 Y40.913 F1000
G1 X42.971 Y40.784 F1000
G1 X42.971 Y40.655 F1000
G1 X43.100 Y40.526 F1000
G1 X43.100 Y40.398 F1000
G1 X43.229 Y40.269 F1000
G1 X43.229 Y40.140 F1000
G1 X43.358 Y40.011 F1000
G1 X43.358 Y39.883 F1000
G1 X43.486 Y39.754 F1000
G1 X43.486 Y39.625 F1000
G1 X43.615 Y39.496 F1000
G1 X43.615 Y39.367 F1000
G1 X43.744 Y39.239 F1000
G1 X43.744 Y39.110 F1000
G1 X43.873 Y38.981 F1000
G1 X43.873 Y38.852 F1000
G1 X44.001 Y38.724 F1000
G1 X44.001 Y38.595 F1000
G1 X44.130 Y38.466 F1000
G1 X44.130 Y38.337 F1000
G1 X44.259 Y38.209 F1000
G1 X44.259 Y38.080 F1000
G1 X44.388 Y37.951 F1000
G1 X44.388 Y37.822 F1000
G1 X44.516 Y37.694 F1000
G1 X44.516 Y37.565 F1000
G1 X44.645 Y37.436 F1000
G1 X44.774 Y37.436 F1000
G1 X44.903 Y37.307 F1000
G1 X45.546 Y37.307 F1000
G1 X45.675 Y37.179 F1000
G1 X46.319 Y37.179 F1000
G1 X46.448 Y37.050 F1000
G1 X47.220 Y37.050 F1000
G1 X47.349 Y36.921 F1000
G1 X47.992 Y36.921 F1000
G1 X48.121 Y36.793 F1000
G1 X48.894 Y36.793 F1000
G1 X49.023 Y36.664 F1000
G1 X49.795 Y36.664 F1000
G1 X49.924 Y36.535 F1000
G1 X50.567 Y36.535 F1000
G1 X50.696 Y36.406 F1000
G1 X51.082 Y36.406 F1000
G1 X51.211 Y36.278 F1000
G1 X51.340 Y36.406 F1000
G1 X51.082 Y36.149 F1000
G1 X51.082 Y36.020 F1000
G1 X49.151 Y34.089 F1000
G1 X49.023 Y34.089 F1000
G1 X46.576 Y31.643 F1000
G1 X46.576 Y31.256 F1000
G1 X46.705 Y31.128 F1000
G1 X46.705 Y30.484 F1000
G1 X46.834 Y30.355 F1000
G1 X46.834 Y29.711 F1000
G1 X46.963 Y29.582 F1000
G1 X46.963 Y28.939 F1000
G1 X47.091 Y28.810 F1000
G1 X47.091 Y28.166 F1000
G1 X47.220 Y28.038 F1000
G1 X47.220 Y27.523 F1000
G1 X47.349 Y27.394 F1000
G1 X47.349 Y26.750 F1000
G1 X47.477 Y26.621 F1000
G1 X47.477 Y25.977 F1000
G1 X47.606 Y25.849 F1000
G1 X47.606 Y25.334 F1000
G1 X47.864 Y25.076 F1000
G1 X47.735 Y25.205 F1000
G1 X47.606 Y25.205 F1000
G1 X47.606 Y25.334 F1000
G1 X47.477 Y25.463 F1000
G1 X47.091 Y25.463 F1000
G1 X46.963 Y25.591 F1000
G1 X46.834 Y25.591 F1000
G1 X46.705 Y25.720 F1000
G1 X46.576 Y25.720 F1000
G1 X46.448 Y25.849 F1000
G1 X46.319 Y25.849 F1000
G1 X46.190 Y25.977 F1000
G1 X46.061 Y25.977 F1000
G1 X45.933 Y26.106 F1000
G1 X45.804 Y26.106 F1000
G1 X45.675 Y26.235 F1000
G1 X45.546 Y26.235 F1000
G1 X45.418 Y26.364 F1000
G1 X45.289 Y26.364 F1000
G1 X45.160 Y26.492 F1000
G1 X45.031 Y26.492 F1000
G1 X44.774 Y26.750 F1000
G1 X44.645 Y26.750 F1000
G1 X44.516 Y26.879 F1000
G1 X44.388 Y26.879 F1000
G1 X44.259 Y27.008 F1000
G1 X44.130 Y27.008 F1000
G1 X44.001 Y27.136 F1000
G1 X43.873 Y27.136 F1000
G1 X43.744 Y27.265 F1000
G1 X43.615 Y27.265 F1000
G1 X43.486 Y27.394 F1000
G1 X43.358 Y27.394 F1000
G1 X43.229 Y27.523 F1000
G1 X43.100 Y27.523 F1000
G1 X42.971 Y27.651 F1000
G1 X42.843 Y27.651 F1000
G1 X42.714 Y27.780 F1000
G1 X42.585 Y27.780 F1000
G1 X42.456 Y27.909 F1000
G1 X42.328 Y27.909 F1000
G1 X42.199 Y28.038 F1000
G1 X41.426 Y28.038 F1000
G1 X41.297 Y27.909 F1000
G1 X41.169 Y27.909 F1000
G1 X41.040 Y27.780 F1000
G1 X40.911 Y27.780 F1000
G1 X40.782 Y27.651 F1000
G1 X40.654 Y27.651 F1000
G1 X40.525 Y27.523 F1000
G1 X40.396 Y27.523 F1000
G1 X40.267 Y27.394 F1000
G1 X40.139 Y27.394 F1000
G1 X40.010 Y27.265 F1000
G1 X39.881 Y27.265 F1000
G1 X39.752 Y27.136 F1000
G1 X39.624 Y27.136 F1000
G1 X39.495 Y27.008 F1000
G1 X39.366 Y27.008 F1000
G1 X39.237 Y26.879 F1000
G1 X39.109 Y26.879 F1000
G1 X38.980 Y26.750 F1000
G1 X38.851 Y26.750 F1000
G1 X38.722 Y26.621 F1000
G1 X38.594 Y26.621 F1000
G1 X38.465 Y26.492 F1000
G1 X38.336 Y26.492 F1000
G1 X38.207 Y26.364 F1000
G1 X38.079 Y26.364 F1000
G1 X37.950 Y26.235 F1000
G1 X37.821 Y26.235 F1000
G1 X37.693 Y26.106 F1000
G1 X37.564 Y26.106 F1000
G1 X37.435 Y25.977 F1000
G1 X37.306 Y25.977 F1000
G1 X37.178 Y25.849 F1000
G1 X37.049 Y25.849 F1000
G1 X36.920 Y25.720 F1000
G1 X36.791 Y25.720 F1000
G1 X36.663 Y25.591 F1000
G1 X36.534 Y25.591 F1000
G1 X36.405 Y25.463 F1000
G1 X36.148 Y25.463 F1000
G1 X36.019 Y25.334 F1000
G1 X35.890 Y25.334 F1000
G1 X35.633 Y25.076 F1000
G1 X35.890 Y25.334 F1000
G1 X35.890 Y26.106 F1000
G1 X36.019 Y26.235 F1000
G1 X36.019 Y26.879 F1000
G1 X36.148 Y27.008 F1000
G1 X36.148 Y27.651 F1000
G1 X36.276 Y27.780 F1000
G1 X36.276 Y28.424 F1000
G1 X36.405 Y28.553 F1000
G1 X36.405 Y29.067 F1000
G1 X36.534 Y29.196 F1000
G1 X36.534 Y29.840 F1000
G1 X36.663 Y29.969 F1000
G1 X36.663 Y30.613 F1000
G1 X36.791 Y30.741 F1000
G1 X36.791 Y31.385 F1000
G1 X36.920 Y31.514 F1000
G1 X36.791 Y31.643 F1000
G1 X36.791 Y31.771 F1000
G1 X34.474 Y34.089 F1000
G1 X34.345 Y34.089 F1000
G1 X32.414 Y36.020 F1000
G1 X32.414 Y36.149 F1000
G1 X32.156 Y36.406 F1000
G1 X32.285 Y36.278 F1000
G1 X32.414 Y36.406 F1000
G1 X32.800 Y36.406 F1000
G1 X32.929 Y36.535 F1000
G1 X33.572 Y36.535 F1000
G1 X33.701 Y36.664 F1000
G1 X34.474 Y36.664 F1000
G1 X34.602 Y36.793 F1000
G1 X35.375 Y36.793 F1000
G1 X35.504 Y36.921 F1000
G1 X36.148 Y36.921 F1000
G1 X36.276 Y37.050 F1000
G1 X37.049 Y37.050 F1000
G1 X37.178 Y37.179 F1000
G1 X37.821 Y37.179 F1000
G1 X37.950 Y37.307 F1000
G1 X38.594 Y37.307 F1000
G1 X38.722 Y37.436 F1000
G1 X38.851 Y37.436 F1000
G1 X38.980 Y37.565 F1000
G1 X38.980 Y37.694 F1000
G1 X39.109 Y37.822 F1000
G1 X39.109 Y37.951 F1000
G1 X39.237 Y38.080 F1000
G1 X39.237 Y38.209 F1000
G1 X39.366 Y38.337 F1000
G1 X39.366 Y38.466 F1000
G1 X39.495 Y38.595 F1000
G1 X39.495 Y38.724 F1000
G1 X39.624 Y38.852 F1000
G1 X39.624 Y38.981 F1000
G1 X39.752 Y39.110 F1000
G1 X39.752 Y39.239 F1000
G1 X39.881 Y39.367 F1000
G1 X39.881 Y39.496 F1000
G1 X40.010 Y39.625 F1000
G1 X40.010 Y39.754 F1000
G1 X40.139 Y39.883 F1000
G1 X40.139 Y40.011 F1000
G1 X40.267 Y40.140 F1000
G1 X40.267 Y40.269 F1000
G1 X40.396 Y40.398 F1000
G1 X40.396 Y40.526 F1000
G1 X40.525 Y40.655 F1000
G1 X40.525 Y40.784 F1000
G1 X40.654 Y40.913 F1000
G1 X40.654 Y41.041 F1000
G1 X40.782 Y41.170 F1000
G1 X40.782 Y41.299 F1000
G1 X40.911 Y41.428 F1000
G1 X40.911 Y41.556 F1000
G1 X41.040 Y41.685 F1000
G1 X41.040 Y41.814 F1000
G1 X41.169 Y41.943 F1000
G1 X41.169 Y42.071 F1000
G1 X41.297 Y42.200 F1000
G1 X41.297 Y42.329 F1000
G1 X41.426 Y42.458 F1000
G1 X41.426 Y42.586 F1000
G1 X41.812 Y42.973 F1000
G1 X41.812 Y43.230 F1000
G0 Z3.0 ; Pen up

G0 X64.086 Y55.976 F3000 ; Travel to line 3
G0 Z0.0 ; Pen down
G1 X64.086 Y55.848 F1000
G1 X63.958 Y55.719 F1000
G1 X63.958 Y55.590 F1000
G1 X63.829 Y55.461 F1000
G1 X63.829 Y55.333 F1000
G1 X63.571 Y55.075 F1000
G1 X63.571 Y54.946 F1000
G1 X63.443 Y54.818 F1000
G1 X63.443 Y54.689 F1000
G1 X63.314 Y54.560 F1000
G1 X63.314 Y54.431 F1000
G1 X63.056 Y54.174 F1000
G1 X63.056 Y54.045 F1000
G1 X62.928 Y53.916 F1000
G1 X62.928 Y53.788 F1000
G1 X62.799 Y53.659 F1000
G1 X62.799 Y53.530 F1000
G1 X62.541 Y53.273 F1000
G1 X62.541 Y53.144 F1000
G1 X62.413 Y53.015 F1000
G1 X62.413 Y52.886 F1000
G1 X62.284 Y52.758 F1000
G1 X62.284 Y52.629 F1000
G1 X62.026 Y52.371 F1000
G1 X62.026 Y52.242 F1000
G1 X61.898 Y52.114 F1000
G1 X61.898 Y51.985 F1000
G1 X61.769 Y51.856 F1000
G1 X61.769 Y51.727 F1000
G1 X61.640 Y51.599 F1000
G1 X61.640 Y51.470 F1000
G1 X61.383 Y51.212 F1000
G1 X61.383 Y51.084 F1000
G1 X61.254 Y50.955 F1000
G1 X61.254 Y50.826 F1000
G1 X61.125 Y50.697 F1000
G1 X61.125 Y50.569 F1000
G1 X60.867 Y50.311 F1000
G1 X60.867 Y50.183 F1000
G1 X60.739 Y50.054 F1000
G1 X60.739 Y49.925 F1000
G1 X60.610 Y49.796 F1000
G1 X60.610 Y49.668 F1000
G1 X60.352 Y49.410 F1000
G1 X60.352 Y49.281 F1000
G1 X60.224 Y49.153 F1000
G1 X60.224 Y49.024 F1000
G1 X60.095 Y48.895 F1000
G1 X60.095 Y48.766 F1000
G1 X59.837 Y48.509 F1000
G1 X59.837 Y48.380 F1000
G1 X59.709 Y48.251 F1000
G1 X59.709 Y48.123 F1000
G1 X59.580 Y47.994 F1000
G1 X59.580 Y47.865 F1000
G1 X59.322 Y47.608 F1000
G1 X59.322 Y47.479 F1000
G1 X59.194 Y47.350 F1000
G1 X59.194 Y47.221 F1000
G1 X59.065 Y47.093 F1000
G1 X59.065 Y46.964 F1000
G1 X58.807 Y46.706 F1000
G1 X58.807 Y46.578 F1000
G1 X58.679 Y46.449 F1000
G1 X58.679 Y46.320 F1000
G1 X58.550 Y46.191 F1000
G1 X58.550 Y46.062 F1000
G1 X58.293 Y45.805 F1000
G1 X58.293 Y45.676 F1000
G1 X58.164 Y45.547 F1000
G1 X58.164 Y45.419 F1000
G1 X58.035 Y45.290 F1000
G1 X58.035 Y45.161 F1000
G1 X57.778 Y44.904 F1000
G1 X57.778 Y44.775 F1000
G1 X57.649 Y44.646 F1000
G1 X57.649 Y44.517 F1000
G1 X57.520 Y44.389 F1000
G1 X57.520 Y44.260 F1000
G1 X57.263 Y44.002 F1000
G1 X57.263 Y43.874 F1000
G1 X57.134 Y43.745 F1000
G1 X57.134 Y43.616 F1000
G1 X57.005 Y43.488 F1000
G1 X57.005 Y43.359 F1000
G1 X56.876 Y43.230 F1000
G1 X56.876 Y43.101 F1000
G1 X56.619 Y42.844 F1000
G1 X56.619 Y42.715 F1000
G1 X56.490 Y42.586 F1000
G1 X56.490 Y42.458 F1000
G1 X56.361 Y42.329 F1000
G1 X56.361 Y42.200 F1000
G1 X56.104 Y41.943 F1000
G1 X56.104 Y41.814 F1000
G1 X55.975 Y41.685 F1000
G1 X55.975 Y41.556 F1000
G1 X55.846 Y41.428 F1000
G1 X55.846 Y41.299 F1000
G1 X55.589 Y41.041 F1000
G1 X55.589 Y40.913 F1000
G1 X55.460 Y40.784 F1000
G1 X55.460 Y40.655 F1000
G1 X55.331 Y40.526 F1000
G1 X55.331 Y40.398 F1000
G1 X55.074 Y40.140 F1000
G1 X55.074 Y40.011 F1000
G1 X54.945 Y39.883 F1000
G1 X54.945 Y39.367 F1000
G1 X55.074 Y39.239 F1000
G1 X55.074 Y39.110 F1000
G1 X55.331 Y38.852 F1000
G1 X55.331 Y38.724 F1000
G1 X55.460 Y38.595 F1000
G1 X55.460 Y38.466 F1000
G1 X55.718 Y38.209 F1000
G1 X55.718 Y38.080 F1000
G1 X55.846 Y37.951 F1000
G1 X55.846 Y37.822 F1000
G1 X55.975 Y37.694 F1000
G1 X55.975 Y37.565 F1000
G1 X56.233 Y37.307 F1000
G1 X56.233 Y37.179 F1000
G1 X56.361 Y37.050 F1000
G1 X56.361 Y36.921 F1000
G1 X56.619 Y36.664 F1000
G1 X56.619 Y36.535 F1000
G1 X56.748 Y36.406 F1000
G1 X56.748 Y36.278 F1000
G1 X56.876 Y36.149 F1000
G1 X56.876 Y36.020 F1000
G1 X57.134 Y35.763 F1000
G1 X57.134 Y35.634 F1000
G1 X57.263 Y35.505 F1000
G1 X57.263 Y35.376 F1000
G1 X57.520 Y35.119 F1000
G1 X57.520 Y34.990 F1000
G1 X57.649 Y34.861 F1000
G1 X57.649 Y34.733 F1000
G1 X57.778 Y34.604 F1000
G1 X57.778 Y34.475 F1000
G1 X58.035 Y34.218 F1000
G1 X58.035 Y34.089 F1000
G1 X58.164 Y33.960 F1000
G1 X58.164 Y33.831 F1000
G1 X58.293 Y33.703 F1000
G1 X58.293 Y33.574 F1000
G1 X58.550 Y33.316 F1000
G1 X58.550 Y33.188 F1000
G1 X58.679 Y33.059 F1000
G1 X58.679 Y32.930 F1000
G1 X58.936 Y32.672 F1000
G1 X58.936 Y32.544 F1000
G1 X59.065 Y32.415 F1000
G1 X59.065 Y32.286 F1000
G1 X59.194 Y32.157 F1000
G1 X59.194 Y32.029 F1000
G1 X59.451 Y31.771 F1000
G1 X59.451 Y31.643 F1000
G1 X59.580 Y31.514 F1000
G1 X59.580 Y31.385 F1000
G1 X59.837 Y31.128 F1000
G1 X59.837 Y30.999 F1000
G1 X59.966 Y30.870 F1000
G1 X59.966 Y30.741 F1000
G1 X60.095 Y30.613 F1000
G1 X60.095 Y30.484 F1000
G1 X60.352 Y30.226 F1000
G1 X60.352 Y30.098 F1000
G1 X60.481 Y29.969 F1000
G1 X60.481 Y29.840 F1000
G1 X60.739 Y29.582 F1000
G1 X60.739 Y29.454 F1000
G1 X60.867 Y29.325 F1000
G1 X60.867 Y29.196 F1000
G1 X60.996 Y29.067 F1000
G1 X60.996 Y28.939 F1000
G1 X61.254 Y28.681 F1000
G1 X61.254 Y28.553 F1000
G1 X61.383 Y28.424 F1000
G1 X61.383 Y28.295 F1000
G1 X61.511 Y28.166 F1000
G1 X61.511 Y28.038 F1000
G1 X61.769 Y27.780 F1000
G1 X61.769 Y27.651 F1000
G1 X61.898 Y27.523 F1000
G1 X61.898 Y27.394 F1000
G1 X62.155 Y27.136 F1000
G1 X62.155 Y27.008 F1000
G1 X62.284 Y26.879 F1000
G1 X62.284 Y26.750 F1000
G1 X62.413 Y26.621 F1000
G1 X62.413 Y26.492 F1000
G1 X62.670 Y26.235 F1000
G1 X62.670 Y26.106 F1000
G1 X62.799 Y25.977 F1000
G1 X62.799 Y25.849 F1000
G1 X63.056 Y25.591 F1000
G1 X63.056 Y25.463 F1000
G1 X63.185 Y25.334 F1000
G1 X63.185 Y25.205 F1000
G1 X63.314 Y25.076 F1000
G1 X63.314 Y24.948 F1000
G1 X63.571 Y24.690 F1000
G1 X63.571 Y24.561 F1000
G1 X63.700 Y24.433 F1000
G1 X63.700 Y24.304 F1000
G1 X63.958 Y24.046 F1000
G1 X63.958 Y23.918 F1000
G1 X64.086 Y23.789 F1000
G1 X64.086 Y23.660 F1000
G1 X64.215 Y23.531 F1000
G1 X64.215 Y23.402 F1000
G1 X64.472 Y23.145 F1000
G1 X83.528 Y23.145 F1000
G1 X83.656 Y23.274 F1000
G1 X83.656 Y23.402 F1000
G1 X83.785 Y23.531 F1000
G1 X83.785 Y23.660 F1000
G1 X83.914 Y23.789 F1000
G1 X83.914 Y23.918 F1000
G1 X84.171 Y24.175 F1000
G1 X84.171 Y24.304 F1000
G1 X84.300 Y24.433 F1000
G1 X84.300 Y24.561 F1000
G1 X84.558 Y24.819 F1000
G1 X84.558 Y24.948 F1000
G1 X84.686 Y25.076 F1000
G1 X84.686 Y25.205 F1000
G1 X84.815 Y25.334 F1000
G1 X84.815 Y25.463 F1000
G1 X85.073 Y25.720 F1000
G1 X85.073 Y25.849 F1000
G1 X85.201 Y25.977 F1000
G1 X85.201 Y26.106 F1000
G1 X85.459 Y26.364 F1000
G1 X85.459 Y26.492 F1000
G1 X85.588 Y26.621 F1000
G1 X85.588 Y26.750 F1000
G1 X85.716 Y26.879 F1000
G1 X85.716 Y27.008 F1000
G1 X85.974 Y27.265 F1000
G1 X85.974 Y27.394 F1000
G1 X86.102 Y27.523 F1000
G1 X86.102 Y27.651 F1000
G1 X86.360 Y27.909 F1000
G1 X86.360 Y28.038 F1000
G1 X86.489 Y28.166 F1000
G1 X86.489 Y28.295 F1000
G1 X86.618 Y28.424 F1000
G1 X86.618 Y28.553 F1000
G1 X86.875 Y28.810 F1000
G1 X86.875 Y28.939 F1000
G1 X87.004 Y29.067 F1000
G1 X87.004 Y29.196 F1000
G1 X87.133 Y29.325 F1000
G1 X87.133 Y29.454 F1000
G1 X87.390 Y29.711 F1000
G1 X87.390 Y29.840 F1000
G1 X87.519 Y29.969 F1000
G1 X87.519 Y30.098 F1000
G1 X87.776 Y30.355 F1000
G1 X87.776 Y30.484 F1000
G1 X87.905 Y30.613 F1000
G1 X87.905 Y30.741 F1000
G1 X88.034 Y30.870 F1000
G1 X88.034 Y30.999 F1000
G1 X88.291 Y31.256 F1000
G1 X88.291 Y31.385 F1000
G1 X88.420 Y31.514 F1000
G1 X88.420 Y31.643 F1000
G1 X88.677 Y31.900 F1000
G1 X88.677 Y32.029 F1000
G1 X88.806 Y32.157 F1000
G1 X88.806 Y32.286 F1000
G1 X88.935 Y32.415 F1000
G1 X88.935 Y32.544 F1000
G1 X89.192 Y32.801 F1000
G1 X89.192 Y32.930 F1000
G1 X89.321 Y33.059 F1000
G1 X89.321 Y33.188 F1000
G1 X89.579 Y33.445 F1000
G1 X89.579 Y33.574 F1000
G1 X89.707 Y33.703 F1000
G1 X89.707 Y33.831 F1000
G1 X89.836 Y33.960 F1000
G1 X89.836 Y34.089 F1000
G1 X90.094 Y34.346 F1000
G1 X90.094 Y34.475 F1000
G1 X90.222 Y34.604 F1000
G1 X90.222 Y34.733 F1000
G1 X90.351 Y34.861 F1000
G1 X90.351 Y34.990 F1000
G1 X90.609 Y35.248 F1000
G1 X90.609 Y35.376 F1000
G1 X90.737 Y35.505 F1000
G1 X90.737 Y35.634 F1000
G1 X90.995 Y35.891 F1000
G1 X90.995 Y36.020 F1000
G1 X91.124 Y36.149 F1000
G1 X91.124 Y36.278 F1000
G1 X91.252 Y36.406 F1000
G1 X91.252 Y36.535 F1000
G1 X91.510 Y36.793 F1000
G1 X91.510 Y36.921 F1000
G1 X91.639 Y37.050 F1000
G1 X91.639 Y37.179 F1000
G1 X91.896 Y37.436 F1000
G1 X91.896 Y37.565 F1000
G1 X92.025 Y37.694 F1000
G1 X92.025 Y37.822 F1000
G1 X92.154 Y37.951 F1000
G1 X92.154 Y38.080 F1000
G1 X92.411 Y38.337 F1000
G1 X92.411 Y38.466 F1000
G1 X92.540 Y38.595 F1000
G1 X92.540 Y38.724 F1000
G1 X92.797 Y38.981 F1000
G1 X92.797 Y39.110 F1000
G1 X92.926 Y39.239 F1000
G1 X92.926 Y39.367 F1000
G1 X93.055 Y39.496 F1000
G1 X93.055 Y39.754 F1000
G1 X92.926 Y39.883 F1000
G1 X92.926 Y40.011 F1000
G1 X92.669 Y40.269 F1000
G1 X92.669 Y40.398 F1000
G1 X92.540 Y40.526 F1000
G1 X92.540 Y40.655 F1000
G1 X92.411 Y40.784 F1000
G1 X92.411 Y40.913 F1000
G1 X92.154 Y41.170 F1000
G1 X92.154 Y41.299 F1000
G1 X92.025 Y41.428 F1000
G1 X92.025 Y41.556 F1000
G1 X91.767 Y41.814 F1000
G1 X91.767 Y41.943 F1000
G1 X91.639 Y42.071 F1000
G1 X91.639 Y42.200 F1000
G1 X91.510 Y42.329 F1000
G1 X91.510 Y42.458 F1000
G1 X91.252 Y42.715 F1000
G1 X91.252 Y42.844 F1000
G1 X91.124 Y42.973 F1000
G1 X91.124 Y43.101 F1000
G1 X90.866 Y43.359 F1000
G1 X90.866 Y43.488 F1000
G1 X90.737 Y43.616 F1000
G1 X90.737 Y43.745 F1000
G1 X90.609 Y43.874 F1000
G1 X90.609 Y44.002 F1000
G1 X90.351 Y44.260 F1000
G1 X90.351 Y44.389 F1000
G1 X90.222 Y44.517 F1000
G1 X90.222 Y44.646 F1000
G1 X89.965 Y44.904 F1000
G1 X89.965 Y45.032 F1000
G1 X89.836 Y45.161 F1000
G1 X89.836 Y45.290 F1000
G1 X89.707 Y45.419 F1000
G1 X89.707 Y45.547 F1000
G1 X89.450 Y45.805 F1000
G1 X89.450 Y45.934 F1000
G1 X89.321 Y46.062 F1000
G1 X89.321 Y46.191 F1000
G1 X89.064 Y46.449 F1000
G1 X89.064 Y46.578 F1000
G1 X88.935 Y46.706 F1000
G1 X88.935 Y46.835 F1000
G1 X88.806 Y46.964 F1000
G1 X88.806 Y47.093 F1000
G1 X88.549 Y47.350 F1000
G1 X88.549 Y47.479 F1000
G1 X88.420 Y47.608 F1000
G1 X88.420 Y47.736 F1000
G1 X88.163 Y47.994 F1000
G1 X88.163 Y48.123 F1000
G1 X88.034 Y48.251 F1000
G1 X88.034 Y48.380 F1000
G1 X87.776 Y48.638 F1000
G1 X87.776 Y48.766 F1000
G1 X87.648 Y48.895 F1000
G1 X87.648 Y49.024 F1000
G1 X87.519 Y49.153 F1000
G1 X87.519 Y49.281 F1000
G1 X87.261 Y49.539 F1000
G1 X87.261 Y49.668 F1000
G1 X87.133 Y49.796 F1000
G1 X87.133 Y49.925 F1000
G1 X86.875 Y50.183 F1000
G1 X86.875 Y50.311 F1000
G1 X86.746 Y50.440 F1000
G1 X86.746 Y50.569 F1000
G1 X86.618 Y50.697 F1000
G1 X86.618 Y50.826 F1000
G1 X86.360 Y51.084 F1000
G1 X86.360 Y51.212 F1000
G1 X86.231 Y51.341 F1000
G1 X86.231 Y51.470 F1000
G1 X85.974 Y51.727 F1000
G1 X85.974 Y51.856 F1000
G1 X85.845 Y51.985 F1000
G1 X85.845 Y52.114 F1000
G1 X85.716 Y52.242 F1000
G1 X85.716 Y52.371 F1000
G1 X85.459 Y52.629 F1000
G1 X85.459 Y52.758 F1000
G1 X85.330 Y52.886 F1000
G1 X85.330 Y53.015 F1000
G1 X85.073 Y53.273 F1000
G1 X85.073 Y53.401 F1000
G1 X84.944 Y53.530 F1000
G1 X84.944 Y53.659 F1000
G1 X84.815 Y53.788 F1000
G1 X84.815 Y53.916 F1000
G1 X84.558 Y54.174 F1000
G1 X84.558 Y54.303 F1000
G1 X84.429 Y54.431 F1000
G1 X84.429 Y54.560 F1000
G1 X84.171 Y54.818 F1000
G1 X84.171 Y54.946 F1000
G1 X84.043 Y55.075 F1000
G1 X84.043 Y55.204 F1000
G1 X83.914 Y55.333 F1000
G1 X83.914 Y55.461 F1000
G1 X83.656 Y55.719 F1000
G1 X83.656 Y55.848 F1000
G1 X83.528 Y55.976 F1000
G1 X83.528 Y56.105 F1000
G1 X83.399 Y56.234 F1000
G1 X64.344 Y56.234 F1000
G1 X64.344 Y56.234 F1000
G1 X64.086 Y55.976 F1000
G1 X64.086 Y55.848 F1000
G1 X63.958 Y55.719 F1000
G1 X63.958 Y55.590 F1000
G1 X63.700 Y55.333 F1000
G1 X63.700 Y55.204 F1000
G1 X63.571 Y55.075 F1000
G1 X63.571 Y54.946 F1000
G1 X63.443 Y54.818 F1000
G1 X63.443 Y54.689 F1000
G1 X63.185 Y54.431 F1000
G1 X63.185 Y54.303 F1000
G1 X63.056 Y54.174 F1000
G1 X63.056 Y54.045 F1000
G1 X62.928 Y53.916 F1000
G1 X62.928 Y53.788 F1000
G1 X62.670 Y53.530 F1000
G1 X62.670 Y53.401 F1000
G1 X62.541 Y53.273 F1000
G1 X62.541 Y53.144 F1000
G1 X62.413 Y53.015 F1000
G1 X62.413 Y52.886 F1000
G1 X62.155 Y52.629 F1000
G1 X62.155 Y52.500 F1000
G1 X62.026 Y52.371 F1000
G1 X62.026 Y52.242 F1000
G1 X61.898 Y52.114 F1000
G1 X61.898 Y51.985 F1000
G1 X61.769 Y51.856 F1000
G1 X61.769 Y51.727 F1000
G1 X61.511 Y51.470 F1000
G1 X61.511 Y51.341 F1000
G1 X61.383 Y51.212 F1000
G1 X61.383 Y51.084 F1000
G1 X61.254 Y50.955 F1000
G1 X61.254 Y50.826 F1000
G1 X60.996 Y50.569 F1000
G1 X60.996 Y50.440 F1000
G1 X60.867 Y50.311 F1000
G1 X60.867 Y50.183 F1000
G1 X60.739 Y50.054 F1000
G1 X60.739 Y49.925 F1000
G1 X60.481 Y49.668 F1000
G1 X60.481 Y49.539 F1000
G1 X60.352 Y49.410 F1000
G1 X60.352 Y49.281 F1000
G1 X60.224 Y49.153 F1000
G1 X60.224 Y49.024 F1000
G1 X59.966 Y48.766 F1000
G1 X59.966 Y48.638 F1000
G1 X59.837 Y48.509 F1000
G1 X59.837 Y48.380 F1000
G1 X59.709 Y48.251 F1000
G1 X59.709 Y48.123 F1000
G1 X59.451 Y47.865 F1000
G1 X59.451 Y47.736 F1000
G1 X59.322 Y47.608 F1000
G1 X59.322 Y47.479 F1000
G1 X59.194 Y47.350 F1000
G1 X59.194 Y47.221 F1000
G1 X58.936 Y46.964 F1000
G1 X58.936 Y46.835 F1000
G1 X58.807 Y46.706 F1000
G1 X58.807 Y46.578 F1000
G1 X58.679 Y46.449 F1000
G1 X58.679 Y46.320 F1000
G1 X58.421 Y46.062 F1000
G1 X58.421 Y45.934 F1000
G1 X58.293 Y45.805 F1000
G1 X58.293 Y45.676 F1000
G1 X58.164 Y45.547 F1000
G1 X58.164 Y45.419 F1000
G1 X57.906 Y45.161 F1000
G1 X57.906 Y45.032 F1000
G1 X57.778 Y44.904 F1000
G1 X57.778 Y44.775 F1000
G1 X57.649 Y44.646 F1000
G1 X57.649 Y44.517 F1000
G1 X57.391 Y44.260 F1000
G1 X57.391 Y44.131 F1000
G1 X57.263 Y44.002 F1000
G1 X57.263 Y43.874 F1000
G1 X57.134 Y43.745 F1000
G1 X57.134 Y43.616 F1000
G1 X57.005 Y43.488 F1000
G1 X57.005 Y43.359 F1000
G1 X56.748 Y43.101 F1000
G1 X56.748 Y42.973 F1000
G1 X56.619 Y42.844 F1000
G1 X56.619 Y42.715 F1000
G1 X56.490 Y42.586 F1000
G1 X56.490 Y42.458 F1000
G1 X56.233 Y42.200 F1000
G1 X56.233 Y42.071 F1000
G1 X56.104 Y41.943 F1000
G1 X56.104 Y41.814 F1000
G1 X55.975 Y41.685 F1000
G1 X55.975 Y41.556 F1000
G1 X55.718 Y41.299 F1000
G1 X55.718 Y41.170 F1000
G1 X55.589 Y41.041 F1000
G1 X55.589 Y40.913 F1000
G1 X55.460 Y40.784 F1000
G1 X55.460 Y40.655 F1000
G1 X55.203 Y40.398 F1000
G1 X55.203 Y40.269 F1000
G1 X55.074 Y40.140 F1000
G1 X55.074 Y40.011 F1000
G1 X54.945 Y39.883 F1000
G1 X54.945 Y39.367 F1000
G1 X55.074 Y39.239 F1000
G1 X55.074 Y39.110 F1000
G1 X55.203 Y38.981 F1000
G1 X55.203 Y38.852 F1000
G1 X55.460 Y38.595 F1000
G1 X55.460 Y38.466 F1000
G1 X55.589 Y38.337 F1000
G1 X55.589 Y38.209 F1000
G1 X55.846 Y37.951 F1000
G1 X55.846 Y37.822 F1000
G1 X55.975 Y37.694 F1000
G1 X55.975 Y37.565 F1000
G1 X56.104 Y37.436 F1000
G1 X56.104 Y37.307 F1000
G1 X56.361 Y37.050 F1000
G1 X56.361 Y36.921 F1000
G1 X56.490 Y36.793 F1000
G1 X56.490 Y36.664 F1000
G1 X56.748 Y36.406 F1000
G1 X56.748 Y36.278 F1000
G1 X56.876 Y36.149 F1000
G1 X56.876 Y36.020 F1000
G1 X57.005 Y35.891 F1000
G1 X57.005 Y35.763 F1000
G1 X57.263 Y35.505 F1000
G1 X57.263 Y35.376 F1000
G1 X57.391 Y35.248 F1000
G1 X57.391 Y35.119 F1000
G1 X57.649 Y34.861 F1000
G1 X57.649 Y34.733 F1000
G1 X57.778 Y34.604 F1000
G1 X57.778 Y34.475 F1000
G1 X57.906 Y34.346 F1000
G1 X57.906 Y34.218 F1000
G1 X58.164 Y33.960 F1000
G1 X58.164 Y33.831 F1000
G1 X58.293 Y33.703 F1000
G1 X58.293 Y33.574 F1000
G1 X58.421 Y33.445 F1000
G1 X58.421 Y33.316 F1000
G1 X58.679 Y33.059 F1000
G1 X58.679 Y32.930 F1000
G1 X58.807 Y32.801 F1000
G1 X58.807 Y32.672 F1000
G1 X59.065 Y32.415 F1000
G1 X59.065 Y32.286 F1000
G1 X59.194 Y32.157 F1000
G1 X59.194 Y32.029 F1000
G1 X59.322 Y31.900 F1000
G1 X59.322 Y31.771 F1000
G1 X59.580 Y31.514 F1000
G1 X59.580 Y31.385 F1000
G1 X59.709 Y31.256 F1000
G1 X59.709 Y31.128 F1000
G1 X59.966 Y30.870 F1000
G1 X59.966 Y30.741 F1000
G1 X60.095 Y30.613 F1000
G1 X60.095 Y30.484 F1000
G1 X60.224 Y30.355 F1000
G1 X60.224 Y30.226 F1000
G1 X60.481 Y29.969 F1000
G1 X60.481 Y29.840 F1000
G1 X60.610 Y29.711 F1000
G1 X60.610 Y29.582 F1000
G1 X60.867 Y29.325 F1000
G1 X60.867 Y29.196 F1000
G1 X60.996 Y29.067 F1000
G1 X60.996 Y28.939 F1000
G1 X61.125 Y28.810 F1000
G1 X61.125 Y28.681 F1000
G1 X61.383 Y28.424 F1000
G1 X61.383 Y28.295 F1000
G1 X61.511 Y28.166 F1000
G1 X61.511 Y28.038 F1000
G1 X61.640 Y27.909 F1000
G1 X61.640 Y27.780 F1000
G1 X61.898 Y27.523 F1000
G1 X61.898 Y27.394 F1000
G1 X62.026 Y27.265 F1000
G1 X62.026 Y27.136 F1000
G1 X62.284 Y26.879 F1000
G1 X62.284 Y26.750 F1000
G1 X62.413 Y26.621 F1000
G1 X62.413 Y26.492 F1000
G1 X62.541 Y26.364 F1000
G1 X62.541 Y26.235 F1000
G1 X62.799 Y25.977 F1000
G1 X62.799 Y25.849 F1000
G1 X62.928 Y25.720 F1000
G1 X62.928 Y25.591 F1000
G1 X63.185 Y25.334 F1000
G1 X63.185 Y25.205 F1000
G1 X63.314 Y25.076 F1000
G1 X63.314 Y24.948 F1000
G1 X63.443 Y24.819 F1000
G1 X63.443 Y24.690 F1000
G1 X63.700 Y24.433 F1000
G1 X63.700 Y24.304 F1000
G1 X63.829 Y24.175 F1000
G1 X63.829 Y24.046 F1000
G1 X64.086 Y23.789 F1000
G1 X64.086 Y23.660 F1000
G1 X64.215 Y23.531 F1000
G1 X64.215 Y23.402 F1000
G1 X64.472 Y23.145 F1000
G1 X83.528 Y23.145 F1000
G1 X83.656 Y23.274 F1000
G1 X83.656 Y23.402 F1000
G1 X83.785 Y23.531 F1000
G1 X83.785 Y23.660 F1000
G1 X84.043 Y23.918 F1000
G1 X84.043 Y24.046 F1000
G1 X84.171 Y24.175 F1000
G1 X84.171 Y24.304 F1000
G1 X84.429 Y24.561 F1000
G1 X84.429 Y24.690 F1000
G1 X84.558 Y24.819 F1000
G1 X84.558 Y24.948 F1000
G1 X84.686 Y25.076 F1000
G1 X84.686 Y25.205 F1000
G1 X84.944 Y25.463 F1000
G1 X84.944 Y25.591 F1000
G1 X85.073 Y25.720 F1000
G1 X85.073 Y25.849 F1000
G1 X85.330 Y26.106 F1000
G1 X85.330 Y26.235 F1000
G1 X85.459 Y26.364 F1000
G1 X85.459 Y26.492 F1000
G1 X85.588 Y26.621 F1000
G1 X85.588 Y26.750 F1000
G1 X85.845 Y27.008 F1000
G1 X85.845 Y27.136 F1000
G1 X85.974 Y27.265 F1000
G1 X85.974 Y27.394 F1000
G1 X86.231 Y27.651 F1000
G1 X86.231 Y27.780 F1000
G1 X86.360 Y27.909 F1000
G1 X86.360 Y28.038 F1000
G1 X86.489 Y28.166 F1000
G1 X86.489 Y28.295 F1000
G1 X86.746 Y28.553 F1000
G1 X86.746 Y28.681 F1000
G1 X86.875 Y28.810 F1000
G1 X86.875 Y28.939 F1000
G1 X87.004 Y29.067 F1000
G1 X87.004 Y29.196 F1000
G1 X87.261 Y29.454 F1000
G1 X87.261 Y29.582 F1000
G1 X87.390 Y29.711 F1000
G1 X87.390 Y29.840 F1000
G1 X87.648 Y30.098 F1000
G1 X87.648 Y30.226 F1000
G1 X87.776 Y30.355 F1000
G1 X87.776 Y30.484 F1000
G1 X87.905 Y30.613 F1000
G1 X87.905 Y30.741 F1000
G1 X88.163 Y30.999 F1000
G1 X88.163 Y31.128 F1000
G1 X88.291 Y31.256 F1000
G1 X88.291 Y31.385 F1000
G1 X88.549 Y31.643 F1000
G1 X88.549 Y31.771 F1000
G1 X88.677 Y31.900 F1000
G1 X88.677 Y32.029 F1000
G1 X88.806 Y32.157 F1000
G1 X88.806 Y32.286 F1000
G1 X89.064 Y32.544 F1000
G1 X89.064 Y32.672 F1000
G1 X89.192 Y32.801 F1000
G1 X89.192 Y32.930 F1000
G1 X89.450 Y33.188 F1000
G1 X89.450 Y33.316 F1000
G1 X89.579 Y33.445 F1000
G1 X89.579 Y33.574 F1000
G1 X89.707 Y33.703 F1000
G1 X89.707 Y33.831 F1000
G1 X89.965 Y34.089 F1000
G1 X89.965 Y34.218 F1000
G1 X90.094 Y34.346 F1000
G1 X90.094 Y34.475 F1000
G1 X90.222 Y34.604 F1000
G1 X90.222 Y34.733 F1000
G1 X90.480 Y34.990 F1000
G1 X90.480 Y35.119 F1000
G1 X90.609 Y35.248 F1000
G1 X90.609 Y35.376 F1000
G1 X90.866 Y35.634 F1000
G1 X90.866 Y35.763 F1000
G1 X90.995 Y35.891 F1000
G1 X90.995 Y36.020 F1000
G1 X91.124 Y36.149 F1000
G1 X91.124 Y36.278 F1000
G1 X91.381 Y36.535 F1000
G1 X91.381 Y36.664 F1000
G1 X91.510 Y36.793 F1000
G1 X91.510 Y36.921 F1000
G1 X91.767 Y37.179 F1000
G1 X91.767 Y37.307 F1000
G1 X91.896 Y37.436 F1000
G1 X91.896 Y37.565 F1000
G1 X92.025 Y37.694 F1000
G1 X92.025 Y37.822 F1000
G1 X92.282 Y38.080 F1000
G1 X92.282 Y38.209 F1000
G1 X92.411 Y38.337 F1000
G1 X92.411 Y38.466 F1000
G1 X92.669 Y38.724 F1000
G1 X92.669 Y38.852 F1000
G1 X92.797 Y38.981 F1000
G1 X92.797 Y39.110 F1000
G1 X92.926 Y39.239 F1000
G1 X92.926 Y39.367 F1000
G1 X93.055 Y39.496 F1000
G1 X93.055 Y39.754 F1000
G1 X92.926 Y39.883 F1000
G1 X92.926 Y40.011 F1000
G1 X92.797 Y40.140 F1000
G1 X92.797 Y40.269 F1000
G1 X92.540 Y40.526 F1000
G1 X92.540 Y40.655 F1000
G1 X92.411 Y40.784 F1000
G1 X92.411 Y40.913 F1000
G1 X92.282 Y41.041 F1000
G1 X92.282 Y41.170 F1000
G1 X92.025 Y41.428 F1000
G1 X92.025 Y41.556 F1000
G1 X91.896 Y41.685 F1000
G1 X91.896 Y41.814 F1000
G1 X91.639 Y42.071 F1000
G1 X91.639 Y42.200 F1000
G1 X91.510 Y42.329 F1000
G1 X91.510 Y42.458 F1000
G1 X91.381 Y42.586 F1000
G1 X91.381 Y42.715 F1000
G1 X91.124 Y42.973 F1000
G1 X91.124 Y43.101 F1000
G1 X90.995 Y43.230 F1000
G1 X90.995 Y43.359 F1000
G1 X90.737 Y43.616 F1000
G1 X90.737 Y43.745 F1000
G1 X90.609 Y43.874 F1000
G1 X90.609 Y44.002 F1000
G1 X90.480 Y44.131 F1000
G1 X90.480 Y44.260 F1000
G1 X90.222 Y44.517 F1000
G1 X90.222 Y44.646 F1000
G1 X90.094 Y44.775 F1000
G1 X90.094 Y44.904 F1000
G1 X89.836 Y45.161 F1000
G1 X89.836 Y45.290 F1000
G1 X89.707 Y45.419 F1000
G1 X89.707 Y45.547 F1000
G1 X89.579 Y45.676 F1000
G1 X89.579 Y45.805 F1000
G1 X89.321 Y46.062 F1000
G1 X89.321 Y46.191 F1000
G1 X89.192 Y46.320 F1000
G1 X89.192 Y46.449 F1000
G1 X88.935 Y46.706 F1000
G1 X88.935 Y46.835 F1000
G1 X88.806 Y46.964 F1000
G1 X88.806 Y47.093 F1000
G1 X88.677 Y47.221 F1000
G1 X88.677 Y47.350 F1000
G1 X88.420 Y47.608 F1000
G1 X88.420 Y47.736 F1000
G1 X88.291 Y47.865 F1000
G1 X88.291 Y47.994 F1000
G1 X88.034 Y48.251 F1000
G1 X88.034 Y48.380 F1000
G1 X87.905 Y48.509 F1000
G1 X87.905 Y48.638 F1000
G1 X87.648 Y48.895 F1000
G1 X87.648 Y49.024 F1000
G1 X87.519 Y49.153 F1000
G1 X87.519 Y49.281 F1000
G1 X87.390 Y49.410 F1000
G1 X87.390 Y49.539 F1000
G1 X87.133 Y49.796 F1000
G1 X87.133 Y49.925 F1000
G1 X87.004 Y50.054 F1000
G1 X87.004 Y50.183 F1000
G1 X86.746 Y50.440 F1000
G1 X86.746 Y50.569 F1000
G1 X86.618 Y50.697 F1000
G1 X86.618 Y50.826 F1000
G1 X86.489 Y50.955 F1000
G1 X86.489 Y51.084 F1000
G1 X86.231 Y51.341 F1000
G1 X86.231 Y51.470 F1000
G1 X86.102 Y51.599 F1000
G1 X86.102 Y51.727 F1000
G1 X85.845 Y51.985 F1000
G1 X85.845 Y52.114 F1000
G1 X85.716 Y52.242 F1000
G1 X85.716 Y52.371 F1000
G1 X85.588 Y52.500 F1000
G1 X85.588 Y52.629 F1000
G1 X85.330 Y52.886 F1000
G1 X85.330 Y53.015 F1000
G1 X85.201 Y53.144 F1000
G1 X85.201 Y53.273 F1000
G1 X84.944 Y53.530 F1000
G1 X84.944 Y53.659 F1000
G1 X84.815 Y53.788 F1000
G1 X84.815 Y53.916 F1000
G1 X84.686 Y54.045 F1000
G1 X84.686 Y54.174 F1000
G1 X84.429 Y54.431 F1000
G1 X84.429 Y54.560 F1000
G1 X84.300 Y54.689 F1000
G1 X84.300 Y54.818 F1000
G1 X84.043 Y55.075 F1000
G1 X84.043 Y55.204 F1000
G1 X83.914 Y55.333 F1000
G1 X83.914 Y55.461 F1000
G1 X83.785 Y55.590 F1000
G1 X83.785 Y55.719 F1000
G1 X83.528 Y55.976 F1000
G1 X83.528 Y56.105 F1000
G1 X83.399 Y56.234 F1000
G0 Z3.0 ; Pen up

G0 X104.127 Y43.874 F3000 ; Travel to line 4
G0 Z0.0 ; Pen down
G1 X103.999 Y43.745 F1000
G1 X103.741 Y43.745 F1000
G1 X103.612 Y43.616 F1000
G1 X103.355 Y43.616 F1000
G1 X103.226 Y43.488 F1000
G1 X103.097 Y43.488 F1000
G1 X102.969 Y43.359 F1000
G1 X102.711 Y43.359 F1000
G1 X102.582 Y43.230 F1000
G1 X102.325 Y43.230 F1000
G1 X102.196 Y43.101 F1000
G1 X101.939 Y43.101 F1000
G1 X101.810 Y42.973 F1000
G1 X101.553 Y42.973 F1000
G1 X101.295 Y42.715 F1000
G1 X101.166 Y42.715 F1000
G1 X100.909 Y42.458 F1000
G1 X100.780 Y42.458 F1000
G1 X100.394 Y42.071 F1000
G1 X100.265 Y42.071 F1000
G1 X100.008 Y41.814 F1000
G1 X99.879 Y41.814 F1000
G1 X99.493 Y41.428 F1000
G1 X99.364 Y41.428 F1000
G1 X99.106 Y41.170 F1000
G1 X98.978 Y41.170 F1000
G1 X98.591 Y40.784 F1000
G1 X98.591 Y40.655 F1000
G1 X98.205 Y40.269 F1000
G1 X98.205 Y40.140 F1000
G1 X97.819 Y39.754 F1000
G1 X97.819 Y39.625 F1000
G1 X97.433 Y39.239 F1000
G1 X97.433 Y39.110 F1000
G1 X97.046 Y38.724 F1000
G1 X97.046 Y38.595 F1000
G1 X96.918 Y38.466 F1000
G1 X96.918 Y38.337 F1000
G1 X96.789 Y38.209 F1000
G1 X96.789 Y37.951 F1000
G1 X96.660 Y37.822 F1000
G1 X96.660 Y37.565 F1000
G1 X96.531 Y37.436 F1000
G1 X96.531 Y37.179 F1000
G1 X96.403 Y37.050 F1000
G1 X96.403 Y36.921 F1000
G1 X96.274 Y36.793 F1000
G1 X96.274 Y36.535 F1000
G1 X96.145 Y36.406 F1000
G1 X96.145 Y36.149 F1000
G1 X96.016 Y36.020 F1000
G1 X96.016 Y35.763 F1000
G1 X95.888 Y35.634 F1000
G1 X95.888 Y33.960 F1000
G1 X95.759 Y33.831 F1000
G1 X95.759 Y32.544 F1000
G1 X95.888 Y32.415 F1000
G1 X95.888 Y32.029 F1000
G1 X96.016 Y31.900 F1000
G1 X96.016 Y31.514 F1000
G1 X96.145 Y31.385 F1000
G1 X96.145 Y30.999 F1000
G1 X96.274 Y30.870 F1000
G1 X96.274 Y30.484 F1000
G1 X96.403 Y30.355 F1000
G1 X96.403 Y29.969 F1000
G1 X96.531 Y29.840 F1000
G1 X96.531 Y29.582 F1000
G1 X96.660 Y29.454 F1000
G1 X96.660 Y29.325 F1000
G1 X96.789 Y29.196 F1000
G1 X96.789 Y29.067 F1000
G1 X97.046 Y28.810 F1000
G1 X97.046 Y28.681 F1000
G1 X97.175 Y28.553 F1000
G1 X97.175 Y28.424 F1000
G1 X97.433 Y28.166 F1000
G1 X97.433 Y28.038 F1000
G1 X97.561 Y27.909 F1000
G1 X97.561 Y27.780 F1000
G1 X97.819 Y27.523 F1000
G1 X97.819 Y27.394 F1000
G1 X97.948 Y27.265 F1000
G1 X97.948 Y27.136 F1000
G1 X98.463 Y26.621 F1000
G1 X98.591 Y26.621 F1000
G1 X99.235 Y25.977 F1000
G1 X99.364 Y25.977 F1000
G1 X100.008 Y25.334 F1000
G1 X100.136 Y25.334 F1000
G1 X100.523 Y24.948 F1000
G1 X100.651 Y24.948 F1000
G1 X100.780 Y24.819 F1000
G1 X101.038 Y24.819 F1000
G1 X101.166 Y24.690 F1000
G1 X101.295 Y24.690 F1000
G1 X101.424 Y24.561 F1000
G1 X101.553 Y24.561 F1000
G1 X101.681 Y24.433 F1000
G1 X101.939 Y24.433 F1000
G1 X102.067 Y24.304 F1000
G1 X102.196 Y24.304 F1000
G1 X102.325 Y24.175 F1000
G1 X102.454 Y24.175 F1000
G1 X102.582 Y24.046 F1000
G1 X102.840 Y24.046 F1000
G1 X102.969 Y23.918 F1000
G1 X103.097 Y23.918 F1000
G1 X103.226 Y23.789 F1000
G1 X104.127 Y23.789 F1000
G1 X104.256 Y23.660 F1000
G1 X105.029 Y23.660 F1000
G1 X105.157 Y23.531 F1000
G1 X106.703 Y23.531 F1000
G1 X106.831 Y23.660 F1000
G1 X107.346 Y23.660 F1000
G1 X107.475 Y23.789 F1000
G1 X107.861 Y23.789 F1000
G1 X107.990 Y23.918 F1000
G1 X108.505 Y23.918 F1000
G1 X108.634 Y24.046 F1000
G1 X109.020 Y24.046 F1000
G1 X109.149 Y24.175 F1000
G1 X109.278 Y24.175 F1000
G1 X109.406 Y24.304 F1000
G1 X109.535 Y24.304 F1000
G1 X109.664 Y24.433 F1000
G1 X109.793 Y24.433 F1000
G1 X109.921 Y24.561 F1000
G1 X110.050 Y24.561 F1000
G1 X110.179 Y24.690 F1000
G1 X110.308 Y24.690 F1000
G1 X110.436 Y24.819 F1000
G1 X110.565 Y24.819 F1000
G1 X110.694 Y24.948 F1000
G1 X110.823 Y24.948 F1000
G1 X110.951 Y25.076 F1000
G1 X111.080 Y25.076 F1000
G1 X111.209 Y25.205 F1000
G1 X111.338 Y25.205 F1000
G1 X111.466 Y25.334 F1000
G1 X111.595 Y25.334 F1000
G1 X112.625 Y26.364 F1000
G1 X112.625 Y26.492 F1000
G1 X113.655 Y27.523 F1000
G1 X113.655 Y27.651 F1000
G1 X113.784 Y27.780 F1000
G1 X113.784 Y27.909 F1000
G1 X113.913 Y28.038 F1000
G1 X113.913 Y28.166 F1000
G1 X114.170 Y28.424 F1000
G1 X114.170 Y28.553 F1000
G1 X114.299 Y28.681 F1000
G1 X114.299 Y28.810 F1000
G1 X114.556 Y29.067 F1000
G1 X114.556 Y29.196 F1000
G1 X114.685 Y29.325 F1000
G1 X114.685 Y29.454 F1000
G1 X114.814 Y29.582 F1000
G1 X114.814 Y29.711 F1000
G1 X114.942 Y29.840 F1000
G1 X114.942 Y29.969 F1000
G1 X115.071 Y30.098 F1000
G1 X115.071 Y30.741 F1000
G1 X115.200 Y30.870 F1000
G1 X115.200 Y31.385 F1000
G1 X115.329 Y31.514 F1000
G1 X115.329 Y32.157 F1000
G1 X115.457 Y32.286 F1000
G1 X115.457 Y33.188 F1000
G1 X115.329 Y33.316 F1000
G1 X115.329 Y34.089 F1000
G1 X115.200 Y34.218 F1000
G1 X115.200 Y34.990 F1000
G1 X115.071 Y35.119 F1000
G1 X115.071 Y35.634 F1000
G1 X114.942 Y35.763 F1000
G1 X114.942 Y35.891 F1000
G1 X114.814 Y36.020 F1000
G1 X114.814 Y36.149 F1000
G1 X114.685 Y36.278 F1000
G1 X114.685 Y36.406 F1000
G1 X114.556 Y36.535 F1000
G1 X114.556 Y36.664 F1000
G1 X114.428 Y36.793 F1000
G1 X114.428 Y36.921 F1000
G1 X114.299 Y37.050 F1000
G1 X114.299 Y37.179 F1000
G1 X114.170 Y37.307 F1000
G1 X114.170 Y37.436 F1000
G1 X114.041 Y37.565 F1000
G1 X114.041 Y37.694 F1000
G1 X113.526 Y38.209 F1000
G1 X113.526 Y38.337 F1000
G1 X112.625 Y39.239 F1000
G1 X112.625 Y39.367 F1000
G1 X112.110 Y39.883 F1000
G1 X111.981 Y39.883 F1000
G1 X111.724 Y40.140 F1000
G1 X111.595 Y40.140 F1000
G1 X111.338 Y40.398 F1000
G1 X111.209 Y40.398 F1000
G1 X110.951 Y40.655 F1000
G1 X110.823 Y40.655 F1000
G1 X110.565 Y40.913 F1000
G1 X110.436 Y40.913 F1000
G1 X110.179 Y41.170 F1000
G1 X110.050 Y41.170 F1000
G1 X109.921 Y41.299 F1000
G1 X109.535 Y41.299 F1000
G1 X109.406 Y41.428 F1000
G1 X109.020 Y41.428 F1000
G1 X108.891 Y41.556 F1000
G1 X108.505 Y41.556 F1000
G1 X108.376 Y41.685 F1000
G1 X107.990 Y41.685 F1000
G1 X107.861 Y41.814 F1000
G1 X104.771 Y41.814 F1000
G1 X104.642 Y41.685 F1000
G1 X104.385 Y41.685 F1000
G1 X104.256 Y41.556 F1000
G1 X104.127 Y41.556 F1000
G1 X103.999 Y41.428 F1000
G1 X103.741 Y41.428 F1000
G1 X103.612 Y41.299 F1000
G1 X103.355 Y41.299 F1000
G1 X103.226 Y41.170 F1000
G1 X102.969 Y41.170 F1000
G1 X102.840 Y41.041 F1000
G1 X102.711 Y41.041 F1000
G1 X102.582 Y40.913 F1000
G1 X102.325 Y40.913 F1000
G1 X102.067 Y40.655 F1000
G1 X101.939 Y40.655 F1000
G1 X101.553 Y40.269 F1000
G1 X101.424 Y40.269 F1000
G1 X101.038 Y39.883 F1000
G1 X100.909 Y39.883 F1000
G1 X100.523 Y39.496 F1000
G1 X100.394 Y39.496 F1000
G1 X100.008 Y39.110 F1000
G1 X100.008 Y38.981 F1000
G1 X99.750 Y38.724 F1000
G1 X99.750 Y38.595 F1000
G1 X99.493 Y38.337 F1000
G1 X99.493 Y38.209 F1000
G1 X99.106 Y37.822 F1000
G1 X99.106 Y37.694 F1000
G1 X98.849 Y37.436 F1000
G1 X98.849 Y37.307 F1000
G1 X98.720 Y37.179 F1000
G1 X98.720 Y37.050 F1000
G1 X98.591 Y36.921 F1000
G1 X98.591 Y36.664 F1000
G1 X98.463 Y36.535 F1000
G1 X98.463 Y36.278 F1000
G1 X98.334 Y36.149 F1000
G1 X98.334 Y35.891 F1000
G1 X98.205 Y35.763 F1000
G1 X98.205 Y35.505 F1000
G1 X98.076 Y35.376 F1000
G1 X98.076 Y35.119 F1000
G1 X97.948 Y34.990 F1000
G1 X97.948 Y33.703 F1000
G1 X97.819 Y33.574 F1000
G1 X97.819 Y32.544 F1000
G1 X97.948 Y32.415 F1000
G1 X97.948 Y32.157 F1000
G1 X98.076 Y32.029 F1000
G1 X98.076 Y31.771 F1000
G1 X98.205 Y31.643 F1000
G1 X98.205 Y31.385 F1000
G1 X98.334 Y31.256 F1000
G1 X98.334 Y30.999 F1000
G1 X98.463 Y30.870 F1000
G1 X98.463 Y30.613 F1000
G1 X98.591 Y30.484 F1000
G1 X98.591 Y30.355 F1000
G1 X98.720 Y30.226 F1000
G1 X98.720 Y30.098 F1000
G1 X98.978 Y29.840 F1000
G1 X98.978 Y29.711 F1000
G1 X99.106 Y29.582 F1000
G1 X99.106 Y29.454 F1000
G1 X99.364 Y29.196 F1000
G1 X99.364 Y29.067 F1000
G1 X99.621 Y28.810 F1000
G1 X99.621 Y28.681 F1000
G1 X99.750 Y28.553 F1000
G1 X99.750 Y28.424 F1000
G1 X100.394 Y27.780 F1000
G1 X100.523 Y27.780 F1000
G1 X101.295 Y27.008 F1000
G1 X101.424 Y27.008 F1000
G1 X101.810 Y26.621 F1000
G1 X102.067 Y26.621 F1000
G1 X102.196 Y26.492 F1000
G1 X102.454 Y26.492 F1000
G1 X102.582 Y26.364 F1000
G1 X102.840 Y26.364 F1000
G1 X102.969 Y26.235 F1000
G1 X103.097 Y26.235 F1000
G1 X103.226 Y26.106 F1000
G1 X103.484 Y26.106 F1000
G1 X103.612 Y25.977 F1000
G1 X103.870 Y25.977 F1000
G1 X103.999 Y25.849 F1000
G1 X105.029 Y25.849 F1000
G1 X105.157 Y25.720 F1000
G1 X106.831 Y25.720 F1000
G1 X106.960 Y25.849 F1000
G1 X107.346 Y25.849 F1000
G1 X107.475 Y25.977 F1000
G1 X107.990 Y25.977 F1000
G1 X108.119 Y26.106 F1000
G1 X108.505 Y26.106 F1000
G1 X108.634 Y26.235 F1000
G1 X108.763 Y26.235 F1000
G1 X108.891 Y26.364 F1000
G1 X109.020 Y26.364 F1000
G1 X109.149 Y26.492 F1000
G1 X109.278 Y26.492 F1000
G1 X109.535 Y26.750 F1000
G1 X109.664 Y26.750 F1000
G1 X109.793 Y26.879 F1000
G1 X109.921 Y26.879 F1000
G1 X110.050 Y27.008 F1000
G1 X110.179 Y27.008 F1000
G1 X110.308 Y27.136 F1000
G1 X110.436 Y27.136 F1000
G1 X111.209 Y27.909 F1000
G1 X111.209 Y28.038 F1000
G1 X112.110 Y28.939 F1000
G1 X112.110 Y29.067 F1000
G1 X112.239 Y29.196 F1000
G1 X112.239 Y29.325 F1000
G1 X112.368 Y29.454 F1000
G1 X112.368 Y29.582 F1000
G1 X112.496 Y29.711 F1000
G1 X112.496 Y29.840 F1000
G1 X112.625 Y29.969 F1000
G1 X112.625 Y30.098 F1000
G1 X112.754 Y30.226 F1000
G1 X112.754 Y30.355 F1000
G1 X112.883 Y30.484 F1000
G1 X112.883 Y30.870 F1000
G1 X113.011 Y30.999 F1000
G1 X113.011 Y31.643 F1000
G1 X113.140 Y31.771 F1000
G1 X113.140 Y32.415 F1000
G1 X113.269 Y32.544 F1000
G1 X113.269 Y33.316 F1000
G1 X113.140 Y33.445 F1000
G1 X113.140 Y34.089 F1000
G1 X113.011 Y34.218 F1000
G1 X113.011 Y34.733 F1000
G1 X112.883 Y34.861 F1000
G1 X112.883 Y35.248 F1000
G1 X112.754 Y35.376 F1000
G1 X112.754 Y35.505 F1000
G1 X112.625 Y35.634 F1000
G1 X112.625 Y35.763 F1000
G1 X112.496 Y35.891 F1000
G1 X112.496 Y36.020 F1000
G1 X112.368 Y36.149 F1000
G1 X112.368 Y36.278 F1000
G1 X112.239 Y36.406 F1000
G1 X112.239 Y36.535 F1000
G1 X112.110 Y36.664 F1000
G1 X112.110 Y36.793 F1000
G1 X110.565 Y38.337 F1000
G1 X110.436 Y38.337 F1000
G1 X110.179 Y38.595 F1000
G1 X110.050 Y38.595 F1000
G1 X109.793 Y38.852 F1000
G1 X109.664 Y38.852 F1000
G1 X109.535 Y38.981 F1000
G1 X109.406 Y38.981 F1000
G1 X109.149 Y39.239 F1000
G1 X109.020 Y39.239 F1000
G1 X108.891 Y39.367 F1000
G1 X108.505 Y39.367 F1000
G1 X108.376 Y39.496 F1000
G1 X107.990 Y39.496 F1000
G1 X107.861 Y39.625 F1000
G1 X107.604 Y39.625 F1000
G1 X107.475 Y39.754 F1000
G1 X106.059 Y39.754 F1000
G1 X105.930 Y39.625 F1000
G1 X105.029 Y39.625 F1000
G1 X104.900 Y39.496 F1000
G1 X104.642 Y39.496 F1000
G1 X104.514 Y39.367 F1000
G1 X104.256 Y39.367 F1000
G1 X104.127 Y39.239 F1000
G1 X103.999 Y39.239 F1000
G1 X103.870 Y39.110 F1000
G1 X103.612 Y39.110 F1000
G1 X103.484 Y38.981 F1000
G1 X103.226 Y38.981 F1000
G1 X102.840 Y38.595 F1000
G1 X102.711 Y38.595 F1000
G1 X102.067 Y37.951 F1000
G1 X101.939 Y37.951 F1000
G1 X101.424 Y37.436 F1000
G1 X101.424 Y37.307 F1000
G1 X101.166 Y37.050 F1000
G1 X101.166 Y36.921 F1000
G1 X100.909 Y36.664 F1000
G1 X100.909 Y36.535 F1000
G1 X100.651 Y36.278 F1000
G1 X100.651 Y36.149 F1000
G1 X100.523 Y36.020 F1000
G1 X100.523 Y35.891 F1000
G1 X100.394 Y35.763 F1000
G1 X100.394 Y35.505 F1000
G1 X100.265 Y35.376 F1000
G1 X100.265 Y34.990 F1000
G1 X100.136 Y34.861 F1000
G1 X100.136 Y34.604 F1000
G1 X100.008 Y34.475 F1000
G1 X100.008 Y32.544 F1000
G1 X100.136 Y32.415 F1000
G1 X100.136 Y32.157 F1000
G1 X100.265 Y32.029 F1000
G1 X100.265 Y31.643 F1000
G1 X100.394 Y31.514 F1000
G1 X100.394 Y31.256 F1000
G1 X100.523 Y31.128 F1000
G1 X100.523 Y30.999 F1000
G1 X100.651 Y30.870 F1000
G1 X100.651 Y30.741 F1000
G1 X101.038 Y30.355 F1000
G1 X101.038 Y30.226 F1000
G1 X101.424 Y29.840 F1000
G1 X101.424 Y29.711 F1000
G1 X101.810 Y29.325 F1000
G1 X101.939 Y29.325 F1000
G1 X102.325 Y28.939 F1000
G1 X102.454 Y28.939 F1000
G1 X102.711 Y28.681 F1000
G1 X102.840 Y28.681 F1000
G1 X103.097 Y28.424 F1000
G1 X103.355 Y28.424 F1000
G1 X103.484 Y28.295 F1000
G1 X103.741 Y28.295 F1000
G1 X103.870 Y28.166 F1000
G1 X104.127 Y28.166 F1000
G1 X104.256 Y28.038 F1000
G1 X104.514 Y28.038 F1000
G1 X104.642 Y27.909 F1000
G1 X106.831 Y27.909 F1000
G1 X106.960 Y28.038 F1000
G1 X107.346 Y28.038 F1000
G1 X107.475 Y28.166 F1000
G1 X107.861 Y28.166 F1000
G1 X107.990 Y28.295 F1000
G1 X108.119 Y28.295 F1000
G1 X108.376 Y28.553 F1000
G1 X108.505 Y28.553 F1000
G1 X108.763 Y28.810 F1000
G1 X108.891 Y28.810 F1000
G1 X109.149 Y29.067 F1000
G1 X109.278 Y29.067 F1000
G1 X109.793 Y29.582 F1000
G1 X109.793 Y29.711 F1000
G1 X110.436 Y30.355 F1000
G1 X110.436 Y30.484 F1000
G1 X110.565 Y30.613 F1000
G1 X110.565 Y30.741 F1000
G1 X110.694 Y30.870 F1000
G1 X110.694 Y30.999 F1000
G1 X110.823 Y31.128 F1000
G1 X110.823 Y31.256 F1000
G1 X110.951 Y31.385 F1000
G1 X110.951 Y32.157 F1000
G1 X111.080 Y32.286 F1000
G1 X111.080 Y33.445 F1000
G1 X110.951 Y33.574 F1000
G1 X110.951 Y34.218 F1000
G1 X110.823 Y34.346 F1000
G1 X110.823 Y34.733 F1000
G1 X110.694 Y34.861 F1000
G1 X110.694 Y34.990 F1000
G1 X110.565 Y35.119 F1000
G1 X110.565 Y35.248 F1000
G1 X110.436 Y35.376 F1000
G1 X110.436 Y35.505 F1000
G1 X109.149 Y36.793 F1000
G1 X109.020 Y36.793 F1000
G1 X108.891 Y36.921 F1000
G1 X108.763 Y36.921 F1000
G1 X108.634 Y37.050 F1000
G1 X108.505 Y37.050 F1000
G1 X108.376 Y37.179 F1000
G1 X108.248 Y37.179 F1000
G1 X108.119 Y37.307 F1000
G1 X107.990 Y37.307 F1000
G1 X107.861 Y37.436 F1000
G1 X107.346 Y37.436 F1000
G1 X107.218 Y37.565 F1000
G1 X105.286 Y37.565 F1000
G1 X105.157 Y37.436 F1000
G1 X105.029 Y37.436 F1000
G1 X104.900 Y37.307 F1000
G1 X104.771 Y37.307 F1000
G1 X104.642 Y37.179 F1000
G1 X104.385 Y37.179 F1000
G1 X104.256 Y37.050 F1000
G1 X104.127 Y37.050 F1000
G1 X102.969 Y35.891 F1000
G1 X102.969 Y35.763 F1000
G1 X102.840 Y35.634 F1000
G1 X102.840 Y35.505 F1000
G1 X102.582 Y35.248 F1000
G1 X102.582 Y35.119 F1000
G1 X102.454 Y34.990 F1000
G1 X102.454 Y34.861 F1000
G1 X102.325 Y34.733 F1000
G1 X102.325 Y34.475 F1000
G1 X102.196 Y34.346 F1000
G1 X102.196 Y34.089 F1000
G1 X102.067 Y33.960 F1000
G1 X102.067 Y33.574 F1000
G1 X102.196 Y33.445 F1000
G1 X102.196 Y32.801 F1000
G1 X102.325 Y32.672 F1000
G1 X102.325 Y32.544 F1000
G1 X102.454 Y32.415 F1000
G1 X102.454 Y32.157 F1000
G1 X102.582 Y32.029 F1000
G1 X102.582 Y31.900 F1000
G1 X102.711 Y31.771 F1000
G1 X102.711 Y31.643 F1000
G1 X103.097 Y31.256 F1000
G1 X103.097 Y31.128 F1000
G1 X103.484 Y30.741 F1000
G1 X103.612 Y30.741 F1000
G1 X103.870 Y30.484 F1000
G1 X103.999 Y30.484 F1000
G1 X104.256 Y30.226 F1000
G1 X104.642 Y30.226 F1000
G1 X104.771 Y30.098 F1000
G1 X106.703 Y30.098 F1000
G1 X106.831 Y30.226 F1000
G1 X107.218 Y30.226 F1000
G1 X107.346 Y30.355 F1000
G1 X107.475 Y30.355 F1000
G1 X107.733 Y30.613 F1000
G1 X107.861 Y30.613 F1000
G1 X108.376 Y31.128 F1000
G1 X108.376 Y31.256 F1000
G1 X108.763 Y31.643 F1000
G1 X108.763 Y31.900 F1000
G1 X108.891 Y32.029 F1000
G1 X108.891 Y33.703 F1000
G1 X108.763 Y33.831 F1000
G1 X108.763 Y33.960 F1000
G1 X108.634 Y34.089 F1000
G1 X108.634 Y34.218 F1000
G1 X108.376 Y34.475 F1000
G1 X108.376 Y34.604 F1000
G1 X108.119 Y34.861 F1000
G1 X107.990 Y34.861 F1000
G1 X107.733 Y35.119 F1000
G1 X107.604 Y35.119 F1000
G1 X107.346 Y35.376 F1000
G1 X107.218 Y35.376 F1000
G1 X107.089 Y35.505 F1000
G1 X106.445 Y35.505 F1000
G1 X106.316 Y35.376 F1000
G1 X105.672 Y35.376 F1000
G1 X105.544 Y35.248 F1000
G1 X105.415 Y35.248 F1000
G1 X105.286 Y35.119 F1000
G1 X105.157 Y35.119 F1000
G1 X104.385 Y34.346 F1000
G1 X104.385 Y34.089 F1000
G1 X104.256 Y33.960 F1000
G1 X104.256 Y33.574 F1000
G1 X104.385 Y33.445 F1000
G1 X104.385 Y33.059 F1000
G1 X104.514 Y32.930 F1000
G1 X104.514 Y32.672 F1000
G1 X104.771 Y32.415 F1000
G1 X104.900 Y32.415 F1000
G1 X105.157 Y32.157 F1000
G1 X106.188 Y32.157 F1000
G1 X106.316 Y32.286 F1000
G1 X106.445 Y32.286 F1000
G1 X106.831 Y32.672 F1000
G1 X106.831 Y33.059 F1000
G1 X106.831 Y32.672 F1000
G1 X106.445 Y32.286 F1000
G1 X106.188 Y32.286 F1000
G1 X106.059 Y32.157 F1000
G1 X105.286 Y32.157 F1000
G1 X105.157 Y32.286 F1000
G1 X105.029 Y32.286 F1000
G1 X104.771 Y32.544 F1000
G1 X104.642 Y32.544 F1000
G1 X104.514 Y32.672 F1000
G1 X104.514 Y32.930 F1000
G1 X104.385 Y33.059 F1000
G1 X104.385 Y33.445 F1000
G1 X104.256 Y33.574 F1000
G1 X104.256 Y33.960 F1000
G1 X104.385 Y34.089 F1000
G1 X104.385 Y34.218 F1000
G1 X104.514 Y34.346 F1000
G1 X104.514 Y34.475 F1000
G1 X105.157 Y35.119 F1000
G1 X105.415 Y35.119 F1000
G1 X105.544 Y35.248 F1000
G1 X105.672 Y35.248 F1000
G1 X105.801 Y35.376 F1000
G1 X106.316 Y35.376 F1000
G1 X106.445 Y35.505 F1000
G1 X107.089 Y35.505 F1000
G1 X107.218 Y35.376 F1000
G1 X107.346 Y35.376 F1000
G1 X107.604 Y35.119 F1000
G1 X107.733 Y35.119 F1000
G1 X107.990 Y34.861 F1000
G1 X108.119 Y34.861 F1000
G1 X108.376 Y34.604 F1000
G1 X108.376 Y34.475 F1000
G1 X108.634 Y34.218 F1000
G1 X108.634 Y34.089 F1000
G1 X108.763 Y33.960 F1000
G1 X108.763 Y33.831 F1000
G1 X108.891 Y33.703 F1000
G1 X108.891 Y32.029 F1000
G1 X108.763 Y31.900 F1000
G1 X108.763 Y31.643 F1000
G1 X108.376 Y31.256 F1000
G1 X108.376 Y31.128 F1000
G1 X107.990 Y30.741 F1000
G1 X107.861 Y30.741 F1000
G1 X107.604 Y30.484 F1000
G1 X107.475 Y30.484 F1000
G1 X107.218 Y30.226 F1000
G1 X106.831 Y30.226 F1000
G1 X106.703 Y30.098 F1000
G1 X104.900 Y30.098 F1000
G1 X104.771 Y30.226 F1000
G1 X104.256 Y30.226 F1000
G1 X103.999 Y30.484 F1000
G1 X103.870 Y30.484 F1000
G1 X103.612 Y30.741 F1000
G1 X103.484 Y30.741 F1000
G1 X103.097 Y31.128 F1000
G1 X103.097 Y31.256 F1000
G1 X102.711 Y31.643 F1000
G1 X102.711 Y31.771 F1000
G1 X102.582 Y31.900 F1000
G1 X102.582 Y32.029 F1000
G1 X102.454 Y32.157 F1000
G1 X102.454 Y32.415 F1000
G1 X102.325 Y32.544 F1000
G1 X102.325 Y32.672 F1000
G1 X102.196 Y32.801 F1000
G1 X102.196 Y33.445 F1000
G1 X102.067 Y33.574 F1000
G1 X102.067 Y33.960 F1000
G1 X102.196 Y34.089 F1000
G1 X102.196 Y34.346 F1000
G1 X102.325 Y34.475 F1000
G1 X102.325 Y34.733 F1000
G1 X102.454 Y34.861 F1000
G1 X102.454 Y34.990 F1000
G1 X102.582 Y35.119 F1000
G1 X102.582 Y35.248 F1000
G1 X102.840 Y35.505 F1000
G1 X102.840 Y35.634 F1000
G1 X102.969 Y35.763 F1000
G1 X102.969 Y35.891 F1000
G1 X104.127 Y37.050 F1000
G1 X104.385 Y37.050 F1000
G1 X104.514 Y37.179 F1000
G1 X104.642 Y37.179 F1000
G1 X104.771 Y37.307 F1000
G1 X105.029 Y37.307 F1000
G1 X105.157 Y37.436 F1000
G1 X105.286 Y37.436 F1000
G1 X105.415 Y37.565 F1000
G1 X107.089 Y37.565 F1000
G1 X107.218 Y37.436 F1000
G1 X107.733 Y37.436 F1000
G1 X107.861 Y37.307 F1000
G1 X107.990 Y37.307 F1000
G1 X108.119 Y37.179 F1000
G1 X108.248 Y37.179 F1000
G1 X108.376 Y37.050 F1000
G1 X108.505 Y37.050 F1000
G1 X108.634 Y36.921 F1000
G1 X108.763 Y36.921 F1000
G1 X108.891 Y36.793 F1000
G1 X109.149 Y36.793 F1000
G1 X110.308 Y35.634 F1000
G1 X110.308 Y35.505 F1000
G1 X110.436 Y35.376 F1000
G1 X110.436 Y35.248 F1000
G1 X110.565 Y35.119 F1000
G1 X110.565 Y34.990 F1000
G1 X110.694 Y34.861 F1000
G1 X110.694 Y34.733 F1000
G1 X110.823 Y34.604 F1000
G1 X110.823 Y34.346 F1000
G1 X110.951 Y34.218 F1000
G1 X110.951 Y33.574 F1000
G1 X111.080 Y33.445 F1000
G1 X111.080 Y32.286 F1000
G1 X110.951 Y32.157 F1000
G1 X110.951 Y31.385 F1000
G1 X110.823 Y31.256 F1000
G1 X110.823 Y31.128 F1000
G1 X110.694 Y30.999 F1000
G1 X110.694 Y30.870 F1000
G1 X110.565 Y30.741 F1000
G1 X110.565 Y30.613 F1000
G1 X110.436 Y30.484 F1000
G1 X110.436 Y30.355 F1000
G1 X109.793 Y29.711 F1000
G1 X109.793 Y29.582 F1000
G1 X109.278 Y29.067 F1000
G1 X109.149 Y29.067 F1000
G1 X108.891 Y28.810 F1000
G1 X108.763 Y28.810 F1000
G1 X108.505 Y28.553 F1000
G1 X108.376 Y28.553 F1000
G1 X108.119 Y28.295 F1000
G1 X107.990 Y28.295 F1000
G1 X107.861 Y28.166 F1000
G1 X107.346 Y28.166 F1000
G1 X107.218 Y28.038 F1000
G1 X106.831 Y28.038 F1000
G1 X106.703 Y27.909 F1000
G1 X104.771 Y27.909 F1000
G1 X104.642 Y28.038 F1000
G1 X104.385 Y28.038 F1000
G1 X104.256 Y28.166 F1000
G1 X103.999 Y28.166 F1000
G1 X103.870 Y28.295 F1000
G1 X103.612 Y28.295 F1000
G1 X103.484 Y28.424 F1000
G1 X103.097 Y28.424 F1000
G1 X102.840 Y28.681 F1000
G1 X102.711 Y28.681 F1000
G1 X102.325 Y29.067 F1000
G1 X102.196 Y29.067 F1000
G1 X101.939 Y29.325 F1000
G1 X101.810 Y29.325 F1000
G1 X101.424 Y29.711 F1000
G1 X101.424 Y29.840 F1000
G1 X101.038 Y30.226 F1000
G1 X101.038 Y30.355 F1000
G1 X100.651 Y30.741 F1000
G1 X100.651 Y30.870 F1000
G1 X100.523 Y30.999 F1000
G1 X100.523 Y31.128 F1000
G1 X100.394 Y31.256 F1000
G1 X100.394 Y31.514 F1000
G1 X100.265 Y31.643 F1000
G1 X100.265 Y32.029 F1000
G1 X100.136 Y32.157 F1000
G1 X100.136 Y32.415 F1000
G1 X100.008 Y32.544 F1000
G1 X100.008 Y34.475 F1000
G1 X100.136 Y34.604 F1000
G1 X100.136 Y34.861 F1000
G1 X100.265 Y34.990 F1000
G1 X100.265 Y35.376 F1000
G1 X100.394 Y35.505 F1000
G1 X100.394 Y35.763 F1000
G1 X100.523 Y35.891 F1000
G1 X100.523 Y36.020 F1000
G1 X100.651 Y36.149 F1000
G1 X100.651 Y36.278 F1000
G1 X100.909 Y36.535 F1000
G1 X100.909 Y36.664 F1000
G1 X101.166 Y36.921 F1000
G1 X101.166 Y37.050 F1000
G1 X101.424 Y37.307 F1000
G1 X101.424 Y37.436 F1000
G1 X101.939 Y37.951 F1000
G1 X102.067 Y37.951 F1000
G1 X102.711 Y38.595 F1000
G1 X102.840 Y38.595 F1000
G1 X103.226 Y38.981 F1000
G1 X103.612 Y38.981 F1000
G1 X103.741 Y39.110 F1000
G1 X103.999 Y39.110 F1000
G1 X104.127 Y39.239 F1000
G1 X104.256 Y39.239 F1000
G1 X104.385 Y39.367 F1000
G1 X104.642 Y39.367 F1000
G1 X104.771 Y39.496 F1000
G1 X105.029 Y39.496 F1000
G1 X105.157 Y39.625 F1000
G1 X105.930 Y39.625 F1000
G1 X106.059 Y39.754 F1000
G1 X107.346 Y39.754 F1000
G1 X107.475 Y39.625 F1000
G1 X107.861 Y39.625 F1000
G1 X107.990 Y39.496 F1000
G1 X108.248 Y39.496 F1000
G1 X108.376 Y39.367 F1000
G1 X108.891 Y39.367 F1000
G1 X109.020 Y39.239 F1000
G1 X109.149 Y39.239 F1000
G1 X109.406 Y38.981 F1000
G1 X109.535 Y38.981 F1000
G1 X109.793 Y38.724 F1000
G1 X109.921 Y38.724 F1000
G1 X110.050 Y38.595 F1000
G1 X110.179 Y38.595 F1000
G1 X110.436 Y38.337 F1000
G1 X110.565 Y38.337 F1000
G1 X112.110 Y36.793 F1000
G1 X112.110 Y36.664 F1000
G1 X112.239 Y36.535 F1000
G1 X112.239 Y36.406 F1000
G1 X112.368 Y36.278 F1000
G1 X112.368 Y36.149 F1000
G1 X112.496 Y36.020 F1000
G1 X112.496 Y35.891 F1000
G1 X112.625 Y35.763 F1000
G1 X112.625 Y35.634 F1000
G1 X112.754 Y35.505 F1000
G1 X112.754 Y35.376 F1000
G1 X112.883 Y35.248 F1000
G1 X112.883 Y34.861 F1000
G1 X113.011 Y34.733 F1000
G1 X113.011 Y34.218 F1000
G1 X113.140 Y34.089 F1000
G1 X113.140 Y33.445 F1000
G1 X113.269 Y33.316 F1000
G1 X113.269 Y32.544 F1000
G1 X113.140 Y32.415 F1000
G1 X113.140 Y31.771 F1000
G1 X113.011 Y31.643 F1000
G1 X113.011 Y30.999 F1000
G1 X112.883 Y30.870 F1000
G1 X112.883 Y30.484 F1000
G1 X112.754 Y30.355 F1000
G1 X112.754 Y30.226 F1000
G1 X112.625 Y30.098 F1000
G1 X112.625 Y29.969 F1000
G1 X112.496 Y29.840 F1000
G1 X112.496 Y29.711 F1000
G1 X112.368 Y29.582 F1000
G1 X112.368 Y29.454 F1000
G1 X112.239 Y29.325 F1000
G1 X112.239 Y29.196 F1000
G1 X112.110 Y29.067 F1000
G1 X112.110 Y28.939 F1000
G1 X111.209 Y28.038 F1000
G1 X111.209 Y27.909 F1000
G1 X110.436 Y27.136 F1000
G1 X110.179 Y27.136 F1000
G1 X110.050 Y27.008 F1000
G1 X109.921 Y27.008 F1000
G1 X109.793 Y26.879 F1000
G1 X109.664 Y26.879 F1000
G1 X109.406 Y26.621 F1000
G1 X109.278 Y26.621 F1000
G1 X109.149 Y26.492 F1000
G1 X109.020 Y26.492 F1000
G1 X108.891 Y26.364 F1000
G1 X108.763 Y26.364 F1000
G1 X108.634 Y26.235 F1000
G1 X108.505 Y26.235 F1000
G1 X108.376 Y26.106 F1000
G1 X107.990 Y26.106 F1000
G1 X107.861 Y25.977 F1000
G1 X107.475 Y25.977 F1000
G1 X107.346 Y25.849 F1000
G1 X106.831 Y25.849 F1000
G1 X106.703 Y25.720 F1000
G1 X105.286 Y25.720 F1000
G1 X105.157 Y25.849 F1000
G1 X104.127 Y25.849 F1000
G1 X103.999 Y25.977 F1000
G1 X103.741 Y25.977 F1000
G1 X103.612 Y26.106 F1000
G1 X103.355 Y26.106 F1000
G1 X103.226 Y26.235 F1000
G1 X102.969 Y26.235 F1000
G1 X102.840 Y26.364 F1000
G1 X102.711 Y26.364 F1000
G1 X102.582 Y26.492 F1000
G1 X102.325 Y26.492 F1000
G1 X102.196 Y26.621 F1000
G1 X101.810 Y26.621 F1000
G1 X101.295 Y27.136 F1000
G1 X101.166 Y27.136 F1000
G1 X100.394 Y27.909 F1000
G1 X100.265 Y27.909 F1000
G1 X99.750 Y28.424 F1000
G1 X99.750 Y28.553 F1000
G1 X99.621 Y28.681 F1000
G1 X99.621 Y28.810 F1000
G1 X99.364 Y29.067 F1000
G1 X99.364 Y29.196 F1000
G1 X99.106 Y29.454 F1000
G1 X99.106 Y29.582 F1000
G1 X98.978 Y29.711 F1000
G1 X98.978 Y29.840 F1000
G1 X98.720 Y30.098 F1000
G1 X98.720 Y30.226 F1000
G1 X98.591 Y30.355 F1000
G1 X98.591 Y30.484 F1000
G1 X98.463 Y30.613 F1000
G1 X98.463 Y30.870 F1000
G1 X98.334 Y30.999 F1000
G1 X98.334 Y31.256 F1000
G1 X98.205 Y31.385 F1000
G1 X98.205 Y31.643 F1000
G1 X98.076 Y31.771 F1000
G1 X98.076 Y32.029 F1000
G1 X97.948 Y32.157 F1000
G1 X97.948 Y32.415 F1000
G1 X97.819 Y32.544 F1000
G1 X97.819 Y33.574 F1000
G1 X97.948 Y33.703 F1000
G1 X97.948 Y34.990 F1000
G1 X98.076 Y35.119 F1000
G1 X98.076 Y35.376 F1000
G1 X98.205 Y35.505 F1000
G1 X98.205 Y35.763 F1000
G1 X98.334 Y35.891 F1000
G1 X98.334 Y36.149 F1000
G1 X98.463 Y36.278 F1000
G1 X98.463 Y36.535 F1000
G1 X98.591 Y36.664 F1000
G1 X98.591 Y36.921 F1000
G1 X98.720 Y37.050 F1000
G1 X98.720 Y37.179 F1000
G1 X98.849 Y37.307 F1000
G1 X98.849 Y37.436 F1000
G1 X99.106 Y37.694 F1000
G1 X99.106 Y37.822 F1000
G1 X99.493 Y38.209 F1000
G1 X99.493 Y38.337 F1000
G1 X99.750 Y38.595 F1000
G1 X99.750 Y38.724 F1000
G1 X100.008 Y38.981 F1000
G1 X100.008 Y39.110 F1000
G1 X100.394 Y39.496 F1000
G1 X100.523 Y39.496 F1000
G1 X100.909 Y39.883 F1000
G1 X101.038 Y39.883 F1000
G1 X101.424 Y40.269 F1000
G1 X101.553 Y40.269 F1000
G1 X101.939 Y40.655 F1000
G1 X102.067 Y40.655 F1000
G1 X102.325 Y40.913 F1000
G1 X102.711 Y40.913 F1000
G1 X102.840 Y41.041 F1000
G1 X102.969 Y41.041 F1000
G1 X103.097 Y41.170 F1000
G1 X103.355 Y41.170 F1000
G1 X103.484 Y41.299 F1000
G1 X103.741 Y41.299 F1000
G1 X103.870 Y41.428 F1000
G1 X104.127 Y41.428 F1000
G1 X104.256 Y41.556 F1000
G1 X104.385 Y41.556 F1000
G1 X104.514 Y41.685 F1000
G1 X104.771 Y41.685 F1000
G1 X104.900 Y41.814 F1000
G1 X107.733 Y41.814 F1000
G1 X107.861 Y41.685 F1000
G1 X108.248 Y41.685 F1000
G1 X108.376 Y41.556 F1000
G1 X108.763 Y41.556 F1000
G1 X108.891 Y41.428 F1000
G1 X109.278 Y41.428 F1000
G1 X109.406 Y41.299 F1000
G1 X109.921 Y41.299 F1000
G1 X110.050 Y41.170 F1000
G1 X110.179 Y41.170 F1000
G1 X110.436 Y40.913 F1000
G1 X110.565 Y40.913 F1000
G1 X110.823 Y40.655 F1000
G1 X110.951 Y40.655 F1000
G1 X111.209 Y40.398 F1000
G1 X111.338 Y40.398 F1000
G1 X111.595 Y40.140 F1000
G1 X111.724 Y40.140 F1000
G1 X111.981 Y39.883 F1000
G1 X112.110 Y39.883 F1000
G1 X112.625 Y39.367 F1000
G1 X112.625 Y39.239 F1000
G1 X113.526 Y38.337 F1000
G1 X113.526 Y38.209 F1000
G1 X114.041 Y37.694 F1000
G1 X114.041 Y37.565 F1000
G1 X114.170 Y37.436 F1000
G1 X114.170 Y37.307 F1000
G1 X114.299 Y37.179 F1000
G1 X114.299 Y37.050 F1000
G1 X114.428 Y36.921 F1000
G1 X114.428 Y36.793 F1000
G1 X114.556 Y36.664 F1000
G1 X114.556 Y36.535 F1000
G1 X114.685 Y36.406 F1000
G1 X114.685 Y36.278 F1000
G1 X114.814 Y36.149 F1000
G1 X114.814 Y36.020 F1000
G1 X114.942 Y35.891 F1000
G1 X114.942 Y35.763 F1000
G1 X115.071 Y35.634 F1000
G1 X115.071 Y35.119 F1000
G1 X115.200 Y34.990 F1000
G1 X115.200 Y34.218 F1000
G1 X115.329 Y34.089 F1000
G1 X115.329 Y33.316 F1000
G1 X115.457 Y33.188 F1000
G1 X115.457 Y32.286 F1000
G1 X115.329 Y32.157 F1000
G1 X115.329 Y31.514 F1000
G1 X115.200 Y31.385 F1000
G1 X115.200 Y30.870 F1000
G1 X115.071 Y30.741 F1000
G1 X115.071 Y30.098 F1000
G1 X114.942 Y29.969 F1000
G1 X114.942 Y29.840 F1000
G1 X114.814 Y29.711 F1000
G1 X114.814 Y29.582 F1000
G1 X114.685 Y29.454 F1000
G1 X114.685 Y29.325 F1000
G1 X114.556 Y29.196 F1000
G1 X114.556 Y29.067 F1000
G1 X114.299 Y28.810 F1000
G1 X114.299 Y28.681 F1000
G1 X114.170 Y28.553 F1000
G1 X114.170 Y28.424 F1000
G1 X113.913 Y28.166 F1000
G1 X113.913 Y28.038 F1000
G1 X113.784 Y27.909 F1000
G1 X113.784 Y27.780 F1000
G1 X113.655 Y27.651 F1000
G1 X113.655 Y27.523 F1000
G1 X112.625 Y26.492 F1000
G1 X112.625 Y26.364 F1000
G1 X111.595 Y25.334 F1000
G1 X111.338 Y25.334 F1000
G1 X111.209 Y25.205 F1000
G1 X111.080 Y25.205 F1000
G1 X110.951 Y25.076 F1000
G1 X110.823 Y25.076 F1000
G1 X110.694 Y24.948 F1000
G1 X110.565 Y24.948 F1000
G1 X110.436 Y24.819 F1000
G1 X110.308 Y24.819 F1000
G1 X110.179 Y24.690 F1000
G1 X110.050 Y24.690 F1000
G1 X109.921 Y24.561 F1000
G1 X109.793 Y24.561 F1000
G1 X109.664 Y24.433 F1000
G1 X109.535 Y24.433 F1000
G1 X109.406 Y24.304 F1000
G1 X109.278 Y24.304 F1000
G1 X109.149 Y24.175 F1000
G1 X109.020 Y24.175 F1000
G1 X108.891 Y24.046 F1000
G1 X108.505 Y24.046 F1000
G1 X108.376 Y23.918 F1000
G1 X107.861 Y23.918 F1000
G1 X107.733 Y23.789 F1000
G1 X107.346 Y23.789 F1000
G1 X107.218 Y23.660 F1000
G1 X106.703 Y23.660 F1000
G1 X106.574 Y23.531 F1000
G1 X105.286 Y23.531 F1000
G1 X105.157 Y23.660 F1000
G1 X104.385 Y23.660 F1000
G1 X104.256 Y23.789 F1000
G1 X103.355 Y23.789 F1000
G1 X103.226 Y23.918 F1000
G1 X103.097 Y23.918 F1000
G1 X102.969 Y24.046 F1000
G1 X102.711 Y24.046 F1000
G1 X102.582 Y24.175 F1000
G1 X102.454 Y24.175 F1000
G1 X102.325 Y24.304 F1000
G1 X102.196 Y24.304 F1000
G1 X102.067 Y24.433 F1000
G1 X101.810 Y24.433 F1000
G1 X101.681 Y24.561 F1000
G1 X101.553 Y24.561 F1000
G1 X101.424 Y24.690 F1000
G1 X101.295 Y24.690 F1000
G1 X101.166 Y24.819 F1000
G1 X100.909 Y24.819 F1000
G1 X100.780 Y24.948 F1000
G1 X100.523 Y24.948 F1000
G1 X100.136 Y25.334 F1000
G1 X100.008 Y25.334 F1000
G1 X99.364 Y25.977 F1000
G1 X99.235 Y25.977 F1000
G1 X98.591 Y26.621 F1000
G1 X98.463 Y26.621 F1000
G1 X97.948 Y27.136 F1000
G1 X97.948 Y27.265 F1000
G1 X97.819 Y27.394 F1000
G1 X97.819 Y27.523 F1000
G1 X97.561 Y27.780 F1000
G1 X97.561 Y27.909 F1000
G1 X97.433 Y28.038 F1000
G1 X97.433 Y28.166 F1000
G1 X97.175 Y28.424 F1000
G1 X97.175 Y28.553 F1000
G1 X97.046 Y28.681 F1000
G1 X97.046 Y28.810 F1000
G1 X96.789 Y29.067 F1000
G1 X96.789 Y29.196 F1000
G1 X96.660 Y29.325 F1000
G1 X96.660 Y29.454 F1000
G1 X96.531 Y29.582 F1000
G1 X96.531 Y29.840 F1000
G1 X96.403 Y29.969 F1000
G1 X96.403 Y30.355 F1000
G1 X96.274 Y30.484 F1000
G1 X96.274 Y30.870 F1000
G1 X96.145 Y30.999 F1000
G1 X96.145 Y31.385 F1000
G1 X96.016 Y31.514 F1000
G1 X96.016 Y31.900 F1000
G1 X95.888 Y32.029 F1000
G1 X95.888 Y32.415 F1000
G1 X95.759 Y32.544 F1000
G1 X95.759 Y33.831 F1000
G1 X95.888 Y33.960 F1000
G1 X95.888 Y35.634 F1000
G1 X96.016 Y35.763 F1000
G1 X96.016 Y36.020 F1000
G1 X96.145 Y36.149 F1000
G1 X96.145 Y36.406 F1000
G1 X96.274 Y36.535 F1000
G1 X96.274 Y36.793 F1000
G1 X96.403 Y36.921 F1000
G1 X96.403 Y37.050 F1000
G1 X96.531 Y37.179 F1000
G1 X96.531 Y37.436 F1000
G1 X96.660 Y37.565 F1000
G1 X96.660 Y37.822 F1000
G1 X96.789 Y37.951 F1000
G1 X96.789 Y38.209 F1000
G1 X96.918 Y38.337 F1000
G1 X96.918 Y38.466 F1000
G1 X97.046 Y38.595 F1000
G1 X97.046 Y38.724 F1000
G1 X97.433 Y39.110 F1000
G1 X97.433 Y39.239 F1000
G1 X97.819 Y39.625 F1000
G1 X97.819 Y39.754 F1000
G1 X98.205 Y40.140 F1000
G1 X98.205 Y40.269 F1000
G1 X98.591 Y40.655 F1000
G1 X98.591 Y40.784 F1000
G1 X98.978 Y41.170 F1000
G1 X99.106 Y41.170 F1000
G1 X99.364 Y41.428 F1000
G1 X99.493 Y41.428 F1000
G1 X99.879 Y41.814 F1000
G1 X100.008 Y41.814 F1000
G1 X100.265 Y42.071 F1000
G1 X100.394 Y42.071 F1000
G1 X100.780 Y42.458 F1000
G1 X100.909 Y42.458 F1000
G1 X101.166 Y42.715 F1000
G1 X101.295 Y42.715 F1000
G1 X101.553 Y42.973 F1000
G1 X101.939 Y42.973 F1000
G1 X102.067 Y43.101 F1000
G1 X102.325 Y43.101 F1000
G1 X102.454 Y43.230 F1000
G1 X102.711 Y43.230 F1000
G1 X102.840 Y43.359 F1000
G1 X102.969 Y43.359 F1000
G1 X103.097 Y43.488 F1000
G1 X103.355 Y43.488 F1000
G1 X103.484 Y43.616 F1000
G1 X103.741 Y43.616 F1000
G1 X103.870 Y43.745 F1000
G1 X104.127 Y43.745 F1000
G1 X104.256 Y43.874 F1000
G1 X104.514 Y43.874 F1000
G0 Z3.0 ; Pen up

G0 X99.235 Y96.661 F3000 ; Travel to line 5
G0 Z0.0 ; Pen down
G1 X99.235 Y96.532 F1000
G1 X98.849 Y96.146 F1000
G1 X98.849 Y96.017 F1000
G1 X98.463 Y95.631 F1000
G1 X98.463 Y95.502 F1000
G1 X98.076 Y95.116 F1000
G1 X98.076 Y94.987 F1000
G1 X97.690 Y94.601 F1000
G1 X97.690 Y94.472 F1000
G1 X97.304 Y94.086 F1000
G1 X97.304 Y93.957 F1000
G1 X96.918 Y93.571 F1000
G1 X96.918 Y93.442 F1000
G1 X96.531 Y93.056 F1000
G1 X96.531 Y92.928 F1000
G1 X96.145 Y92.541 F1000
G1 X96.145 Y92.413 F1000
G1 X95.759 Y92.026 F1000
G1 X95.759 Y91.898 F1000
G1 X95.373 Y91.511 F1000
G1 X95.373 Y91.383 F1000
G1 X94.986 Y90.996 F1000
G1 X94.986 Y90.868 F1000
G1 X94.600 Y90.481 F1000
G1 X94.600 Y90.353 F1000
G1 X94.214 Y89.966 F1000
G1 X94.214 Y89.838 F1000
G1 X93.828 Y89.451 F1000
G1 X93.828 Y89.323 F1000
G1 X93.441 Y88.936 F1000
G1 X93.441 Y88.808 F1000
G1 X93.055 Y88.421 F1000
G1 X93.055 Y88.293 F1000
G1 X92.669 Y87.906 F1000
G1 X92.669 Y87.778 F1000
G1 X92.282 Y87.391 F1000
G1 X92.282 Y87.263 F1000
G1 X91.896 Y86.876 F1000
G1 X91.896 Y86.748 F1000
G1 X91.510 Y86.361 F1000
G1 X91.510 Y86.233 F1000
G1 X91.124 Y85.846 F1000
G1 X91.124 Y85.718 F1000
G1 X90.737 Y85.331 F1000
G1 X90.737 Y85.203 F1000
G1 X90.351 Y84.816 F1000
G1 X90.351 Y84.688 F1000
G1 X89.965 Y84.301 F1000
G1 X89.965 Y84.172 F1000
G1 X89.579 Y83.786 F1000
G1 X89.579 Y83.657 F1000
G1 X89.192 Y83.271 F1000
G1 X89.192 Y83.142 F1000
G1 X88.806 Y82.756 F1000
G1 X88.806 Y82.627 F1000
G1 X88.420 Y82.241 F1000
G1 X88.420 Y82.112 F1000
G1 X88.034 Y81.726 F1000
G1 X88.034 Y81.597 F1000
G1 X87.648 Y81.211 F1000
G1 X87.648 Y81.082 F1000
G1 X87.261 Y80.696 F1000
G1 X87.261 Y80.567 F1000
G1 X86.875 Y80.181 F1000
G1 X86.875 Y80.053 F1000
G1 X86.489 Y79.666 F1000
G1 X86.489 Y79.538 F1000
G1 X86.102 Y79.151 F1000
G1 X86.102 Y79.023 F1000
G1 X85.716 Y78.636 F1000
G1 X85.716 Y78.508 F1000
G1 X85.330 Y78.121 F1000
G1 X85.330 Y77.993 F1000
G1 X84.944 Y77.606 F1000
G1 X84.944 Y77.478 F1000
G1 X84.558 Y77.091 F1000
G1 X84.558 Y76.963 F1000
G1 X84.171 Y76.576 F1000
G1 X84.171 Y76.448 F1000
G1 X83.785 Y76.061 F1000
G1 X83.785 Y75.933 F1000
G1 X83.399 Y75.546 F1000
G1 X83.399 Y75.418 F1000
G1 X83.013 Y75.031 F1000
G1 X83.013 Y74.903 F1000
G1 X82.626 Y74.516 F1000
G1 X82.626 Y74.388 F1000
G1 X82.240 Y74.001 F1000
G1 X82.240 Y73.873 F1000
G1 X81.854 Y73.486 F1000
G1 X81.854 Y73.358 F1000
G1 X81.468 Y72.971 F1000
G1 X81.468 Y72.843 F1000
G1 X81.081 Y72.456 F1000
G1 X81.081 Y72.199 F1000
G1 X80.953 Y72.070 F1000
G1 X81.081 Y71.941 F1000
G1 X118.419 Y71.941 F1000
G1 X118.547 Y72.070 F1000
G1 X118.547 Y72.199 F1000
G1 X118.290 Y72.456 F1000
G1 X118.290 Y72.585 F1000
G1 X117.904 Y72.971 F1000
G1 X117.904 Y73.100 F1000
G1 X117.517 Y73.486 F1000
G1 X117.517 Y73.615 F1000
G1 X117.131 Y74.001 F1000
G1 X117.131 Y74.130 F1000
G1 X116.745 Y74.516 F1000
G1 X116.745 Y74.645 F1000
G1 X116.359 Y75.031 F1000
G1 X116.359 Y75.160 F1000
G1 X115.972 Y75.546 F1000
G1 X115.972 Y75.675 F1000
G1 X115.586 Y76.061 F1000
G1 X115.586 Y76.190 F1000
G1 X115.200 Y76.576 F1000
G1 X115.200 Y76.705 F1000
G1 X114.814 Y77.091 F1000
G1 X114.814 Y77.220 F1000
G1 X114.428 Y77.606 F1000
G1 X114.428 Y77.735 F1000
G1 X114.041 Y78.121 F1000
G1 X114.041 Y78.250 F1000
G1 X113.655 Y78.636 F1000
G1 X113.655 Y78.765 F1000
G1 X113.269 Y79.151 F1000
G1 X113.269 Y79.280 F1000
G1 X112.883 Y79.666 F1000
G1 X112.883 Y79.795 F1000
G1 X112.496 Y80.181 F1000
G1 X112.496 Y80.310 F1000
G1 X112.110 Y80.696 F1000
G1 X112.110 Y80.825 F1000
G1 X111.724 Y81.211 F1000
G1 X111.724 Y81.340 F1000
G1 X111.338 Y81.726 F1000
G1 X111.338 Y81.855 F1000
G1 X110.951 Y82.241 F1000
G1 X110.951 Y82.370 F1000
G1 X110.565 Y82.756 F1000
G1 X110.565 Y82.885 F1000
G1 X110.179 Y83.271 F1000
G1 X110.179 Y83.400 F1000
G1 X109.793 Y83.786 F1000
G1 X109.793 Y83.915 F1000
G1 X109.406 Y84.301 F1000
G1 X109.406 Y84.430 F1000
G1 X109.020 Y84.816 F1000
G1 X109.020 Y84.945 F1000
G1 X108.634 Y85.331 F1000
G1 X108.634 Y85.460 F1000
G1 X108.248 Y85.846 F1000
G1 X108.248 Y85.975 F1000
G1 X107.861 Y86.361 F1000
G1 X107.861 Y86.490 F1000
G1 X107.475 Y86.876 F1000
G1 X107.475 Y87.005 F1000
G1 X107.089 Y87.391 F1000
G1 X107.089 Y87.520 F1000
G1 X106.703 Y87.906 F1000
G1 X106.703 Y88.035 F1000
G1 X106.316 Y88.421 F1000
G1 X106.316 Y88.550 F1000
G1 X105.930 Y88.936 F1000
G1 X105.930 Y89.065 F1000
G1 X105.544 Y89.451 F1000
G1 X105.544 Y89.580 F1000
G1 X105.157 Y89.966 F1000
G1 X105.157 Y90.095 F1000
G1 X104.771 Y90.481 F1000
G1 X104.771 Y90.610 F1000
G1 X104.385 Y90.996 F1000
G1 X104.385 Y91.125 F1000
G1 X103.999 Y91.511 F1000
G1 X103.999 Y91.640 F1000
G1 X103.612 Y92.026 F1000
G1 X103.612 Y92.155 F1000
G1 X103.226 Y92.541 F1000
G1 X103.226 Y92.670 F1000
G1 X102.840 Y93.056 F1000
G1 X102.840 Y93.185 F1000
G1 X102.454 Y93.571 F1000
G1 X102.454 Y93.700 F1000
G1 X102.067 Y94.086 F1000
G1 X102.067 Y94.215 F1000
G1 X101.681 Y94.601 F1000
G1 X101.681 Y94.730 F1000
G1 X101.295 Y95.116 F1000
G1 X101.295 Y95.245 F1000
G1 X100.909 Y95.631 F1000
G1 X100.909 Y95.760 F1000
G1 X100.523 Y96.146 F1000
G1 X100.523 Y96.275 F1000
G1 X100.136 Y96.661 F1000
G1 X100.136 Y96.790 F1000
G1 X99.879 Y97.047 F1000
G1 X99.621 Y97.047 F1000
G0 Z3.0 ; Pen up

G0 X99.750 Y97.176 F3000 ; Travel to line 6
G0 Z0.0 ; Pen down
G1 X99.879 Y97.047 F1000
G1 X100.008 Y97.047 F1000
G1 X100.136 Y96.919 F1000
G1 X100.136 Y96.790 F1000
G1 X100.523 Y96.404 F1000
G1 X100.523 Y96.275 F1000
G1 X100.909 Y95.889 F1000
G1 X100.909 Y95.760 F1000
G1 X101.295 Y95.374 F1000
G1 X101.295 Y95.245 F1000
G1 X101.681 Y94.859 F1000
G1 X101.681 Y94.730 F1000
G1 X102.067 Y94.344 F1000
G1 X102.067 Y94.215 F1000
G1 X102.454 Y93.829 F1000
G1 X102.454 Y93.700 F1000
G1 X102.840 Y93.314 F1000
G1 X102.840 Y93.185 F1000
G1 X103.226 Y92.799 F1000
G1 X103.226 Y92.670 F1000
G1 X103.612 Y92.284 F1000
G1 X103.612 Y92.155 F1000
G1 X103.999 Y91.769 F1000
G1 X103.999 Y91.640 F1000
G1 X104.385 Y91.254 F1000
G1 X104.385 Y91.125 F1000
G1 X104.771 Y90.739 F1000
G1 X104.771 Y90.610 F1000
G1 X105.157 Y90.224 F1000
G1 X105.157 Y90.095 F1000
G1 X105.544 Y89.709 F1000
G1 X105.544 Y89.580 F1000
G1 X105.930 Y89.194 F1000
G1 X105.930 Y89.065 F1000
G1 X106.316 Y88.679 F1000
G1 X106.316 Y88.550 F1000
G1 X106.703 Y88.164 F1000
G1 X106.703 Y88.035 F1000
G1 X107.089 Y87.649 F1000
G1 X107.089 Y87.520 F1000
G1 X107.475 Y87.134 F1000
G1 X107.475 Y87.005 F1000
G1 X107.861 Y86.619 F1000
G1 X107.861 Y86.490 F1000
G1 X108.248 Y86.104 F1000
G1 X108.248 Y85.975 F1000
G1 X108.634 Y85.589 F1000
G1 X108.634 Y85.460 F1000
G1 X109.020 Y85.074 F1000
G1 X109.020 Y84.945 F1000
G1 X109.406 Y84.559 F1000
G1 X109.406 Y84.430 F1000
G1 X109.793 Y84.044 F1000
G1 X109.793 Y83.915 F1000
G1 X110.179 Y83.529 F1000
G1 X110.179 Y83.400 F1000
G1 X110.565 Y83.014 F1000
G1 X110.565 Y82.885 F1000
G1 X110.951 Y82.499 F1000
G1 X110.951 Y82.370 F1000
G1 X111.338 Y81.984 F1000
G1 X111.338 Y81.855 F1000
G1 X111.724 Y81.469 F1000
G1 X111.724 Y81.340 F1000
G1 X112.110 Y80.954 F1000
G1 X112.110 Y80.825 F1000
G1 X112.496 Y80.439 F1000
G1 X112.496 Y80.310 F1000
G1 X112.883 Y79.924 F1000
G1 X112.883 Y79.795 F1000
G1 X113.269 Y79.409 F1000
G1 X113.269 Y79.280 F1000
G1 X113.655 Y78.894 F1000
G1 X113.655 Y78.765 F1000
G1 X114.041 Y78.379 F1000
G1 X114.041 Y78.250 F1000
G1 X114.428 Y77.864 F1000
G1 X114.428 Y77.735 F1000
G1 X114.814 Y77.349 F1000
G1 X114.814 Y77.220 F1000
G1 X115.200 Y76.834 F1000
G1 X115.200 Y76.705 F1000
G1 X115.586 Y76.319 F1000
G1 X115.586 Y76.190 F1000
G1 X115.972 Y75.804 F1000
G1 X115.972 Y75.675 F1000
G1 X116.359 Y75.289 F1000
G1 X116.359 Y75.160 F1000
G1 X116.745 Y74.774 F1000
G1 X116.745 Y74.645 F1000
G1 X117.131 Y74.259 F1000
G1 X117.131 Y74.130 F1000
G1 X117.517 Y73.744 F1000
G1 X117.517 Y73.615 F1000
G1 X117.904 Y73.229 F1000
G1 X117.904 Y73.100 F1000
G1 X118.290 Y72.714 F1000
G1 X118.290 Y72.585 F1000
G1 X118.419 Y72.456 F1000
G1 X118.419 Y72.328 F1000
G1 X118.547 Y72.199 F1000
G1 X118.547 Y72.070 F1000
G1 X118.676 Y71.941 F1000
G1 X118.805 Y71.941 F1000
G1 X118.934 Y71.812 F1000
G1 X118.805 Y71.941 F1000
G1 X118.676 Y71.941 F1000
G1 X118.547 Y72.070 F1000
G1 X118.419 Y71.941 F1000
G1 X81.081 Y71.941 F1000
G1 X80.953 Y72.070 F1000
G1 X80.824 Y71.941 F1000
G1 X80.695 Y71.941 F1000
G1 X80.566 Y71.812 F1000
G1 X80.695 Y71.941 F1000
G1 X80.824 Y71.941 F1000
G1 X81.081 Y72.199 F1000
G1 X81.081 Y72.585 F1000
G1 X81.468 Y72.971 F1000
G1 X81.468 Y73.100 F1000
G1 X81.854 Y73.486 F1000
G1 X81.854 Y73.615 F1000
G1 X82.240 Y74.001 F1000
G1 X82.240 Y74.130 F1000
G1 X82.626 Y74.516 F1000
G1 X82.626 Y74.645 F1000
G1 X83.013 Y75.031 F1000
G1 X83.013 Y75.160 F1000
G1 X83.399 Y75.546 F1000
G1 X83.399 Y75.675 F1000
G1 X83.785 Y76.061 F1000
G1 X83.785 Y76.190 F1000
G1 X84.171 Y76.576 F1000
G1 X84.171 Y76.705 F1000
G1 X84.558 Y77.091 F1000
G1 X84.558 Y77.220 F1000
G1 X84.944 Y77.606 F1000
G1 X84.944 Y77.735 F1000
G1 X85.330 Y78.121 F1000
G1 X85.330 Y78.250 F1000
G1 X85.716 Y78.636 F1000
G1 X85.716 Y78.765 F1000
G1 X86.102 Y79.151 F1000
G1 X86.102 Y79.280 F1000
G1 X86.489 Y79.666 F1000
G1 X86.489 Y79.795 F1000
G1 X86.875 Y80.181 F1000
G1 X86.875 Y80.310 F1000
G1 X87.261 Y80.696 F1000
G1 X87.261 Y80.825 F1000
G1 X87.648 Y81.211 F1000
G1 X87.648 Y81.340 F1000
G1 X88.034 Y81.726 F1000
G1 X88.034 Y81.855 F1000
G1 X88.420 Y82.241 F1000
G1 X88.420 Y82.370 F1000
G1 X88.806 Y82.756 F1000
G1 X88.806 Y82.885 F1000
G1 X89.192 Y83.271 F1000
G1 X89.192 Y83.400 F1000
G1 X89.579 Y83.786 F1000
G1 X89.579 Y83.915 F1000
G1 X89.965 Y84.301 F1000
G1 X89.965 Y84.430 F1000
G1 X90.351 Y84.816 F1000
G1 X90.351 Y84.945 F1000
G1 X90.737 Y85.331 F1000
G1 X90.737 Y85.460 F1000
G1 X91.124 Y85.846 F1000
G1 X91.124 Y85.975 F1000
G1 X91.510 Y86.361 F1000
G1 X91.510 Y86.490 F1000
G1 X91.896 Y86.876 F1000
G1 X91.896 Y87.005 F1000
G1 X92.282 Y87.391 F1000
G1 X92.282 Y87.520 F1000
G1 X92.669 Y87.906 F1000
G1 X92.669 Y88.035 F1000
G1 X93.055 Y88.421 F1000
G1 X93.055 Y88.550 F1000
G1 X93.441 Y88.936 F1000
G1 X93.441 Y89.065 F1000
G1 X93.828 Y89.451 F1000
G1 X93.828 Y89.580 F1000
G1 X94.214 Y89.966 F1000
G1 X94.214 Y90.095 F1000
G1 X94.600 Y90.481 F1000
G1 X94.600 Y90.610 F1000
G1 X94.986 Y90.996 F1000
G1 X94.986 Y91.125 F1000
G1 X95.373 Y91.511 F1000
G1 X95.373 Y91.640 F1000
G1 X95.759 Y92.026 F1000
G1 X95.759 Y92.155 F1000
G1 X96.145 Y92.541 F1000
G1 X96.145 Y92.670 F1000
G1 X96.531 Y93.056 F1000
G1 X96.531 Y93.185 F1000
G1 X96.918 Y93.571 F1000
G1 X96.918 Y93.700 F1000
G1 X97.304 Y94.086 F1000
G1 X97.304 Y94.215 F1000
G1 X97.690 Y94.601 F1000
G1 X97.690 Y94.730 F1000
G1 X98.076 Y95.116 F1000
G1 X98.076 Y95.245 F1000
G1 X98.463 Y95.631 F1000
G1 X98.463 Y95.760 F1000
G1 X98.849 Y96.146 F1000
G1 X98.849 Y96.275 F1000
G1 X99.235 Y96.661 F1000
G1 X99.235 Y96.790 F1000
G1 X99.493 Y97.047 F1000
G1 X99.621 Y97.047 F1000
G1 X99.750 Y97.176 F1000
G1 X99.750 Y97.305 F1000
G0 Z3.0 ; Pen up

G0 X43.100 Y97.434 F3000 ; Travel to line 7
G0 Z0.0 ; Pen down
G1 X43.229 Y97.305 F1000
G1 X44.130 Y97.305 F1000
G1 X44.259 Y97.176 F1000
G1 X44.645 Y97.176 F1000
G1 X44.774 Y97.047 F1000
G1 X45.160 Y97.047 F1000
G1 X45.289 Y96.919 F1000
G1 X45.675 Y96.919 F1000
G1 X45.804 Y96.790 F1000
G1 X46.061 Y96.790 F1000
G1 X46.190 Y96.661 F1000
G1 X46.448 Y96.661 F1000
G1 X46.576 Y96.532 F1000
G1 X46.705 Y96.532 F1000
G1 X46.834 Y96.404 F1000
G1 X46.963 Y96.404 F1000
G1 X47.091 Y96.275 F1000
G1 X47.349 Y96.275 F1000
G1 X47.477 Y96.146 F1000
G1 X47.606 Y96.146 F1000
G1 X47.735 Y96.017 F1000
G1 X47.864 Y96.017 F1000
G1 X48.121 Y95.760 F1000
G1 X48.250 Y95.760 F1000
G1 X48.379 Y95.631 F1000
G1 X48.508 Y95.631 F1000
G1 X48.765 Y95.374 F1000
G1 X48.894 Y95.374 F1000
G1 X49.151 Y95.116 F1000
G1 X49.280 Y95.116 F1000
G1 X49.666 Y94.730 F1000
G1 X49.795 Y94.730 F1000
G1 X51.726 Y92.799 F1000
G1 X51.726 Y92.670 F1000
G1 X52.112 Y92.284 F1000
G1 X52.112 Y92.155 F1000
G1 X52.370 Y91.898 F1000
G1 X52.370 Y91.769 F1000
G1 X52.627 Y91.511 F1000
G1 X52.627 Y91.383 F1000
G1 X52.756 Y91.254 F1000
G1 X52.756 Y91.125 F1000
G1 X53.014 Y90.868 F1000
G1 X53.014 Y90.739 F1000
G1 X53.142 Y90.610 F1000
G1 X53.142 Y90.481 F1000
G1 X53.271 Y90.353 F1000
G1 X53.271 Y90.095 F1000
G1 X53.400 Y89.966 F1000
G1 X53.400 Y89.838 F1000
G1 X53.529 Y89.709 F1000
G1 X53.529 Y89.580 F1000
G1 X53.657 Y89.451 F1000
G1 X53.657 Y89.194 F1000
G1 X53.786 Y89.065 F1000
G1 X53.786 Y88.808 F1000
G1 X53.915 Y88.679 F1000
G1 X53.915 Y88.421 F1000
G1 X54.044 Y88.293 F1000
G1 X54.044 Y88.035 F1000
G1 X54.172 Y87.906 F1000
G1 X54.172 Y87.520 F1000
G1 X54.301 Y87.391 F1000
G1 X54.301 Y86.876 F1000
G1 X54.430 Y86.748 F1000
G1 X54.430 Y85.846 F1000
G1 X54.559 Y85.718 F1000
G1 X54.559 Y83.657 F1000
G1 X54.430 Y83.529 F1000
G1 X54.430 Y82.627 F1000
G1 X54.301 Y82.499 F1000
G1 X54.301 Y81.984 F1000
G1 X54.172 Y81.855 F1000
G1 X54.172 Y81.469 F1000
G1 X54.044 Y81.340 F1000
G1 X54.044 Y81.082 F1000
G1 X53.915 Y80.954 F1000
G1 X53.915 Y80.696 F1000
G1 X53.786 Y80.567 F1000
G1 X53.786 Y80.310 F1000
G1 X53.657 Y80.181 F1000
G1 X53.657 Y79.924 F1000
G1 X53.529 Y79.795 F1000
G1 X53.529 Y79.666 F1000
G1 X53.400 Y79.538 F1000
G1 X53.400 Y79.409 F1000
G1 X53.271 Y79.280 F1000
G1 X53.271 Y79.023 F1000
G1 X53.142 Y78.894 F1000
G1 X53.142 Y78.765 F1000
G1 X53.014 Y78.636 F1000
G1 X53.014 Y78.508 F1000
G1 X52.756 Y78.250 F1000
G1 X52.756 Y78.121 F1000
G1 X52.627 Y77.993 F1000
G1 X52.627 Y77.864 F1000
G1 X52.370 Y77.606 F1000
G1 X52.370 Y77.478 F1000
G1 X52.112 Y77.220 F1000
G1 X52.112 Y77.091 F1000
G1 X51.726 Y76.705 F1000
G1 X51.726 Y76.576 F1000
G1 X49.924 Y74.774 F1000
G1 X49.795 Y74.774 F1000
G1 X49.409 Y74.388 F1000
G1 X49.280 Y74.388 F1000
G1 X49.023 Y74.130 F1000
G1 X48.894 Y74.130 F1000
G1 X48.636 Y73.873 F1000
G1 X48.508 Y73.873 F1000
G1 X48.379 Y73.744 F1000
G1 X48.250 Y73.744 F1000
G1 X47.992 Y73.486 F1000
G1 X47.864 Y73.486 F1000
G1 X47.735 Y73.358 F1000
G1 X47.606 Y73.358 F1000
G1 X47.477 Y73.229 F1000
G1 X47.220 Y73.229 F1000
G1 X47.091 Y73.100 F1000
G1 X46.963 Y73.100 F1000
G1 X46.834 Y72.971 F1000
G1 X46.705 Y72.971 F1000
G1 X46.576 Y72.843 F1000
G1 X46.319 Y72.843 F1000
G1 X46.190 Y72.714 F1000
G1 X45.933 Y72.714 F1000
G1 X45.804 Y72.585 F1000
G1 X45.546 Y72.585 F1000
G1 X45.418 Y72.456 F1000
G1 X45.160 Y72.456 F1000
G1 X45.031 Y72.328 F1000
G1 X44.645 Y72.328 F1000
G1 X44.516 Y72.199 F1000
G1 X44.001 Y72.199 F1000
G1 X43.873 Y72.070 F1000
G1 X42.971 Y72.070 F1000
G1 X42.843 Y71.941 F1000
G1 X40.782 Y71.941 F1000
G1 X40.654 Y72.070 F1000
G1 X39.752 Y72.070 F1000
G1 X39.624 Y72.199 F1000
G1 X39.109 Y72.199 F1000
G1 X38.980 Y72.328 F1000
G1 X38.594 Y72.328 F1000
G1 X38.465 Y72.456 F1000
G1 X38.207 Y72.456 F1000
G1 X38.079 Y72.585 F1000
G1 X37.821 Y72.585 F1000
G1 X37.693 Y72.714 F1000
G1 X37.435 Y72.714 F1000
G1 X37.306 Y72.843 F1000
G1 X37.049 Y72.843 F1000
G1 X36.920 Y72.971 F1000
G1 X36.791 Y72.971 F1000
G1 X36.663 Y73.100 F1000
G1 X36.534 Y73.100 F1000
G1 X36.405 Y73.229 F1000
G1 X36.148 Y73.229 F1000
G1 X36.019 Y73.358 F1000
G1 X35.890 Y73.358 F1000
G1 X35.761 Y73.486 F1000
G1 X35.633 Y73.486 F1000
G1 X35.375 Y73.744 F1000
G1 X35.246 Y73.744 F1000
G1 X35.117 Y73.873 F1000
G1 X34.989 Y73.873 F1000
G1 X34.731 Y74.130 F1000
G1 X34.602 Y74.130 F1000
G1 X34.345 Y74.388 F1000
G1 X34.216 Y74.388 F1000
G1 X33.830 Y74.774 F1000
G1 X33.701 Y74.774 F1000
G1 X31.770 Y76.705 F1000
G1 X31.770 Y76.834 F1000
G1 X31.384 Y77.220 F1000
G1 X31.384 Y77.349 F1000
G1 X31.126 Y77.606 F1000
G1 X31.126 Y77.735 F1000
G1 X30.869 Y77.993 F1000
G1 X30.869 Y78.121 F1000
G1 X30.740 Y78.250 F1000
G1 X30.740 Y78.379 F1000
G1 X30.483 Y78.636 F1000
G1 X30.483 Y78.765 F1000
G1 X30.354 Y78.894 F1000
G1 X30.354 Y79.023 F1000
G1 X30.225 Y79.151 F1000
G1 X30.225 Y79.409 F1000
G1 X30.096 Y79.538 F1000
G1 X30.096 Y79.666 F1000
G1 X29.968 Y79.795 F1000
G1 X29.968 Y79.924 F1000
G1 X29.839 Y80.053 F1000
G1 X29.839 Y80.310 F1000
G1 X29.710 Y80.439 F1000
G1 X29.710 Y80.696 F1000
G1 X29.581 Y80.825 F1000
G1 X29.581 Y81.211 F1000
G1 X29.453 Y81.340 F1000
G1 X29.453 Y81.726 F1000
G1 X29.324 Y81.855 F1000
G1 X29.324 Y82.241 F1000
G1 X29.195 Y82.370 F1000
G1 X29.195 Y83.271 F1000
G1 X29.066 Y83.400 F1000
G1 X29.066 Y85.975 F1000
G1 X29.195 Y86.104 F1000
G1 X29.195 Y87.005 F1000
G1 X29.324 Y87.134 F1000
G1 X29.324 Y87.520 F1000
G1 X29.453 Y87.649 F1000
G1 X29.453 Y88.035 F1000
G1 X29.581 Y88.164 F1000
G1 X29.581 Y88.550 F1000
G1 X29.710 Y88.679 F1000
G1 X29.710 Y88.936 F1000
G1 X29.839 Y89.065 F1000
G1 X29.839 Y89.323 F1000
G1 X29.968 Y89.451 F1000
G1 X29.968 Y89.580 F1000
G1 X30.096 Y89.709 F1000
G1 X30.096 Y89.838 F1000
G1 X30.225 Y89.966 F1000
G1 X30.225 Y90.224 F1000
G1 X30.354 Y90.353 F1000
G1 X30.354 Y90.481 F1000
G1 X30.483 Y90.610 F1000
G1 X30.483 Y90.739 F1000
G1 X30.740 Y90.996 F1000
G1 X30.740 Y91.125 F1000
G1 X30.869 Y91.254 F1000
G1 X30.869 Y91.383 F1000
G1 X31.126 Y91.640 F1000
G1 X31.126 Y91.769 F1000
G1 X31.384 Y92.026 F1000
G1 X31.384 Y92.155 F1000
G1 X31.770 Y92.541 F1000
G1 X31.770 Y92.670 F1000
G1 X33.830 Y94.730 F1000
G1 X33.959 Y94.730 F1000
G1 X34.345 Y95.116 F1000
G1 X34.474 Y95.116 F1000
G1 X34.731 Y95.374 F1000
G1 X34.860 Y95.374 F1000
G1 X35.117 Y95.631 F1000
G1 X35.246 Y95.631 F1000
G1 X35.375 Y95.760 F1000
G1 X35.504 Y95.760 F1000
G1 X35.761 Y96.017 F1000
G1 X35.890 Y96.017 F1000
G1 X36.019 Y96.146 F1000
G1 X36.148 Y96.146 F1000
G1 X36.276 Y96.275 F1000
G1 X36.534 Y96.275 F1000
G1 X36.663 Y96.404 F1000
G1 X36.791 Y96.404 F1000
G1 X36.920 Y96.532 F1000
G1 X37.049 Y96.532 F1000
G1 X37.178 Y96.661 F1000
G1 X37.435 Y96.661 F1000
G1 X37.564 Y96.790 F1000
G1 X37.821 Y96.790 F1000
G1 X37.950 Y96.919 F1000
G1 X38.336 Y96.919 F1000
G1 X38.465 Y97.047 F1000
G1 X38.851 Y97.047 F1000
G1 X38.980 Y97.176 F1000
G1 X39.366 Y97.176 F1000
G1 X39.495 Y97.305 F1000
G1 X40.396 Y97.305 F1000
G1 X40.525 Y97.434 F1000
G0 Z3.0 ; Pen up

G0 X40.396 Y97.305 F3000 ; Travel to line 8
G0 Z0.0 ; Pen down
G1 X40.525 Y97.434 F1000
G1 X43.100 Y97.434 F1000
G1 X43.229 Y97.305 F1000
G1 X44.130 Y97.305 F1000
G1 X44.259 Y97.176 F1000
G1 X44.645 Y97.176 F1000
G1 X44.774 Y97.047 F1000
G1 X45.160 Y97.047 F1000
G1 X45.289 Y96.919 F1000
G1 X45.675 Y96.919 F1000
G1 X45.804 Y96.790 F1000
G1 X46.061 Y96.790 F1000
G1 X46.190 Y96.661 F1000
G1 X46.319 Y96.661 F1000
G1 X46.448 Y96.532 F1000
G1 X46.705 Y96.532 F1000
G1 X46.834 Y96.404 F1000
G1 X46.963 Y96.404 F1000
G1 X47.091 Y96.275 F1000
G1 X47.220 Y96.275 F1000
G1 X47.349 Y96.146 F1000
G1 X47.477 Y96.146 F1000
G1 X47.606 Y96.017 F1000
G1 X47.735 Y96.017 F1000
G1 X47.864 Y95.889 F1000
G1 X47.992 Y95.889 F1000
G1 X48.250 Y95.631 F1000
G1 X48.379 Y95.631 F1000
G1 X48.508 Y95.502 F1000
G1 X48.636 Y95.502 F1000
G1 X49.023 Y95.116 F1000
G1 X49.151 Y95.116 F1000
G1 X49.538 Y94.730 F1000
G1 X49.666 Y94.730 F1000
G1 X50.310 Y94.086 F1000
G1 X50.439 Y94.086 F1000
G1 X51.082 Y93.442 F1000
G1 X51.082 Y93.314 F1000
G1 X51.726 Y92.670 F1000
G1 X51.726 Y92.541 F1000
G1 X52.112 Y92.155 F1000
G1 X52.112 Y92.026 F1000
G1 X52.499 Y91.640 F1000
G1 X52.499 Y91.511 F1000
G1 X52.627 Y91.383 F1000
G1 X52.627 Y91.254 F1000
G1 X52.885 Y90.996 F1000
G1 X52.885 Y90.868 F1000
G1 X53.014 Y90.739 F1000
G1 X53.014 Y90.610 F1000
G1 X53.142 Y90.481 F1000
G1 X53.142 Y90.353 F1000
G1 X53.271 Y90.224 F1000
G1 X53.271 Y90.095 F1000
G1 X53.400 Y89.966 F1000
G1 X53.400 Y89.838 F1000
G1 X53.529 Y89.709 F1000
G1 X53.529 Y89.451 F1000
G1 X53.657 Y89.323 F1000
G1 X53.657 Y89.194 F1000
G1 X53.786 Y89.065 F1000
G1 X53.786 Y88.808 F1000
G1 X53.915 Y88.679 F1000
G1 X53.915 Y88.421 F1000
G1 X54.044 Y88.293 F1000
G1 X54.044 Y88.035 F1000
G1 X54.172 Y87.906 F1000
G1 X54.172 Y87.520 F1000
G1 X54.301 Y87.391 F1000
G1 X54.301 Y86.876 F1000
G1 X54.430 Y86.748 F1000
G1 X54.430 Y85.846 F1000
G1 X54.559 Y85.718 F1000
G1 X54.559 Y83.657 F1000
G1 X54.430 Y83.529 F1000
G1 X54.430 Y82.627 F1000
G1 X54.301 Y82.499 F1000
G1 X54.301 Y81.984 F1000
G1 X54.172 Y81.855 F1000
G1 X54.172 Y81.469 F1000
G1 X54.044 Y81.340 F1000
G1 X54.044 Y81.082 F1000
G1 X53.915 Y80.954 F1000
G1 X53.915 Y80.696 F1000
G1 X53.786 Y80.567 F1000
G1 X53.786 Y80.310 F1000
G1 X53.657 Y80.181 F1000
G1 X53.657 Y80.053 F1000
G1 X53.529 Y79.924 F1000
G1 X53.529 Y79.666 F1000
G1 X53.400 Y79.538 F1000
G1 X53.400 Y79.409 F1000
G1 X53.271 Y79.280 F1000
G1 X53.271 Y79.151 F1000
G1 X53.142 Y79.023 F1000
G1 X53.142 Y78.894 F1000
G1 X53.014 Y78.765 F1000
G1 X53.014 Y78.636 F1000
G1 X52.885 Y78.508 F1000
G1 X52.885 Y78.379 F1000
G1 X52.627 Y78.121 F1000
G1 X52.627 Y77.993 F1000
G1 X52.499 Y77.864 F1000
G1 X52.499 Y77.735 F1000
G1 X52.112 Y77.349 F1000
G1 X52.112 Y77.220 F1000
G1 X51.726 Y76.834 F1000
G1 X51.726 Y76.705 F1000
G1 X51.082 Y76.061 F1000
G1 X51.082 Y75.933 F1000
G1 X50.567 Y75.418 F1000
G1 X50.439 Y75.418 F1000
G1 X49.795 Y74.774 F1000
G1 X49.666 Y74.774 F1000
G1 X49.280 Y74.388 F1000
G1 X49.151 Y74.388 F1000
G1 X48.765 Y74.001 F1000
G1 X48.636 Y74.001 F1000
G1 X48.508 Y73.873 F1000
G1 X48.379 Y73.873 F1000
G1 X48.121 Y73.615 F1000
G1 X47.992 Y73.615 F1000
G1 X47.864 Y73.486 F1000
G1 X47.735 Y73.486 F1000
G1 X47.606 Y73.358 F1000
G1 X47.477 Y73.358 F1000
G1 X47.349 Y73.229 F1000
G1 X47.220 Y73.229 F1000
G1 X47.091 Y73.100 F1000
G1 X46.963 Y73.100 F1000
G1 X46.834 Y72.971 F1000
G1 X46.576 Y72.971 F1000
G1 X46.448 Y72.843 F1000
G1 X46.319 Y72.843 F1000
G1 X46.190 Y72.714 F1000
G1 X45.933 Y72.714 F1000
G1 X45.804 Y72.585 F1000
G1 X45.546 Y72.585 F1000
G1 X45.418 Y72.456 F1000
G1 X45.160 Y72.456 F1000
G1 X45.031 Y72.328 F1000
G1 X44.645 Y72.328 F1000
G1 X44.516 Y72.199 F1000
G1 X44.001 Y72.199 F1000
G1 X43.873 Y72.070 F1000
G1 X42.971 Y72.070 F1000
G1 X42.843 Y71.941 F1000
G1 X40.782 Y71.941 F1000
G1 X40.654 Y72.070 F1000
G1 X39.752 Y72.070 F1000
G1 X39.624 Y72.199 F1000
G1 X39.109 Y72.199 F1000
G1 X38.980 Y72.328 F1000
G1 X38.594 Y72.328 F1000
G1 X38.465 Y72.456 F1000
G1 X38.207 Y72.456 F1000
G1 X38.079 Y72.585 F1000
G1 X37.821 Y72.585 F1000
G1 X37.693 Y72.714 F1000
G1 X37.435 Y72.714 F1000
G1 X37.306 Y72.843 F1000
G1 X37.178 Y72.843 F1000
G1 X37.049 Y72.971 F1000
G1 X36.791 Y72.971 F1000
G1 X36.663 Y73.100 F1000
G1 X36.534 Y73.100 F1000
G1 X36.405 Y73.229 F1000
G1 X36.276 Y73.229 F1000
G1 X36.148 Y73.358 F1000
G1 X36.019 Y73.358 F1000
G1 X35.890 Y73.486 F1000
G1 X35.761 Y73.486 F1000
G1 X35.633 Y73.615 F1000
G1 X35.504 Y73.615 F1000
G1 X35.246 Y73.873 F1000
G1 X35.117 Y73.873 F1000
G1 X34.989 Y74.001 F1000
G1 X34.860 Y74.001 F1000
G1 X34.474 Y74.388 F1000
G1 X34.345 Y74.388 F1000
G1 X33.959 Y74.774 F1000
G1 X33.830 Y74.774 F1000
G1 X33.186 Y75.418 F1000
G1 X33.058 Y75.418 F1000
G1 X32.414 Y76.061 F1000
G1 X32.414 Y76.190 F1000
G1 X31.770 Y76.834 F1000
G1 X31.770 Y76.963 F1000
G1 X31.384 Y77.349 F1000
G1 X31.384 Y77.478 F1000
G1 X30.998 Y77.864 F1000
G1 X30.998 Y77.993 F1000
G1 X30.869 Y78.121 F1000
G1 X30.869 Y78.250 F1000
G1 X30.611 Y78.508 F1000
G1 X30.611 Y78.636 F1000
G1 X30.483 Y78.765 F1000
G1 X30.483 Y78.894 F1000
G1 X30.354 Y79.023 F1000
G1 X30.354 Y79.151 F1000
G1 X30.225 Y79.280 F1000
G1 X30.225 Y79.409 F1000
G1 X30.096 Y79.538 F1000
G1 X30.096 Y79.666 F1000
G1 X29.968 Y79.795 F1000
G1 X29.968 Y80.053 F1000
G1 X29.839 Y80.181 F1000
G1 X29.839 Y80.310 F1000
G1 X29.710 Y80.439 F1000
G1 X29.710 Y80.696 F1000
G1 X29.581 Y80.825 F1000
G1 X29.581 Y81.211 F1000
G1 X29.453 Y81.340 F1000
G1 X29.453 Y81.726 F1000
G1 X29.324 Y81.855 F1000
G1 X29.324 Y82.241 F1000
G1 X29.195 Y82.370 F1000
G1 X29.195 Y83.271 F1000
G1 X29.066 Y83.400 F1000
G1 X29.066 Y85.975 F1000
G1 X29.195 Y86.104 F1000
G1 X29.195 Y87.005 F1000
G1 X29.324 Y87.134 F1000
G1 X29.324 Y87.520 F1000
G1 X29.453 Y87.649 F1000
G1 X29.453 Y88.035 F1000
G1 X29.581 Y88.164 F1000
G1 X29.581 Y88.550 F1000
G1 X29.710 Y88.679 F1000
G1 X29.710 Y88.936 F1000
G1 X29.839 Y89.065 F1000
G1 X29.839 Y89.194 F1000
G1 X29.968 Y89.323 F1000
G1 X29.968 Y89.580 F1000
G1 X30.096 Y89.709 F1000
G1 X30.096 Y89.838 F1000
G1 X30.225 Y89.966 F1000
G1 X30.225 Y90.095 F1000
G1 X30.354 Y90.224 F1000
G1 X30.354 Y90.353 F1000
G1 X30.483 Y90.481 F1000
G1 X30.483 Y90.610 F1000
G1 X30.611 Y90.739 F1000
G1 X30.611 Y90.868 F1000
G1 X30.869 Y91.125 F1000
G1 X30.869 Y91.254 F1000
G1 X30.998 Y91.383 F1000
G1 X30.998 Y91.511 F1000
G1 X31.384 Y91.898 F1000
G1 X31.384 Y92.026 F1000
G1 X31.770 Y92.413 F1000
G1 X31.770 Y92.541 F1000
G1 X32.414 Y93.185 F1000
G1 X32.414 Y93.314 F1000
G1 X33.186 Y94.086 F1000
G1 X33.315 Y94.086 F1000
G1 X33.959 Y94.730 F1000
G1 X34.087 Y94.730 F1000
G1 X34.474 Y95.116 F1000
G1 X34.602 Y95.116 F1000
G1 X34.989 Y95.502 F1000
G1 X35.117 Y95.502 F1000
G1 X35.246 Y95.631 F1000
G1 X35.375 Y95.631 F1000
G1 X35.633 Y95.889 F1000
G1 X35.761 Y95.889 F1000
G1 X35.890 Y96.017 F1000
G1 X36.019 Y96.017 F1000
G1 X36.148 Y96.146 F1000
G1 X36.276 Y96.146 F1000
G1 X36.405 Y96.275 F1000
G1 X36.534 Y96.275 F1000
G1 X36.663 Y96.404 F1000
G1 X36.791 Y96.404 F1000
G1 X36.920 Y96.532 F1000
G1 X37.178 Y96.532 F1000
G1 X37.306 Y96.661 F1000
G1 X37.435 Y96.661 F1000
G1 X37.564 Y96.790 F1000
G1 X37.821 Y96.790 F1000
G1 X37.950 Y96.919 F1000
G1 X38.336 Y96.919 F1000
G1 X38.465 Y97.047 F1000
G1 X38.851 Y97.047 F1000
G1 X38.980 Y97.176 F1000
G1 X39.366 Y97.176 F1000
G1 X39.495 Y97.305 F1000
G0 Z3.0 ; Pen up

; Return to origin
G0 X0 Y0
G0 Z3.0

; Total drawing distance: 1308.51 mm
; Total travel distance: 219.64 mm
; Total lines: 8
; Estimated time: 82.9 seconds (1.4 minutes)
M2 ; End program