; Blueprint to G-code
; Input: test_images/test5_circuit.png
; Generated with blueprint2gcode.py

G21 ; Set units to millimeters
G90 ; Absolute positioning
G0 Z3.0 ; Pen up
G0 X0 Y0 ; Move to origin

G0 X46.584 Y34.656 F3000 ; Travel to line 1
G0 Z0.0 ; Pen down
G1 X52.749 Y34.656 F1000
G0 Z3.0 ; Pen up

G0 X51.127 Y33.033 F3000 ; Travel to line 2
G0 Z0.0 ; Pen down
G1 X48.207 Y33.033 F1000
G0 Z3.0 ; Pen up

G0 X66.051 Y44.713 F3000 ; Travel to line 3
G0 Z0.0 ; Pen down
G1 X66.213 Y44.551 F1000
G1 X84.869 Y44.551 F1000
G1 X85.193 Y44.876 F1000
G1 X85.193 Y60.287 F1000
G1 X85.031 Y60.449 F1000
G1 X66.213 Y60.449 F1000
G1 X66.051 Y60.287 F1000
G0 Z3.0 ; Pen up

G0 X66.051 Y60.449 F3000 ; Travel to line 4
G0 Z0.0 ; Pen down
G1 X66.051 Y57.691 F1000
G1 X65.889 Y57.529 F1000
G1 X62.807 Y57.529 F1000
G1 X65.889 Y57.529 F1000
G1 X66.051 Y57.367 F1000
G1 X66.051 Y53.636 F1000
G1 X65.889 Y53.473 F1000
G1 X62.807 Y53.473 F1000
G1 X65.889 Y53.473 F1000
G1 X66.051 Y53.311 F1000
G1 X66.051 Y49.580 F1000
G1 X65.889 Y49.418 F1000
G1 X62.807 Y49.418 F1000
G1 X65.889 Y49.418 F1000
G1 X66.051 Y49.256 F1000
G1 X66.051 Y45.524 F1000
G1 X65.889 Y45.362 F1000
G1 X62.807 Y45.362 F1000
G1 X65.889 Y45.362 F1000
G1 X66.051 Y45.200 F1000
G1 X66.051 Y44.551 F1000
G1 X85.031 Y44.551 F1000
G1 X85.193 Y44.713 F1000
G1 X85.193 Y45.038 F1000
G1 X85.356 Y45.200 F1000
G1 X88.438 Y45.200 F1000
G1 X85.356 Y45.200 F1000
G1 X85.193 Y45.362 F1000
G1 X85.193 Y49.093 F1000
G1 X85.356 Y49.256 F1000
G1 X88.438 Y49.256 F1000
G1 X85.356 Y49.256 F1000
G1 X85.193 Y49.418 F1000
G1 X85.193 Y53.149 F1000
G1 X85.356 Y53.311 F1000
G1 X88.438 Y53.311 F1000
G1 X85.356 Y53.311 F1000
G1 X85.193 Y53.473 F1000
G1 X85.193 Y57.204 F1000
G1 X85.356 Y57.367 F1000
G1 X88.438 Y57.367 F1000
G1 X85.356 Y57.367 F1000
G1 X85.193 Y57.529 F1000
G1 X85.193 Y60.449 F1000
G0 Z3.0 ; Pen up

G0 X106.444 Y55.258 F3000 ; Travel to line 5
G0 Z0.0 ; Pen down
G1 X106.607 Y55.420 F1000
G1 X106.769 Y55.420 F1000
G1 X107.093 Y55.096 F1000
G1 X107.256 Y55.096 F1000
G1 X107.580 Y54.771 F1000
G1 X107.742 Y54.771 F1000
G1 X108.067 Y54.447 F1000
G1 X108.229 Y54.447 F1000
G1 X108.553 Y54.122 F1000
G1 X108.716 Y54.122 F1000
G1 X109.040 Y53.798 F1000
G1 X109.202 Y53.798 F1000
G1 X109.527 Y53.473 F1000
G1 X109.689 Y53.473 F1000
G1 X110.013 Y53.149 F1000
G1 X110.176 Y53.149 F1000
G1 X110.500 Y52.824 F1000
G1 X110.662 Y52.824 F1000
G1 X110.987 Y52.500 F1000
G1 X110.662 Y52.176 F1000
G1 X110.500 Y52.176 F1000
G1 X110.176 Y51.851 F1000
G1 X110.013 Y51.851 F1000
G1 X109.689 Y51.527 F1000
G1 X109.527 Y51.527 F1000
G1 X109.202 Y51.202 F1000
G1 X109.040 Y51.202 F1000
G1 X108.716 Y50.878 F1000
G1 X108.553 Y50.878 F1000
G1 X108.229 Y50.553 F1000
G1 X108.067 Y50.553 F1000
G1 X107.742 Y50.229 F1000
G1 X107.580 Y50.229 F1000
G1 X107.256 Y49.904 F1000
G1 X107.093 Y49.904 F1000
G1 X106.931 Y49.742 F1000
G1 X106.607 Y49.742 F1000
G1 X106.444 Y49.904 F1000
G0 Z3.0 ; Pen up

G0 X111.311 Y52.662 F3000 ; Travel to line 6
G0 Z0.0 ; Pen down
G1 X111.473 Y52.500 F1000
G1 X116.016 Y52.500 F1000
G1 X111.473 Y52.500 F1000
G1 X111.311 Y52.338 F1000
G1 X111.311 Y49.418 F1000
G1 X111.311 Y52.338 F1000
G1 X111.149 Y52.500 F1000
G1 X110.987 Y52.338 F1000
G1 X110.824 Y52.338 F1000
G1 X110.500 Y52.013 F1000
G1 X110.338 Y52.013 F1000
G1 X110.013 Y51.689 F1000
G1 X109.851 Y51.689 F1000
G1 X109.527 Y51.364 F1000
G1 X109.364 Y51.364 F1000
G1 X109.040 Y51.040 F1000
G1 X108.878 Y51.040 F1000
G1 X108.553 Y50.716 F1000
G1 X108.391 Y50.716 F1000
G1 X108.067 Y50.391 F1000
G1 X107.904 Y50.391 F1000
G1 X107.580 Y50.067 F1000
G1 X107.418 Y50.067 F1000
G1 X107.093 Y49.742 F1000
G1 X106.444 Y49.742 F1000
G1 X106.444 Y52.338 F1000
G1 X106.282 Y52.500 F1000
G1 X101.740 Y52.500 F1000
G1 X106.282 Y52.500 F1000
G1 X106.444 Y52.662 F1000
G1 X106.444 Y55.420 F1000
G1 X106.769 Y55.420 F1000
G1 X106.931 Y55.258 F1000
G1 X107.093 Y55.258 F1000
G1 X107.418 Y54.933 F1000
G1 X107.580 Y54.933 F1000
G1 X107.904 Y54.609 F1000
G1 X108.067 Y54.609 F1000
G1 X108.391 Y54.284 F1000
G1 X108.553 Y54.284 F1000
G1 X108.878 Y53.960 F1000
G1 X109.040 Y53.960 F1000
G1 X109.364 Y53.636 F1000
G1 X109.527 Y53.636 F1000
G1 X109.851 Y53.311 F1000
G1 X110.013 Y53.311 F1000
G1 X110.338 Y52.987 F1000
G1 X110.500 Y52.987 F1000
G1 X110.824 Y52.662 F1000
G1 X110.987 Y52.662 F1000
G1 X111.149 Y52.500 F1000
G1 X111.311 Y52.662 F1000
G1 X111.311 Y55.582 F1000
G0 Z3.0 ; Pen up

G0 X109.689 Y58.016 F3000 ; Travel to line 7
G0 Z0.0 ; Pen down
G1 X109.527 Y58.016 F1000
G1 X109.364 Y57.853 F1000
G1 X109.364 Y57.691 F1000
G1 X109.202 Y57.691 F1000
G1 X108.067 Y56.556 F1000
G1 X109.040 Y57.529 F1000
G1 X109.040 Y57.691 F1000
G1 X109.202 Y57.691 F1000
G1 X109.527 Y58.016 F1000
G0 Z3.0 ; Pen up

G0 X36.527 Y71.156 F3000 ; Travel to line 8
G0 Z0.0 ; Pen down
G1 X36.527 Y68.884 F1000
G1 X36.689 Y68.722 F1000
G1 X49.667 Y68.722 F1000
G1 X49.667 Y52.500 F1000
G1 X49.504 Y52.338 F1000
G1 X49.504 Y44.551 F1000
G1 X49.667 Y44.389 F1000
G1 X49.667 Y36.440 F1000
G1 X49.829 Y36.278 F1000
G1 X54.209 Y36.278 F1000
G1 X49.504 Y36.278 F1000
G1 X49.667 Y36.440 F1000
G1 X49.667 Y44.227 F1000
G1 X49.504 Y44.389 F1000
G1 X31.984 Y44.389 F1000
G1 X31.822 Y44.227 F1000
G1 X31.822 Y41.469 F1000
G1 X31.822 Y44.227 F1000
G1 X31.660 Y44.389 F1000
G1 X28.740 Y44.389 F1000
G1 X28.578 Y44.227 F1000
G1 X28.578 Y41.469 F1000
G1 X28.578 Y44.227 F1000
G1 X28.416 Y44.389 F1000
G1 X17.384 Y44.389 F1000
G1 X28.416 Y44.389 F1000
G1 X28.578 Y44.551 F1000
G1 X28.578 Y47.471 F1000
G1 X28.578 Y44.551 F1000
G1 X28.740 Y44.389 F1000
G1 X31.660 Y44.389 F1000
G1 X31.822 Y44.551 F1000
G1 X31.822 Y47.471 F1000
G1 X31.822 Y44.551 F1000
G1 X31.984 Y44.389 F1000
G1 X49.342 Y44.389 F1000
G1 X49.504 Y44.551 F1000
G1 X49.504 Y52.338 F1000
G1 X49.667 Y52.500 F1000
G1 X49.667 Y68.560 F1000
G1 X49.504 Y68.722 F1000
G1 X36.689 Y68.722 F1000
G1 X36.527 Y68.560 F1000
G1 X36.527 Y66.451 F1000
G1 X23.711 Y66.451 F1000
G1 X23.711 Y68.560 F1000
G1 X23.549 Y68.722 F1000
G1 X17.384 Y68.722 F1000
G1 X23.549 Y68.722 F1000
G1 X23.711 Y68.884 F1000
G1 X23.711 Y70.993 F1000
G1 X23.873 Y71.156 F1000
G0 Z3.0 ; Pen up

G0 X24.036 Y71.156 F3000 ; Travel to line 9
G0 Z0.0 ; Pen down
G1 X36.364 Y71.156 F1000
G1 X36.527 Y70.993 F1000
G1 X36.527 Y68.884 F1000
G1 X36.364 Y68.722 F1000
G1 X27.118 Y68.722 F1000
G1 X36.364 Y68.722 F1000
G1 X36.527 Y68.560 F1000
G1 X36.527 Y66.613 F1000
G1 X36.364 Y66.451 F1000
G1 X23.873 Y66.451 F1000
G1 X23.711 Y66.613 F1000
G1 X23.711 Y70.831 F1000
G0 Z3.0 ; Pen up

; Return to origin
G0 X0 Y0
G0 Z3.0

; Total drawing distance: 682.66 mm
; Total travel distance: 186.57 mm
; Total lines: 9
; Estimated time: 44.7 seconds (0.7 minutes)
M2 ; End program