; Blueprint to G-code
; Input: test_images/test2_floor_plan.png
; Generated with blueprint2gcode.py

G21 ; Set units to millimeters
G90 ; Absolute positioning
G0 Z3.0 ; Pen up
G0 X0 Y0 ; Move to origin

G0 X16.191 Y7.824 F3000 ; Travel to line 1
G0 Z0.0 ; Pen down
G1 X16.320 Y7.695 F1000
G1 X73.871 Y7.695 F1000
G1 X74.000 Y7.824 F1000
G1 X74.000 Y52.371 F1000
G1 X73.871 Y52.500 F1000
G1 X16.320 Y52.500 F1000
G1 X16.191 Y52.371 F1000
G0 Z3.0 ; Pen up

G0 X22.629 Y46.062 F3000 ; Travel to line 2
G0 Z0.0 ; Pen down
G1 X35.246 Y46.062 F1000
G0 Z3.0 ; Pen up

G0 X35.246 Y42.844 F3000 ; Travel to line 3
G0 Z0.0 ; Pen down
G1 X22.629 Y42.844 F1000
G0 Z3.0 ; Pen up

G0 X22.629 Y39.625 F3000 ; Travel to line 4
G0 Z0.0 ; Pen down
G1 X35.246 Y39.625 F1000
G0 Z3.0 ; Pen up

G0 X35.246 Y36.406 F3000 ; Travel to line 5
G0 Z0.0 ; Pen down
G1 X22.629 Y36.406 F1000
G0 Z3.0 ; Pen up

G0 X22.629 Y33.188 F3000 ; Travel to line 6
G0 Z0.0 ; Pen down
G1 X35.246 Y33.188 F1000
G0 Z3.0 ; Pen up

G0 X35.246 Y29.969 F3000 ; Travel to line 7
G0 Z0.0 ; Pen down
G1 X22.629 Y29.969 F1000
G0 Z3.0 ; Pen up

G0 X22.629 Y26.750 F3000 ; Travel to line 8
G0 Z0.0 ; Pen down
G1 X35.246 Y26.750 F1000
G0 Z3.0 ; Pen up

G0 X35.246 Y23.531 F3000 ; Travel to line 9
G0 Z0.0 ; Pen down
G1 X22.629 Y23.531 F1000
G0 Z3.0 ; Pen up

G0 X22.629 Y20.312 F3000 ; Travel to line 10
G0 Z0.0 ; Pen down
G1 X35.246 Y20.312 F1000
G0 Z3.0 ; Pen up

G0 X35.246 Y17.094 F3000 ; Travel to line 11
G0 Z0.0 ; Pen down
G1 X22.629 Y17.094 F1000
G0 Z3.0 ; Pen up

G0 X74.000 Y7.824 F3000 ; Travel to line 12
G0 Z0.0 ; Pen down
G1 X74.129 Y7.695 F1000
G1 X131.551 Y7.695 F1000
G1 X131.680 Y7.824 F1000
G1 X131.680 Y52.371 F1000
G1 X131.551 Y52.500 F1000
G1 X74.129 Y52.500 F1000
G1 X74.000 Y52.371 F1000
G0 Z3.0 ; Pen up

G0 X74.000 Y52.629 F3000 ; Travel to line 13
G0 Z0.0 ; Pen down
G1 X74.129 Y52.500 F1000
G1 X99.621 Y52.500 F1000
G1 X99.750 Y52.629 F1000
G1 X99.750 Y84.559 F1000
G1 X99.750 Y52.629 F1000
G1 X99.879 Y52.500 F1000
G1 X131.551 Y52.500 F1000
G1 X131.680 Y52.629 F1000
G1 X131.680 Y97.305 F1000
G1 X131.551 Y97.434 F1000
G1 X106.059 Y97.434 F1000
G1 X105.930 Y97.305 F1000
G1 X99.879 Y97.305 F1000
G1 X99.750 Y97.176 F1000
G1 X99.750 Y91.254 F1000
G1 X99.750 Y97.176 F1000
G1 X99.621 Y97.305 F1000
G1 X93.570 Y97.305 F1000
G1 X93.441 Y97.434 F1000
G1 X74.129 Y97.434 F1000
G1 X74.000 Y97.305 F1000
G0 Z3.0 ; Pen up

G0 X93.312 Y97.949 F3000 ; Travel to line 14
G0 Z0.0 ; Pen down
G1 X93.312 Y97.562 F1000
G1 X93.570 Y97.305 F1000
G1 X105.930 Y97.305 F1000
G1 X106.059 Y97.434 F1000
G1 X106.059 Y98.078 F1000
G1 X105.930 Y98.206 F1000
G1 X93.570 Y98.206 F1000
G0 Z3.0 ; Pen up

G0 X41.684 Y98.206 F3000 ; Travel to line 15
G0 Z0.0 ; Pen down
G1 X41.684 Y97.562 F1000
G1 X41.812 Y97.434 F1000
G1 X93.184 Y97.434 F1000
G1 X93.312 Y97.562 F1000
G1 X93.312 Y98.078 F1000
G1 X93.441 Y98.206 F1000
G1 X106.059 Y98.206 F1000
G1 X106.059 Y97.562 F1000
G1 X106.188 Y97.434 F1000
G1 X131.680 Y97.434 F1000
G1 X131.680 Y7.695 F1000
G1 X16.191 Y7.695 F1000
G1 X16.191 Y97.305 F1000
G1 X16.320 Y97.434 F1000
G1 X28.809 Y97.434 F1000
G1 X28.938 Y97.562 F1000
G1 X28.938 Y98.078 F1000
G1 X29.066 Y98.206 F1000
G0 Z3.0 ; Pen up

G0 X29.195 Y98.206 F3000 ; Travel to line 16
G0 Z0.0 ; Pen down
G1 X41.555 Y98.206 F1000
G1 X41.684 Y98.078 F1000
G1 X41.684 Y97.434 F1000
G1 X41.555 Y97.305 F1000
G1 X29.195 Y97.305 F1000
G1 X28.938 Y97.562 F1000
G1 X28.938 Y97.949 F1000
G0 Z3.0 ; Pen up

G0 X16.449 Y97.434 F3000 ; Travel to line 17
G0 Z0.0 ; Pen down
G1 X29.066 Y97.434 F1000
G1 X29.195 Y97.305 F1000
G1 X35.246 Y97.305 F1000
G1 X35.375 Y97.176 F1000
G1 X35.375 Y91.254 F1000
G1 X35.375 Y97.176 F1000
G1 X35.504 Y97.305 F1000
G1 X41.555 Y97.305 F1000
G1 X41.684 Y97.434 F1000
G1 X73.871 Y97.434 F1000
G1 X74.000 Y97.305 F1000
G1 X74.000 Y52.629 F1000
G1 X73.871 Y52.500 F1000
G1 X35.504 Y52.500 F1000
G1 X35.375 Y52.629 F1000
G1 X35.375 Y84.559 F1000
G1 X35.375 Y52.629 F1000
G1 X35.246 Y52.500 F1000
G1 X16.320 Y52.500 F1000
G1 X16.191 Y52.629 F1000
G1 X16.191 Y97.176 F1000
G0 Z3.0 ; Pen up

; Return to origin
G0 X0 Y0
G0 Z3.0

; Total drawing distance: 1556.41 mm
; Total travel distance: 192.26 mm
; Total lines: 17
; Estimated time: 97.2 seconds (1.6 minutes)
M2 ; End program