; Blueprint to G-code
; Input: /home/david/code/blueprint2gcode/test_data/test_images_solid/test1_simple_shapes.png
; Generated with blueprint2gcode.py
;
; Generation Parameters:
;   Paper size: A4 (210x297mm)
;   Orientation: auto
;   Margin: 1.0mm
;   Z up: 3.0mm
;   Z down: 0.0mm
;   Feed rate: 1000mm/min
;   Travel rate: 3000mm/min
;   Join tolerance: 0.02mm
;   Min line length: 0.01mm
;   Simplify epsilon: 0.000001
;   Fill solid areas: True
;   Hatch spacing: 2.0px
;   Hatch angle: 0.0°
;   Crosshatch: False
;   Min solid area: 1.0px²
;   Invert colors: False

G21 ; Set units to millimeters
G90 ; Absolute positioning
G0 Z3.0 ; Pen up
G0 X0 Y0 ; Move to origin

G0 X55.593 Y104.307 F3000 ; Travel to line 1
G0 Z0.0 ; Pen down
G1 X55.247 Y103.960 F1000
G1 X54.207 Y103.960 F1000
G1 X53.860 Y103.613 F1000
G1 X52.820 Y103.613 F1000
G1 X52.473 Y103.267 F1000
G1 X51.433 Y103.267 F1000
G1 X51.087 Y102.920 F1000
G1 X50.393 Y102.920 F1000
G1 X50.047 Y102.573 F1000
G1 X49.700 Y102.573 F1000
G1 X49.353 Y102.227 F1000
G1 X48.660 Y102.227 F1000
G1 X48.313 Y101.880 F1000
G1 X47.967 Y101.880 F1000
G1 X47.620 Y101.533 F1000
G1 X47.273 Y101.533 F1000
G1 X46.927 Y101.187 F1000
G1 X46.580 Y101.187 F1000
G1 X46.233 Y100.840 F1000
G1 X45.887 Y100.840 F1000
G1 X45.540 Y100.493 F1000
G1 X45.193 Y100.493 F1000
G1 X44.500 Y99.800 F1000
G1 X44.153 Y99.800 F1000
G1 X43.807 Y99.453 F1000
G1 X43.460 Y99.453 F1000
G1 X42.420 Y98.413 F1000
G1 X42.073 Y98.413 F1000
G1 X41.033 Y97.373 F1000
G1 X40.687 Y97.373 F1000
G1 X38.953 Y95.640 F1000
G1 X38.607 Y95.640 F1000
G1 X36.527 Y93.560 F1000
G1 X36.527 Y93.213 F1000
G1 X34.793 Y91.480 F1000
G1 X34.793 Y91.133 F1000
G1 X33.753 Y90.093 F1000
G1 X33.753 Y89.747 F1000
G1 X32.713 Y88.707 F1000
G1 X32.713 Y88.360 F1000
G1 X32.367 Y88.013 F1000
G1 X32.367 Y87.667 F1000
G1 X31.673 Y86.973 F1000
G1 X31.673 Y86.627 F1000
G1 X31.327 Y86.280 F1000
G1 X31.327 Y85.933 F1000
G1 X30.980 Y85.587 F1000
G1 X30.980 Y85.240 F1000
G1 X30.633 Y84.893 F1000
G1 X30.633 Y84.547 F1000
G1 X30.287 Y84.200 F1000
G1 X30.287 Y83.853 F1000
G1 X29.940 Y83.507 F1000
G1 X29.940 Y82.813 F1000
G1 X29.593 Y82.467 F1000
G1 X29.593 Y82.120 F1000
G1 X29.247 Y81.773 F1000
G1 X29.247 Y81.080 F1000
G1 X28.900 Y80.733 F1000
G1 X28.900 Y79.693 F1000
G1 X28.553 Y79.347 F1000
G1 X28.553 Y78.307 F1000
G1 X28.207 Y77.960 F1000
G1 X28.207 Y76.920 F1000
G1 X27.860 Y76.573 F1000
G1 X27.860 Y74.147 F1000
G1 X27.513 Y73.800 F1000
G1 X27.513 Y66.867 F1000
G1 X27.860 Y66.520 F1000
G1 X27.860 Y64.093 F1000
G1 X28.207 Y63.747 F1000
G1 X28.207 Y62.707 F1000
G1 X28.553 Y62.360 F1000
G1 X28.553 Y61.320 F1000
G1 X28.900 Y60.973 F1000
G1 X28.900 Y59.933 F1000
G1 X29.247 Y59.587 F1000
G1 X29.247 Y58.893 F1000
G1 X29.593 Y58.547 F1000
G1 X29.593 Y58.200 F1000
G1 X29.940 Y57.853 F1000
G1 X29.940 Y57.160 F1000
G1 X30.287 Y56.813 F1000
G1 X30.287 Y56.467 F1000
G1 X30.633 Y56.120 F1000
G1 X30.633 Y55.773 F1000
G1 X30.980 Y55.427 F1000
G1 X30.980 Y55.080 F1000
G1 X31.327 Y54.733 F1000
G1 X31.327 Y54.387 F1000
G1 X31.673 Y54.040 F1000
G1 X31.673 Y53.693 F1000
G1 X32.367 Y53.000 F1000
G1 X32.367 Y52.653 F1000
G1 X32.713 Y52.307 F1000
G1 X32.713 Y51.960 F1000
G1 X33.753 Y50.920 F1000
G1 X33.753 Y50.573 F1000
G1 X34.793 Y49.533 F1000
G1 X34.793 Y49.187 F1000
G1 X36.527 Y47.453 F1000
G1 X36.527 Y47.107 F1000
G1 X38.260 Y45.373 F1000
G1 X38.607 Y45.373 F1000
G1 X40.340 Y43.640 F1000
G1 X40.687 Y43.640 F1000
G1 X41.727 Y42.600 F1000
G1 X42.073 Y42.600 F1000
G1 X43.113 Y41.560 F1000
G1 X43.460 Y41.560 F1000
G1 X43.807 Y41.213 F1000
G1 X44.153 Y41.213 F1000
G1 X44.847 Y40.520 F1000
G1 X45.193 Y40.520 F1000
G1 X45.540 Y40.173 F1000
G1 X45.887 Y40.173 F1000
G1 X46.233 Y39.827 F1000
G1 X46.580 Y39.827 F1000
G1 X46.927 Y39.480 F1000
G1 X47.273 Y39.480 F1000
G1 X47.620 Y39.133 F1000
G1 X47.967 Y39.133 F1000
G1 X48.313 Y38.787 F1000
G1 X49.007 Y38.787 F1000
G1 X49.353 Y38.440 F1000
G1 X49.700 Y38.440 F1000
G1 X50.047 Y38.093 F1000
G1 X50.740 Y38.093 F1000
G1 X51.087 Y37.747 F1000
G1 X51.780 Y37.747 F1000
G1 X52.127 Y37.400 F1000
G1 X52.820 Y37.400 F1000
G1 X53.167 Y37.053 F1000
G1 X54.207 Y37.053 F1000
G1 X54.553 Y36.707 F1000
G1 X55.940 Y36.707 F1000
G1 X56.287 Y36.360 F1000
G1 X58.713 Y36.360 F1000
G1 X59.060 Y36.013 F1000
G1 X64.607 Y36.013 F1000
G1 X64.953 Y36.360 F1000
G1 X67.380 Y36.360 F1000
G1 X67.727 Y36.707 F1000
G1 X69.113 Y36.707 F1000
G1 X69.460 Y37.053 F1000
G1 X70.500 Y37.053 F1000
G1 X70.847 Y37.400 F1000
G1 X71.540 Y37.400 F1000
G1 X71.887 Y37.747 F1000
G1 X72.580 Y37.747 F1000
G1 X72.927 Y38.093 F1000
G1 X73.620 Y38.093 F1000
G1 X73.967 Y38.440 F1000
G1 X74.313 Y38.440 F1000
G1 X74.660 Y38.787 F1000
G1 X75.353 Y38.787 F1000
G1 X75.700 Y39.133 F1000
G1 X76.047 Y39.133 F1000
G1 X76.393 Y39.480 F1000
G1 X76.740 Y39.480 F1000
G1 X77.087 Y39.827 F1000
G1 X77.433 Y39.827 F1000
G1 X77.780 Y40.173 F1000
G1 X78.127 Y40.173 F1000
G1 X78.473 Y40.520 F1000
G1 X78.820 Y40.520 F1000
G1 X79.513 Y41.213 F1000
G1 X79.860 Y41.213 F1000
G1 X80.207 Y41.560 F1000
G1 X80.553 Y41.560 F1000
G1 X81.593 Y42.600 F1000
G1 X81.940 Y42.600 F1000
G1 X82.980 Y43.640 F1000
G1 X83.327 Y43.640 F1000
G1 X85.060 Y45.373 F1000
G1 X85.407 Y45.373 F1000
G1 X86.793 Y46.760 F1000
G1 X86.793 Y47.107 F1000
G1 X88.527 Y48.840 F1000
G1 X88.527 Y49.187 F1000
G1 X89.567 Y50.227 F1000
G1 X89.567 Y50.573 F1000
G1 X90.607 Y51.613 F1000
G1 X90.607 Y51.960 F1000
G1 X90.953 Y52.307 F1000
G1 X90.953 Y52.653 F1000
G1 X91.647 Y53.347 F1000
G1 X91.647 Y53.693 F1000
G1 X91.993 Y54.040 F1000
G1 X91.993 Y54.387 F1000
G1 X92.340 Y54.733 F1000
G1 X92.340 Y55.080 F1000
G1 X92.687 Y55.427 F1000
G1 X92.687 Y55.773 F1000
G1 X93.033 Y56.120 F1000
G1 X93.033 Y56.467 F1000
G1 X93.380 Y56.813 F1000
G1 X93.380 Y57.507 F1000
G1 X93.727 Y57.853 F1000
G1 X93.727 Y58.200 F1000
G1 X94.073 Y58.547 F1000
G1 X94.073 Y59.240 F1000
G1 X94.420 Y59.587 F1000
G1 X94.420 Y60.280 F1000
G1 X94.767 Y60.627 F1000
G1 X94.767 Y61.320 F1000
G1 X95.113 Y61.667 F1000
G1 X95.113 Y62.707 F1000
G1 X95.460 Y63.053 F1000
G1 X95.460 Y64.440 F1000
G1 X95.807 Y64.787 F1000
G1 X95.807 Y67.213 F1000
G1 X96.153 Y67.560 F1000
G1 X96.153 Y73.107 F1000
G1 X95.807 Y73.453 F1000
G1 X95.807 Y75.880 F1000
G1 X95.460 Y76.227 F1000
G1 X95.460 Y77.613 F1000
G1 X95.113 Y77.960 F1000
G1 X95.113 Y79.000 F1000
G1 X94.767 Y79.347 F1000
G1 X94.767 Y80.040 F1000
G1 X94.420 Y80.387 F1000
G1 X94.420 Y81.080 F1000
G1 X94.073 Y81.427 F1000
G1 X94.073 Y82.120 F1000
G1 X93.727 Y82.467 F1000
G1 X93.727 Y82.813 F1000
G1 X93.380 Y83.160 F1000
G1 X93.380 Y83.853 F1000
G1 X93.033 Y84.200 F1000
G1 X93.033 Y84.547 F1000
G1 X92.687 Y84.893 F1000
G1 X92.687 Y85.240 F1000
G1 X92.340 Y85.587 F1000
G1 X92.340 Y85.933 F1000
G1 X91.993 Y86.280 F1000
G1 X91.993 Y86.627 F1000
G1 X91.647 Y86.973 F1000
G1 X91.647 Y87.320 F1000
G1 X90.953 Y88.013 F1000
G1 X90.953 Y88.360 F1000
G1 X90.607 Y88.707 F1000
G1 X90.607 Y89.053 F1000
G1 X89.567 Y90.093 F1000
G1 X89.567 Y90.440 F1000
G1 X88.527 Y91.480 F1000
G1 X88.527 Y91.827 F1000
G1 X86.793 Y93.560 F1000
G1 X86.793 Y93.907 F1000
G1 X85.060 Y95.640 F1000
G1 X84.713 Y95.640 F1000
G1 X82.980 Y97.373 F1000
G1 X82.633 Y97.373 F1000
G1 X81.593 Y98.413 F1000
G1 X81.247 Y98.413 F1000
G1 X80.207 Y99.453 F1000
G1 X79.860 Y99.453 F1000
G1 X79.513 Y99.800 F1000
G1 X79.167 Y99.800 F1000
G1 X78.473 Y100.493 F1000
G1 X78.127 Y100.493 F1000
G1 X77.780 Y100.840 F1000
G1 X77.433 Y100.840 F1000
G1 X77.087 Y101.187 F1000
G1 X76.740 Y101.187 F1000
G1 X76.393 Y101.533 F1000
G1 X76.047 Y101.533 F1000
G1 X75.700 Y101.880 F1000
G1 X75.353 Y101.880 F1000
G1 X75.007 Y102.227 F1000
G1 X74.313 Y102.227 F1000
G1 X73.967 Y102.573 F1000
G1 X73.620 Y102.573 F1000
G1 X73.273 Y102.920 F1000
G1 X72.580 Y102.920 F1000
G1 X72.233 Y103.267 F1000
G1 X71.193 Y103.267 F1000
G1 X70.847 Y103.613 F1000
G1 X69.807 Y103.613 F1000
G1 X69.460 Y103.960 F1000
G1 X68.420 Y103.960 F1000
G1 X68.073 Y104.307 F1000
G1 X65.647 Y104.307 F1000
G1 X65.300 Y104.653 F1000
G1 X58.367 Y104.653 F1000
G1 X58.020 Y104.307 F1000
G0 Z3.0 ; Pen up

G0 X58.367 Y104.653 F3000 ; Travel to line 2
G0 Z0.0 ; Pen down
G1 X58.020 Y104.307 F1000
G1 X55.593 Y104.307 F1000
G1 X55.247 Y103.960 F1000
G1 X54.207 Y103.960 F1000
G1 X53.860 Y103.613 F1000
G1 X52.820 Y103.613 F1000
G1 X52.473 Y103.267 F1000
G1 X51.433 Y103.267 F1000
G1 X51.087 Y102.920 F1000
G1 X50.393 Y102.920 F1000
G1 X50.047 Y102.573 F1000
G1 X49.353 Y102.573 F1000
G1 X49.007 Y102.227 F1000
G1 X48.660 Y102.227 F1000
G1 X48.313 Y101.880 F1000
G1 X47.967 Y101.880 F1000
G1 X47.620 Y101.533 F1000
G1 X46.927 Y101.533 F1000
G1 X46.580 Y101.187 F1000
G1 X46.233 Y101.187 F1000
G1 X45.887 Y100.840 F1000
G1 X45.540 Y100.840 F1000
G1 X44.847 Y100.147 F1000
G1 X44.500 Y100.147 F1000
G1 X44.153 Y99.800 F1000
G1 X43.807 Y99.800 F1000
G1 X43.113 Y99.107 F1000
G1 X42.767 Y99.107 F1000
G1 X42.073 Y98.413 F1000
G1 X41.727 Y98.413 F1000
G1 X40.687 Y97.373 F1000
G1 X40.340 Y97.373 F1000
G1 X34.793 Y91.827 F1000
G1 X34.793 Y91.480 F1000
G1 X33.753 Y90.440 F1000
G1 X33.753 Y90.093 F1000
G1 X33.060 Y89.400 F1000
G1 X33.060 Y89.053 F1000
G1 X32.367 Y88.360 F1000
G1 X32.367 Y88.013 F1000
G1 X32.020 Y87.667 F1000
G1 X32.020 Y87.320 F1000
G1 X31.327 Y86.627 F1000
G1 X31.327 Y86.280 F1000
G1 X30.980 Y85.933 F1000
G1 X30.980 Y85.587 F1000
G1 X30.633 Y85.240 F1000
G1 X30.633 Y84.547 F1000
G1 X30.287 Y84.200 F1000
G1 X30.287 Y83.853 F1000
G1 X29.940 Y83.507 F1000
G1 X29.940 Y83.160 F1000
G1 X29.593 Y82.813 F1000
G1 X29.593 Y82.120 F1000
G1 X29.247 Y81.773 F1000
G1 X29.247 Y81.080 F1000
G1 X28.900 Y80.733 F1000
G1 X28.900 Y79.693 F1000
G1 X28.553 Y79.347 F1000
G1 X28.553 Y78.307 F1000
G1 X28.207 Y77.960 F1000
G1 X28.207 Y76.920 F1000
G1 X27.860 Y76.573 F1000
G1 X27.860 Y74.147 F1000
G1 X27.513 Y73.800 F1000
G1 X27.513 Y66.867 F1000
G1 X27.860 Y66.520 F1000
G1 X27.860 Y64.093 F1000
G1 X28.207 Y63.747 F1000
G1 X28.207 Y62.707 F1000
G1 X28.553 Y62.360 F1000
G1 X28.553 Y61.320 F1000
G1 X28.900 Y60.973 F1000
G1 X28.900 Y59.933 F1000
G1 X29.247 Y59.587 F1000
G1 X29.247 Y58.893 F1000
G1 X29.593 Y58.547 F1000
G1 X29.593 Y57.853 F1000
G1 X29.940 Y57.507 F1000
G1 X29.940 Y57.160 F1000
G1 X30.287 Y56.813 F1000
G1 X30.287 Y56.467 F1000
G1 X30.633 Y56.120 F1000
G1 X30.633 Y55.427 F1000
G1 X30.980 Y55.080 F1000
G1 X30.980 Y54.733 F1000
G1 X31.327 Y54.387 F1000
G1 X31.327 Y54.040 F1000
G1 X32.020 Y53.347 F1000
G1 X32.020 Y53.000 F1000
G1 X32.367 Y52.653 F1000
G1 X32.367 Y52.307 F1000
G1 X33.060 Y51.613 F1000
G1 X33.060 Y51.267 F1000
G1 X33.753 Y50.573 F1000
G1 X33.753 Y50.227 F1000
G1 X34.793 Y49.187 F1000
G1 X34.793 Y48.840 F1000
G1 X39.993 Y43.640 F1000
G1 X40.340 Y43.640 F1000
G1 X41.380 Y42.600 F1000
G1 X41.727 Y42.600 F1000
G1 X42.420 Y41.907 F1000
G1 X42.767 Y41.907 F1000
G1 X43.460 Y41.213 F1000
G1 X43.807 Y41.213 F1000
G1 X44.153 Y40.867 F1000
G1 X44.500 Y40.867 F1000
G1 X45.193 Y40.173 F1000
G1 X45.540 Y40.173 F1000
G1 X45.887 Y39.827 F1000
G1 X46.233 Y39.827 F1000
G1 X46.580 Y39.480 F1000
G1 X47.273 Y39.480 F1000
G1 X47.620 Y39.133 F1000
G1 X47.967 Y39.133 F1000
G1 X48.313 Y38.787 F1000
G1 X48.660 Y38.787 F1000
G1 X49.007 Y38.440 F1000
G1 X49.700 Y38.440 F1000
G1 X50.047 Y38.093 F1000
G1 X50.740 Y38.093 F1000
G1 X51.087 Y37.747 F1000
G1 X51.780 Y37.747 F1000
G1 X52.127 Y37.400 F1000
G1 X52.820 Y37.400 F1000
G1 X53.167 Y37.053 F1000
G1 X54.207 Y37.053 F1000
G1 X54.553 Y36.707 F1000
G1 X55.940 Y36.707 F1000
G1 X56.287 Y36.360 F1000
G1 X58.713 Y36.360 F1000
G1 X59.060 Y36.013 F1000
G1 X64.607 Y36.013 F1000
G1 X64.953 Y36.360 F1000
G1 X67.380 Y36.360 F1000
G1 X67.727 Y36.707 F1000
G1 X69.113 Y36.707 F1000
G1 X69.460 Y37.053 F1000
G1 X70.500 Y37.053 F1000
G1 X70.847 Y37.400 F1000
G1 X71.540 Y37.400 F1000
G1 X71.887 Y37.747 F1000
G1 X72.580 Y37.747 F1000
G1 X72.927 Y38.093 F1000
G1 X73.620 Y38.093 F1000
G1 X73.967 Y38.440 F1000
G1 X74.660 Y38.440 F1000
G1 X75.007 Y38.787 F1000
G1 X75.353 Y38.787 F1000
G1 X75.700 Y39.133 F1000
G1 X76.047 Y39.133 F1000
G1 X76.393 Y39.480 F1000
G1 X77.087 Y39.480 F1000
G1 X77.433 Y39.827 F1000
G1 X77.780 Y39.827 F1000
G1 X78.127 Y40.173 F1000
G1 X78.473 Y40.173 F1000
G1 X79.167 Y40.867 F1000
G1 X79.513 Y40.867 F1000
G1 X79.860 Y41.213 F1000
G1 X80.207 Y41.213 F1000
G1 X80.900 Y41.907 F1000
G1 X81.247 Y41.907 F1000
G1 X81.940 Y42.600 F1000
G1 X82.287 Y42.600 F1000
G1 X83.327 Y43.640 F1000
G1 X83.673 Y43.640 F1000
G1 X88.527 Y48.493 F1000
G1 X88.527 Y48.840 F1000
G1 X89.567 Y49.880 F1000
G1 X89.567 Y50.227 F1000
G1 X90.260 Y50.920 F1000
G1 X90.260 Y51.267 F1000
G1 X90.953 Y51.960 F1000
G1 X90.953 Y52.307 F1000
G1 X91.300 Y52.653 F1000
G1 X91.300 Y53.000 F1000
G1 X91.993 Y53.693 F1000
G1 X91.993 Y54.040 F1000
G1 X92.340 Y54.387 F1000
G1 X92.340 Y54.733 F1000
G1 X92.687 Y55.080 F1000
G1 X92.687 Y55.773 F1000
G1 X93.033 Y56.120 F1000
G1 X93.033 Y56.467 F1000
G1 X93.380 Y56.813 F1000
G1 X93.380 Y57.160 F1000
G1 X93.727 Y57.507 F1000
G1 X93.727 Y58.200 F1000
G1 X94.073 Y58.547 F1000
G1 X94.073 Y59.240 F1000
G1 X94.420 Y59.587 F1000
G1 X94.420 Y60.280 F1000
G1 X94.767 Y60.627 F1000
G1 X94.767 Y61.320 F1000
G1 X95.113 Y61.667 F1000
G1 X95.113 Y62.707 F1000
G1 X95.460 Y63.053 F1000
G1 X95.460 Y64.440 F1000
G1 X95.807 Y64.787 F1000
G1 X95.807 Y67.213 F1000
G1 X96.153 Y67.560 F1000
G1 X96.153 Y73.107 F1000
G1 X95.807 Y73.453 F1000
G1 X95.807 Y75.880 F1000
G1 X95.460 Y76.227 F1000
G1 X95.460 Y77.613 F1000
G1 X95.113 Y77.960 F1000
G1 X95.113 Y79.000 F1000
G1 X94.767 Y79.347 F1000
G1 X94.767 Y80.040 F1000
G1 X94.420 Y80.387 F1000
G1 X94.420 Y81.080 F1000
G1 X94.073 Y81.427 F1000
G1 X94.073 Y82.120 F1000
G1 X93.727 Y82.467 F1000
G1 X93.727 Y83.160 F1000
G1 X93.380 Y83.507 F1000
G1 X93.380 Y83.853 F1000
G1 X93.033 Y84.200 F1000
G1 X93.033 Y84.547 F1000
G1 X92.687 Y84.893 F1000
G1 X92.687 Y85.587 F1000
G1 X92.340 Y85.933 F1000
G1 X92.340 Y86.280 F1000
G1 X91.993 Y86.627 F1000
G1 X91.993 Y86.973 F1000
G1 X91.300 Y87.667 F1000
G1 X91.300 Y88.013 F1000
G1 X90.953 Y88.360 F1000
G1 X90.953 Y88.707 F1000
G1 X90.260 Y89.400 F1000
G1 X90.260 Y89.747 F1000
G1 X89.567 Y90.440 F1000
G1 X89.567 Y90.787 F1000
G1 X88.527 Y91.827 F1000
G1 X88.527 Y92.173 F1000
G1 X83.327 Y97.373 F1000
G1 X82.980 Y97.373 F1000
G1 X81.940 Y98.413 F1000
G1 X81.593 Y98.413 F1000
G1 X80.900 Y99.107 F1000
G1 X80.553 Y99.107 F1000
G1 X79.860 Y99.800 F1000
G1 X79.513 Y99.800 F1000
G1 X79.167 Y100.147 F1000
G1 X78.820 Y100.147 F1000
G1 X78.127 Y100.840 F1000
G1 X77.780 Y100.840 F1000
G1 X77.433 Y101.187 F1000
G1 X77.087 Y101.187 F1000
G1 X76.740 Y101.533 F1000
G1 X76.047 Y101.533 F1000
G1 X75.700 Y101.880 F1000
G1 X75.353 Y101.880 F1000
G1 X75.007 Y102.227 F1000
G1 X74.660 Y102.227 F1000
G1 X74.313 Y102.573 F1000
G1 X73.620 Y102.573 F1000
G1 X73.273 Y102.920 F1000
G1 X72.580 Y102.920 F1000
G1 X72.233 Y103.267 F1000
G1 X71.193 Y103.267 F1000
G1 X70.847 Y103.613 F1000
G1 X69.807 Y103.613 F1000
G1 X69.460 Y103.960 F1000
G1 X68.420 Y103.960 F1000
G1 X68.073 Y104.307 F1000
G1 X65.647 Y104.307 F1000
G1 X65.300 Y104.653 F1000
G0 Z3.0 ; Pen up

G0 X72.233 Y123.720 F3000 ; Travel to line 3
G0 Z0.0 ; Pen down
G1 X51.780 Y123.720 F1000
G0 Z3.0 ; Pen up

G0 X46.580 Y125.800 F3000 ; Travel to line 4
G0 Z0.0 ; Pen down
G1 X77.433 Y125.800 F1000
G0 Z3.0 ; Pen up

G0 X80.553 Y127.533 F3000 ; Travel to line 5
G0 Z0.0 ; Pen down
G1 X43.460 Y127.533 F1000
G0 Z3.0 ; Pen up

G0 X40.687 Y129.613 F3000 ; Travel to line 6
G0 Z0.0 ; Pen down
G1 X83.327 Y129.613 F1000
G0 Z3.0 ; Pen up

G0 X85.753 Y131.693 F3000 ; Travel to line 7
G0 Z0.0 ; Pen down
G1 X38.260 Y131.693 F1000
G0 Z3.0 ; Pen up

G0 X36.180 Y133.773 F3000 ; Travel to line 8
G0 Z0.0 ; Pen down
G1 X87.833 Y133.773 F1000
G0 Z3.0 ; Pen up

G0 X89.220 Y135.507 F3000 ; Travel to line 9
G0 Z0.0 ; Pen down
G1 X34.793 Y135.507 F1000
G0 Z3.0 ; Pen up

G0 X33.060 Y137.587 F3000 ; Travel to line 10
G0 Z0.0 ; Pen down
G1 X90.953 Y137.587 F1000
G0 Z3.0 ; Pen up

G0 X92.340 Y139.667 F3000 ; Travel to line 11
G0 Z0.0 ; Pen down
G1 X31.673 Y139.667 F1000
G0 Z3.0 ; Pen up

G0 X30.633 Y141.747 F3000 ; Travel to line 12
G0 Z0.0 ; Pen down
G1 X93.380 Y141.747 F1000
G0 Z3.0 ; Pen up

G0 X94.073 Y143.827 F3000 ; Travel to line 13
G0 Z0.0 ; Pen down
G1 X29.940 Y143.827 F1000
G0 Z3.0 ; Pen up

G0 X29.247 Y145.560 F3000 ; Travel to line 14
G0 Z0.0 ; Pen down
G1 X94.767 Y145.560 F1000
G0 Z3.0 ; Pen up

G0 X95.460 Y147.640 F3000 ; Travel to line 15
G0 Z0.0 ; Pen down
G1 X28.553 Y147.640 F1000
G0 Z3.0 ; Pen up

G0 X27.860 Y149.720 F3000 ; Travel to line 16
G0 Z0.0 ; Pen down
G1 X96.153 Y149.720 F1000
G0 Z3.0 ; Pen up

G0 X96.500 Y151.800 F3000 ; Travel to line 17
G0 Z0.0 ; Pen down
G1 X27.513 Y151.800 F1000
G0 Z3.0 ; Pen up

G0 X27.513 Y153.533 F3000 ; Travel to line 18
G0 Z0.0 ; Pen down
G1 X96.500 Y153.533 F1000
G0 Z3.0 ; Pen up

G0 X96.847 Y155.613 F3000 ; Travel to line 19
G0 Z0.0 ; Pen down
G1 X27.167 Y155.613 F1000
G0 Z3.0 ; Pen up

G0 X27.167 Y157.693 F3000 ; Travel to line 20
G0 Z0.0 ; Pen down
G1 X96.847 Y157.693 F1000
G0 Z3.0 ; Pen up

G0 X96.847 Y159.773 F3000 ; Travel to line 21
G0 Z0.0 ; Pen down
G1 X27.167 Y159.773 F1000
G0 Z3.0 ; Pen up

G0 X27.513 Y161.507 F3000 ; Travel to line 22
G0 Z0.0 ; Pen down
G1 X96.500 Y161.507 F1000
G0 Z3.0 ; Pen up

G0 X96.153 Y163.587 F3000 ; Travel to line 23
G0 Z0.0 ; Pen down
G1 X27.860 Y163.587 F1000
G0 Z3.0 ; Pen up

G0 X28.207 Y165.667 F3000 ; Travel to line 24
G0 Z0.0 ; Pen down
G1 X95.807 Y165.667 F1000
G0 Z3.0 ; Pen up

G0 X95.113 Y167.747 F3000 ; Travel to line 25
G0 Z0.0 ; Pen down
G1 X28.900 Y167.747 F1000
G0 Z3.0 ; Pen up

G0 X29.593 Y169.827 F3000 ; Travel to line 26
G0 Z0.0 ; Pen down
G1 X94.420 Y169.827 F1000
G0 Z3.0 ; Pen up

G0 X93.727 Y171.560 F3000 ; Travel to line 27
G0 Z0.0 ; Pen down
G1 X30.287 Y171.560 F1000
G0 Z3.0 ; Pen up

G0 X31.327 Y173.640 F3000 ; Travel to line 28
G0 Z0.0 ; Pen down
G1 X92.687 Y173.640 F1000
G0 Z3.0 ; Pen up

G0 X91.300 Y175.720 F3000 ; Travel to line 29
G0 Z0.0 ; Pen down
G1 X32.713 Y175.720 F1000
G0 Z3.0 ; Pen up

G0 X34.100 Y177.800 F3000 ; Travel to line 30
G0 Z0.0 ; Pen down
G1 X89.913 Y177.800 F1000
G0 Z3.0 ; Pen up

G0 X88.527 Y179.533 F3000 ; Travel to line 31
G0 Z0.0 ; Pen down
G1 X35.487 Y179.533 F1000
G0 Z3.0 ; Pen up

G0 X37.567 Y181.613 F3000 ; Travel to line 32
G0 Z0.0 ; Pen down
G1 X86.447 Y181.613 F1000
G0 Z3.0 ; Pen up

G0 X84.367 Y183.693 F3000 ; Travel to line 33
G0 Z0.0 ; Pen down
G1 X39.647 Y183.693 F1000
G0 Z3.0 ; Pen up

G0 X42.420 Y185.773 F3000 ; Travel to line 34
G0 Z0.0 ; Pen down
G1 X81.593 Y185.773 F1000
G0 Z3.0 ; Pen up

G0 X78.820 Y187.507 F3000 ; Travel to line 35
G0 Z0.0 ; Pen down
G1 X45.193 Y187.507 F1000
G0 Z3.0 ; Pen up

G0 X49.700 Y189.587 F3000 ; Travel to line 36
G0 Z0.0 ; Pen down
G1 X74.313 Y189.587 F1000
G0 Z3.0 ; Pen up

G0 X65.300 Y191.667 F3000 ; Travel to line 37
G0 Z0.0 ; Pen down
G1 X58.713 Y191.667 F1000
G0 Z3.0 ; Pen up

G0 X58.713 Y191.667 F3000 ; Travel to line 38
G0 Z0.0 ; Pen down
G1 X58.367 Y191.320 F1000
G1 X55.940 Y191.320 F1000
G1 X55.593 Y190.973 F1000
G1 X52.820 Y190.627 F1000
G1 X52.473 Y190.280 F1000
G1 X49.700 Y189.587 F1000
G1 X48.660 Y188.893 F1000
G1 X47.967 Y188.893 F1000
G1 X44.500 Y187.160 F1000
G1 X43.807 Y186.467 F1000
G1 X42.767 Y186.120 F1000
G1 X40.340 Y184.040 F1000
G1 X39.993 Y184.040 F1000
G1 X34.793 Y178.840 F1000
G1 X34.793 Y178.493 F1000
G1 X33.753 Y177.453 F1000
G1 X33.753 Y177.107 F1000
G1 X32.713 Y176.067 F1000
G1 X32.367 Y175.027 F1000
G1 X31.673 Y174.333 F1000
G1 X29.940 Y170.867 F1000
G1 X29.940 Y170.173 F1000
G1 X29.247 Y169.133 F1000
G1 X29.247 Y168.440 F1000
G1 X28.900 Y168.093 F1000
G1 X28.900 Y167.400 F1000
G1 X28.207 Y166.013 F1000
G1 X27.860 Y163.240 F1000
G1 X27.513 Y162.893 F1000
G1 X27.513 Y160.467 F1000
G1 X27.167 Y160.120 F1000
G1 X27.167 Y153.880 F1000
G1 X27.513 Y153.533 F1000
G1 X27.513 Y151.107 F1000
G1 X27.860 Y150.760 F1000
G1 X28.207 Y147.987 F1000
G1 X28.553 Y147.640 F1000
G1 X29.247 Y144.867 F1000
G1 X29.940 Y143.827 F1000
G1 X29.940 Y143.133 F1000
G1 X31.673 Y139.667 F1000
G1 X32.367 Y138.973 F1000
G1 X32.713 Y137.933 F1000
G1 X34.793 Y135.507 F1000
G1 X34.793 Y135.160 F1000
G1 X39.993 Y129.960 F1000
G1 X40.340 Y129.960 F1000
G1 X41.380 Y128.920 F1000
G1 X41.727 Y128.920 F1000
G1 X42.767 Y127.880 F1000
G1 X43.807 Y127.533 F1000
G1 X44.500 Y126.840 F1000
G1 X47.967 Y125.107 F1000
G1 X48.660 Y125.107 F1000
G1 X49.700 Y124.413 F1000
G1 X50.393 Y124.413 F1000
G1 X50.740 Y124.067 F1000
G1 X51.433 Y124.067 F1000
G1 X52.820 Y123.373 F1000
G1 X55.593 Y123.027 F1000
G1 X55.940 Y122.680 F1000
G1 X58.367 Y122.680 F1000
G1 X58.713 Y122.333 F1000
G1 X64.953 Y122.333 F1000
G1 X65.300 Y122.680 F1000
G1 X67.727 Y122.680 F1000
G1 X68.073 Y123.027 F1000
G1 X70.847 Y123.373 F1000
G1 X71.193 Y123.720 F1000
G1 X73.967 Y124.413 F1000
G1 X75.007 Y125.107 F1000
G1 X75.700 Y125.107 F1000
G1 X79.167 Y126.840 F1000
G1 X79.860 Y127.533 F1000
G1 X80.900 Y127.880 F1000
G1 X83.327 Y129.960 F1000
G1 X83.673 Y129.960 F1000
G1 X88.873 Y135.160 F1000
G1 X88.873 Y135.507 F1000
G1 X89.913 Y136.547 F1000
G1 X89.913 Y136.893 F1000
G1 X90.953 Y137.933 F1000
G1 X91.300 Y138.973 F1000
G1 X91.993 Y139.667 F1000
G1 X93.727 Y143.133 F1000
G1 X93.727 Y143.827 F1000
G1 X94.420 Y144.867 F1000
G1 X94.420 Y145.560 F1000
G1 X94.767 Y145.907 F1000
G1 X94.767 Y146.600 F1000
G1 X95.460 Y147.987 F1000
G1 X95.807 Y150.760 F1000
G1 X96.153 Y151.107 F1000
G1 X96.153 Y153.533 F1000
G1 X96.500 Y153.880 F1000
G1 X96.500 Y160.120 F1000
G1 X96.153 Y160.467 F1000
G1 X96.153 Y162.893 F1000
G1 X95.807 Y163.240 F1000
G1 X95.460 Y166.013 F1000
G1 X95.113 Y166.360 F1000
G1 X94.420 Y169.133 F1000
G1 X93.727 Y170.173 F1000
G1 X93.727 Y170.867 F1000
G1 X91.993 Y174.333 F1000
G1 X91.300 Y175.027 F1000
G1 X90.953 Y176.067 F1000
G1 X88.873 Y178.493 F1000
G1 X88.873 Y178.840 F1000
G1 X83.673 Y184.040 F1000
G1 X83.327 Y184.040 F1000
G1 X82.287 Y185.080 F1000
G1 X81.940 Y185.080 F1000
G1 X80.900 Y186.120 F1000
G1 X79.860 Y186.467 F1000
G1 X79.167 Y187.160 F1000
G1 X75.700 Y188.893 F1000
G1 X75.007 Y188.893 F1000
G1 X73.967 Y189.587 F1000
G1 X73.273 Y189.587 F1000
G1 X72.927 Y189.933 F1000
G1 X72.233 Y189.933 F1000
G1 X70.847 Y190.627 F1000
G1 X68.073 Y190.973 F1000
G1 X67.727 Y191.320 F1000
G1 X65.300 Y191.320 F1000
G1 X64.953 Y191.667 F1000
G1 X58.713 Y191.667 F1000
G0 Z3.0 ; Pen up

G0 X113.833 Y191.667 F3000 ; Travel to line 39
G0 Z0.0 ; Pen down
G1 X183.513 Y191.667 F1000
G0 Z3.0 ; Pen up

G0 X183.513 Y189.587 F3000 ; Travel to line 40
G0 Z0.0 ; Pen down
G1 X113.833 Y189.587 F1000
G0 Z3.0 ; Pen up

G0 X113.833 Y187.507 F3000 ; Travel to line 41
G0 Z0.0 ; Pen down
G1 X183.513 Y187.507 F1000
G0 Z3.0 ; Pen up

G0 X183.513 Y185.773 F3000 ; Travel to line 42
G0 Z0.0 ; Pen down
G1 X113.833 Y185.773 F1000
G0 Z3.0 ; Pen up

G0 X113.833 Y183.693 F3000 ; Travel to line 43
G0 Z0.0 ; Pen down
G1 X183.513 Y183.693 F1000
G0 Z3.0 ; Pen up

G0 X183.513 Y181.613 F3000 ; Travel to line 44
G0 Z0.0 ; Pen down
G1 X113.833 Y181.613 F1000
G0 Z3.0 ; Pen up

G0 X113.833 Y179.533 F3000 ; Travel to line 45
G0 Z0.0 ; Pen down
G1 X183.513 Y179.533 F1000
G0 Z3.0 ; Pen up

G0 X183.513 Y177.800 F3000 ; Travel to line 46
G0 Z0.0 ; Pen down
G1 X113.833 Y177.800 F1000
G0 Z3.0 ; Pen up

G0 X113.833 Y175.720 F3000 ; Travel to line 47
G0 Z0.0 ; Pen down
G1 X183.513 Y175.720 F1000
G0 Z3.0 ; Pen up

G0 X183.513 Y173.640 F3000 ; Travel to line 48
G0 Z0.0 ; Pen down
G1 X113.833 Y173.640 F1000
G0 Z3.0 ; Pen up

G0 X113.833 Y171.560 F3000 ; Travel to line 49
G0 Z0.0 ; Pen down
G1 X183.513 Y171.560 F1000
G0 Z3.0 ; Pen up

G0 X183.513 Y169.827 F3000 ; Travel to line 50
G0 Z0.0 ; Pen down
G1 X113.833 Y169.827 F1000
G0 Z3.0 ; Pen up

G0 X113.833 Y167.747 F3000 ; Travel to line 51
G0 Z0.0 ; Pen down
G1 X183.513 Y167.747 F1000
G0 Z3.0 ; Pen up

G0 X183.513 Y165.667 F3000 ; Travel to line 52
G0 Z0.0 ; Pen down
G1 X113.833 Y165.667 F1000
G0 Z3.0 ; Pen up

G0 X113.833 Y163.587 F3000 ; Travel to line 53
G0 Z0.0 ; Pen down
G1 X183.513 Y163.587 F1000
G0 Z3.0 ; Pen up

G0 X183.513 Y161.507 F3000 ; Travel to line 54
G0 Z0.0 ; Pen down
G1 X113.833 Y161.507 F1000
G0 Z3.0 ; Pen up

G0 X113.833 Y159.773 F3000 ; Travel to line 55
G0 Z0.0 ; Pen down
G1 X183.513 Y159.773 F1000
G0 Z3.0 ; Pen up

G0 X183.513 Y157.693 F3000 ; Travel to line 56
G0 Z0.0 ; Pen down
G1 X113.833 Y157.693 F1000
G0 Z3.0 ; Pen up

G0 X113.833 Y155.613 F3000 ; Travel to line 57
G0 Z0.0 ; Pen down
G1 X183.513 Y155.613 F1000
G0 Z3.0 ; Pen up

G0 X183.513 Y153.533 F3000 ; Travel to line 58
G0 Z0.0 ; Pen down
G1 X113.833 Y153.533 F1000
G0 Z3.0 ; Pen up

G0 X113.833 Y151.800 F3000 ; Travel to line 59
G0 Z0.0 ; Pen down
G1 X183.513 Y151.800 F1000
G0 Z3.0 ; Pen up

G0 X183.513 Y149.720 F3000 ; Travel to line 60
G0 Z0.0 ; Pen down
G1 X113.833 Y149.720 F1000
G0 Z3.0 ; Pen up

G0 X113.833 Y147.640 F3000 ; Travel to line 61
G0 Z0.0 ; Pen down
G1 X183.513 Y147.640 F1000
G0 Z3.0 ; Pen up

G0 X183.513 Y145.560 F3000 ; Travel to line 62
G0 Z0.0 ; Pen down
G1 X113.833 Y145.560 F1000
G0 Z3.0 ; Pen up

G0 X113.833 Y143.827 F3000 ; Travel to line 63
G0 Z0.0 ; Pen down
G1 X183.513 Y143.827 F1000
G0 Z3.0 ; Pen up

G0 X183.513 Y141.747 F3000 ; Travel to line 64
G0 Z0.0 ; Pen down
G1 X113.833 Y141.747 F1000
G0 Z3.0 ; Pen up

G0 X113.833 Y139.667 F3000 ; Travel to line 65
G0 Z0.0 ; Pen down
G1 X183.513 Y139.667 F1000
G0 Z3.0 ; Pen up

G0 X183.513 Y137.587 F3000 ; Travel to line 66
G0 Z0.0 ; Pen down
G1 X113.833 Y137.587 F1000
G0 Z3.0 ; Pen up

G0 X113.833 Y135.507 F3000 ; Travel to line 67
G0 Z0.0 ; Pen down
G1 X183.513 Y135.507 F1000
G0 Z3.0 ; Pen up

G0 X183.513 Y133.773 F3000 ; Travel to line 68
G0 Z0.0 ; Pen down
G1 X113.833 Y133.773 F1000
G0 Z3.0 ; Pen up

G0 X113.833 Y131.693 F3000 ; Travel to line 69
G0 Z0.0 ; Pen down
G1 X183.513 Y131.693 F1000
G0 Z3.0 ; Pen up

G0 X183.513 Y129.613 F3000 ; Travel to line 70
G0 Z0.0 ; Pen down
G1 X113.833 Y129.613 F1000
G0 Z3.0 ; Pen up

G0 X113.833 Y127.533 F3000 ; Travel to line 71
G0 Z0.0 ; Pen down
G1 X183.513 Y127.533 F1000
G0 Z3.0 ; Pen up

G0 X183.513 Y125.800 F3000 ; Travel to line 72
G0 Z0.0 ; Pen down
G1 X113.833 Y125.800 F1000
G0 Z3.0 ; Pen up

G0 X113.833 Y123.720 F3000 ; Travel to line 73
G0 Z0.0 ; Pen down
G1 X183.513 Y123.720 F1000
G0 Z3.0 ; Pen up

G0 X182.820 Y104.653 F3000 ; Travel to line 74
G0 Z0.0 ; Pen down
G1 X182.820 Y36.360 F1000
G1 X182.473 Y36.013 F1000
G1 X114.180 Y36.013 F1000
G1 X114.180 Y104.653 F1000
G0 Z3.0 ; Pen up

G0 X114.180 Y104.307 F3000 ; Travel to line 75
G0 Z0.0 ; Pen down
G1 X114.527 Y104.653 F1000
G1 X182.473 Y104.653 F1000
G1 X182.820 Y104.307 F1000
G1 X182.820 Y36.707 F1000
G1 X182.127 Y36.013 F1000
G1 X114.527 Y36.013 F1000
G1 X114.180 Y36.360 F1000
G0 Z3.0 ; Pen up

G0 X218.527 Y123.720 F3000 ; Travel to line 76
G0 Z0.0 ; Pen down
G1 X269.487 Y123.720 F1000
G0 Z3.0 ; Pen up

G0 X268.793 Y125.800 F3000 ; Travel to line 77
G0 Z0.0 ; Pen down
G1 X219.220 Y125.800 F1000
G0 Z3.0 ; Pen up

G0 X219.913 Y127.533 F3000 ; Travel to line 78
G0 Z0.0 ; Pen down
G1 X268.100 Y127.533 F1000
G0 Z3.0 ; Pen up

G0 X267.407 Y129.613 F3000 ; Travel to line 79
G0 Z0.0 ; Pen down
G1 X220.607 Y129.613 F1000
G0 Z3.0 ; Pen up

G0 X221.300 Y131.693 F3000 ; Travel to line 80
G0 Z0.0 ; Pen down
G1 X266.713 Y131.693 F1000
G0 Z3.0 ; Pen up

G0 X266.020 Y133.773 F3000 ; Travel to line 81
G0 Z0.0 ; Pen down
G1 X221.993 Y133.773 F1000
G0 Z3.0 ; Pen up

G0 X222.687 Y135.507 F3000 ; Travel to line 82
G0 Z0.0 ; Pen down
G1 X265.327 Y135.507 F1000
G0 Z3.0 ; Pen up

G0 X264.287 Y137.587 F3000 ; Travel to line 83
G0 Z0.0 ; Pen down
G1 X223.727 Y137.587 F1000
G0 Z3.0 ; Pen up

G0 X224.420 Y139.667 F3000 ; Travel to line 84
G0 Z0.0 ; Pen down
G1 X263.593 Y139.667 F1000
G0 Z3.0 ; Pen up

G0 X262.900 Y141.747 F3000 ; Travel to line 85
G0 Z0.0 ; Pen down
G1 X225.113 Y141.747 F1000
G0 Z3.0 ; Pen up

G0 X225.807 Y143.827 F3000 ; Travel to line 86
G0 Z0.0 ; Pen down
G1 X262.207 Y143.827 F1000
G0 Z3.0 ; Pen up

G0 X261.513 Y145.560 F3000 ; Travel to line 87
G0 Z0.0 ; Pen down
G1 X226.500 Y145.560 F1000
G0 Z3.0 ; Pen up

G0 X227.193 Y147.640 F3000 ; Travel to line 88
G0 Z0.0 ; Pen down
G1 X260.820 Y147.640 F1000
G0 Z3.0 ; Pen up

G0 X259.780 Y149.720 F3000 ; Travel to line 89
G0 Z0.0 ; Pen down
G1 X228.233 Y149.720 F1000
G0 Z3.0 ; Pen up

G0 X228.927 Y151.800 F3000 ; Travel to line 90
G0 Z0.0 ; Pen down
G1 X259.087 Y151.800 F1000
G0 Z3.0 ; Pen up

G0 X258.393 Y153.533 F3000 ; Travel to line 91
G0 Z0.0 ; Pen down
G1 X229.620 Y153.533 F1000
G0 Z3.0 ; Pen up

G0 X230.313 Y155.613 F3000 ; Travel to line 92
G0 Z0.0 ; Pen down
G1 X257.700 Y155.613 F1000
G0 Z3.0 ; Pen up

G0 X257.007 Y157.693 F3000 ; Travel to line 93
G0 Z0.0 ; Pen down
G1 X231.007 Y157.693 F1000
G0 Z3.0 ; Pen up

G0 X232.047 Y159.773 F3000 ; Travel to line 94
G0 Z0.0 ; Pen down
G1 X255.967 Y159.773 F1000
G0 Z3.0 ; Pen up

G0 X255.620 Y161.507 F3000 ; Travel to line 95
G0 Z0.0 ; Pen down
G1 X232.393 Y161.507 F1000
G0 Z3.0 ; Pen up

G0 X233.433 Y163.587 F3000 ; Travel to line 96
G0 Z0.0 ; Pen down
G1 X254.580 Y163.587 F1000
G0 Z3.0 ; Pen up

G0 X253.887 Y165.667 F3000 ; Travel to line 97
G0 Z0.0 ; Pen down
G1 X234.127 Y165.667 F1000
G0 Z3.0 ; Pen up

G0 X234.820 Y167.747 F3000 ; Travel to line 98
G0 Z0.0 ; Pen down
G1 X253.193 Y167.747 F1000
G0 Z3.0 ; Pen up

G0 X252.500 Y169.827 F3000 ; Travel to line 99
G0 Z0.0 ; Pen down
G1 X235.513 Y169.827 F1000
G0 Z3.0 ; Pen up

G0 X236.207 Y171.560 F3000 ; Travel to line 100
G0 Z0.0 ; Pen down
G1 X251.807 Y171.560 F1000
G0 Z3.0 ; Pen up

G0 X250.767 Y173.640 F3000 ; Travel to line 101
G0 Z0.0 ; Pen down
G1 X237.247 Y173.640 F1000
G0 Z3.0 ; Pen up

G0 X237.940 Y175.720 F3000 ; Travel to line 102
G0 Z0.0 ; Pen down
G1 X250.073 Y175.720 F1000
G0 Z3.0 ; Pen up

G0 X249.380 Y177.800 F3000 ; Travel to line 103
G0 Z0.0 ; Pen down
G1 X238.633 Y177.800 F1000
G0 Z3.0 ; Pen up

G0 X239.327 Y179.533 F3000 ; Travel to line 104
G0 Z0.0 ; Pen down
G1 X248.687 Y179.533 F1000
G0 Z3.0 ; Pen up

G0 X247.993 Y181.613 F3000 ; Travel to line 105
G0 Z0.0 ; Pen down
G1 X240.020 Y181.613 F1000
G0 Z3.0 ; Pen up

G0 X240.713 Y183.693 F3000 ; Travel to line 106
G0 Z0.0 ; Pen down
G1 X247.300 Y183.693 F1000
G0 Z3.0 ; Pen up

G0 X246.260 Y185.773 F3000 ; Travel to line 107
G0 Z0.0 ; Pen down
G1 X241.753 Y185.773 F1000
G0 Z3.0 ; Pen up

G0 X242.447 Y187.507 F3000 ; Travel to line 108
G0 Z0.0 ; Pen down
G1 X245.567 Y187.507 F1000
G0 Z3.0 ; Pen up

G0 X244.873 Y189.587 F3000 ; Travel to line 109
G0 Z0.0 ; Pen down
G1 X243.140 Y189.587 F1000
G0 Z3.0 ; Pen up

G0 X243.833 Y191.667 F3000 ; Travel to line 110
G0 Z0.0 ; Pen down
G1 X244.180 Y191.667 F1000
G0 Z3.0 ; Pen up

G0 X243.833 Y191.667 F3000 ; Travel to line 111
G0 Z0.0 ; Pen down
G1 X217.833 Y122.333 F1000
G1 X269.833 Y122.333 F1000
G1 X243.833 Y191.667 F1000
G0 Z3.0 ; Pen up

G0 X113.833 Y191.667 F3000 ; Travel to line 112
G0 Z0.0 ; Pen down
G1 X113.833 Y122.333 F1000
G1 X183.167 Y122.333 F1000
G1 X183.167 Y191.667 F1000
G1 X113.833 Y191.667 F1000
G0 Z3.0 ; Pen up

; Return to origin
G0 X0 Y0
G0 Z3.0

; Total drawing distance: 7241.93 mm
; Total travel distance: 716.24 mm
; Total lines: 112
; Estimated time: 448.8 seconds (7.5 minutes)
M2 ; End program