; Blueprint to G-code
; Input: /home/david/code/blueprint2gcode/test_data/test_images_solid/test5_mechanical_part.png
; Generated with blueprint2gcode.py
;
; Generation Parameters:
;   Paper size: A4 (210x297mm)
;   Orientation: auto
;   Margin: 1.0mm
;   Z up: 3.0mm
;   Z down: 0.0mm
;   Feed rate: 1000mm/min
;   Travel rate: 3000mm/min
;   Join tolerance: 0.02mm
;   Min line length: 0.01mm
;   Simplify epsilon: 0.000001
;   Fill solid areas: True
;   Hatch spacing: 1.5px
;   Hatch angle: 45.0°
;   Crosshatch: False
;   Min solid area: 1.0px²
;   Invert colors: False

G21 ; Set units to millimeters
G90 ; Absolute positioning
G0 Z3.0 ; Pen up
G0 X0 Y0 ; Move to origin

G0 X44.500 Y52.740 F3000 ; Travel to line 1
G0 Z0.0 ; Pen down
G1 X44.500 Y53.000 F1000
G0 Z3.0 ; Pen up

G0 X44.500 Y55.080 F3000 ; Travel to line 2
G0 Z0.0 ; Pen down
G1 X46.580 Y52.740 F1000
G0 Z3.0 ; Pen up

G0 X48.660 Y52.740 F3000 ; Travel to line 3
G0 Z0.0 ; Pen down
G1 X44.500 Y57.160 F1000
G0 Z3.0 ; Pen up

G0 X44.500 Y59.240 F3000 ; Travel to line 4
G0 Z0.0 ; Pen down
G1 X51.000 Y52.740 F1000
G0 Z3.0 ; Pen up

G0 X53.080 Y52.740 F3000 ; Travel to line 5
G0 Z0.0 ; Pen down
G1 X44.500 Y61.580 F1000
G0 Z3.0 ; Pen up

G0 X44.500 Y63.660 F3000 ; Travel to line 6
G0 Z0.0 ; Pen down
G1 X55.160 Y52.740 F1000
G0 Z3.0 ; Pen up

G0 X57.240 Y52.740 F3000 ; Travel to line 7
G0 Z0.0 ; Pen down
G1 X44.500 Y65.740 F1000
G0 Z3.0 ; Pen up

G0 X44.500 Y67.820 F3000 ; Travel to line 8
G0 Z0.0 ; Pen down
G1 X59.320 Y52.740 F1000
G0 Z3.0 ; Pen up

G0 X61.400 Y52.740 F3000 ; Travel to line 9
G0 Z0.0 ; Pen down
G1 X44.500 Y69.900 F1000
G0 Z3.0 ; Pen up

G0 X44.500 Y71.980 F3000 ; Travel to line 10
G0 Z0.0 ; Pen down
G1 X63.740 Y52.740 F1000
G0 Z3.0 ; Pen up

G0 X65.820 Y52.740 F3000 ; Travel to line 11
G0 Z0.0 ; Pen down
G1 X44.500 Y74.320 F1000
G0 Z3.0 ; Pen up

G0 X44.500 Y76.400 F3000 ; Travel to line 12
G0 Z0.0 ; Pen down
G1 X67.900 Y52.740 F1000
G0 Z3.0 ; Pen up

G0 X69.980 Y52.740 F3000 ; Travel to line 13
G0 Z0.0 ; Pen down
G1 X44.500 Y78.480 F1000
G0 Z3.0 ; Pen up

G0 X44.500 Y80.560 F3000 ; Travel to line 14
G0 Z0.0 ; Pen down
G1 X72.060 Y52.740 F1000
G0 Z3.0 ; Pen up

G0 X74.140 Y52.740 F3000 ; Travel to line 15
G0 Z0.0 ; Pen down
G1 X44.500 Y82.640 F1000
G0 Z3.0 ; Pen up

G0 X44.500 Y84.720 F3000 ; Travel to line 16
G0 Z0.0 ; Pen down
G1 X76.220 Y52.740 F1000
G0 Z3.0 ; Pen up

G0 X78.560 Y52.740 F3000 ; Travel to line 17
G0 Z0.0 ; Pen down
G1 X44.500 Y87.060 F1000
G0 Z3.0 ; Pen up

G0 X44.500 Y89.140 F3000 ; Travel to line 18
G0 Z0.0 ; Pen down
G1 X80.640 Y52.740 F1000
G0 Z3.0 ; Pen up

G0 X82.720 Y52.740 F3000 ; Travel to line 19
G0 Z0.0 ; Pen down
G1 X44.500 Y91.220 F1000
G0 Z3.0 ; Pen up

G0 X44.500 Y93.300 F3000 ; Travel to line 20
G0 Z0.0 ; Pen down
G1 X84.800 Y52.740 F1000
G0 Z3.0 ; Pen up

G0 X86.880 Y52.740 F3000 ; Travel to line 21
G0 Z0.0 ; Pen down
G1 X44.500 Y95.380 F1000
G0 Z3.0 ; Pen up

G0 X44.500 Y97.460 F3000 ; Travel to line 22
G0 Z0.0 ; Pen down
G1 X88.960 Y52.740 F1000
G0 Z3.0 ; Pen up

G0 X91.300 Y52.740 F3000 ; Travel to line 23
G0 Z0.0 ; Pen down
G1 X44.500 Y99.800 F1000
G0 Z3.0 ; Pen up

G0 X44.500 Y101.880 F3000 ; Travel to line 24
G0 Z0.0 ; Pen down
G1 X93.380 Y52.740 F1000
G0 Z3.0 ; Pen up

G0 X95.460 Y52.740 F3000 ; Travel to line 25
G0 Z0.0 ; Pen down
G1 X44.500 Y103.960 F1000
G0 Z3.0 ; Pen up

G0 X44.500 Y106.040 F3000 ; Travel to line 26
G0 Z0.0 ; Pen down
G1 X97.540 Y52.740 F1000
G0 Z3.0 ; Pen up

G0 X99.620 Y52.740 F3000 ; Travel to line 27
G0 Z0.0 ; Pen down
G1 X44.500 Y108.120 F1000
G0 Z3.0 ; Pen up

G0 X44.500 Y110.200 F3000 ; Travel to line 28
G0 Z0.0 ; Pen down
G1 X101.700 Y52.740 F1000
G0 Z3.0 ; Pen up

G0 X104.040 Y52.740 F3000 ; Travel to line 29
G0 Z0.0 ; Pen down
G1 X44.500 Y112.280 F1000
G0 Z3.0 ; Pen up

G0 X44.500 Y114.620 F3000 ; Travel to line 30
G0 Z0.0 ; Pen down
G1 X106.120 Y52.740 F1000
G0 Z3.0 ; Pen up

G0 X108.200 Y52.740 F3000 ; Travel to line 31
G0 Z0.0 ; Pen down
G1 X44.500 Y116.700 F1000
G0 Z3.0 ; Pen up

G0 X44.500 Y118.780 F3000 ; Travel to line 32
G0 Z0.0 ; Pen down
G1 X110.280 Y52.740 F1000
G0 Z3.0 ; Pen up

G0 X112.360 Y52.740 F3000 ; Travel to line 33
G0 Z0.0 ; Pen down
G1 X44.500 Y120.860 F1000
G0 Z3.0 ; Pen up

G0 X44.500 Y122.940 F3000 ; Travel to line 34
G0 Z0.0 ; Pen down
G1 X114.440 Y52.740 F1000
G0 Z3.0 ; Pen up

G0 X116.780 Y52.740 F3000 ; Travel to line 35
G0 Z0.0 ; Pen down
G1 X44.500 Y125.020 F1000
G0 Z3.0 ; Pen up

G0 X44.500 Y127.360 F3000 ; Travel to line 36
G0 Z0.0 ; Pen down
G1 X118.860 Y52.740 F1000
G0 Z3.0 ; Pen up

G0 X120.940 Y52.740 F3000 ; Travel to line 37
G0 Z0.0 ; Pen down
G1 X44.500 Y129.440 F1000
G0 Z3.0 ; Pen up

G0 X44.500 Y131.520 F3000 ; Travel to line 38
G0 Z0.0 ; Pen down
G1 X123.020 Y52.740 F1000
G0 Z3.0 ; Pen up

G0 X125.100 Y52.740 F3000 ; Travel to line 39
G0 Z0.0 ; Pen down
G1 X44.500 Y133.600 F1000
G0 Z3.0 ; Pen up

G0 X44.500 Y135.680 F3000 ; Travel to line 40
G0 Z0.0 ; Pen down
G1 X127.180 Y52.740 F1000
G0 Z3.0 ; Pen up

G0 X129.260 Y52.740 F3000 ; Travel to line 41
G0 Z0.0 ; Pen down
G1 X44.500 Y137.760 F1000
G0 Z3.0 ; Pen up

G0 X44.500 Y140.100 F3000 ; Travel to line 42
G0 Z0.0 ; Pen down
G1 X131.600 Y52.740 F1000
G0 Z3.0 ; Pen up

G0 X133.680 Y52.740 F3000 ; Travel to line 43
G0 Z0.0 ; Pen down
G1 X89.480 Y96.940 F1000
G0 Z3.0 ; Pen up

G0 X89.480 Y97.200 F3000 ; Travel to line 44
G0 Z0.0 ; Pen down
G1 X89.220 Y97.200 F1000
G0 Z3.0 ; Pen up

G0 X89.220 Y97.460 F3000 ; Travel to line 45
G0 Z0.0 ; Pen down
G1 X88.960 Y97.460 F1000
G0 Z3.0 ; Pen up

G0 X88.960 Y97.720 F3000 ; Travel to line 46
G0 Z0.0 ; Pen down
G1 X88.700 Y97.720 F1000
G0 Z3.0 ; Pen up

G0 X88.700 Y97.980 F3000 ; Travel to line 47
G0 Z0.0 ; Pen down
G1 X44.500 Y142.180 F1000
G0 Z3.0 ; Pen up

G0 X44.500 Y144.260 F3000 ; Travel to line 48
G0 Z0.0 ; Pen down
G1 X84.800 Y103.960 F1000
G0 Z3.0 ; Pen up

G0 X84.800 Y103.700 F3000 ; Travel to line 49
G0 Z0.0 ; Pen down
G1 X85.060 Y103.700 F1000
G0 Z3.0 ; Pen up

G0 X84.020 Y106.820 F3000 ; Travel to line 50
G0 Z0.0 ; Pen down
G1 X83.760 Y106.820 F1000
G0 Z3.0 ; Pen up

G0 X83.760 Y107.080 F3000 ; Travel to line 51
G0 Z0.0 ; Pen down
G1 X44.500 Y146.340 F1000
G0 Z3.0 ; Pen up

G0 X44.500 Y148.420 F3000 ; Travel to line 52
G0 Z0.0 ; Pen down
G1 X83.500 Y109.420 F1000
G0 Z3.0 ; Pen up

G0 X83.240 Y111.500 F3000 ; Travel to line 53
G0 Z0.0 ; Pen down
G1 X44.500 Y150.500 F1000
G0 Z3.0 ; Pen up

G0 X44.500 Y152.580 F3000 ; Travel to line 54
G0 Z0.0 ; Pen down
G1 X83.500 Y113.580 F1000
G0 Z3.0 ; Pen up

G0 X83.760 Y115.660 F3000 ; Travel to line 55
G0 Z0.0 ; Pen down
G1 X44.500 Y154.920 F1000
G0 Z3.0 ; Pen up

G0 X44.500 Y157.000 F3000 ; Travel to line 56
G0 Z0.0 ; Pen down
G1 X84.280 Y117.220 F1000
G0 Z3.0 ; Pen up

G0 X84.800 Y118.780 F3000 ; Travel to line 57
G0 Z0.0 ; Pen down
G1 X46.320 Y157.000 F1000
G0 Z3.0 ; Pen up

G0 X44.500 Y157.000 F3000 ; Travel to line 58
G0 Z0.0 ; Pen down
G1 X44.500 Y53.000 F1000
G1 X141.740 Y53.000 F1000
G1 X138.880 Y53.000 F1000
G1 X138.620 Y53.260 F1000
G1 X137.580 Y53.260 F1000
G1 X137.320 Y53.520 F1000
G1 X135.760 Y53.780 F1000
G1 X134.980 Y54.300 F1000
G1 X134.460 Y54.300 F1000
G1 X131.860 Y55.600 F1000
G1 X131.340 Y56.120 F1000
G1 X130.300 Y56.640 F1000
G1 X128.740 Y58.200 F1000
G1 X128.480 Y58.200 F1000
G1 X126.140 Y60.800 F1000
G1 X126.140 Y61.060 F1000
G1 X125.100 Y62.360 F1000
G1 X123.800 Y64.960 F1000
G1 X123.800 Y65.480 F1000
G1 X123.280 Y66.260 F1000
G1 X123.020 Y67.820 F1000
G1 X122.760 Y68.080 F1000
G1 X122.760 Y69.120 F1000
G1 X122.500 Y69.380 F1000
G1 X122.500 Y72.240 F1000
G1 X122.240 Y72.500 F1000
G1 X122.500 Y72.760 F1000
G1 X122.500 Y75.620 F1000
G1 X122.760 Y75.880 F1000
G1 X122.760 Y76.920 F1000
G1 X123.020 Y77.180 F1000
G1 X123.020 Y77.960 F1000
G1 X123.800 Y79.520 F1000
G1 X123.800 Y80.040 F1000
G1 X125.100 Y82.640 F1000
G1 X125.620 Y83.160 F1000
G1 X126.140 Y84.200 F1000
G1 X127.700 Y85.760 F1000
G1 X127.700 Y86.020 F1000
G1 X130.300 Y88.360 F1000
G1 X130.560 Y88.360 F1000
G1 X131.860 Y89.400 F1000
G1 X134.460 Y90.700 F1000
G1 X134.980 Y90.700 F1000
G1 X135.760 Y91.220 F1000
G1 X137.320 Y91.480 F1000
G1 X137.580 Y91.740 F1000
G1 X138.620 Y91.740 F1000
G1 X138.880 Y92.000 F1000
G1 X141.740 Y92.000 F1000
G1 X142.000 Y92.260 F1000
G1 X142.260 Y92.000 F1000
G1 X145.120 Y92.000 F1000
G1 X145.380 Y91.740 F1000
G1 X146.420 Y91.740 F1000
G1 X146.680 Y91.480 F1000
G1 X147.460 Y91.480 F1000
G1 X149.020 Y90.700 F1000
G1 X149.540 Y90.700 F1000
G1 X152.140 Y89.400 F1000
G1 X152.660 Y88.880 F1000
G1 X153.700 Y88.360 F1000
G1 X155.260 Y86.800 F1000
G1 X155.520 Y86.800 F1000
G1 X157.860 Y84.200 F1000
G1 X157.860 Y83.940 F1000
G1 X158.900 Y82.640 F1000
G1 X160.200 Y80.040 F1000
G1 X160.200 Y79.520 F1000
G1 X160.720 Y78.740 F1000
G1 X160.980 Y77.180 F1000
G1 X161.240 Y76.920 F1000
G1 X161.240 Y75.880 F1000
G1 X161.500 Y75.620 F1000
G1 X161.500 Y72.760 F1000
G1 X161.760 Y72.500 F1000
G1 X161.500 Y72.240 F1000
G1 X161.500 Y69.380 F1000
G1 X161.240 Y69.120 F1000
G1 X161.240 Y68.080 F1000
G1 X160.980 Y67.820 F1000
G1 X160.980 Y67.040 F1000
G1 X160.200 Y65.480 F1000
G1 X160.200 Y64.960 F1000
G1 X158.900 Y62.360 F1000
G1 X158.380 Y61.840 F1000
G1 X157.860 Y60.800 F1000
G1 X156.300 Y59.240 F1000
G1 X156.300 Y58.980 F1000
G1 X153.700 Y56.640 F1000
G1 X153.440 Y56.640 F1000
G1 X152.140 Y55.600 F1000
G1 X149.540 Y54.300 F1000
G1 X149.020 Y54.300 F1000
G1 X147.460 Y53.520 F1000
G1 X145.380 Y53.260 F1000
G1 X145.120 Y53.000 F1000
G1 X142.260 Y53.000 F1000
G1 X226.500 Y53.000 F1000
G1 X226.500 Y157.000 F1000
G1 X44.500 Y157.000 F1000
G0 Z3.0 ; Pen up

G0 X48.400 Y157.000 F3000 ; Travel to line 59
G0 Z0.0 ; Pen down
G1 X85.320 Y120.080 F1000
G0 Z3.0 ; Pen up

G0 X86.100 Y121.640 F3000 ; Travel to line 60
G0 Z0.0 ; Pen down
G1 X50.480 Y157.000 F1000
G0 Z3.0 ; Pen up

G0 X52.820 Y157.000 F3000 ; Travel to line 61
G0 Z0.0 ; Pen down
G1 X87.140 Y122.680 F1000
G0 Z3.0 ; Pen up

G0 X87.920 Y123.980 F3000 ; Travel to line 62
G0 Z0.0 ; Pen down
G1 X54.900 Y157.000 F1000
G0 Z3.0 ; Pen up

G0 X56.980 Y157.000 F3000 ; Travel to line 63
G0 Z0.0 ; Pen down
G1 X88.960 Y125.280 F1000
G0 Z3.0 ; Pen up

G0 X90.000 Y126.060 F3000 ; Travel to line 64
G0 Z0.0 ; Pen down
G1 X59.060 Y157.000 F1000
G0 Z3.0 ; Pen up

G0 X61.140 Y157.000 F3000 ; Travel to line 65
G0 Z0.0 ; Pen down
G1 X91.040 Y127.100 F1000
G0 Z3.0 ; Pen up

G0 X92.340 Y127.880 F3000 ; Travel to line 66
G0 Z0.0 ; Pen down
G1 X63.220 Y157.000 F1000
G0 Z3.0 ; Pen up

G0 X65.300 Y157.000 F3000 ; Travel to line 67
G0 Z0.0 ; Pen down
G1 X93.640 Y128.660 F1000
G0 Z3.0 ; Pen up

G0 X95.200 Y129.440 F3000 ; Travel to line 68
G0 Z0.0 ; Pen down
G1 X67.640 Y157.000 F1000
G0 Z3.0 ; Pen up

G0 X69.720 Y157.000 F3000 ; Travel to line 69
G0 Z0.0 ; Pen down
G1 X96.760 Y130.220 F1000
G0 Z3.0 ; Pen up

G0 X98.320 Y130.480 F3000 ; Travel to line 70
G0 Z0.0 ; Pen down
G1 X71.800 Y157.000 F1000
G0 Z3.0 ; Pen up

G0 X73.880 Y157.000 F3000 ; Travel to line 71
G0 Z0.0 ; Pen down
G1 X99.880 Y131.000 F1000
G0 Z3.0 ; Pen up

G0 X101.960 Y131.000 F3000 ; Travel to line 72
G0 Z0.0 ; Pen down
G1 X75.960 Y157.000 F1000
G0 Z3.0 ; Pen up

G0 X78.040 Y157.000 F3000 ; Travel to line 73
G0 Z0.0 ; Pen down
G1 X104.040 Y131.000 F1000
G0 Z3.0 ; Pen up

G0 X106.640 Y130.740 F3000 ; Travel to line 74
G0 Z0.0 ; Pen down
G1 X80.380 Y157.000 F1000
G0 Z3.0 ; Pen up

G0 X82.460 Y157.000 F3000 ; Travel to line 75
G0 Z0.0 ; Pen down
G1 X109.240 Y130.220 F1000
G0 Z3.0 ; Pen up

G0 X113.140 Y128.400 F3000 ; Travel to line 76
G0 Z0.0 ; Pen down
G1 X84.540 Y157.000 F1000
G0 Z3.0 ; Pen up

G0 X86.620 Y157.000 F3000 ; Travel to line 77
G0 Z0.0 ; Pen down
G1 X190.880 Y52.740 F1000
G0 Z3.0 ; Pen up

G0 X188.800 Y52.740 F3000 ; Travel to line 78
G0 Z0.0 ; Pen down
G1 X158.380 Y83.420 F1000
G0 Z3.0 ; Pen up

G0 X160.460 Y79.260 F3000 ; Travel to line 79
G0 Z0.0 ; Pen down
G1 X186.720 Y52.740 F1000
G0 Z3.0 ; Pen up

G0 X184.640 Y52.740 F3000 ; Travel to line 80
G0 Z0.0 ; Pen down
G1 X161.240 Y76.400 F1000
G0 Z3.0 ; Pen up

G0 X161.500 Y73.800 F3000 ; Travel to line 81
G0 Z0.0 ; Pen down
G1 X182.300 Y52.740 F1000
G0 Z3.0 ; Pen up

G0 X180.220 Y52.740 F3000 ; Travel to line 82
G0 Z0.0 ; Pen down
G1 X161.500 Y71.720 F1000
G0 Z3.0 ; Pen up

G0 X161.500 Y69.640 F3000 ; Travel to line 83
G0 Z0.0 ; Pen down
G1 X178.140 Y52.740 F1000
G0 Z3.0 ; Pen up

G0 X176.060 Y52.740 F3000 ; Travel to line 84
G0 Z0.0 ; Pen down
G1 X160.980 Y67.820 F1000
G0 Z3.0 ; Pen up

G0 X160.720 Y66.260 F3000 ; Travel to line 85
G0 Z0.0 ; Pen down
G1 X173.980 Y52.740 F1000
G0 Z3.0 ; Pen up

G0 X171.900 Y52.740 F3000 ; Travel to line 86
G0 Z0.0 ; Pen down
G1 X159.940 Y64.700 F1000
G0 Z3.0 ; Pen up

G0 X159.160 Y63.140 F3000 ; Travel to line 87
G0 Z0.0 ; Pen down
G1 X169.560 Y52.740 F1000
G0 Z3.0 ; Pen up

G0 X167.480 Y52.740 F3000 ; Travel to line 88
G0 Z0.0 ; Pen down
G1 X158.380 Y61.840 F1000
G0 Z3.0 ; Pen up

G0 X157.600 Y60.540 F3000 ; Travel to line 89
G0 Z0.0 ; Pen down
G1 X165.400 Y52.740 F1000
G0 Z3.0 ; Pen up

G0 X163.320 Y52.740 F3000 ; Travel to line 90
G0 Z0.0 ; Pen down
G1 X156.560 Y59.500 F1000
G0 Z3.0 ; Pen up

G0 X155.780 Y58.460 F3000 ; Travel to line 91
G0 Z0.0 ; Pen down
G1 X161.240 Y52.740 F1000
G0 Z3.0 ; Pen up

G0 X159.160 Y52.740 F3000 ; Travel to line 92
G0 Z0.0 ; Pen down
G1 X154.480 Y57.420 F1000
G0 Z3.0 ; Pen up

G0 X153.440 Y56.380 F3000 ; Travel to line 93
G0 Z0.0 ; Pen down
G1 X156.820 Y52.740 F1000
G0 Z3.0 ; Pen up

G0 X154.740 Y52.740 F3000 ; Travel to line 94
G0 Z0.0 ; Pen down
G1 X151.880 Y55.600 F1000
G0 Z3.0 ; Pen up

G0 X150.580 Y54.820 F3000 ; Travel to line 95
G0 Z0.0 ; Pen down
G1 X152.660 Y52.740 F1000
G0 Z3.0 ; Pen up

G0 X150.580 Y52.740 F3000 ; Travel to line 96
G0 Z0.0 ; Pen down
G1 X149.020 Y54.300 F1000
G0 Z3.0 ; Pen up

G0 X147.720 Y53.780 F3000 ; Travel to line 97
G0 Z0.0 ; Pen down
G1 X148.500 Y52.740 F1000
G0 Z3.0 ; Pen up

G0 X146.420 Y52.740 F3000 ; Travel to line 98
G0 Z0.0 ; Pen down
G1 X145.900 Y53.260 F1000
G0 Z3.0 ; Pen up

G0 X144.340 Y52.740 F3000 ; Travel to line 99
G0 Z0.0 ; Pen down
G1 X144.080 Y53.000 F1000
G0 Z3.0 ; Pen up

G0 X139.920 Y52.740 F3000 ; Travel to line 100
G0 Z0.0 ; Pen down
G1 X139.660 Y53.000 F1000
G0 Z3.0 ; Pen up

G0 X137.840 Y52.740 F3000 ; Travel to line 101
G0 Z0.0 ; Pen down
G1 X137.060 Y53.520 F1000
G0 Z3.0 ; Pen up

G0 X135.760 Y52.740 F3000 ; Travel to line 102
G0 Z0.0 ; Pen down
G1 X133.940 Y54.560 F1000
G0 Z3.0 ; Pen up

G0 X133.940 Y54.820 F3000 ; Travel to line 103
G0 Z0.0 ; Pen down
G1 X133.680 Y54.820 F1000
G0 Z3.0 ; Pen up

G0 X124.580 Y64.180 F3000 ; Travel to line 104
G0 Z0.0 ; Pen down
G1 X124.320 Y64.180 F1000
G0 Z3.0 ; Pen up

G0 X124.320 Y64.440 F3000 ; Travel to line 105
G0 Z0.0 ; Pen down
G1 X95.460 Y93.040 F1000
G0 Z3.0 ; Pen up

G0 X95.460 Y93.300 F3000 ; Travel to line 106
G0 Z0.0 ; Pen down
G1 X95.200 Y93.300 F1000
G0 Z3.0 ; Pen up

G0 X98.320 Y92.260 F3000 ; Travel to line 107
G0 Z0.0 ; Pen down
G1 X98.580 Y92.260 F1000
G0 Z3.0 ; Pen up

G0 X98.580 Y92.000 F3000 ; Travel to line 108
G0 Z0.0 ; Pen down
G1 X123.280 Y67.560 F1000
G0 Z3.0 ; Pen up

G0 X122.760 Y70.160 F3000 ; Travel to line 109
G0 Z0.0 ; Pen down
G1 X100.920 Y91.740 F1000
G0 Z3.0 ; Pen up

G0 X103.260 Y91.740 F3000 ; Travel to line 110
G0 Z0.0 ; Pen down
G1 X122.500 Y72.500 F1000
G0 Z3.0 ; Pen up

G0 X122.760 Y74.320 F3000 ; Travel to line 111
G0 Z0.0 ; Pen down
G1 X105.340 Y91.740 F1000
G0 Z3.0 ; Pen up

G0 X107.160 Y92.000 F3000 ; Travel to line 112
G0 Z0.0 ; Pen down
G1 X123.020 Y76.400 F1000
G0 Z3.0 ; Pen up

G0 X123.280 Y77.960 F3000 ; Travel to line 113
G0 Z0.0 ; Pen down
G1 X108.720 Y92.520 F1000
G0 Z3.0 ; Pen up

G0 X110.280 Y93.040 F3000 ; Travel to line 114
G0 Z0.0 ; Pen down
G1 X124.060 Y79.520 F1000
G0 Z3.0 ; Pen up

G0 X124.580 Y81.080 F3000 ; Travel to line 115
G0 Z0.0 ; Pen down
G1 X111.840 Y93.820 F1000
G0 Z3.0 ; Pen up

G0 X113.140 Y94.340 F3000 ; Travel to line 116
G0 Z0.0 ; Pen down
G1 X125.360 Y82.380 F1000
G0 Z3.0 ; Pen up

G0 X126.140 Y83.680 F3000 ; Travel to line 117
G0 Z0.0 ; Pen down
G1 X114.440 Y95.380 F1000
G0 Z3.0 ; Pen up

G0 X115.740 Y96.420 F3000 ; Travel to line 118
G0 Z0.0 ; Pen down
G1 X127.180 Y84.980 F1000
G0 Z3.0 ; Pen up

G0 X127.960 Y86.020 F3000 ; Travel to line 119
G0 Z0.0 ; Pen down
G1 X116.780 Y97.200 F1000
G0 Z3.0 ; Pen up

G0 X117.820 Y98.500 F3000 ; Travel to line 120
G0 Z0.0 ; Pen down
G1 X129.260 Y87.060 F1000
G0 Z3.0 ; Pen up

G0 X130.300 Y88.100 F3000 ; Travel to line 121
G0 Z0.0 ; Pen down
G1 X118.860 Y99.540 F1000
G0 Z3.0 ; Pen up

G0 X119.640 Y100.840 F3000 ; Travel to line 122
G0 Z0.0 ; Pen down
G1 X131.600 Y88.880 F1000
G0 Z3.0 ; Pen up

G0 X132.900 Y89.660 F3000 ; Travel to line 123
G0 Z0.0 ; Pen down
G1 X120.420 Y102.140 F1000
G0 Z3.0 ; Pen up

G0 X121.200 Y103.700 F3000 ; Travel to line 124
G0 Z0.0 ; Pen down
G1 X134.460 Y90.440 F1000
G0 Z3.0 ; Pen up

G0 X135.760 Y90.960 F3000 ; Travel to line 125
G0 Z0.0 ; Pen down
G1 X121.720 Y105.000 F1000
G0 Z3.0 ; Pen up

G0 X122.240 Y106.820 F3000 ; Travel to line 126
G0 Z0.0 ; Pen down
G1 X137.580 Y91.480 F1000
G0 Z3.0 ; Pen up

G0 X139.140 Y91.740 F3000 ; Travel to line 127
G0 Z0.0 ; Pen down
G1 X122.760 Y108.380 F1000
G0 Z3.0 ; Pen up

G0 X122.760 Y110.460 F3000 ; Travel to line 128
G0 Z0.0 ; Pen down
G1 X141.220 Y91.740 F1000
G0 Z3.0 ; Pen up

G0 X143.300 Y91.740 F3000 ; Travel to line 129
G0 Z0.0 ; Pen down
G1 X122.760 Y112.540 F1000
G0 Z3.0 ; Pen up

G0 X122.500 Y114.880 F3000 ; Travel to line 130
G0 Z0.0 ; Pen down
G1 X145.900 Y91.480 F1000
G0 Z3.0 ; Pen up

G0 X148.760 Y90.700 F3000 ; Travel to line 131
G0 Z0.0 ; Pen down
G1 X121.980 Y117.740 F1000
G0 Z3.0 ; Pen up

G0 X120.160 Y121.640 F3000 ; Travel to line 132
G0 Z0.0 ; Pen down
G1 X152.920 Y88.620 F1000
G0 Z3.0 ; Pen up

G0 X178.140 Y99.540 F3000 ; Travel to line 133
G0 Z0.0 ; Pen down
G1 X120.680 Y157.000 F1000
G0 Z3.0 ; Pen up

G0 X122.760 Y157.000 F3000 ; Travel to line 134
G0 Z0.0 ; Pen down
G1 X175.800 Y104.220 F1000
G0 Z3.0 ; Pen up

G0 X174.760 Y107.340 F3000 ; Travel to line 135
G0 Z0.0 ; Pen down
G1 X124.840 Y157.000 F1000
G0 Z3.0 ; Pen up

G0 X126.920 Y157.000 F3000 ; Travel to line 136
G0 Z0.0 ; Pen down
G1 X174.500 Y109.680 F1000
G0 Z3.0 ; Pen up

G0 X174.500 Y111.760 F3000 ; Travel to line 137
G0 Z0.0 ; Pen down
G1 X129.000 Y157.000 F1000
G0 Z3.0 ; Pen up

G0 X131.080 Y157.000 F3000 ; Travel to line 138
G0 Z0.0 ; Pen down
G1 X174.500 Y113.840 F1000
G0 Z3.0 ; Pen up

G0 X174.760 Y115.660 F3000 ; Travel to line 139
G0 Z0.0 ; Pen down
G1 X133.420 Y157.000 F1000
G0 Z3.0 ; Pen up

G0 X135.500 Y157.000 F3000 ; Travel to line 140
G0 Z0.0 ; Pen down
G1 X175.280 Y117.480 F1000
G0 Z3.0 ; Pen up

G0 X175.800 Y119.040 F3000 ; Travel to line 141
G0 Z0.0 ; Pen down
G1 X137.580 Y157.000 F1000
G0 Z3.0 ; Pen up

G0 X139.660 Y157.000 F3000 ; Travel to line 142
G0 Z0.0 ; Pen down
G1 X176.580 Y120.340 F1000
G0 Z3.0 ; Pen up

G0 X177.100 Y121.640 F3000 ; Travel to line 143
G0 Z0.0 ; Pen down
G1 X141.740 Y157.000 F1000
G0 Z3.0 ; Pen up

G0 X143.820 Y157.000 F3000 ; Travel to line 144
G0 Z0.0 ; Pen down
G1 X178.140 Y122.940 F1000
G0 Z3.0 ; Pen up

G0 X178.920 Y123.980 F3000 ; Travel to line 145
G0 Z0.0 ; Pen down
G1 X145.900 Y157.000 F1000
G0 Z3.0 ; Pen up

G0 X148.240 Y157.000 F3000 ; Travel to line 146
G0 Z0.0 ; Pen down
G1 X179.960 Y125.280 F1000
G0 Z3.0 ; Pen up

G0 X181.260 Y126.320 F3000 ; Travel to line 147
G0 Z0.0 ; Pen down
G1 X150.320 Y157.000 F1000
G0 Z3.0 ; Pen up

G0 X152.400 Y157.000 F3000 ; Travel to line 148
G0 Z0.0 ; Pen down
G1 X182.300 Y127.360 F1000
G0 Z3.0 ; Pen up

G0 X183.600 Y128.140 F3000 ; Travel to line 149
G0 Z0.0 ; Pen down
G1 X154.480 Y157.000 F1000
G0 Z3.0 ; Pen up

G0 X156.560 Y157.000 F3000 ; Travel to line 150
G0 Z0.0 ; Pen down
G1 X184.900 Y128.920 F1000
G0 Z3.0 ; Pen up

G0 X186.200 Y129.440 F3000 ; Travel to line 151
G0 Z0.0 ; Pen down
G1 X158.640 Y157.000 F1000
G0 Z3.0 ; Pen up

G0 X160.980 Y157.000 F3000 ; Travel to line 152
G0 Z0.0 ; Pen down
G1 X187.760 Y130.220 F1000
G0 Z3.0 ; Pen up

G0 X189.580 Y130.740 F3000 ; Travel to line 153
G0 Z0.0 ; Pen down
G1 X163.060 Y157.000 F1000
G0 Z3.0 ; Pen up

G0 X165.140 Y157.000 F3000 ; Travel to line 154
G0 Z0.0 ; Pen down
G1 X191.140 Y131.000 F1000
G0 Z3.0 ; Pen up

G0 X193.220 Y131.000 F3000 ; Travel to line 155
G0 Z0.0 ; Pen down
G1 X167.220 Y157.000 F1000
G0 Z3.0 ; Pen up

G0 X169.300 Y157.000 F3000 ; Travel to line 156
G0 Z0.0 ; Pen down
G1 X195.300 Y131.000 F1000
G0 Z3.0 ; Pen up

G0 X197.640 Y130.740 F3000 ; Travel to line 157
G0 Z0.0 ; Pen down
G1 X171.380 Y157.000 F1000
G0 Z3.0 ; Pen up

G0 X173.720 Y157.000 F3000 ; Travel to line 158
G0 Z0.0 ; Pen down
G1 X200.760 Y129.960 F1000
G0 Z3.0 ; Pen up

G0 X204.920 Y127.880 F3000 ; Travel to line 159
G0 Z0.0 ; Pen down
G1 X175.800 Y157.000 F1000
G0 Z3.0 ; Pen up

G0 X177.880 Y157.000 F3000 ; Travel to line 160
G0 Z0.0 ; Pen down
G1 X226.760 Y108.380 F1000
G0 Z3.0 ; Pen up

G0 X226.760 Y110.460 F3000 ; Travel to line 161
G0 Z0.0 ; Pen down
G1 X179.960 Y157.000 F1000
G0 Z3.0 ; Pen up

G0 X182.040 Y157.000 F3000 ; Travel to line 162
G0 Z0.0 ; Pen down
G1 X226.760 Y112.540 F1000
G0 Z3.0 ; Pen up

G0 X226.760 Y114.620 F3000 ; Travel to line 163
G0 Z0.0 ; Pen down
G1 X184.120 Y157.000 F1000
G0 Z3.0 ; Pen up

G0 X186.200 Y157.000 F3000 ; Travel to line 164
G0 Z0.0 ; Pen down
G1 X226.760 Y116.700 F1000
G0 Z3.0 ; Pen up

G0 X226.760 Y119.040 F3000 ; Travel to line 165
G0 Z0.0 ; Pen down
G1 X188.540 Y157.000 F1000
G0 Z3.0 ; Pen up

G0 X190.620 Y157.000 F3000 ; Travel to line 166
G0 Z0.0 ; Pen down
G1 X226.760 Y121.120 F1000
G0 Z3.0 ; Pen up

G0 X226.760 Y123.200 F3000 ; Travel to line 167
G0 Z0.0 ; Pen down
G1 X192.700 Y157.000 F1000
G0 Z3.0 ; Pen up

G0 X194.780 Y157.000 F3000 ; Travel to line 168
G0 Z0.0 ; Pen down
G1 X226.760 Y125.280 F1000
G0 Z3.0 ; Pen up

G0 X226.760 Y127.360 F3000 ; Travel to line 169
G0 Z0.0 ; Pen down
G1 X196.860 Y157.000 F1000
G0 Z3.0 ; Pen up

G0 X198.940 Y157.000 F3000 ; Travel to line 170
G0 Z0.0 ; Pen down
G1 X226.760 Y129.440 F1000
G0 Z3.0 ; Pen up

G0 X226.760 Y131.780 F3000 ; Travel to line 171
G0 Z0.0 ; Pen down
G1 X201.280 Y157.000 F1000
G0 Z3.0 ; Pen up

G0 X203.360 Y157.000 F3000 ; Travel to line 172
G0 Z0.0 ; Pen down
G1 X226.760 Y133.860 F1000
G0 Z3.0 ; Pen up

G0 X226.760 Y135.940 F3000 ; Travel to line 173
G0 Z0.0 ; Pen down
G1 X205.440 Y157.000 F1000
G0 Z3.0 ; Pen up

G0 X207.520 Y157.000 F3000 ; Travel to line 174
G0 Z0.0 ; Pen down
G1 X226.760 Y138.020 F1000
G0 Z3.0 ; Pen up

G0 X226.760 Y140.100 F3000 ; Travel to line 175
G0 Z0.0 ; Pen down
G1 X209.600 Y157.000 F1000
G0 Z3.0 ; Pen up

G0 X211.680 Y157.000 F3000 ; Travel to line 176
G0 Z0.0 ; Pen down
G1 X226.760 Y142.180 F1000
G0 Z3.0 ; Pen up

G0 X226.760 Y144.520 F3000 ; Travel to line 177
G0 Z0.0 ; Pen down
G1 X214.020 Y157.000 F1000
G0 Z3.0 ; Pen up

G0 X216.100 Y157.000 F3000 ; Travel to line 178
G0 Z0.0 ; Pen down
G1 X226.760 Y146.600 F1000
G0 Z3.0 ; Pen up

G0 X226.760 Y148.680 F3000 ; Travel to line 179
G0 Z0.0 ; Pen down
G1 X218.180 Y157.000 F1000
G0 Z3.0 ; Pen up

G0 X220.260 Y157.000 F3000 ; Travel to line 180
G0 Z0.0 ; Pen down
G1 X226.760 Y150.760 F1000
G0 Z3.0 ; Pen up

G0 X226.760 Y152.840 F3000 ; Travel to line 181
G0 Z0.0 ; Pen down
G1 X222.340 Y157.000 F1000
G0 Z3.0 ; Pen up

G0 X224.420 Y157.000 F3000 ; Travel to line 182
G0 Z0.0 ; Pen down
G1 X226.760 Y154.920 F1000
G0 Z3.0 ; Pen up

G0 X210.640 Y122.420 F3000 ; Travel to line 183
G0 Z0.0 ; Pen down
G1 X226.760 Y106.300 F1000
G0 Z3.0 ; Pen up

G0 X226.760 Y103.960 F3000 ; Travel to line 184
G0 Z0.0 ; Pen down
G1 X212.720 Y118.260 F1000
G0 Z3.0 ; Pen up

G0 X213.500 Y115.140 F3000 ; Travel to line 185
G0 Z0.0 ; Pen down
G1 X226.760 Y101.880 F1000
G0 Z3.0 ; Pen up

G0 X226.760 Y99.800 F3000 ; Travel to line 186
G0 Z0.0 ; Pen down
G1 X213.760 Y112.800 F1000
G0 Z3.0 ; Pen up

G0 X213.760 Y110.720 F3000 ; Travel to line 187
G0 Z0.0 ; Pen down
G1 X226.760 Y97.720 F1000
G0 Z3.0 ; Pen up

G0 X226.760 Y95.640 F3000 ; Travel to line 188
G0 Z0.0 ; Pen down
G1 X213.760 Y108.640 F1000
G0 Z3.0 ; Pen up

G0 X213.240 Y106.820 F3000 ; Travel to line 189
G0 Z0.0 ; Pen down
G1 X226.760 Y93.560 F1000
G0 Z3.0 ; Pen up

G0 X226.760 Y91.480 F3000 ; Travel to line 190
G0 Z0.0 ; Pen down
G1 X212.980 Y105.260 F1000
G0 Z3.0 ; Pen up

G0 X212.200 Y103.700 F3000 ; Travel to line 191
G0 Z0.0 ; Pen down
G1 X226.760 Y89.140 F1000
G0 Z3.0 ; Pen up

G0 X226.760 Y87.060 F3000 ; Travel to line 192
G0 Z0.0 ; Pen down
G1 X211.420 Y102.140 F1000
G0 Z3.0 ; Pen up

G0 X210.640 Y100.840 F3000 ; Travel to line 193
G0 Z0.0 ; Pen down
G1 X226.760 Y84.980 F1000
G0 Z3.0 ; Pen up

G0 X226.760 Y82.900 F3000 ; Travel to line 194
G0 Z0.0 ; Pen down
G1 X209.860 Y99.540 F1000
G0 Z3.0 ; Pen up

G0 X208.820 Y98.500 F3000 ; Travel to line 195
G0 Z0.0 ; Pen down
G1 X226.760 Y80.820 F1000
G0 Z3.0 ; Pen up

G0 X226.760 Y78.740 F3000 ; Travel to line 196
G0 Z0.0 ; Pen down
G1 X208.040 Y97.460 F1000
G0 Z3.0 ; Pen up

G0 X206.740 Y96.420 F3000 ; Travel to line 197
G0 Z0.0 ; Pen down
G1 X226.760 Y76.400 F1000
G0 Z3.0 ; Pen up

G0 X226.760 Y74.320 F3000 ; Travel to line 198
G0 Z0.0 ; Pen down
G1 X205.440 Y95.380 F1000
G0 Z3.0 ; Pen up

G0 X204.400 Y94.600 F3000 ; Travel to line 199
G0 Z0.0 ; Pen down
G1 X226.760 Y72.240 F1000
G0 Z3.0 ; Pen up

G0 X226.760 Y70.160 F3000 ; Travel to line 200
G0 Z0.0 ; Pen down
G1 X202.840 Y93.820 F1000
G0 Z3.0 ; Pen up

G0 X201.540 Y93.040 F3000 ; Travel to line 201
G0 Z0.0 ; Pen down
G1 X226.760 Y68.080 F1000
G0 Z3.0 ; Pen up

G0 X226.760 Y66.000 F3000 ; Travel to line 202
G0 Z0.0 ; Pen down
G1 X199.980 Y92.520 F1000
G0 Z3.0 ; Pen up

G0 X198.420 Y92.000 F3000 ; Travel to line 203
G0 Z0.0 ; Pen down
G1 X226.760 Y63.660 F1000
G0 Z3.0 ; Pen up

G0 X226.760 Y61.580 F3000 ; Travel to line 204
G0 Z0.0 ; Pen down
G1 X196.340 Y91.740 F1000
G0 Z3.0 ; Pen up

G0 X194.260 Y91.740 F3000 ; Travel to line 205
G0 Z0.0 ; Pen down
G1 X226.760 Y59.500 F1000
G0 Z3.0 ; Pen up

G0 X226.760 Y57.420 F3000 ; Travel to line 206
G0 Z0.0 ; Pen down
G1 X192.180 Y91.740 F1000
G0 Z3.0 ; Pen up

G0 X189.840 Y92.000 F3000 ; Travel to line 207
G0 Z0.0 ; Pen down
G1 X226.760 Y55.340 F1000
G0 Z3.0 ; Pen up

G0 X226.760 Y53.260 F3000 ; Travel to line 208
G0 Z0.0 ; Pen down
G1 X186.720 Y93.040 F1000
G0 Z3.0 ; Pen up

G0 X181.780 Y95.900 F3000 ; Travel to line 209
G0 Z0.0 ; Pen down
G1 X180.740 Y96.940 F1000
G0 Z3.0 ; Pen up

G0 X180.740 Y96.940 F3000 ; Travel to line 210
G0 Z0.0 ; Pen down
G1 X181.000 Y96.680 F1000
G0 Z3.0 ; Pen up

G0 X180.740 Y96.940 F3000 ; Travel to line 211
G0 Z0.0 ; Pen down
G1 X181.260 Y96.420 F1000
G0 Z3.0 ; Pen up

G0 X181.520 Y96.160 F3000 ; Travel to line 212
G0 Z0.0 ; Pen down
G1 X180.740 Y96.940 F1000
G0 Z3.0 ; Pen up

G0 X180.740 Y96.940 F3000 ; Travel to line 213
G0 Z0.0 ; Pen down
G1 X218.700 Y58.980 F1000
G0 Z3.0 ; Pen up

G0 X218.440 Y52.740 F3000 ; Travel to line 214
G0 Z0.0 ; Pen down
G1 X114.180 Y157.000 F1000
G0 Z3.0 ; Pen up

G0 X116.260 Y157.000 F3000 ; Travel to line 215
G0 Z0.0 ; Pen down
G1 X220.520 Y52.740 F1000
G0 Z3.0 ; Pen up

G0 X222.600 Y52.740 F3000 ; Travel to line 216
G0 Z0.0 ; Pen down
G1 X118.340 Y157.000 F1000
G0 Z3.0 ; Pen up

G0 X112.100 Y157.000 F3000 ; Travel to line 217
G0 Z0.0 ; Pen down
G1 X216.360 Y52.740 F1000
G0 Z3.0 ; Pen up

G0 X214.280 Y52.740 F3000 ; Travel to line 218
G0 Z0.0 ; Pen down
G1 X110.020 Y157.000 F1000
G0 Z3.0 ; Pen up

G0 X107.940 Y157.000 F3000 ; Travel to line 219
G0 Z0.0 ; Pen down
G1 X212.200 Y52.740 F1000
G0 Z3.0 ; Pen up

G0 X209.860 Y52.740 F3000 ; Travel to line 220
G0 Z0.0 ; Pen down
G1 X105.860 Y157.000 F1000
G0 Z3.0 ; Pen up

G0 X103.520 Y157.000 F3000 ; Travel to line 221
G0 Z0.0 ; Pen down
G1 X207.780 Y52.740 F1000
G0 Z3.0 ; Pen up

G0 X205.700 Y52.740 F3000 ; Travel to line 222
G0 Z0.0 ; Pen down
G1 X101.440 Y157.000 F1000
G0 Z3.0 ; Pen up

G0 X99.360 Y157.000 F3000 ; Travel to line 223
G0 Z0.0 ; Pen down
G1 X203.620 Y52.740 F1000
G0 Z3.0 ; Pen up

G0 X201.540 Y52.740 F3000 ; Travel to line 224
G0 Z0.0 ; Pen down
G1 X97.280 Y157.000 F1000
G0 Z3.0 ; Pen up

G0 X95.200 Y157.000 F3000 ; Travel to line 225
G0 Z0.0 ; Pen down
G1 X199.460 Y52.740 F1000
G0 Z3.0 ; Pen up

G0 X197.380 Y52.740 F3000 ; Travel to line 226
G0 Z0.0 ; Pen down
G1 X93.120 Y157.000 F1000
G0 Z3.0 ; Pen up

G0 X90.780 Y157.000 F3000 ; Travel to line 227
G0 Z0.0 ; Pen down
G1 X195.040 Y52.740 F1000
G0 Z3.0 ; Pen up

G0 X192.960 Y52.740 F3000 ; Travel to line 228
G0 Z0.0 ; Pen down
G1 X88.700 Y157.000 F1000
G0 Z3.0 ; Pen up

G0 X141.220 Y136.460 F3000 ; Travel to line 229
G0 Z0.0 ; Pen down
G1 X178.400 Y99.280 F1000
G0 Z3.0 ; Pen up

G0 X178.660 Y99.020 F3000 ; Travel to line 230
G0 Z0.0 ; Pen down
G1 X179.440 Y98.240 F1000
G0 Z3.0 ; Pen up

G0 X179.440 Y98.240 F3000 ; Travel to line 231
G0 Z0.0 ; Pen down
G1 X141.480 Y136.200 F1000
G0 Z3.0 ; Pen up

G0 X141.740 Y135.940 F3000 ; Travel to line 232
G0 Z0.0 ; Pen down
G1 X179.180 Y98.500 F1000
G0 Z3.0 ; Pen up

G0 X179.700 Y98.240 F3000 ; Travel to line 233
G0 Z0.0 ; Pen down
G1 X178.660 Y99.020 F1000
G0 Z3.0 ; Pen up

G0 X180.740 Y96.940 F3000 ; Travel to line 234
G0 Z0.0 ; Pen down
G1 X224.940 Y52.740 F1000
G0 Z3.0 ; Pen up

; Return to origin
G0 X0 Y0
G0 Z3.0

; Total drawing distance: 11333.80 mm
; Total travel distance: 660.07 mm
; Total lines: 234
; Estimated time: 693.2 seconds (11.6 minutes)
M2 ; End program