; Blueprint to G-code
; Input: /home/david/code/blueprint2gcode/test_data/test_images_solid/test6_crescent_spiral.png
; Generated with blueprint2gcode.py
;
; Generation Parameters:
;   Paper size: A4 (210x297mm)
;   Orientation: auto
;   Margin: 1.0mm
;   Z up: 3.0mm
;   Z down: 0.0mm
;   Feed rate: 1000mm/min
;   Travel rate: 3000mm/min
;   Join tolerance: 0.02mm
;   Min line length: 0.01mm
;   Simplify epsilon: 0.000001
;   Fill solid areas: True
;   Hatch spacing: 1.0px
;   Hatch angle: 45.0°
;   Crosshatch: False
;   Min solid area: 1.0px²
;   Invert colors: False

G21 ; Set units to millimeters
G90 ; Absolute positioning
G0 Z3.0 ; Pen up
G0 X0 Y0 ; Move to origin

G0 X45.096 Y80.276 F3000 ; Travel to line 1
G0 Z0.0 ; Pen down
G1 X44.888 Y80.484 F1000
G0 Z3.0 ; Pen up

G0 X45.304 Y80.692 F3000 ; Travel to line 2
G0 Z0.0 ; Pen down
G1 X45.512 Y80.484 F1000
G0 Z3.0 ; Pen up

G0 X46.344 Y81.316 F3000 ; Travel to line 3
G0 Z0.0 ; Pen down
G1 X46.552 Y81.108 F1000
G0 Z3.0 ; Pen up

G0 X46.760 Y81.108 F3000 ; Travel to line 4
G0 Z0.0 ; Pen down
G1 X47.176 Y80.692 F1000
G0 Z3.0 ; Pen up

G0 X47.176 Y79.652 F3000 ; Travel to line 5
G0 Z0.0 ; Pen down
G1 X47.384 Y79.444 F1000
G0 Z3.0 ; Pen up

G0 X47.384 Y81.940 F3000 ; Travel to line 6
G0 Z0.0 ; Pen down
G1 X46.968 Y82.148 F1000
G0 Z3.0 ; Pen up

G0 X47.592 Y82.980 F3000 ; Travel to line 7
G0 Z0.0 ; Pen down
G1 X48.008 Y82.564 F1000
G0 Z3.0 ; Pen up

G0 X48.632 Y83.396 F3000 ; Travel to line 8
G0 Z0.0 ; Pen down
G1 X48.008 Y83.812 F1000
G0 Z3.0 ; Pen up

G0 X49.048 Y84.436 F3000 ; Travel to line 9
G0 Z0.0 ; Pen down
G1 X48.424 Y85.060 F1000
G0 Z3.0 ; Pen up

G0 X49.464 Y85.476 F3000 ; Travel to line 10
G0 Z0.0 ; Pen down
G1 X48.424 Y86.516 F1000
G0 Z3.0 ; Pen up

G0 X50.088 Y87.556 F3000 ; Travel to line 11
G0 Z0.0 ; Pen down
G1 X51.128 Y86.516 F1000
G0 Z3.0 ; Pen up

G0 X50.296 Y85.892 F3000 ; Travel to line 12
G0 Z0.0 ; Pen down
G1 X47.800 Y88.596 F1000
G0 Z3.0 ; Pen up

G0 X49.048 Y88.596 F3000 ; Travel to line 13
G0 Z0.0 ; Pen down
G1 X45.096 Y92.340 F1000
G0 Z3.0 ; Pen up

G0 X45.096 Y91.092 F3000 ; Travel to line 14
G0 Z0.0 ; Pen down
G1 X43.432 Y92.756 F1000
G0 Z3.0 ; Pen up

G0 X43.016 Y91.716 F3000 ; Travel to line 15
G0 Z0.0 ; Pen down
G1 X41.976 Y92.756 F1000
G0 Z3.0 ; Pen up

G0 X41.560 Y91.716 F3000 ; Travel to line 16
G0 Z0.0 ; Pen down
G1 X40.936 Y92.340 F1000
G0 Z3.0 ; Pen up

G0 X40.520 Y91.508 F3000 ; Travel to line 17
G0 Z0.0 ; Pen down
G1 X39.896 Y91.924 F1000
G0 Z3.0 ; Pen up

G0 X39.064 Y91.300 F3000 ; Travel to line 18
G0 Z0.0 ; Pen down
G1 X39.480 Y90.884 F1000
G0 Z3.0 ; Pen up

G0 X38.856 Y90.260 F3000 ; Travel to line 19
G0 Z0.0 ; Pen down
G1 X38.440 Y90.676 F1000
G0 Z3.0 ; Pen up

G0 X37.816 Y90.052 F3000 ; Travel to line 20
G0 Z0.0 ; Pen down
G1 X38.024 Y89.844 F1000
G0 Z3.0 ; Pen up

G0 X37.192 Y88.804 F3000 ; Travel to line 21
G0 Z0.0 ; Pen down
G1 X37.400 Y88.596 F1000
G0 Z3.0 ; Pen up

G0 X36.984 Y88.388 F3000 ; Travel to line 22
G0 Z0.0 ; Pen down
G1 X37.192 Y88.180 F1000
G0 Z3.0 ; Pen up

G0 X51.128 Y87.972 F3000 ; Travel to line 23
G0 Z0.0 ; Pen down
G1 X52.168 Y86.724 F1000
G0 Z3.0 ; Pen up

G0 X53.624 Y86.724 F3000 ; Travel to line 24
G0 Z0.0 ; Pen down
G1 X52.168 Y88.180 F1000
G0 Z3.0 ; Pen up

G0 X53.624 Y88.180 F3000 ; Travel to line 25
G0 Z0.0 ; Pen down
G1 X55.704 Y86.100 F1000
G0 Z3.0 ; Pen up

G0 X55.704 Y87.556 F3000 ; Travel to line 26
G0 Z0.0 ; Pen down
G1 X58.824 Y84.436 F1000
G0 Z3.0 ; Pen up

G0 X58.408 Y83.604 F3000 ; Travel to line 27
G0 Z0.0 ; Pen down
G1 X59.448 Y82.564 F1000
G0 Z3.0 ; Pen up

G0 X59.032 Y81.524 F3000 ; Travel to line 28
G0 Z0.0 ; Pen down
G1 X59.448 Y81.108 F1000
G0 Z3.0 ; Pen up

G0 X59.032 Y80.068 F3000 ; Travel to line 29
G0 Z0.0 ; Pen down
G1 X59.032 Y79.860 F1000
G0 Z3.0 ; Pen up

G0 X58.824 Y79.652 F3000 ; Travel to line 30
G0 Z0.0 ; Pen down
G1 X59.032 Y79.444 F1000
G0 Z3.0 ; Pen up

G0 X60.696 Y80.692 F3000 ; Travel to line 31
G0 Z0.0 ; Pen down
G1 X60.904 Y80.484 F1000
G0 Z3.0 ; Pen up

G0 X61.112 Y80.484 F3000 ; Travel to line 32
G0 Z0.0 ; Pen down
G1 X61.320 Y80.276 F1000
G0 Z3.0 ; Pen up

G0 X57.784 Y86.932 F3000 ; Travel to line 33
G0 Z0.0 ; Pen down
G1 X56.952 Y87.764 F1000
G0 Z3.0 ; Pen up

G0 X57.160 Y88.804 F3000 ; Travel to line 34
G0 Z0.0 ; Pen down
G1 X58.200 Y87.972 F1000
G0 Z3.0 ; Pen up

G0 X58.616 Y89.012 F3000 ; Travel to line 35
G0 Z0.0 ; Pen down
G1 X57.784 Y89.844 F1000
G0 Z3.0 ; Pen up

G0 X58.408 Y90.676 F3000 ; Travel to line 36
G0 Z0.0 ; Pen down
G1 X59.240 Y89.844 F1000
G0 Z3.0 ; Pen up

G0 X60.072 Y90.260 F3000 ; Travel to line 37
G0 Z0.0 ; Pen down
G1 X59.032 Y91.300 F1000
G0 Z3.0 ; Pen up

G0 X59.864 Y91.924 F3000 ; Travel to line 38
G0 Z0.0 ; Pen down
G1 X60.696 Y90.884 F1000
G0 Z3.0 ; Pen up

G0 X61.736 Y91.508 F3000 ; Travel to line 39
G0 Z0.0 ; Pen down
G1 X60.696 Y92.340 F1000
G0 Z3.0 ; Pen up

G0 X61.944 Y92.756 F3000 ; Travel to line 40
G0 Z0.0 ; Pen down
G1 X62.776 Y91.716 F1000
G0 Z3.0 ; Pen up

G0 X64.232 Y91.716 F3000 ; Travel to line 41
G0 Z0.0 ; Pen down
G1 X61.736 Y94.420 F1000
G0 Z3.0 ; Pen up

G0 X63.192 Y94.212 F3000 ; Travel to line 42
G0 Z0.0 ; Pen down
G1 X61.320 Y96.084 F1000
G0 Z3.0 ; Pen up

G0 X61.320 Y97.540 F3000 ; Travel to line 43
G0 Z0.0 ; Pen down
G1 X62.776 Y96.084 F1000
G0 Z3.0 ; Pen up

G0 X62.776 Y97.540 F3000 ; Travel to line 44
G0 Z0.0 ; Pen down
G1 X61.736 Y98.580 F1000
G0 Z3.0 ; Pen up

G0 X62.152 Y99.620 F3000 ; Travel to line 45
G0 Z0.0 ; Pen down
G1 X63.192 Y98.580 F1000
G0 Z3.0 ; Pen up

G0 X63.608 Y99.620 F3000 ; Travel to line 46
G0 Z0.0 ; Pen down
G1 X62.776 Y100.452 F1000
G0 Z3.0 ; Pen up

G0 X63.400 Y101.076 F3000 ; Travel to line 47
G0 Z0.0 ; Pen down
G1 X64.232 Y100.244 F1000
G0 Z3.0 ; Pen up

G0 X64.856 Y100.868 F3000 ; Travel to line 48
G0 Z0.0 ; Pen down
G1 X64.024 Y101.700 F1000
G0 Z3.0 ; Pen up

G0 X65.064 Y102.116 F3000 ; Travel to line 49
G0 Z0.0 ; Pen down
G1 X65.688 Y101.492 F1000
G0 Z3.0 ; Pen up

G0 X66.104 Y102.532 F3000 ; Travel to line 50
G0 Z0.0 ; Pen down
G1 X66.728 Y102.116 F1000
G0 Z3.0 ; Pen up

G0 X67.352 Y102.740 F3000 ; Travel to line 51
G0 Z0.0 ; Pen down
G1 X67.768 Y102.324 F1000
G0 Z3.0 ; Pen up

G0 X67.976 Y102.740 F3000 ; Travel to line 52
G0 Z0.0 ; Pen down
G1 X68.392 Y102.324 F1000
G0 Z3.0 ; Pen up

G0 X69.016 Y102.532 F3000 ; Travel to line 53
G0 Z0.0 ; Pen down
G1 X69.224 Y102.324 F1000
G0 Z3.0 ; Pen up

G0 X69.224 Y102.324 F3000 ; Travel to line 54
G0 Z0.0 ; Pen down
G1 X69.016 Y102.532 F1000
G0 Z3.0 ; Pen up

G0 X69.432 Y102.532 F3000 ; Travel to line 55
G0 Z0.0 ; Pen down
G1 X68.808 Y102.532 F1000
G1 X68.600 Y102.740 F1000
G1 X66.520 Y102.740 F1000
G1 X66.312 Y102.532 F1000
G1 X65.688 Y102.532 F1000
G1 X64.024 Y101.700 F1000
G1 X62.360 Y100.036 F1000
G1 X62.360 Y99.828 F1000
G1 X61.944 Y99.412 F1000
G1 X61.944 Y98.996 F1000
G1 X61.528 Y98.372 F1000
G1 X61.528 Y97.748 F1000
G1 X61.320 Y97.540 F1000
G1 X61.320 Y95.460 F1000
G1 X61.528 Y95.252 F1000
G1 X61.528 Y94.628 F1000
G1 X61.944 Y94.004 F1000
G1 X61.944 Y93.588 F1000
G1 X62.360 Y93.172 F1000
G1 X62.360 Y92.964 F1000
G1 X61.736 Y92.548 F1000
G1 X61.112 Y92.548 F1000
G1 X59.448 Y91.716 F1000
G1 X57.784 Y90.052 F1000
G1 X57.784 Y89.844 F1000
G1 X57.368 Y89.428 F1000
G1 X57.368 Y89.012 F1000
G1 X56.952 Y88.388 F1000
G1 X56.952 Y87.764 F1000
G1 X56.536 Y87.140 F1000
G1 X56.328 Y87.140 F1000
G1 X55.912 Y87.556 F1000
G1 X55.496 Y87.556 F1000
G1 X54.872 Y87.972 F1000
G1 X54.248 Y87.972 F1000
G1 X54.040 Y88.180 F1000
G1 X51.960 Y88.180 F1000
G1 X51.752 Y87.972 F1000
G1 X51.128 Y87.972 F1000
G1 X50.504 Y87.556 F1000
G1 X50.088 Y87.556 F1000
G1 X49.672 Y87.140 F1000
G1 X49.464 Y87.140 F1000
G1 X49.048 Y87.764 F1000
G1 X49.048 Y88.388 F1000
G1 X48.216 Y90.052 F1000
G1 X46.552 Y91.716 F1000
G1 X46.344 Y91.716 F1000
G1 X45.928 Y92.132 F1000
G1 X45.512 Y92.132 F1000
G1 X44.888 Y92.548 F1000
G1 X44.264 Y92.548 F1000
G1 X44.056 Y92.756 F1000
G1 X41.976 Y92.756 F1000
G1 X41.768 Y92.548 F1000
G1 X41.144 Y92.548 F1000
G1 X40.520 Y92.132 F1000
G1 X40.104 Y92.132 F1000
G1 X39.688 Y91.716 F1000
G1 X39.480 Y91.716 F1000
G1 X37.816 Y90.052 F1000
G1 X37.400 Y89.220 F1000
G1 X38.440 Y90.468 F1000
G1 X38.648 Y90.468 F1000
G1 X39.272 Y91.092 F1000
G1 X40.520 Y91.716 F1000
G1 X41.144 Y91.716 F1000
G1 X41.352 Y91.924 F1000
G1 X43.432 Y91.924 F1000
G1 X43.640 Y91.716 F1000
G1 X44.264 Y91.716 F1000
G1 X45.512 Y91.092 F1000
G1 X46.968 Y89.844 F1000
G1 X46.968 Y89.636 F1000
G1 X47.592 Y89.012 F1000
G1 X48.216 Y87.764 F1000
G1 X48.216 Y87.140 F1000
G1 X48.424 Y86.932 F1000
G1 X48.424 Y84.852 F1000
G1 X48.216 Y84.644 F1000
G1 X48.216 Y84.020 F1000
G1 X47.592 Y82.772 F1000
G1 X46.968 Y82.148 F1000
G1 X46.968 Y81.940 F1000
G1 X45.720 Y80.900 F1000
G1 X46.552 Y81.316 F1000
G1 X46.968 Y80.692 F1000
G1 X46.968 Y80.068 F1000
G1 X46.968 Y81.732 F1000
G1 X48.216 Y82.980 F1000
G1 X49.048 Y84.644 F1000
G1 X49.048 Y85.268 F1000
G1 X49.880 Y86.100 F1000
G1 X51.128 Y86.724 F1000
G1 X51.752 Y86.724 F1000
G1 X51.960 Y86.932 F1000
G1 X54.040 Y86.932 F1000
G1 X54.248 Y86.724 F1000
G1 X54.872 Y86.724 F1000
G1 X56.120 Y86.100 F1000
G1 X56.744 Y85.476 F1000
G1 X56.952 Y85.476 F1000
G1 X58.200 Y84.020 F1000
G1 X58.824 Y82.772 F1000
G1 X58.824 Y82.148 F1000
G1 X59.032 Y81.940 F1000
G1 X59.032 Y80.068 F1000
G1 X59.032 Y80.692 F1000
G1 X59.448 Y81.316 F1000
G1 X60.280 Y80.900 F1000
G1 X59.240 Y81.732 F1000
G1 X59.240 Y82.980 F1000
G1 X59.032 Y83.188 F1000
G1 X59.032 Y83.812 F1000
G1 X58.616 Y84.436 F1000
G1 X58.616 Y84.852 F1000
G1 X57.576 Y86.100 F1000
G1 X57.784 Y87.764 F1000
G1 X58.408 Y89.012 F1000
G1 X59.032 Y89.636 F1000
G1 X59.032 Y89.844 F1000
G1 X60.488 Y91.092 F1000
G1 X61.736 Y91.716 F1000
G1 X62.360 Y91.716 F1000
G1 X62.568 Y91.924 F1000
G1 X64.648 Y91.924 F1000
G1 X64.856 Y91.716 F1000
G1 X65.480 Y91.716 F1000
G1 X66.728 Y91.092 F1000
G1 X67.352 Y90.468 F1000
G1 X67.560 Y90.468 F1000
G1 X68.600 Y89.220 F1000
G1 X68.184 Y90.052 F1000
G1 X68.808 Y90.468 F1000
G1 X69.432 Y90.468 F1000
G1 X67.768 Y90.468 F1000
G1 X65.896 Y92.132 F1000
G1 X65.480 Y92.132 F1000
G1 X64.856 Y92.548 F1000
G1 X64.232 Y92.548 F1000
G1 X63.400 Y93.380 F1000
G1 X62.776 Y94.628 F1000
G1 X62.776 Y95.252 F1000
G1 X62.568 Y95.460 F1000
G1 X62.568 Y97.540 F1000
G1 X62.776 Y97.748 F1000
G1 X62.776 Y98.372 F1000
G1 X63.400 Y99.620 F1000
G1 X64.024 Y100.244 F1000
G1 X64.024 Y100.452 F1000
G1 X65.480 Y101.700 F1000
G1 X66.728 Y102.324 F1000
G1 X67.352 Y102.324 F1000
G1 X67.560 Y102.532 F1000
G1 X69.432 Y102.532 F1000
G0 Z3.0 ; Pen up

G0 X69.848 Y102.324 F3000 ; Travel to line 56
G0 Z0.0 ; Pen down
G1 X70.056 Y102.116 F1000
G0 Z3.0 ; Pen up

G0 X64.856 Y92.548 F3000 ; Travel to line 57
G0 Z0.0 ; Pen down
G1 X66.312 Y91.092 F1000
G0 Z3.0 ; Pen up

G0 X68.184 Y90.468 F3000 ; Travel to line 58
G0 Z0.0 ; Pen down
G1 X68.600 Y90.052 F1000
G0 Z3.0 ; Pen up

G0 X68.808 Y88.804 F3000 ; Travel to line 59
G0 Z0.0 ; Pen down
G1 X69.016 Y88.596 F1000
G0 Z3.0 ; Pen up

G0 X69.016 Y88.388 F3000 ; Travel to line 60
G0 Z0.0 ; Pen down
G1 X69.224 Y88.180 F1000
G0 Z3.0 ; Pen up

G0 X70.056 Y90.468 F3000 ; Travel to line 61
G0 Z0.0 ; Pen down
G1 X69.848 Y90.676 F1000
G0 Z3.0 ; Pen up

G0 X107.080 Y89.428 F3000 ; Travel to line 62
G0 Z0.0 ; Pen down
G1 X107.080 Y88.180 F1000
G1 X107.288 Y87.972 F1000
G1 X107.288 Y86.932 F1000
G1 X107.496 Y86.724 F1000
G1 X107.496 Y86.308 F1000
G1 X107.704 Y86.100 F1000
G1 X107.704 Y85.268 F1000
G1 X107.912 Y85.060 F1000
G1 X107.912 Y84.644 F1000
G1 X108.120 Y84.436 F1000
G1 X108.120 Y84.228 F1000
G1 X108.328 Y84.020 F1000
G1 X108.328 Y83.604 F1000
G1 X108.536 Y83.396 F1000
G1 X108.536 Y83.188 F1000
G1 X108.744 Y82.980 F1000
G1 X108.744 Y82.772 F1000
G1 X108.952 Y82.564 F1000
G1 X108.952 Y82.356 F1000
G1 X109.368 Y81.940 F1000
G1 X109.368 Y81.732 F1000
G1 X109.576 Y81.524 F1000
G1 X109.576 Y81.316 F1000
G1 X109.992 Y80.900 F1000
G1 X109.992 Y80.692 F1000
G1 X110.408 Y80.276 F1000
G1 X110.408 Y80.068 F1000
G1 X111.448 Y79.028 F1000
G1 X111.448 Y78.820 F1000
G1 X113.112 Y77.156 F1000
G1 X113.320 Y77.156 F1000
G1 X114.568 Y75.908 F1000
G1 X114.776 Y75.908 F1000
G1 X115.192 Y75.492 F1000
G1 X115.400 Y75.492 F1000
G1 X115.816 Y75.076 F1000
G1 X116.024 Y75.076 F1000
G1 X116.232 Y74.868 F1000
G1 X116.440 Y74.868 F1000
G1 X116.648 Y74.660 F1000
G1 X116.440 Y74.868 F1000
G1 X116.232 Y74.868 F1000
G1 X115.816 Y75.284 F1000
G1 X115.608 Y75.284 F1000
G1 X115.192 Y75.700 F1000
G1 X114.984 Y75.700 F1000
G1 X114.568 Y76.116 F1000
G1 X114.360 Y76.116 F1000
G1 X113.320 Y77.156 F1000
G1 X113.112 Y77.156 F1000
G1 X111.864 Y78.404 F1000
G1 X111.864 Y78.612 F1000
G1 X110.616 Y79.860 F1000
G1 X110.616 Y80.068 F1000
G1 X110.200 Y80.484 F1000
G1 X110.200 Y80.692 F1000
G1 X109.784 Y81.108 F1000
G1 X109.784 Y81.316 F1000
G1 X109.368 Y81.732 F1000
G1 X109.368 Y81.940 F1000
G1 X109.160 Y82.148 F1000
G1 X109.160 Y82.356 F1000
G1 X108.952 Y82.564 F1000
G1 X108.952 Y82.772 F1000
G1 X108.744 Y82.980 F1000
G1 X108.744 Y83.188 F1000
G1 X108.536 Y83.396 F1000
G1 X108.536 Y83.604 F1000
G1 X108.328 Y83.812 F1000
G1 X108.328 Y84.020 F1000
G1 X108.120 Y84.228 F1000
G1 X108.120 Y84.644 F1000
G1 X107.912 Y84.852 F1000
G1 X107.912 Y85.268 F1000
G1 X107.704 Y85.476 F1000
G1 X107.704 Y86.100 F1000
G1 X107.496 Y86.308 F1000
G1 X107.496 Y86.932 F1000
G1 X107.288 Y87.140 F1000
G1 X107.288 Y87.972 F1000
G1 X107.080 Y88.180 F1000
G0 Z3.0 ; Pen up

G0 X118.728 Y82.564 F3000 ; Travel to line 63
G0 Z0.0 ; Pen down
G1 X119.144 Y82.148 F1000
G1 X119.976 Y81.732 F1000
G1 X119.768 Y81.732 F1000
G1 X118.728 Y82.564 F1000
G0 Z3.0 ; Pen up

G0 X119.976 Y81.732 F3000 ; Travel to line 64
G0 Z0.0 ; Pen down
G1 X120.184 Y81.524 F1000
G0 Z3.0 ; Pen up

G0 X120.392 Y81.524 F3000 ; Travel to line 65
G0 Z0.0 ; Pen down
G1 X120.808 Y81.316 F1000
G1 X120.392 Y81.524 F1000
G0 Z3.0 ; Pen up

G0 X120.808 Y81.316 F3000 ; Travel to line 66
G0 Z0.0 ; Pen down
G1 X121.016 Y81.108 F1000
G0 Z3.0 ; Pen up

G0 X121.224 Y81.108 F3000 ; Travel to line 67
G0 Z0.0 ; Pen down
G1 X121.432 Y80.900 F1000
G1 X122.264 Y80.692 F1000
G1 X121.432 Y80.900 F1000
G1 X121.224 Y81.108 F1000
G0 Z3.0 ; Pen up

G0 X122.264 Y80.692 F3000 ; Travel to line 68
G0 Z0.0 ; Pen down
G1 X122.472 Y80.484 F1000
G0 Z3.0 ; Pen up

G0 X122.680 Y80.484 F3000 ; Travel to line 69
G0 Z0.0 ; Pen down
G1 X123.720 Y80.484 F1000
G0 Z3.0 ; Pen up

G0 X123.928 Y80.276 F3000 ; Travel to line 70
G0 Z0.0 ; Pen down
G1 X125.800 Y80.276 F1000
G0 Z3.0 ; Pen up

G0 X126.216 Y80.484 F3000 ; Travel to line 71
G0 Z0.0 ; Pen down
G1 X127.048 Y80.484 F1000
G0 Z3.0 ; Pen up

G0 X127.464 Y80.692 F3000 ; Travel to line 72
G0 Z0.0 ; Pen down
G1 X127.880 Y80.692 F1000
G1 X127.464 Y80.692 F1000
G0 Z3.0 ; Pen up

G0 X127.880 Y80.692 F3000 ; Travel to line 73
G0 Z0.0 ; Pen down
G1 X128.088 Y80.484 F1000
G0 Z3.0 ; Pen up

G0 X128.296 Y80.900 F3000 ; Travel to line 74
G0 Z0.0 ; Pen down
G1 X128.504 Y80.900 F1000
G1 X128.296 Y80.900 F1000
G0 Z3.0 ; Pen up

G0 X128.504 Y80.900 F3000 ; Travel to line 75
G0 Z0.0 ; Pen down
G1 X128.712 Y80.692 F1000
G0 Z3.0 ; Pen up

G0 X128.920 Y81.108 F3000 ; Travel to line 76
G0 Z0.0 ; Pen down
G1 X129.128 Y81.108 F1000
G1 X128.920 Y81.108 F1000
G0 Z3.0 ; Pen up

G0 X129.128 Y81.108 F3000 ; Travel to line 77
G0 Z0.0 ; Pen down
G1 X129.336 Y80.900 F1000
G0 Z3.0 ; Pen up

G0 X130.168 Y81.732 F3000 ; Travel to line 78
G0 Z0.0 ; Pen down
G1 X130.376 Y81.524 F1000
G0 Z3.0 ; Pen up

G0 X130.168 Y81.732 F3000 ; Travel to line 79
G0 Z0.0 ; Pen down
G1 X129.544 Y81.316 F1000
G1 X130.168 Y81.732 F1000
G0 Z3.0 ; Pen up

G0 X132.040 Y78.404 F3000 ; Travel to line 80
G0 Z0.0 ; Pen down
G1 X132.248 Y78.196 F1000
G0 Z3.0 ; Pen up

G0 X131.832 Y77.988 F3000 ; Travel to line 81
G0 Z0.0 ; Pen down
G1 X131.624 Y78.196 F1000
G0 Z3.0 ; Pen up

G0 X131.208 Y77.988 F3000 ; Travel to line 82
G0 Z0.0 ; Pen down
G1 X131.416 Y77.780 F1000
G0 Z3.0 ; Pen up

G0 X131.208 Y77.988 F3000 ; Travel to line 83
G0 Z0.0 ; Pen down
G1 X131.000 Y77.780 F1000
G1 X131.208 Y77.988 F1000
G0 Z3.0 ; Pen up

G0 X130.584 Y77.572 F3000 ; Travel to line 84
G0 Z0.0 ; Pen down
G1 X130.792 Y77.364 F1000
G0 Z3.0 ; Pen up

G0 X130.376 Y77.156 F3000 ; Travel to line 85
G0 Z0.0 ; Pen down
G1 X130.168 Y77.364 F1000
G0 Z3.0 ; Pen up

G0 X129.752 Y77.364 F3000 ; Travel to line 86
G0 Z0.0 ; Pen down
G1 X130.168 Y77.364 F1000
G1 X129.752 Y77.364 F1000
G0 Z3.0 ; Pen up

G0 X129.336 Y77.156 F3000 ; Travel to line 87
G0 Z0.0 ; Pen down
G1 X129.544 Y76.948 F1000
G0 Z3.0 ; Pen up

G0 X129.128 Y76.740 F3000 ; Travel to line 88
G0 Z0.0 ; Pen down
G1 X128.920 Y76.948 F1000
G0 Z3.0 ; Pen up

G0 X128.504 Y76.948 F3000 ; Travel to line 89
G0 Z0.0 ; Pen down
G1 X128.920 Y76.948 F1000
G1 X128.504 Y76.948 F1000
G0 Z3.0 ; Pen up

G0 X128.088 Y76.740 F3000 ; Travel to line 90
G0 Z0.0 ; Pen down
G1 X128.296 Y76.532 F1000
G0 Z3.0 ; Pen up

G0 X127.672 Y76.740 F3000 ; Travel to line 91
G0 Z0.0 ; Pen down
G1 X128.088 Y76.740 F1000
G1 X127.672 Y76.740 F1000
G0 Z3.0 ; Pen up

G0 X127.256 Y76.532 F3000 ; Travel to line 92
G0 Z0.0 ; Pen down
G1 X123.304 Y76.532 F1000
G0 Z3.0 ; Pen up

G0 X123.304 Y76.532 F3000 ; Travel to line 93
G0 Z0.0 ; Pen down
G1 X127.256 Y76.532 F1000
G1 X123.304 Y76.532 F1000
G0 Z3.0 ; Pen up

G0 X122.888 Y76.740 F3000 ; Travel to line 94
G0 Z0.0 ; Pen down
G1 X122.056 Y76.740 F1000
G0 Z3.0 ; Pen up

G0 X122.056 Y76.740 F3000 ; Travel to line 95
G0 Z0.0 ; Pen down
G1 X122.888 Y76.740 F1000
G1 X122.056 Y76.740 F1000
G0 Z3.0 ; Pen up

G0 X121.848 Y76.740 F3000 ; Travel to line 96
G0 Z0.0 ; Pen down
G1 X121.640 Y76.948 F1000
G0 Z3.0 ; Pen up

G0 X120.600 Y77.156 F3000 ; Travel to line 97
G0 Z0.0 ; Pen down
G1 X121.016 Y76.948 F1000
G1 X121.640 Y76.948 F1000
G1 X121.016 Y76.948 F1000
G1 X120.600 Y77.156 F1000
G0 Z3.0 ; Pen up

G0 X120.392 Y77.156 F3000 ; Travel to line 98
G0 Z0.0 ; Pen down
G1 X120.184 Y77.364 F1000
G0 Z3.0 ; Pen up

G0 X119.976 Y77.364 F3000 ; Travel to line 99
G0 Z0.0 ; Pen down
G1 X120.184 Y77.364 F1000
G1 X119.976 Y77.364 F1000
G0 Z3.0 ; Pen up

G0 X119.768 Y77.364 F3000 ; Travel to line 100
G0 Z0.0 ; Pen down
G1 X119.560 Y77.572 F1000
G0 Z3.0 ; Pen up

G0 X119.144 Y77.780 F3000 ; Travel to line 101
G0 Z0.0 ; Pen down
G1 X119.560 Y77.572 F1000
G1 X119.144 Y77.780 F1000
G0 Z3.0 ; Pen up

G0 X118.936 Y77.780 F3000 ; Travel to line 102
G0 Z0.0 ; Pen down
G1 X118.728 Y77.988 F1000
G0 Z3.0 ; Pen up

G0 X118.520 Y77.988 F3000 ; Travel to line 103
G0 Z0.0 ; Pen down
G1 X118.312 Y78.196 F1000
G0 Z3.0 ; Pen up

G0 X118.104 Y78.196 F3000 ; Travel to line 104
G0 Z0.0 ; Pen down
G1 X117.688 Y78.612 F1000
G0 Z3.0 ; Pen up

G0 X116.856 Y79.236 F3000 ; Travel to line 105
G0 Z0.0 ; Pen down
G1 X117.896 Y78.404 F1000
G1 X116.856 Y79.236 F1000
G0 Z3.0 ; Pen up

G0 X117.272 Y74.452 F3000 ; Travel to line 106
G0 Z0.0 ; Pen down
G1 X117.480 Y74.244 F1000
G0 Z3.0 ; Pen up

G0 X117.688 Y74.244 F3000 ; Travel to line 107
G0 Z0.0 ; Pen down
G1 X118.312 Y73.828 F1000
G1 X118.728 Y73.828 F1000
G1 X118.312 Y73.828 F1000
G1 X117.688 Y74.244 F1000
G0 Z3.0 ; Pen up

G0 X118.728 Y73.828 F3000 ; Travel to line 108
G0 Z0.0 ; Pen down
G1 X118.936 Y73.620 F1000
G0 Z3.0 ; Pen up

G0 X119.352 Y73.620 F3000 ; Travel to line 109
G0 Z0.0 ; Pen down
G1 X119.560 Y73.412 F1000
G0 Z3.0 ; Pen up

G0 X119.768 Y73.412 F3000 ; Travel to line 110
G0 Z0.0 ; Pen down
G1 X119.976 Y73.204 F1000
G0 Z3.0 ; Pen up

G0 X120.392 Y73.204 F3000 ; Travel to line 111
G0 Z0.0 ; Pen down
G1 X120.600 Y72.996 F1000
G0 Z3.0 ; Pen up

G0 X121.016 Y72.996 F3000 ; Travel to line 112
G0 Z0.0 ; Pen down
G1 X121.432 Y72.996 F1000
G1 X121.016 Y72.996 F1000
G0 Z3.0 ; Pen up

G0 X121.432 Y72.996 F3000 ; Travel to line 113
G0 Z0.0 ; Pen down
G1 X121.640 Y72.788 F1000
G0 Z3.0 ; Pen up

G0 X122.056 Y72.788 F3000 ; Travel to line 114
G0 Z0.0 ; Pen down
G1 X123.096 Y72.788 F1000
G0 Z3.0 ; Pen up

G0 X123.720 Y72.580 F3000 ; Travel to line 115
G0 Z0.0 ; Pen down
G1 X126.424 Y72.580 F1000
G0 Z3.0 ; Pen up

G0 X127.048 Y72.788 F3000 ; Travel to line 116
G0 Z0.0 ; Pen down
G1 X128.296 Y72.788 F1000
G0 Z3.0 ; Pen up

G0 X128.712 Y72.996 F3000 ; Travel to line 117
G0 Z0.0 ; Pen down
G1 X129.336 Y72.996 F1000
G1 X128.712 Y72.996 F1000
G0 Z3.0 ; Pen up

G0 X129.336 Y72.996 F3000 ; Travel to line 118
G0 Z0.0 ; Pen down
G1 X129.544 Y72.788 F1000
G0 Z3.0 ; Pen up

G0 X129.752 Y73.204 F3000 ; Travel to line 119
G0 Z0.0 ; Pen down
G1 X129.960 Y72.996 F1000
G0 Z3.0 ; Pen up

G0 X130.376 Y73.412 F3000 ; Travel to line 120
G0 Z0.0 ; Pen down
G1 X130.584 Y73.204 F1000
G0 Z3.0 ; Pen up

G0 X131.000 Y73.412 F3000 ; Travel to line 121
G0 Z0.0 ; Pen down
G1 X130.792 Y73.620 F1000
G0 Z3.0 ; Pen up

G0 X131.416 Y73.828 F3000 ; Travel to line 122
G0 Z0.0 ; Pen down
G1 X131.624 Y73.620 F1000
G0 Z3.0 ; Pen up

G0 X131.832 Y74.036 F3000 ; Travel to line 123
G0 Z0.0 ; Pen down
G1 X132.040 Y73.828 F1000
G0 Z3.0 ; Pen up

G0 X132.456 Y74.244 F3000 ; Travel to line 124
G0 Z0.0 ; Pen down
G1 X132.664 Y74.036 F1000
G0 Z3.0 ; Pen up

G0 X132.872 Y74.452 F3000 ; Travel to line 125
G0 Z0.0 ; Pen down
G1 X133.080 Y74.244 F1000
G0 Z3.0 ; Pen up

G0 X134.120 Y75.076 F3000 ; Travel to line 126
G0 Z0.0 ; Pen down
G1 X134.328 Y75.076 F1000
G0 Z3.0 ; Pen up

G0 X134.952 Y75.700 F3000 ; Travel to line 127
G0 Z0.0 ; Pen down
G1 X135.160 Y75.492 F1000
G0 Z3.0 ; Pen up

G0 X134.952 Y75.700 F3000 ; Travel to line 128
G0 Z0.0 ; Pen down
G1 X133.496 Y74.660 F1000
G1 X134.952 Y75.700 F1000
G0 Z3.0 ; Pen up

G0 X135.576 Y76.116 F3000 ; Travel to line 129
G0 Z0.0 ; Pen down
G1 X135.784 Y75.908 F1000
G0 Z3.0 ; Pen up

G0 X135.576 Y76.116 F3000 ; Travel to line 130
G0 Z0.0 ; Pen down
G1 X135.368 Y75.908 F1000
G1 X135.576 Y76.116 F1000
G0 Z3.0 ; Pen up

G0 X132.872 Y78.612 F3000 ; Travel to line 131
G0 Z0.0 ; Pen down
G1 X132.664 Y78.820 F1000
G0 Z3.0 ; Pen up

G0 X132.664 Y78.820 F3000 ; Travel to line 132
G0 Z0.0 ; Pen down
G1 X132.456 Y78.612 F1000
G1 X132.664 Y78.820 F1000
G0 Z3.0 ; Pen up

G0 X126.216 Y80.484 F3000 ; Travel to line 133
G0 Z0.0 ; Pen down
G1 X127.048 Y80.484 F1000
G1 X126.216 Y80.484 F1000
G0 Z3.0 ; Pen up

G0 X122.680 Y80.484 F3000 ; Travel to line 134
G0 Z0.0 ; Pen down
G1 X123.720 Y80.484 F1000
G1 X123.928 Y80.276 F1000
G1 X125.800 Y80.276 F1000
G1 X123.928 Y80.276 F1000
G1 X123.720 Y80.484 F1000
G1 X122.680 Y80.484 F1000
G0 Z3.0 ; Pen up

G0 X122.056 Y72.788 F3000 ; Travel to line 135
G0 Z0.0 ; Pen down
G1 X123.096 Y72.788 F1000
G1 X122.056 Y72.788 F1000
G0 Z3.0 ; Pen up

G0 X123.720 Y72.580 F3000 ; Travel to line 136
G0 Z0.0 ; Pen down
G1 X126.424 Y72.580 F1000
G1 X123.720 Y72.580 F1000
G0 Z3.0 ; Pen up

G0 X127.048 Y72.788 F3000 ; Travel to line 137
G0 Z0.0 ; Pen down
G1 X128.296 Y72.788 F1000
G1 X127.048 Y72.788 F1000
G0 Z3.0 ; Pen up

G0 X131.000 Y89.220 F3000 ; Travel to line 138
G0 Z0.0 ; Pen down
G1 X130.792 Y89.012 F1000
G1 X130.792 Y88.180 F1000
G1 X130.584 Y87.972 F1000
G1 X130.584 Y87.764 F1000
G1 X130.376 Y87.556 F1000
G1 X130.376 Y87.140 F1000
G1 X129.960 Y86.724 F1000
G1 X129.960 Y86.516 F1000
G1 X128.712 Y85.268 F1000
G1 X128.504 Y85.268 F1000
G1 X128.088 Y84.852 F1000
G1 X127.880 Y84.852 F1000
G1 X127.672 Y84.644 F1000
G1 X127.256 Y84.644 F1000
G1 X127.048 Y84.436 F1000
G1 X126.632 Y84.436 F1000
G1 X126.424 Y84.228 F1000
G1 X123.928 Y84.228 F1000
G1 X126.424 Y84.228 F1000
G1 X126.632 Y84.436 F1000
G1 X127.048 Y84.436 F1000
G1 X127.256 Y84.644 F1000
G1 X127.464 Y84.644 F1000
G1 X127.672 Y84.852 F1000
G1 X127.880 Y84.852 F1000
G1 X128.088 Y85.060 F1000
G1 X128.296 Y85.060 F1000
G1 X128.920 Y85.684 F1000
G1 X129.128 Y85.684 F1000
G1 X129.960 Y86.516 F1000
G1 X129.960 Y86.724 F1000
G1 X130.376 Y87.140 F1000
G1 X130.376 Y87.556 F1000
G1 X130.584 Y87.764 F1000
G1 X130.584 Y87.972 F1000
G1 X130.792 Y88.180 F1000
G1 X130.792 Y89.012 F1000
G1 X131.000 Y89.220 F1000
G1 X131.000 Y90.468 F1000
G0 Z3.0 ; Pen up

G0 X128.712 Y98.164 F3000 ; Travel to line 139
G0 Z0.0 ; Pen down
G1 X128.920 Y97.956 F1000
G1 X129.336 Y97.956 F1000
G1 X129.544 Y97.748 F1000
G1 X129.960 Y97.748 F1000
G1 X130.376 Y97.332 F1000
G1 X130.584 Y97.332 F1000
G1 X130.792 Y97.124 F1000
G1 X131.000 Y97.124 F1000
G1 X132.040 Y96.084 F1000
G1 X132.248 Y96.084 F1000
G1 X132.664 Y95.668 F1000
G1 X132.664 Y95.460 F1000
G1 X133.080 Y95.044 F1000
G1 X133.080 Y94.836 F1000
G1 X133.496 Y94.420 F1000
G1 X133.496 Y94.212 F1000
G1 X133.912 Y93.796 F1000
G1 X133.912 Y93.588 F1000
G1 X134.120 Y93.380 F1000
G1 X134.120 Y92.964 F1000
G1 X134.328 Y92.756 F1000
G1 X134.328 Y92.548 F1000
G1 X134.536 Y92.340 F1000
G1 X134.536 Y91.300 F1000
G1 X134.744 Y91.092 F1000
G1 X134.744 Y88.180 F1000
G1 X134.536 Y87.972 F1000
G1 X134.536 Y87.348 F1000
G1 X134.328 Y87.140 F1000
G1 X134.328 Y86.724 F1000
G1 X134.120 Y86.516 F1000
G1 X134.120 Y86.100 F1000
G1 X133.912 Y85.892 F1000
G1 X133.912 Y85.684 F1000
G1 X133.704 Y85.476 F1000
G1 X133.704 Y85.268 F1000
G1 X133.496 Y85.060 F1000
G1 X133.496 Y84.852 F1000
G1 X132.456 Y83.812 F1000
G1 X132.456 Y83.604 F1000
G1 X132.248 Y83.396 F1000
G1 X132.248 Y83.188 F1000
G1 X132.040 Y82.980 F1000
G1 X131.832 Y82.980 F1000
G1 X131.416 Y82.564 F1000
G1 X131.208 Y82.564 F1000
G1 X130.584 Y81.940 F1000
G1 X131.208 Y82.564 F1000
G1 X131.416 Y82.564 F1000
G1 X132.248 Y83.396 F1000
G1 X132.248 Y83.604 F1000
G1 X133.288 Y84.644 F1000
G1 X133.288 Y84.852 F1000
G1 X133.496 Y85.060 F1000
G1 X133.496 Y85.268 F1000
G1 X133.704 Y85.476 F1000
G1 X133.704 Y85.684 F1000
G1 X133.912 Y85.892 F1000
G1 X133.912 Y86.100 F1000
G1 X134.120 Y86.308 F1000
G1 X134.120 Y86.724 F1000
G1 X134.328 Y86.932 F1000
G1 X134.328 Y87.140 F1000
G1 X134.536 Y87.348 F1000
G1 X134.536 Y87.972 F1000
G1 X134.744 Y88.180 F1000
G1 X134.744 Y91.092 F1000
G1 X134.536 Y91.300 F1000
G1 X134.536 Y92.132 F1000
G1 X134.328 Y92.340 F1000
G1 X134.328 Y92.548 F1000
G1 X134.120 Y92.756 F1000
G1 X134.120 Y93.172 F1000
G1 X133.912 Y93.380 F1000
G1 X133.912 Y93.588 F1000
G1 X133.704 Y93.796 F1000
G1 X133.704 Y94.004 F1000
G1 X133.496 Y94.212 F1000
G1 X133.496 Y94.420 F1000
G1 X133.080 Y94.836 F1000
G1 X133.080 Y95.044 F1000
G1 X131.000 Y97.124 F1000
G1 X130.792 Y97.124 F1000
G1 X130.584 Y97.332 F1000
G1 X130.376 Y97.332 F1000
G1 X129.960 Y97.748 F1000
G1 X129.544 Y97.748 F1000
G1 X129.336 Y97.956 F1000
G1 X128.920 Y97.956 F1000
G1 X128.712 Y98.164 F1000
G1 X128.504 Y98.164 F1000
G0 Z3.0 ; Pen up

G0 X126.424 Y98.580 F3000 ; Travel to line 140
G0 Z0.0 ; Pen down
G1 X126.632 Y98.372 F1000
G1 X128.088 Y98.372 F1000
G1 X126.632 Y98.372 F1000
G1 X126.424 Y98.580 F1000
G1 X126.216 Y98.580 F1000
G1 X126.008 Y98.372 F1000
G1 X124.552 Y98.372 F1000
G1 X124.344 Y98.164 F1000
G1 X123.928 Y98.164 F1000
G1 X124.344 Y98.164 F1000
G1 X124.552 Y98.372 F1000
G1 X126.008 Y98.372 F1000
G1 X126.216 Y98.580 F1000
G0 Z3.0 ; Pen up

G0 X123.512 Y97.956 F3000 ; Travel to line 141
G0 Z0.0 ; Pen down
G1 X123.304 Y97.956 F1000
G1 X123.096 Y97.748 F1000
G1 X122.888 Y97.748 F1000
G1 X122.680 Y97.540 F1000
G1 X122.472 Y97.540 F1000
G1 X122.264 Y97.332 F1000
G1 X122.056 Y97.332 F1000
G1 X121.640 Y96.916 F1000
G1 X121.432 Y96.916 F1000
G1 X121.016 Y96.500 F1000
G1 X121.016 Y96.292 F1000
G1 X120.808 Y96.292 F1000
G1 X119.976 Y95.460 F1000
G1 X119.976 Y95.252 F1000
G1 X119.768 Y95.044 F1000
G1 X119.768 Y94.836 F1000
G1 X119.352 Y94.420 F1000
G1 X119.352 Y94.212 F1000
G1 X119.144 Y94.004 F1000
G1 X119.144 Y93.588 F1000
G1 X118.936 Y93.380 F1000
G1 X118.936 Y93.172 F1000
G1 X118.728 Y92.964 F1000
G1 X118.728 Y92.340 F1000
G1 X118.520 Y92.132 F1000
G1 X118.520 Y90.052 F1000
G1 X118.728 Y89.844 F1000
G1 X118.728 Y89.012 F1000
G1 X118.936 Y88.804 F1000
G1 X118.936 Y88.596 F1000
G1 X119.144 Y88.388 F1000
G1 X119.144 Y87.972 F1000
G1 X119.352 Y87.764 F1000
G1 X119.352 Y87.556 F1000
G1 X119.560 Y87.348 F1000
G1 X119.560 Y87.140 F1000
G1 X119.768 Y86.932 F1000
G1 X119.976 Y86.932 F1000
G1 X119.976 Y86.724 F1000
G1 X120.392 Y86.308 F1000
G1 X120.392 Y86.100 F1000
G1 X120.600 Y85.892 F1000
G1 X120.808 Y85.892 F1000
G1 X121.432 Y85.268 F1000
G1 X121.640 Y85.268 F1000
G1 X122.056 Y84.852 F1000
G1 X122.472 Y84.852 F1000
G1 X122.680 Y84.644 F1000
G1 X122.888 Y84.644 F1000
G1 X123.096 Y84.436 F1000
G1 X123.512 Y84.436 F1000
G1 X123.096 Y84.436 F1000
G1 X122.888 Y84.644 F1000
G1 X122.680 Y84.644 F1000
G1 X122.472 Y84.852 F1000
G1 X122.056 Y84.852 F1000
G1 X121.848 Y85.060 F1000
G1 X121.640 Y85.060 F1000
G1 X120.808 Y85.892 F1000
G1 X120.600 Y85.892 F1000
G1 X120.392 Y86.100 F1000
G1 X120.392 Y86.308 F1000
G1 X119.560 Y87.140 F1000
G1 X119.560 Y87.348 F1000
G1 X119.352 Y87.556 F1000
G1 X119.352 Y87.764 F1000
G1 X119.144 Y87.972 F1000
G1 X119.144 Y88.388 F1000
G1 X118.936 Y88.596 F1000
G1 X118.936 Y88.804 F1000
G1 X118.728 Y89.012 F1000
G1 X118.728 Y89.844 F1000
G1 X118.520 Y90.052 F1000
G1 X118.520 Y92.132 F1000
G1 X118.728 Y92.340 F1000
G1 X118.728 Y92.964 F1000
G1 X118.936 Y93.172 F1000
G1 X118.936 Y93.380 F1000
G1 X119.144 Y93.588 F1000
G1 X119.144 Y94.004 F1000
G1 X119.352 Y94.212 F1000
G1 X119.352 Y94.420 F1000
G1 X119.768 Y94.836 F1000
G1 X119.768 Y95.044 F1000
G1 X119.976 Y95.252 F1000
G1 X119.976 Y95.460 F1000
G1 X121.432 Y96.916 F1000
G1 X121.640 Y96.916 F1000
G1 X122.056 Y97.332 F1000
G1 X122.264 Y97.332 F1000
G1 X122.472 Y97.540 F1000
G1 X122.680 Y97.540 F1000
G1 X122.888 Y97.748 F1000
G1 X123.096 Y97.748 F1000
G1 X123.304 Y97.956 F1000
G0 Z3.0 ; Pen up

G0 X122.056 Y101.284 F3000 ; Travel to line 142
G0 Z0.0 ; Pen down
G1 X121.848 Y101.492 F1000
G0 Z3.0 ; Pen up

G0 X121.848 Y101.492 F3000 ; Travel to line 143
G0 Z0.0 ; Pen down
G1 X121.640 Y101.284 F1000
G1 X121.224 Y101.284 F1000
G1 X121.640 Y101.284 F1000
G1 X121.848 Y101.492 F1000
G0 Z3.0 ; Pen up

G0 X122.264 Y101.700 F3000 ; Travel to line 144
G0 Z0.0 ; Pen down
G1 X122.472 Y101.700 F1000
G1 X122.264 Y101.700 F1000
G0 Z3.0 ; Pen up

G0 X122.472 Y101.700 F3000 ; Travel to line 145
G0 Z0.0 ; Pen down
G1 X122.680 Y101.492 F1000
G0 Z3.0 ; Pen up

G0 X122.888 Y101.908 F3000 ; Travel to line 146
G0 Z0.0 ; Pen down
G1 X123.304 Y101.908 F1000
G1 X122.888 Y101.908 F1000
G0 Z3.0 ; Pen up

G0 X123.304 Y101.908 F3000 ; Travel to line 147
G0 Z0.0 ; Pen down
G1 X123.512 Y101.700 F1000
G0 Z3.0 ; Pen up

G0 X123.720 Y102.116 F3000 ; Travel to line 148
G0 Z0.0 ; Pen down
G1 X124.344 Y102.116 F1000
G1 X123.720 Y102.116 F1000
G0 Z3.0 ; Pen up

G0 X124.344 Y102.116 F3000 ; Travel to line 149
G0 Z0.0 ; Pen down
G1 X124.552 Y101.908 F1000
G0 Z3.0 ; Pen up

G0 X124.760 Y102.324 F3000 ; Travel to line 150
G0 Z0.0 ; Pen down
G1 X127.672 Y102.324 F1000
G0 Z3.0 ; Pen up

G0 X128.088 Y102.116 F3000 ; Travel to line 151
G0 Z0.0 ; Pen down
G1 X128.920 Y102.116 F1000
G0 Z3.0 ; Pen up

G0 X129.336 Y101.908 F3000 ; Travel to line 152
G0 Z0.0 ; Pen down
G1 X130.376 Y101.700 F1000
G1 X129.336 Y101.908 F1000
G0 Z3.0 ; Pen up

G0 X130.376 Y101.700 F3000 ; Travel to line 153
G0 Z0.0 ; Pen down
G1 X130.584 Y101.492 F1000
G0 Z3.0 ; Pen up

G0 X130.792 Y101.492 F3000 ; Travel to line 154
G0 Z0.0 ; Pen down
G1 X131.000 Y101.284 F1000
G1 X131.416 Y101.284 F1000
G1 X131.000 Y101.284 F1000
G1 X130.792 Y101.492 F1000
G0 Z3.0 ; Pen up

G0 X131.416 Y101.284 F3000 ; Travel to line 155
G0 Z0.0 ; Pen down
G1 X131.624 Y101.076 F1000
G0 Z3.0 ; Pen up

G0 X131.832 Y101.076 F3000 ; Travel to line 156
G0 Z0.0 ; Pen down
G1 X132.248 Y100.660 F1000
G0 Z3.0 ; Pen up

G0 X132.456 Y100.660 F3000 ; Travel to line 157
G0 Z0.0 ; Pen down
G1 X132.664 Y100.452 F1000
G0 Z3.0 ; Pen up

G0 X132.872 Y100.452 F3000 ; Travel to line 158
G0 Z0.0 ; Pen down
G1 X133.288 Y100.036 F1000
G0 Z3.0 ; Pen up

G0 X133.496 Y100.036 F3000 ; Travel to line 159
G0 Z0.0 ; Pen down
G1 X134.536 Y98.996 F1000
G1 X134.328 Y99.204 F1000
G1 X134.328 Y99.412 F1000
G1 X134.120 Y99.620 F1000
G1 X133.912 Y99.620 F1000
G0 Z3.0 ; Pen up

G0 X134.952 Y98.788 F3000 ; Travel to line 160
G0 Z0.0 ; Pen down
G1 X135.160 Y98.580 F1000
G1 X135.160 Y98.372 F1000
G1 X136.200 Y97.332 F1000
G1 X136.200 Y97.124 F1000
G1 X136.616 Y96.708 F1000
G1 X136.616 Y96.500 F1000
G1 X136.824 Y96.292 F1000
G1 X136.824 Y96.084 F1000
G1 X137.240 Y95.668 F1000
G1 X137.240 Y95.460 F1000
G1 X137.448 Y95.252 F1000
G1 X137.448 Y95.044 F1000
G1 X137.656 Y94.836 F1000
G1 X137.656 Y94.420 F1000
G1 X137.864 Y94.212 F1000
G1 X137.864 Y93.796 F1000
G1 X138.072 Y93.588 F1000
G1 X138.072 Y93.172 F1000
G1 X138.280 Y92.964 F1000
G1 X138.280 Y92.340 F1000
G1 X138.488 Y92.132 F1000
G1 X138.488 Y90.884 F1000
G1 X138.696 Y90.676 F1000
G1 X138.696 Y89.012 F1000
G1 X138.488 Y88.804 F1000
G1 X138.488 Y87.348 F1000
G1 X138.280 Y87.140 F1000
G1 X138.280 Y86.516 F1000
G1 X138.072 Y86.308 F1000
G1 X138.072 Y85.684 F1000
G1 X137.864 Y85.476 F1000
G1 X137.864 Y85.268 F1000
G1 X137.656 Y85.060 F1000
G1 X137.656 Y84.644 F1000
G1 X137.448 Y84.436 F1000
G1 X137.448 Y84.228 F1000
G1 X137.240 Y84.020 F1000
G1 X137.240 Y83.812 F1000
G1 X137.032 Y83.604 F1000
G1 X137.032 Y83.396 F1000
G1 X136.824 Y83.188 F1000
G1 X136.824 Y82.980 F1000
G1 X136.616 Y82.772 F1000
G1 X136.616 Y82.564 F1000
G1 X135.576 Y81.524 F1000
G1 X135.576 Y81.316 F1000
G1 X133.496 Y79.236 F1000
G1 X133.288 Y79.236 F1000
G1 X133.080 Y79.028 F1000
G1 X133.288 Y79.236 F1000
G1 X133.496 Y79.236 F1000
G1 X134.328 Y80.068 F1000
G1 X134.536 Y80.068 F1000
G1 X135.368 Y80.900 F1000
G1 X135.368 Y81.108 F1000
G1 X136.200 Y81.940 F1000
G1 X136.200 Y82.148 F1000
G1 X136.616 Y82.564 F1000
G1 X136.616 Y82.772 F1000
G1 X136.824 Y82.980 F1000
G1 X136.824 Y83.188 F1000
G1 X137.240 Y83.604 F1000
G1 X137.240 Y84.020 F1000
G1 X137.448 Y84.228 F1000
G1 X137.448 Y84.436 F1000
G1 X137.656 Y84.644 F1000
G1 X137.656 Y84.852 F1000
G1 X137.864 Y85.060 F1000
G1 X137.864 Y85.476 F1000
G1 X138.072 Y85.684 F1000
G1 X138.072 Y86.100 F1000
G1 X138.280 Y86.308 F1000
G1 X138.280 Y86.932 F1000
G1 X138.488 Y87.140 F1000
G1 X138.488 Y88.596 F1000
G1 X138.696 Y88.804 F1000
G1 X138.696 Y90.676 F1000
G1 X138.488 Y90.884 F1000
G1 X138.488 Y92.340 F1000
G1 X138.280 Y92.548 F1000
G1 X138.280 Y93.172 F1000
G1 X138.072 Y93.380 F1000
G1 X138.072 Y93.796 F1000
G1 X137.864 Y94.004 F1000
G1 X137.864 Y94.212 F1000
G1 X137.656 Y94.420 F1000
G1 X137.656 Y94.836 F1000
G1 X137.448 Y95.044 F1000
G1 X137.448 Y95.252 F1000
G1 X137.240 Y95.460 F1000
G1 X137.240 Y95.668 F1000
G1 X137.032 Y95.876 F1000
G1 X137.032 Y96.084 F1000
G1 X136.616 Y96.500 F1000
G1 X136.616 Y96.708 F1000
G1 X136.408 Y96.916 F1000
G1 X136.408 Y97.124 F1000
G1 X135.992 Y97.540 F1000
G1 X135.992 Y97.748 F1000
G0 Z3.0 ; Pen up

G0 X132.872 Y100.452 F3000 ; Travel to line 161
G0 Z0.0 ; Pen down
G1 X133.080 Y100.244 F1000
G1 X132.872 Y100.452 F1000
G0 Z3.0 ; Pen up

G0 X131.832 Y101.076 F3000 ; Travel to line 162
G0 Z0.0 ; Pen down
G1 X132.040 Y100.868 F1000
G1 X131.832 Y101.076 F1000
G0 Z3.0 ; Pen up

G0 X133.496 Y104.404 F3000 ; Travel to line 163
G0 Z0.0 ; Pen down
G1 X133.288 Y104.612 F1000
G0 Z3.0 ; Pen up

G0 X133.080 Y104.612 F3000 ; Travel to line 164
G0 Z0.0 ; Pen down
G1 X132.872 Y104.820 F1000
G0 Z3.0 ; Pen up

G0 X132.456 Y104.820 F3000 ; Travel to line 165
G0 Z0.0 ; Pen down
G1 X132.248 Y105.028 F1000
G0 Z3.0 ; Pen up

G0 X132.040 Y105.028 F3000 ; Travel to line 166
G0 Z0.0 ; Pen down
G1 X131.832 Y105.236 F1000
G0 Z3.0 ; Pen up

G0 X131.624 Y105.236 F3000 ; Travel to line 167
G0 Z0.0 ; Pen down
G1 X131.416 Y105.444 F1000
G0 Z3.0 ; Pen up

G0 X131.000 Y105.444 F3000 ; Travel to line 168
G0 Z0.0 ; Pen down
G1 X131.416 Y105.444 F1000
G1 X131.000 Y105.444 F1000
G0 Z3.0 ; Pen up

G0 X130.584 Y105.444 F3000 ; Travel to line 169
G0 Z0.0 ; Pen down
G1 X130.376 Y105.652 F1000
G0 Z3.0 ; Pen up

G0 X130.168 Y105.652 F3000 ; Travel to line 170
G0 Z0.0 ; Pen down
G1 X129.960 Y105.860 F1000
G0 Z3.0 ; Pen up

G0 X129.336 Y105.860 F3000 ; Travel to line 171
G0 Z0.0 ; Pen down
G1 X129.960 Y105.860 F1000
G1 X129.336 Y105.860 F1000
G0 Z3.0 ; Pen up

G0 X128.920 Y106.068 F3000 ; Travel to line 172
G0 Z0.0 ; Pen down
G1 X127.880 Y106.068 F1000
G0 Z3.0 ; Pen up

G0 X127.880 Y106.068 F3000 ; Travel to line 173
G0 Z0.0 ; Pen down
G1 X128.920 Y106.068 F1000
G1 X127.880 Y106.068 F1000
G0 Z3.0 ; Pen up

G0 X127.464 Y106.276 F3000 ; Travel to line 174
G0 Z0.0 ; Pen down
G1 X125.384 Y106.276 F1000
G0 Z3.0 ; Pen up

G0 X125.384 Y106.276 F3000 ; Travel to line 175
G0 Z0.0 ; Pen down
G1 X127.464 Y106.276 F1000
G1 X125.384 Y106.276 F1000
G0 Z3.0 ; Pen up

G0 X124.968 Y106.068 F3000 ; Travel to line 176
G0 Z0.0 ; Pen down
G1 X123.928 Y106.068 F1000
G0 Z3.0 ; Pen up

G0 X123.928 Y106.068 F3000 ; Travel to line 177
G0 Z0.0 ; Pen down
G1 X124.968 Y106.068 F1000
G1 X123.928 Y106.068 F1000
G0 Z3.0 ; Pen up

G0 X123.512 Y105.860 F3000 ; Travel to line 178
G0 Z0.0 ; Pen down
G1 X123.720 Y105.652 F1000
G0 Z3.0 ; Pen up

G0 X123.096 Y105.860 F3000 ; Travel to line 179
G0 Z0.0 ; Pen down
G1 X123.512 Y105.860 F1000
G1 X123.096 Y105.860 F1000
G0 Z3.0 ; Pen up

G0 X122.680 Y105.444 F3000 ; Travel to line 180
G0 Z0.0 ; Pen down
G1 X122.472 Y105.652 F1000
G0 Z3.0 ; Pen up

G0 X122.056 Y105.652 F3000 ; Travel to line 181
G0 Z0.0 ; Pen down
G1 X122.472 Y105.652 F1000
G1 X122.056 Y105.652 F1000
G0 Z3.0 ; Pen up

G0 X121.640 Y105.444 F3000 ; Travel to line 182
G0 Z0.0 ; Pen down
G1 X121.848 Y105.236 F1000
G0 Z3.0 ; Pen up

G0 X121.224 Y105.028 F3000 ; Travel to line 183
G0 Z0.0 ; Pen down
G1 X121.016 Y105.236 F1000
G0 Z3.0 ; Pen up

G0 X120.600 Y105.236 F3000 ; Travel to line 184
G0 Z0.0 ; Pen down
G1 X121.016 Y105.236 F1000
G1 X120.600 Y105.236 F1000
G0 Z3.0 ; Pen up

G0 X120.184 Y105.028 F3000 ; Travel to line 185
G0 Z0.0 ; Pen down
G1 X120.392 Y104.820 F1000
G0 Z3.0 ; Pen up

G0 X119.976 Y104.612 F3000 ; Travel to line 186
G0 Z0.0 ; Pen down
G1 X119.768 Y104.820 F1000
G0 Z3.0 ; Pen up

G0 X119.352 Y104.612 F3000 ; Travel to line 187
G0 Z0.0 ; Pen down
G1 X119.144 Y104.404 F1000
G1 X118.936 Y104.404 F1000
G1 X118.728 Y104.196 F1000
G1 X118.520 Y104.196 F1000
G1 X118.104 Y103.780 F1000
G1 X117.896 Y103.780 F1000
G1 X117.480 Y103.364 F1000
G1 X117.272 Y103.364 F1000
G1 X116.856 Y102.948 F1000
G1 X116.648 Y102.948 F1000
G1 X116.024 Y102.324 F1000
G1 X115.816 Y102.324 F1000
G1 X115.400 Y101.908 F1000
G1 X115.400 Y101.700 F1000
G1 X114.152 Y100.452 F1000
G1 X114.152 Y100.244 F1000
G1 X113.112 Y99.204 F1000
G1 X113.112 Y98.996 F1000
G1 X112.696 Y98.580 F1000
G1 X112.696 Y98.372 F1000
G1 X112.488 Y98.164 F1000
G1 X112.488 Y97.956 F1000
G1 X112.280 Y97.748 F1000
G1 X112.280 Y97.332 F1000
G1 X112.072 Y97.124 F1000
G1 X112.072 Y96.916 F1000
G1 X111.864 Y96.708 F1000
G1 X111.864 Y96.084 F1000
G1 X111.656 Y95.876 F1000
G1 X111.656 Y95.668 F1000
G1 X111.448 Y95.460 F1000
G1 X111.448 Y95.044 F1000
G1 X111.240 Y94.836 F1000
G1 X111.240 Y94.212 F1000
G1 X111.032 Y94.004 F1000
G1 X111.032 Y92.756 F1000
G1 X110.824 Y92.548 F1000
G1 X110.824 Y89.012 F1000
G1 X111.032 Y88.804 F1000
G1 X111.032 Y88.180 F1000
G1 X111.240 Y87.972 F1000
G1 X111.240 Y87.140 F1000
G1 X111.448 Y86.932 F1000
G1 X111.448 Y86.516 F1000
G1 X111.656 Y86.308 F1000
G1 X111.656 Y85.892 F1000
G1 X111.864 Y85.684 F1000
G1 X111.864 Y85.476 F1000
G1 X112.072 Y85.268 F1000
G1 X112.072 Y85.060 F1000
G1 X112.280 Y84.852 F1000
G1 X112.280 Y84.644 F1000
G1 X112.488 Y84.436 F1000
G1 X112.488 Y84.228 F1000
G1 X112.696 Y84.020 F1000
G1 X112.696 Y83.812 F1000
G1 X112.904 Y83.604 F1000
G1 X112.904 Y83.396 F1000
G1 X113.112 Y83.188 F1000
G1 X113.112 Y82.980 F1000
G1 X113.528 Y82.564 F1000
G1 X113.528 Y82.356 F1000
G1 X114.360 Y81.524 F1000
G1 X114.360 Y81.316 F1000
G1 X116.024 Y79.652 F1000
G1 X116.232 Y79.652 F1000
G1 X116.440 Y79.444 F1000
G1 X116.232 Y79.652 F1000
G1 X116.024 Y79.652 F1000
G1 X114.360 Y81.316 F1000
G1 X114.360 Y81.524 F1000
G1 X113.944 Y81.940 F1000
G1 X113.944 Y82.148 F1000
G1 X113.320 Y82.772 F1000
G1 X113.320 Y82.980 F1000
G1 X113.112 Y83.188 F1000
G1 X113.112 Y83.396 F1000
G1 X112.904 Y83.604 F1000
G1 X112.904 Y83.812 F1000
G1 X112.696 Y84.020 F1000
G1 X112.696 Y84.228 F1000
G1 X112.488 Y84.436 F1000
G1 X112.488 Y84.644 F1000
G1 X112.280 Y84.852 F1000
G1 X112.280 Y85.060 F1000
G1 X112.072 Y85.268 F1000
G1 X112.072 Y85.476 F1000
G1 X111.864 Y85.684 F1000
G1 X111.864 Y85.892 F1000
G1 X111.656 Y86.100 F1000
G1 X111.656 Y86.308 F1000
G1 X111.448 Y86.516 F1000
G1 X111.448 Y87.140 F1000
G1 X111.240 Y87.348 F1000
G1 X111.240 Y87.972 F1000
G1 X111.032 Y88.180 F1000
G1 X111.032 Y88.804 F1000
G1 X110.824 Y89.012 F1000
G1 X110.824 Y92.548 F1000
G1 X111.032 Y92.756 F1000
G1 X111.032 Y94.004 F1000
G1 X111.240 Y94.212 F1000
G1 X111.240 Y94.836 F1000
G1 X111.448 Y95.044 F1000
G1 X111.448 Y95.252 F1000
G1 X111.656 Y95.460 F1000
G1 X111.656 Y95.876 F1000
G1 X111.864 Y96.084 F1000
G1 X111.864 Y96.500 F1000
G1 X112.072 Y96.708 F1000
G1 X112.072 Y97.124 F1000
G1 X112.280 Y97.332 F1000
G1 X112.280 Y97.540 F1000
G1 X112.488 Y97.748 F1000
G1 X112.488 Y97.956 F1000
G1 X112.696 Y98.164 F1000
G1 X112.696 Y98.372 F1000
G1 X112.904 Y98.580 F1000
G1 X112.904 Y98.788 F1000
G1 X113.112 Y98.996 F1000
G1 X113.112 Y99.204 F1000
G1 X114.360 Y100.452 F1000
G1 X114.360 Y100.660 F1000
G1 X116.440 Y102.740 F1000
G1 X116.648 Y102.740 F1000
G1 X117.272 Y103.364 F1000
G1 X117.480 Y103.364 F1000
G1 X117.896 Y103.780 F1000
G1 X118.104 Y103.780 F1000
G1 X118.312 Y103.988 F1000
G1 X118.520 Y103.988 F1000
G1 X118.936 Y104.404 F1000
G1 X119.144 Y104.404 F1000
G0 Z3.0 ; Pen up

G0 X120.808 Y101.076 F3000 ; Travel to line 188
G0 Z0.0 ; Pen down
G1 X121.016 Y100.868 F1000
G0 Z3.0 ; Pen up

G0 X120.808 Y101.076 F3000 ; Travel to line 189
G0 Z0.0 ; Pen down
G1 X120.600 Y100.868 F1000
G1 X120.808 Y101.076 F1000
G0 Z3.0 ; Pen up

G0 X120.184 Y100.660 F3000 ; Travel to line 190
G0 Z0.0 ; Pen down
G1 X120.392 Y100.452 F1000
G0 Z3.0 ; Pen up

G0 X120.184 Y100.660 F3000 ; Travel to line 191
G0 Z0.0 ; Pen down
G1 X119.976 Y100.452 F1000
G1 X120.184 Y100.660 F1000
G0 Z3.0 ; Pen up

G0 X119.768 Y100.036 F3000 ; Travel to line 192
G0 Z0.0 ; Pen down
G1 X119.560 Y100.244 F1000
G0 Z3.0 ; Pen up

G0 X119.560 Y100.244 F3000 ; Travel to line 193
G0 Z0.0 ; Pen down
G1 X119.144 Y99.828 F1000
G1 X119.560 Y100.244 F1000
G0 Z3.0 ; Pen up

G0 X118.728 Y99.620 F3000 ; Travel to line 194
G0 Z0.0 ; Pen down
G1 X118.312 Y99.204 F1000
G1 X118.104 Y99.204 F1000
G1 X117.896 Y98.996 F1000
G1 X117.896 Y98.788 F1000
G1 X117.064 Y97.956 F1000
G1 X117.064 Y97.748 F1000
G1 X116.648 Y97.332 F1000
G1 X116.648 Y97.124 F1000
G1 X116.024 Y96.500 F1000
G1 X116.024 Y96.292 F1000
G1 X115.816 Y96.084 F1000
G1 X115.816 Y95.876 F1000
G1 X115.608 Y95.668 F1000
G1 X115.608 Y95.252 F1000
G1 X115.400 Y95.044 F1000
G1 X115.400 Y94.628 F1000
G1 X115.192 Y94.420 F1000
G1 X115.192 Y94.004 F1000
G1 X114.984 Y93.796 F1000
G1 X114.984 Y93.380 F1000
G1 X114.776 Y93.172 F1000
G1 X114.776 Y89.012 F1000
G1 X114.984 Y88.804 F1000
G1 X114.984 Y87.972 F1000
G1 X115.192 Y87.764 F1000
G1 X115.192 Y87.348 F1000
G1 X115.400 Y87.140 F1000
G1 X115.400 Y86.932 F1000
G1 X115.608 Y86.724 F1000
G1 X115.608 Y86.308 F1000
G1 X115.816 Y86.100 F1000
G1 X115.816 Y85.892 F1000
G1 X116.232 Y85.476 F1000
G1 X116.232 Y85.268 F1000
G1 X116.648 Y84.852 F1000
G1 X116.648 Y84.644 F1000
G1 X117.480 Y83.812 F1000
G1 X117.480 Y83.604 F1000
G1 X118.312 Y82.772 F1000
G1 X117.688 Y83.396 F1000
G1 X117.688 Y83.604 F1000
G1 X116.856 Y84.436 F1000
G1 X116.856 Y84.644 F1000
G1 X116.440 Y85.060 F1000
G1 X116.440 Y85.268 F1000
G1 X116.024 Y85.684 F1000
G1 X116.024 Y85.892 F1000
G1 X115.816 Y86.100 F1000
G1 X115.816 Y86.308 F1000
G1 X115.608 Y86.516 F1000
G1 X115.608 Y86.724 F1000
G1 X115.400 Y86.932 F1000
G1 X115.400 Y87.348 F1000
G1 X115.192 Y87.556 F1000
G1 X115.192 Y87.972 F1000
G1 X114.984 Y88.180 F1000
G1 X114.984 Y89.012 F1000
G1 X114.776 Y89.220 F1000
G1 X114.776 Y92.964 F1000
G1 X114.984 Y93.172 F1000
G1 X114.984 Y93.588 F1000
G1 X115.192 Y93.796 F1000
G1 X115.192 Y94.212 F1000
G1 X115.400 Y94.420 F1000
G1 X115.400 Y95.044 F1000
G1 X115.608 Y95.252 F1000
G1 X115.608 Y95.668 F1000
G1 X115.816 Y95.876 F1000
G1 X115.816 Y96.084 F1000
G1 X116.232 Y96.500 F1000
G1 X116.232 Y96.708 F1000
G1 X116.856 Y97.332 F1000
G1 X116.856 Y97.540 F1000
G1 X117.272 Y97.956 F1000
G1 X117.272 Y98.164 F1000
G0 Z3.0 ; Pen up

G0 X124.760 Y102.324 F3000 ; Travel to line 195
G0 Z0.0 ; Pen down
G1 X127.672 Y102.324 F1000
G1 X124.760 Y102.324 F1000
G0 Z3.0 ; Pen up

G0 X128.088 Y102.116 F3000 ; Travel to line 196
G0 Z0.0 ; Pen down
G1 X128.920 Y102.116 F1000
G1 X128.088 Y102.116 F1000
G0 Z3.0 ; Pen up

G0 X133.704 Y104.404 F3000 ; Travel to line 197
G0 Z0.0 ; Pen down
G1 X134.952 Y103.572 F1000
G1 X133.704 Y104.404 F1000
G0 Z3.0 ; Pen up

G0 X134.744 Y103.780 F3000 ; Travel to line 198
G0 Z0.0 ; Pen down
G1 X135.160 Y103.364 F1000
G0 Z3.0 ; Pen up

G0 X135.368 Y103.364 F3000 ; Travel to line 199
G0 Z0.0 ; Pen down
G1 X135.576 Y103.156 F1000
G1 X135.784 Y103.156 F1000
G1 X136.824 Y102.116 F1000
G1 X137.032 Y102.116 F1000
G1 X138.904 Y100.244 F1000
G1 X138.904 Y100.036 F1000
G1 X139.528 Y99.412 F1000
G1 X139.528 Y99.204 F1000
G1 X139.944 Y98.788 F1000
G1 X139.944 Y98.580 F1000
G1 X140.152 Y98.372 F1000
G1 X140.152 Y98.164 F1000
G1 X140.568 Y97.748 F1000
G1 X140.568 Y97.540 F1000
G1 X140.776 Y97.332 F1000
G1 X140.776 Y97.124 F1000
G1 X140.984 Y96.916 F1000
G1 X140.984 Y96.500 F1000
G1 X141.192 Y96.292 F1000
G1 X141.192 Y96.084 F1000
G1 X141.400 Y95.876 F1000
G1 X141.400 Y95.668 F1000
G1 X141.608 Y95.460 F1000
G1 X141.608 Y94.836 F1000
G1 X141.816 Y94.628 F1000
G1 X141.816 Y94.004 F1000
G1 X142.024 Y93.796 F1000
G1 X142.024 Y92.964 F1000
G1 X142.232 Y92.756 F1000
G1 X142.232 Y91.924 F1000
G1 X142.440 Y91.716 F1000
G1 X142.440 Y87.348 F1000
G1 X142.232 Y87.140 F1000
G1 X142.232 Y86.308 F1000
G1 X142.024 Y86.100 F1000
G1 X142.024 Y85.476 F1000
G1 X141.816 Y85.268 F1000
G1 X141.816 Y84.852 F1000
G1 X141.608 Y84.644 F1000
G1 X141.608 Y84.228 F1000
G1 X141.400 Y84.020 F1000
G1 X141.400 Y83.812 F1000
G1 X141.192 Y83.604 F1000
G1 X141.192 Y83.188 F1000
G1 X140.984 Y82.980 F1000
G1 X140.984 Y82.772 F1000
G1 X140.776 Y82.564 F1000
G1 X140.776 Y82.356 F1000
G1 X140.568 Y82.148 F1000
G1 X140.568 Y81.940 F1000
G1 X140.360 Y81.732 F1000
G1 X140.360 Y81.524 F1000
G1 X140.152 Y81.316 F1000
G1 X140.152 Y81.108 F1000
G1 X139.736 Y80.692 F1000
G1 X139.736 Y80.484 F1000
G1 X139.112 Y79.860 F1000
G1 X139.112 Y79.652 F1000
G1 X138.488 Y79.028 F1000
G1 X138.488 Y78.820 F1000
G1 X137.032 Y77.364 F1000
G1 X137.032 Y77.156 F1000
G1 X136.616 Y76.740 F1000
G1 X136.408 Y76.740 F1000
G1 X135.992 Y76.324 F1000
G1 X136.408 Y76.740 F1000
G1 X136.616 Y76.740 F1000
G1 X137.240 Y77.364 F1000
G1 X137.240 Y77.572 F1000
G1 X138.696 Y79.028 F1000
G1 X138.696 Y79.236 F1000
G1 X139.320 Y79.860 F1000
G1 X139.320 Y80.068 F1000
G1 X139.944 Y80.692 F1000
G1 X139.944 Y80.900 F1000
G1 X140.152 Y81.108 F1000
G1 X140.152 Y81.316 F1000
G1 X140.360 Y81.524 F1000
G1 X140.360 Y81.732 F1000
G1 X140.776 Y82.148 F1000
G1 X140.776 Y82.564 F1000
G1 X140.984 Y82.772 F1000
G1 X140.984 Y82.980 F1000
G1 X141.192 Y83.188 F1000
G1 X141.192 Y83.396 F1000
G1 X141.400 Y83.604 F1000
G1 X141.400 Y84.020 F1000
G1 X141.608 Y84.228 F1000
G1 X141.608 Y84.436 F1000
G1 X141.816 Y84.644 F1000
G1 X141.816 Y85.060 F1000
G1 X142.024 Y85.268 F1000
G1 X142.024 Y86.100 F1000
G1 X142.232 Y86.308 F1000
G1 X142.232 Y87.140 F1000
G1 X142.440 Y87.348 F1000
G1 X142.440 Y91.716 F1000
G1 X142.232 Y91.924 F1000
G1 X142.232 Y92.756 F1000
G1 X142.024 Y92.964 F1000
G1 X142.024 Y93.796 F1000
G1 X141.816 Y94.004 F1000
G1 X141.816 Y94.836 F1000
G1 X141.608 Y95.044 F1000
G1 X141.608 Y95.460 F1000
G1 X141.400 Y95.668 F1000
G1 X141.400 Y95.876 F1000
G1 X141.192 Y96.084 F1000
G1 X141.192 Y96.292 F1000
G1 X140.984 Y96.500 F1000
G1 X140.984 Y96.916 F1000
G1 X140.776 Y97.124 F1000
G1 X140.776 Y97.332 F1000
G1 X140.568 Y97.540 F1000
G1 X140.568 Y97.748 F1000
G1 X140.152 Y98.164 F1000
G1 X140.152 Y98.372 F1000
G1 X139.944 Y98.580 F1000
G1 X139.944 Y98.788 F1000
G1 X139.528 Y99.204 F1000
G1 X139.528 Y99.412 F1000
G1 X139.112 Y99.828 F1000
G1 X139.112 Y100.036 F1000
G1 X136.824 Y102.324 F1000
G1 X136.616 Y102.324 F1000
G1 X135.784 Y103.156 F1000
G1 X135.576 Y103.156 F1000
G0 Z3.0 ; Pen up

G0 X87.320 Y143.924 F3000 ; Travel to line 200
G0 Z0.0 ; Pen down
G1 X87.112 Y144.132 F1000
G0 Z3.0 ; Pen up

G0 X86.904 Y144.132 F3000 ; Travel to line 201
G0 Z0.0 ; Pen down
G1 X87.112 Y144.132 F1000
G1 X86.904 Y144.132 F1000
G0 Z3.0 ; Pen up

G0 X86.280 Y143.924 F3000 ; Travel to line 202
G0 Z0.0 ; Pen down
G1 X79.624 Y143.924 F1000
G0 Z3.0 ; Pen up

G0 X79.416 Y144.132 F3000 ; Travel to line 203
G0 Z0.0 ; Pen down
G1 X79.000 Y144.132 F1000
G0 Z3.0 ; Pen up

G0 X79.000 Y144.132 F3000 ; Travel to line 204
G0 Z0.0 ; Pen down
G1 X79.416 Y144.132 F1000
G1 X80.040 Y143.716 F1000
G1 X81.704 Y143.716 F1000
G1 X81.912 Y143.508 F1000
G1 X83.992 Y143.508 F1000
G1 X84.200 Y143.716 F1000
G1 X85.864 Y143.716 F1000
G1 X86.280 Y143.924 F1000
G1 X85.240 Y143.924 F1000
G1 X85.032 Y143.716 F1000
G1 X80.664 Y143.716 F1000
G1 X80.456 Y143.924 F1000
G1 X79.624 Y143.924 F1000
G1 X79.416 Y144.132 F1000
G1 X79.000 Y144.132 F1000
G0 Z3.0 ; Pen up

G0 X78.584 Y144.132 F3000 ; Travel to line 205
G0 Z0.0 ; Pen down
G1 X78.376 Y144.340 F1000
G0 Z3.0 ; Pen up

G0 X78.168 Y144.340 F3000 ; Travel to line 206
G0 Z0.0 ; Pen down
G1 X78.376 Y144.340 F1000
G1 X78.168 Y144.340 F1000
G0 Z3.0 ; Pen up

G0 X80.040 Y143.716 F3000 ; Travel to line 207
G0 Z0.0 ; Pen down
G1 X85.864 Y143.716 F1000
G0 Z3.0 ; Pen up

G0 X83.992 Y143.508 F3000 ; Travel to line 208
G0 Z0.0 ; Pen down
G1 X81.912 Y143.508 F1000
G0 Z3.0 ; Pen up

G0 X81.288 Y170.132 F3000 ; Travel to line 209
G0 Z0.0 ; Pen down
G1 X81.080 Y170.132 F1000
G1 X80.872 Y169.924 F1000
G1 X80.664 Y169.924 F1000
G1 X80.456 Y169.716 F1000
G1 X80.248 Y169.716 F1000
G1 X80.040 Y169.508 F1000
G1 X79.832 Y169.508 F1000
G1 X79.416 Y169.092 F1000
G1 X79.208 Y169.092 F1000
G1 X78.792 Y168.676 F1000
G1 X78.584 Y168.676 F1000
G1 X77.336 Y167.428 F1000
G1 X77.128 Y167.428 F1000
G1 X76.712 Y167.012 F1000
G1 X76.712 Y166.804 F1000
G1 X75.880 Y165.972 F1000
G1 X75.880 Y165.764 F1000
G1 X75.464 Y165.348 F1000
G1 X75.464 Y165.140 F1000
G1 X75.256 Y164.932 F1000
G1 X75.256 Y164.724 F1000
G1 X75.048 Y164.516 F1000
G1 X75.048 Y164.100 F1000
G1 X74.840 Y163.892 F1000
G1 X74.840 Y163.684 F1000
G1 X74.632 Y163.476 F1000
G1 X74.632 Y163.268 F1000
G1 X74.424 Y163.060 F1000
G1 X74.424 Y162.228 F1000
G1 X74.216 Y162.020 F1000
G1 X74.216 Y161.604 F1000
G1 X74.008 Y161.396 F1000
G1 X74.008 Y159.108 F1000
G1 X74.216 Y158.900 F1000
G1 X74.216 Y158.276 F1000
G1 X74.424 Y158.068 F1000
G1 X74.424 Y157.652 F1000
G1 X74.632 Y157.444 F1000
G1 X74.632 Y157.028 F1000
G1 X74.840 Y156.820 F1000
G1 X74.840 Y156.404 F1000
G1 X75.048 Y156.196 F1000
G1 X75.048 Y155.988 F1000
G1 X75.256 Y155.780 F1000
G1 X75.256 Y155.572 F1000
G1 X75.464 Y155.364 F1000
G1 X75.464 Y155.156 F1000
G1 X75.880 Y154.740 F1000
G1 X75.880 Y154.532 F1000
G1 X76.088 Y154.324 F1000
G1 X76.088 Y154.116 F1000
G1 X77.336 Y152.868 F1000
G1 X77.544 Y152.868 F1000
G1 X77.960 Y152.452 F1000
G1 X78.168 Y152.452 F1000
G1 X78.792 Y151.828 F1000
G1 X79.000 Y151.828 F1000
G1 X79.208 Y151.620 F1000
G1 X79.624 Y151.620 F1000
G1 X79.832 Y151.412 F1000
G1 X80.040 Y151.412 F1000
G1 X80.248 Y151.204 F1000
G1 X81.080 Y151.204 F1000
G1 X81.288 Y150.996 F1000
G1 X84.824 Y150.996 F1000
G1 X85.032 Y151.204 F1000
G1 X85.656 Y151.204 F1000
G1 X85.864 Y151.412 F1000
G1 X86.072 Y151.412 F1000
G1 X86.280 Y151.620 F1000
G1 X86.488 Y151.620 F1000
G1 X86.696 Y151.828 F1000
G1 X86.904 Y151.828 F1000
G1 X87.320 Y152.244 F1000
G1 X87.528 Y152.244 F1000
G1 X89.192 Y153.908 F1000
G1 X89.192 Y154.116 F1000
G1 X89.608 Y154.532 F1000
G1 X89.608 Y154.740 F1000
G1 X89.816 Y154.948 F1000
G1 X89.816 Y155.156 F1000
G1 X90.024 Y155.364 F1000
G1 X90.024 Y155.988 F1000
G1 X90.232 Y156.196 F1000
G1 X90.232 Y156.820 F1000
G1 X90.440 Y157.028 F1000
G1 X90.440 Y159.732 F1000
G1 X90.440 Y157.028 F1000
G1 X90.232 Y156.820 F1000
G1 X90.232 Y155.988 F1000
G1 X90.024 Y155.780 F1000
G1 X90.024 Y155.364 F1000
G1 X89.816 Y155.156 F1000
G1 X89.816 Y154.948 F1000
G1 X89.608 Y154.740 F1000
G1 X89.608 Y154.532 F1000
G1 X89.192 Y154.116 F1000
G1 X89.192 Y153.908 F1000
G1 X88.984 Y153.700 F1000
G1 X88.984 Y153.492 F1000
G1 X88.776 Y153.284 F1000
G1 X88.568 Y153.284 F1000
G1 X88.360 Y153.076 F1000
G1 X88.360 Y152.868 F1000
G1 X88.152 Y152.660 F1000
G1 X87.944 Y152.660 F1000
G1 X87.320 Y152.036 F1000
G1 X87.112 Y152.036 F1000
G1 X86.904 Y151.828 F1000
G1 X86.696 Y151.828 F1000
G1 X86.488 Y151.620 F1000
G1 X86.280 Y151.620 F1000
G1 X86.072 Y151.412 F1000
G1 X85.864 Y151.412 F1000
G1 X85.656 Y151.204 F1000
G1 X85.032 Y151.204 F1000
G1 X84.824 Y150.996 F1000
G1 X81.288 Y150.996 F1000
G1 X81.080 Y151.204 F1000
G1 X80.248 Y151.204 F1000
G1 X80.040 Y151.412 F1000
G1 X79.624 Y151.412 F1000
G1 X79.416 Y151.620 F1000
G1 X79.208 Y151.620 F1000
G1 X79.000 Y151.828 F1000
G1 X78.792 Y151.828 F1000
G1 X78.584 Y152.036 F1000
G1 X78.376 Y152.036 F1000
G1 X77.752 Y152.660 F1000
G1 X77.544 Y152.660 F1000
G1 X76.088 Y154.116 F1000
G1 X76.088 Y154.324 F1000
G1 X75.464 Y154.948 F1000
G1 X75.464 Y155.156 F1000
G1 X75.256 Y155.364 F1000
G1 X75.256 Y155.780 F1000
G1 X75.048 Y155.988 F1000
G1 X75.048 Y156.196 F1000
G1 X74.840 Y156.404 F1000
G1 X74.840 Y156.820 F1000
G1 X74.632 Y157.028 F1000
G1 X74.632 Y157.444 F1000
G1 X74.424 Y157.652 F1000
G1 X74.424 Y158.068 F1000
G1 X74.216 Y158.276 F1000
G1 X74.216 Y158.692 F1000
G1 X74.008 Y158.900 F1000
G1 X74.008 Y161.396 F1000
G1 X74.216 Y161.604 F1000
G1 X74.216 Y162.020 F1000
G1 X74.424 Y162.228 F1000
G1 X74.424 Y163.060 F1000
G1 X74.632 Y163.268 F1000
G1 X74.632 Y163.476 F1000
G1 X74.840 Y163.684 F1000
G1 X74.840 Y163.892 F1000
G1 X75.048 Y164.100 F1000
G1 X75.048 Y164.516 F1000
G1 X75.256 Y164.724 F1000
G1 X75.256 Y164.932 F1000
G1 X75.464 Y165.140 F1000
G1 X75.464 Y165.348 F1000
G1 X75.880 Y165.764 F1000
G1 X75.880 Y165.972 F1000
G1 X76.088 Y166.180 F1000
G1 X76.088 Y166.388 F1000
G1 X77.960 Y168.260 F1000
G1 X78.168 Y168.260 F1000
G1 X78.584 Y168.676 F1000
G1 X78.792 Y168.676 F1000
G1 X79.208 Y169.092 F1000
G1 X79.416 Y169.092 F1000
G1 X79.832 Y169.508 F1000
G1 X80.040 Y169.508 F1000
G1 X80.248 Y169.716 F1000
G1 X80.456 Y169.716 F1000
G1 X80.664 Y169.924 F1000
G1 X80.872 Y169.924 F1000
G1 X81.080 Y170.132 F1000
G0 Z3.0 ; Pen up

G0 X85.032 Y170.964 F3000 ; Travel to line 210
G0 Z0.0 ; Pen down
G1 X84.824 Y170.756 F1000
G1 X83.576 Y170.756 F1000
G1 X83.368 Y170.548 F1000
G1 X82.744 Y170.548 F1000
G1 X82.536 Y170.340 F1000
G1 X81.912 Y170.340 F1000
G1 X82.536 Y170.340 F1000
G1 X82.744 Y170.548 F1000
G1 X83.368 Y170.548 F1000
G1 X83.576 Y170.756 F1000
G1 X84.824 Y170.756 F1000
G1 X85.032 Y170.964 F1000
G1 X85.240 Y170.964 F1000
G1 X85.448 Y170.756 F1000
G1 X86.904 Y170.756 F1000
G1 X87.112 Y170.548 F1000
G1 X87.736 Y170.548 F1000
G1 X87.944 Y170.340 F1000
G1 X88.360 Y170.340 F1000
G1 X88.568 Y170.132 F1000
G1 X89.192 Y170.132 F1000
G1 X89.400 Y169.924 F1000
G1 X89.816 Y169.924 F1000
G1 X90.024 Y169.716 F1000
G1 X90.232 Y169.716 F1000
G1 X90.648 Y169.300 F1000
G1 X91.064 Y169.300 F1000
G1 X90.856 Y169.300 F1000
G1 X90.648 Y169.508 F1000
G1 X90.440 Y169.508 F1000
G1 X90.024 Y169.924 F1000
G1 X89.400 Y169.924 F1000
G1 X89.192 Y170.132 F1000
G1 X88.776 Y170.132 F1000
G1 X88.568 Y170.340 F1000
G1 X87.944 Y170.340 F1000
G1 X87.736 Y170.548 F1000
G1 X87.112 Y170.548 F1000
G1 X86.904 Y170.756 F1000
G1 X85.448 Y170.756 F1000
G1 X85.240 Y170.964 F1000
G0 Z3.0 ; Pen up

G0 X91.480 Y169.092 F3000 ; Travel to line 211
G0 Z0.0 ; Pen down
G1 X92.104 Y168.468 F1000
G1 X92.312 Y168.468 F1000
G1 X92.728 Y168.052 F1000
G1 X92.936 Y168.052 F1000
G1 X94.808 Y166.180 F1000
G1 X94.808 Y165.972 F1000
G1 X95.224 Y165.556 F1000
G1 X95.224 Y165.348 F1000
G1 X95.640 Y164.932 F1000
G1 X95.640 Y164.724 F1000
G1 X96.056 Y164.308 F1000
G1 X96.056 Y164.100 F1000
G1 X96.264 Y163.892 F1000
G1 X96.264 Y163.684 F1000
G1 X96.472 Y163.476 F1000
G1 X96.472 Y163.060 F1000
G1 X96.680 Y162.852 F1000
G1 X96.680 Y162.644 F1000
G1 X96.888 Y162.436 F1000
G1 X96.888 Y162.228 F1000
G1 X97.096 Y162.020 F1000
G1 X97.096 Y161.396 F1000
G1 X97.304 Y161.188 F1000
G1 X97.304 Y160.772 F1000
G1 X97.512 Y160.564 F1000
G1 X97.512 Y158.900 F1000
G1 X97.720 Y158.692 F1000
G1 X97.720 Y157.444 F1000
G1 X97.512 Y157.236 F1000
G1 X97.512 Y155.364 F1000
G1 X97.304 Y155.156 F1000
G1 X97.304 Y154.324 F1000
G1 X97.096 Y154.116 F1000
G1 X97.096 Y153.700 F1000
G1 X96.888 Y153.492 F1000
G1 X96.888 Y153.076 F1000
G1 X96.680 Y152.868 F1000
G1 X96.680 Y152.660 F1000
G1 X96.472 Y152.452 F1000
G1 X96.472 Y152.036 F1000
G1 X96.264 Y151.828 F1000
G1 X96.264 Y151.620 F1000
G1 X95.848 Y151.204 F1000
G1 X95.848 Y150.996 F1000
G1 X95.640 Y150.788 F1000
G1 X95.640 Y150.580 F1000
G1 X95.432 Y150.372 F1000
G1 X95.432 Y150.164 F1000
G1 X94.392 Y149.124 F1000
G1 X94.392 Y148.916 F1000
G1 X91.896 Y146.420 F1000
G1 X91.688 Y146.420 F1000
G1 X91.480 Y146.212 F1000
G1 X91.272 Y146.212 F1000
G1 X90.856 Y145.796 F1000
G1 X90.648 Y145.796 F1000
G1 X90.232 Y145.380 F1000
G1 X90.024 Y145.380 F1000
G1 X89.816 Y145.172 F1000
G1 X89.608 Y145.172 F1000
G1 X89.400 Y144.964 F1000
G1 X89.192 Y144.964 F1000
G1 X88.984 Y144.756 F1000
G1 X88.776 Y144.756 F1000
G1 X88.568 Y144.548 F1000
G1 X87.944 Y144.548 F1000
G1 X87.736 Y144.340 F1000
G1 X87.528 Y144.340 F1000
G1 X87.736 Y144.340 F1000
G1 X87.944 Y144.548 F1000
G1 X88.568 Y144.548 F1000
G1 X88.776 Y144.756 F1000
G1 X88.984 Y144.756 F1000
G1 X89.192 Y144.964 F1000
G1 X89.608 Y144.964 F1000
G1 X89.816 Y145.172 F1000
G1 X90.024 Y145.172 F1000
G1 X90.232 Y145.380 F1000
G1 X90.440 Y145.380 F1000
G1 X91.272 Y146.212 F1000
G1 X91.480 Y146.212 F1000
G1 X91.688 Y146.420 F1000
G1 X91.896 Y146.420 F1000
G1 X92.312 Y146.836 F1000
G1 X92.520 Y146.836 F1000
G1 X94.184 Y148.500 F1000
G1 X94.184 Y148.708 F1000
G1 X95.224 Y149.748 F1000
G1 X95.224 Y149.956 F1000
G1 X95.432 Y150.164 F1000
G1 X95.432 Y150.372 F1000
G1 X95.848 Y150.788 F1000
G1 X95.848 Y150.996 F1000
G1 X96.056 Y151.204 F1000
G1 X96.056 Y151.412 F1000
G1 X96.264 Y151.620 F1000
G1 X96.264 Y151.828 F1000
G1 X96.472 Y152.036 F1000
G1 X96.472 Y152.244 F1000
G1 X96.680 Y152.452 F1000
G1 X96.680 Y152.868 F1000
G1 X96.888 Y153.076 F1000
G1 X96.888 Y153.284 F1000
G1 X97.096 Y153.492 F1000
G1 X97.096 Y154.116 F1000
G1 X97.304 Y154.324 F1000
G1 X97.304 Y154.948 F1000
G1 X97.512 Y155.156 F1000
G1 X97.512 Y157.236 F1000
G1 X97.720 Y157.444 F1000
G1 X97.720 Y158.692 F1000
G1 X97.512 Y158.900 F1000
G1 X97.512 Y160.564 F1000
G1 X97.304 Y160.772 F1000
G1 X97.304 Y161.188 F1000
G1 X97.096 Y161.396 F1000
G1 X97.096 Y162.020 F1000
G1 X96.888 Y162.228 F1000
G1 X96.888 Y162.644 F1000
G1 X96.680 Y162.852 F1000
G1 X96.680 Y163.060 F1000
G1 X96.472 Y163.268 F1000
G1 X96.472 Y163.476 F1000
G1 X96.264 Y163.684 F1000
G1 X96.264 Y164.100 F1000
G1 X96.056 Y164.308 F1000
G1 X96.056 Y164.516 F1000
G1 X95.640 Y164.932 F1000
G1 X95.640 Y165.140 F1000
G1 X95.224 Y165.556 F1000
G1 X95.224 Y165.764 F1000
G1 X94.184 Y166.804 F1000
G1 X94.184 Y167.012 F1000
G1 X93.352 Y167.844 F1000
G1 X93.144 Y167.844 F1000
G1 X92.728 Y168.260 F1000
G1 X92.520 Y168.260 F1000
G1 X92.104 Y168.676 F1000
G1 X91.896 Y168.676 F1000
G0 Z3.0 ; Pen up

G0 X93.768 Y175.956 F3000 ; Travel to line 212
G0 Z0.0 ; Pen down
G1 X93.976 Y175.956 F1000
G1 X94.184 Y175.748 F1000
G1 X94.392 Y175.748 F1000
G1 X94.600 Y175.540 F1000
G1 X94.808 Y175.540 F1000
G1 X95.016 Y175.332 F1000
G1 X95.224 Y175.332 F1000
G1 X95.640 Y174.916 F1000
G1 X95.848 Y174.916 F1000
G1 X96.264 Y174.500 F1000
G1 X96.472 Y174.500 F1000
G1 X96.888 Y174.084 F1000
G1 X97.096 Y174.084 F1000
G1 X97.720 Y173.460 F1000
G1 X97.928 Y173.460 F1000
G1 X99.384 Y172.004 F1000
G1 X99.384 Y171.796 F1000
G1 X101.048 Y170.132 F1000
G1 X101.048 Y169.924 F1000
G1 X101.256 Y169.716 F1000
G1 X101.256 Y169.508 F1000
G1 X101.880 Y168.884 F1000
G1 X101.880 Y168.676 F1000
G1 X102.088 Y168.468 F1000
G1 X102.088 Y168.260 F1000
G1 X102.296 Y168.052 F1000
G1 X102.296 Y167.844 F1000
G1 X102.504 Y167.636 F1000
G1 X102.504 Y167.428 F1000
G1 X102.712 Y167.220 F1000
G1 X102.712 Y167.012 F1000
G1 X102.920 Y166.804 F1000
G1 X102.920 Y166.596 F1000
G1 X103.128 Y166.388 F1000
G1 X103.128 Y166.180 F1000
G1 X103.336 Y165.972 F1000
G1 X103.336 Y165.764 F1000
G1 X103.544 Y165.556 F1000
G1 X103.544 Y165.140 F1000
G1 X103.752 Y164.932 F1000
G1 X103.752 Y164.516 F1000
G1 X103.960 Y164.308 F1000
G1 X103.960 Y163.892 F1000
G1 X104.168 Y163.684 F1000
G1 X104.168 Y163.060 F1000
G1 X104.376 Y162.852 F1000
G1 X104.376 Y162.020 F1000
G1 X104.584 Y161.812 F1000
G1 X104.584 Y161.396 F1000
G1 X104.792 Y161.188 F1000
G1 X104.792 Y159.524 F1000
G1 X104.792 Y161.188 F1000
G1 X104.584 Y161.396 F1000
G1 X104.584 Y161.812 F1000
G1 X104.376 Y162.020 F1000
G1 X104.376 Y162.852 F1000
G1 X104.168 Y163.060 F1000
G1 X104.168 Y163.684 F1000
G1 X103.960 Y163.892 F1000
G1 X103.960 Y164.308 F1000
G1 X103.752 Y164.516 F1000
G1 X103.752 Y164.932 F1000
G1 X103.544 Y165.140 F1000
G1 X103.544 Y165.556 F1000
G1 X103.336 Y165.764 F1000
G1 X103.336 Y165.972 F1000
G1 X103.128 Y166.180 F1000
G1 X103.128 Y166.388 F1000
G1 X102.920 Y166.596 F1000
G1 X102.920 Y166.804 F1000
G1 X102.504 Y167.220 F1000
G1 X102.504 Y167.636 F1000
G1 X102.296 Y167.844 F1000
G1 X102.296 Y168.052 F1000
G1 X101.880 Y168.468 F1000
G1 X101.880 Y168.676 F1000
G1 X101.672 Y168.884 F1000
G1 X101.672 Y169.092 F1000
G1 X101.048 Y169.716 F1000
G1 X101.048 Y169.924 F1000
G1 X100.424 Y170.548 F1000
G1 X100.424 Y170.756 F1000
G1 X97.720 Y173.460 F1000
G1 X97.512 Y173.460 F1000
G1 X96.680 Y174.292 F1000
G1 X96.472 Y174.292 F1000
G1 X96.056 Y174.708 F1000
G1 X95.848 Y174.708 F1000
G1 X95.432 Y175.124 F1000
G1 X95.224 Y175.124 F1000
G1 X94.808 Y175.540 F1000
G1 X94.600 Y175.540 F1000
G1 X94.392 Y175.748 F1000
G1 X94.184 Y175.748 F1000
G1 X93.976 Y175.956 F1000
G1 X93.768 Y175.956 F1000
G1 X93.560 Y176.164 F1000
G0 Z3.0 ; Pen up

G0 X93.352 Y176.164 F3000 ; Travel to line 213
G0 Z0.0 ; Pen down
G1 X93.144 Y176.372 F1000
G0 Z3.0 ; Pen up

G0 X92.936 Y176.372 F3000 ; Travel to line 214
G0 Z0.0 ; Pen down
G1 X92.728 Y176.580 F1000
G0 Z3.0 ; Pen up

G0 X92.312 Y176.580 F3000 ; Travel to line 215
G0 Z0.0 ; Pen down
G1 X92.104 Y176.788 F1000
G0 Z3.0 ; Pen up

G0 X91.896 Y176.788 F3000 ; Travel to line 216
G0 Z0.0 ; Pen down
G1 X91.688 Y176.996 F1000
G0 Z3.0 ; Pen up

G0 X91.480 Y176.996 F3000 ; Travel to line 217
G0 Z0.0 ; Pen down
G1 X91.688 Y176.996 F1000
G1 X91.480 Y176.996 F1000
G0 Z3.0 ; Pen up

G0 X91.272 Y176.996 F3000 ; Travel to line 218
G0 Z0.0 ; Pen down
G1 X91.064 Y177.204 F1000
G0 Z3.0 ; Pen up

G0 X90.856 Y177.204 F3000 ; Travel to line 219
G0 Z0.0 ; Pen down
G1 X91.064 Y177.204 F1000
G1 X90.856 Y177.204 F1000
G0 Z3.0 ; Pen up

G0 X90.440 Y177.412 F3000 ; Travel to line 220
G0 Z0.0 ; Pen down
G1 X89.608 Y177.412 F1000
G0 Z3.0 ; Pen up

G0 X89.608 Y177.412 F3000 ; Travel to line 221
G0 Z0.0 ; Pen down
G1 X90.440 Y177.412 F1000
G1 X89.608 Y177.412 F1000
G0 Z3.0 ; Pen up

G0 X89.400 Y177.412 F3000 ; Travel to line 222
G0 Z0.0 ; Pen down
G1 X89.192 Y177.620 F1000
G0 Z3.0 ; Pen up

G0 X88.568 Y177.620 F3000 ; Travel to line 223
G0 Z0.0 ; Pen down
G1 X89.192 Y177.620 F1000
G1 X88.568 Y177.620 F1000
G0 Z3.0 ; Pen up

G0 X88.152 Y177.828 F3000 ; Travel to line 224
G0 Z0.0 ; Pen down
G1 X87.320 Y177.828 F1000
G0 Z3.0 ; Pen up

G0 X87.320 Y177.828 F3000 ; Travel to line 225
G0 Z0.0 ; Pen down
G1 X88.152 Y177.828 F1000
G1 X87.320 Y177.828 F1000
G0 Z3.0 ; Pen up

G0 X86.904 Y178.036 F3000 ; Travel to line 226
G0 Z0.0 ; Pen down
G1 X83.368 Y178.036 F1000
G1 X83.160 Y177.828 F1000
G1 X82.120 Y177.828 F1000
G1 X83.160 Y177.828 F1000
G1 X83.368 Y178.036 F1000
G0 Z3.0 ; Pen up

G0 X81.704 Y177.412 F3000 ; Travel to line 227
G0 Z0.0 ; Pen down
G1 X81.496 Y177.620 F1000
G0 Z3.0 ; Pen up

G0 X80.872 Y177.620 F3000 ; Travel to line 228
G0 Z0.0 ; Pen down
G1 X81.496 Y177.620 F1000
G1 X80.872 Y177.620 F1000
G0 Z3.0 ; Pen up

G0 X80.456 Y177.204 F3000 ; Travel to line 229
G0 Z0.0 ; Pen down
G1 X80.248 Y177.412 F1000
G0 Z3.0 ; Pen up

G0 X79.832 Y177.204 F3000 ; Travel to line 230
G0 Z0.0 ; Pen down
G1 X80.040 Y176.996 F1000
G0 Z3.0 ; Pen up

G0 X79.208 Y176.996 F3000 ; Travel to line 231
G0 Z0.0 ; Pen down
G1 X78.792 Y176.996 F1000
G1 X78.584 Y176.788 F1000
G1 X78.168 Y176.788 F1000
G1 X77.960 Y176.580 F1000
G1 X78.168 Y176.788 F1000
G1 X78.376 Y176.788 F1000
G1 X78.584 Y176.996 F1000
G0 Z3.0 ; Pen up

G0 X77.752 Y176.164 F3000 ; Travel to line 232
G0 Z0.0 ; Pen down
G1 X77.544 Y176.372 F1000
G0 Z3.0 ; Pen up

G0 X77.128 Y175.956 F3000 ; Travel to line 233
G0 Z0.0 ; Pen down
G1 X76.920 Y176.164 F1000
G0 Z3.0 ; Pen up

G0 X76.504 Y175.956 F3000 ; Travel to line 234
G0 Z0.0 ; Pen down
G1 X76.296 Y175.748 F1000
G1 X76.088 Y175.748 F1000
G1 X75.672 Y175.332 F1000
G1 X75.464 Y175.332 F1000
G1 X75.256 Y175.124 F1000
G1 X75.048 Y175.124 F1000
G1 X74.632 Y174.708 F1000
G1 X74.424 Y174.708 F1000
G1 X74.008 Y174.292 F1000
G1 X73.800 Y174.292 F1000
G1 X70.888 Y171.380 F1000
G1 X70.888 Y171.172 F1000
G1 X70.056 Y170.340 F1000
G1 X70.056 Y170.132 F1000
G1 X69.640 Y169.716 F1000
G1 X69.640 Y169.508 F1000
G1 X69.432 Y169.300 F1000
G1 X69.432 Y169.092 F1000
G1 X69.016 Y168.676 F1000
G1 X69.016 Y168.468 F1000
G1 X68.808 Y168.260 F1000
G1 X68.808 Y168.052 F1000
G1 X68.600 Y167.844 F1000
G1 X68.600 Y167.636 F1000
G1 X68.392 Y167.428 F1000
G1 X68.392 Y167.220 F1000
G1 X68.184 Y167.012 F1000
G1 X68.184 Y166.596 F1000
G1 X67.976 Y166.388 F1000
G1 X67.976 Y165.972 F1000
G1 X67.768 Y165.764 F1000
G1 X67.768 Y165.348 F1000
G1 X67.560 Y165.140 F1000
G1 X67.560 Y164.932 F1000
G1 X67.352 Y164.724 F1000
G1 X67.352 Y164.100 F1000
G1 X67.144 Y163.892 F1000
G1 X67.144 Y162.852 F1000
G1 X66.936 Y162.644 F1000
G1 X66.936 Y160.772 F1000
G1 X66.728 Y160.564 F1000
G1 X66.728 Y160.148 F1000
G1 X66.936 Y159.940 F1000
G1 X66.936 Y157.860 F1000
G1 X67.144 Y157.652 F1000
G1 X67.144 Y156.820 F1000
G1 X67.352 Y156.612 F1000
G1 X67.352 Y155.780 F1000
G1 X67.560 Y155.572 F1000
G1 X67.560 Y154.948 F1000
G1 X67.768 Y154.740 F1000
G1 X67.768 Y154.324 F1000
G1 X67.976 Y154.116 F1000
G1 X67.976 Y153.908 F1000
G1 X68.184 Y153.700 F1000
G1 X68.184 Y153.492 F1000
G1 X68.392 Y153.284 F1000
G1 X68.392 Y152.868 F1000
G1 X68.600 Y152.660 F1000
G1 X68.600 Y152.452 F1000
G1 X68.808 Y152.244 F1000
G1 X68.808 Y152.036 F1000
G1 X69.224 Y151.620 F1000
G1 X69.224 Y151.412 F1000
G1 X69.640 Y150.996 F1000
G1 X69.640 Y150.788 F1000
G1 X70.056 Y150.372 F1000
G1 X70.056 Y150.164 F1000
G1 X70.680 Y149.540 F1000
G1 X70.680 Y149.332 F1000
G1 X71.928 Y148.084 F1000
G1 X71.928 Y147.876 F1000
G1 X72.136 Y147.668 F1000
G1 X72.344 Y147.668 F1000
G1 X72.968 Y147.044 F1000
G1 X73.176 Y147.044 F1000
G1 X73.800 Y146.420 F1000
G1 X74.008 Y146.420 F1000
G1 X74.424 Y146.004 F1000
G1 X74.632 Y146.004 F1000
G1 X74.840 Y145.796 F1000
G1 X75.048 Y145.796 F1000
G1 X75.256 Y145.588 F1000
G1 X75.464 Y145.588 F1000
G1 X75.880 Y145.172 F1000
G1 X76.088 Y145.172 F1000
G1 X76.296 Y144.964 F1000
G1 X76.504 Y144.964 F1000
G1 X76.712 Y144.756 F1000
G1 X76.920 Y144.756 F1000
G1 X77.128 Y144.548 F1000
G1 X77.544 Y144.548 F1000
G1 X77.128 Y144.548 F1000
G1 X76.920 Y144.756 F1000
G1 X76.712 Y144.756 F1000
G1 X76.504 Y144.964 F1000
G1 X76.296 Y144.964 F1000
G1 X76.088 Y145.172 F1000
G1 X75.880 Y145.172 F1000
G1 X75.464 Y145.588 F1000
G1 X75.256 Y145.588 F1000
G1 X74.840 Y146.004 F1000
G1 X74.632 Y146.004 F1000
G1 X74.424 Y146.212 F1000
G1 X74.216 Y146.212 F1000
G1 X73.800 Y146.628 F1000
G1 X73.592 Y146.628 F1000
G1 X72.968 Y147.252 F1000
G1 X72.760 Y147.252 F1000
G1 X71.720 Y148.292 F1000
G1 X71.720 Y148.500 F1000
G1 X71.512 Y148.708 F1000
G1 X71.304 Y148.708 F1000
G1 X70.888 Y149.124 F1000
G1 X70.888 Y149.332 F1000
G1 X70.264 Y149.956 F1000
G1 X70.264 Y150.164 F1000
G1 X69.640 Y150.788 F1000
G1 X69.640 Y150.996 F1000
G1 X69.432 Y151.204 F1000
G1 X69.432 Y151.412 F1000
G1 X69.224 Y151.620 F1000
G1 X69.224 Y151.828 F1000
G1 X68.808 Y152.244 F1000
G1 X68.808 Y152.452 F1000
G1 X68.600 Y152.660 F1000
G1 X68.600 Y152.868 F1000
G1 X68.392 Y153.076 F1000
G1 X68.392 Y153.284 F1000
G1 X68.184 Y153.492 F1000
G1 X68.184 Y153.700 F1000
G1 X67.976 Y153.908 F1000
G1 X67.976 Y154.116 F1000
G1 X67.768 Y154.324 F1000
G1 X67.768 Y154.740 F1000
G1 X67.560 Y154.948 F1000
G1 X67.560 Y155.572 F1000
G1 X67.352 Y155.780 F1000
G1 X67.352 Y156.612 F1000
G1 X67.144 Y156.820 F1000
G1 X67.144 Y157.652 F1000
G1 X66.936 Y157.860 F1000
G1 X66.936 Y159.940 F1000
G1 X66.728 Y160.148 F1000
G1 X66.728 Y160.564 F1000
G1 X66.936 Y160.772 F1000
G1 X66.936 Y162.644 F1000
G1 X67.144 Y162.852 F1000
G1 X67.144 Y163.892 F1000
G1 X67.352 Y164.100 F1000
G1 X67.352 Y164.724 F1000
G1 X67.560 Y164.932 F1000
G1 X67.560 Y165.140 F1000
G1 X67.768 Y165.348 F1000
G1 X67.768 Y165.764 F1000
G1 X67.976 Y165.972 F1000
G1 X67.976 Y166.388 F1000
G1 X68.184 Y166.596 F1000
G1 X68.184 Y166.804 F1000
G1 X68.392 Y167.012 F1000
G1 X68.392 Y167.220 F1000
G1 X68.600 Y167.428 F1000
G1 X68.600 Y167.636 F1000
G1 X68.808 Y167.844 F1000
G1 X68.808 Y168.052 F1000
G1 X69.016 Y168.260 F1000
G1 X69.016 Y168.468 F1000
G1 X69.224 Y168.676 F1000
G1 X69.224 Y168.884 F1000
G1 X69.432 Y169.092 F1000
G1 X69.432 Y169.300 F1000
G1 X69.640 Y169.508 F1000
G1 X69.640 Y169.716 F1000
G1 X70.472 Y170.548 F1000
G1 X70.472 Y170.756 F1000
G1 X71.096 Y171.380 F1000
G1 X71.096 Y171.588 F1000
G1 X72.760 Y173.252 F1000
G1 X72.968 Y173.252 F1000
G1 X74.216 Y174.500 F1000
G1 X74.424 Y174.500 F1000
G1 X74.840 Y174.916 F1000
G1 X75.048 Y174.916 F1000
G1 X75.464 Y175.332 F1000
G1 X75.672 Y175.332 F1000
G1 X76.088 Y175.748 F1000
G1 X76.296 Y175.748 F1000
G0 Z3.0 ; Pen up

G0 X75.464 Y206.532 F3000 ; Travel to line 235
G0 Z0.0 ; Pen down
G1 X59.240 Y222.756 F1000
G0 Z3.0 ; Pen up

G0 X59.240 Y221.508 F3000 ; Travel to line 236
G0 Z0.0 ; Pen down
G1 X74.008 Y206.532 F1000
G0 Z3.0 ; Pen up

G0 X72.552 Y206.532 F3000 ; Travel to line 237
G0 Z0.0 ; Pen down
G1 X59.240 Y220.052 F1000
G0 Z3.0 ; Pen up

G0 X59.448 Y218.388 F3000 ; Travel to line 238
G0 Z0.0 ; Pen down
G1 X59.448 Y218.180 F1000
G0 Z3.0 ; Pen up

G0 X59.656 Y218.180 F3000 ; Travel to line 239
G0 Z0.0 ; Pen down
G1 X70.680 Y206.948 F1000
G0 Z3.0 ; Pen up

G0 X70.888 Y206.948 F3000 ; Travel to line 240
G0 Z0.0 ; Pen down
G1 X70.888 Y206.740 F1000
G0 Z3.0 ; Pen up

G0 X68.808 Y207.364 F3000 ; Travel to line 241
G0 Z0.0 ; Pen down
G1 X68.808 Y207.572 F1000
G0 Z3.0 ; Pen up

G0 X68.808 Y207.572 F3000 ; Travel to line 242
G0 Z0.0 ; Pen down
G1 X60.280 Y216.100 F1000
G0 Z3.0 ; Pen up

G0 X60.072 Y216.308 F3000 ; Travel to line 243
G0 Z0.0 ; Pen down
G1 X68.600 Y207.780 F1000
G0 Z3.0 ; Pen up

G0 X66.104 Y208.820 F3000 ; Travel to line 244
G0 Z0.0 ; Pen down
G1 X61.528 Y213.604 F1000
G0 Z3.0 ; Pen up

G0 X66.728 Y217.972 F3000 ; Travel to line 245
G0 Z0.0 ; Pen down
G1 X66.936 Y217.972 F1000
G0 Z3.0 ; Pen up

G0 X66.728 Y218.180 F3000 ; Travel to line 246
G0 Z0.0 ; Pen down
G1 X59.656 Y225.044 F1000
G0 Z3.0 ; Pen up

G0 X59.448 Y224.004 F3000 ; Travel to line 247
G0 Z0.0 ; Pen down
G1 X68.184 Y215.268 F1000
G0 Z3.0 ; Pen up

G0 X70.888 Y212.356 F3000 ; Travel to line 248
G0 Z0.0 ; Pen down
G1 X76.504 Y206.740 F1000
G0 Z3.0 ; Pen up

G0 X77.752 Y207.156 F3000 ; Travel to line 249
G0 Z0.0 ; Pen down
G1 X73.800 Y210.900 F1000
G0 Z3.0 ; Pen up

G0 X75.672 Y210.484 F3000 ; Travel to line 250
G0 Z0.0 ; Pen down
G1 X78.792 Y207.364 F1000
G0 Z3.0 ; Pen up

G0 X79.832 Y207.780 F3000 ; Travel to line 251
G0 Z0.0 ; Pen down
G1 X77.128 Y210.484 F1000
G0 Z3.0 ; Pen up

G0 X78.584 Y210.692 F3000 ; Travel to line 252
G0 Z0.0 ; Pen down
G1 X80.872 Y208.196 F1000
G0 Z3.0 ; Pen up

G0 X81.496 Y208.820 F3000 ; Travel to line 253
G0 Z0.0 ; Pen down
G1 X79.624 Y210.900 F1000
G0 Z3.0 ; Pen up

G0 X80.664 Y211.108 F3000 ; Travel to line 254
G0 Z0.0 ; Pen down
G1 X82.536 Y209.444 F1000
G0 Z3.0 ; Pen up

G0 X83.368 Y210.068 F3000 ; Travel to line 255
G0 Z0.0 ; Pen down
G1 X81.704 Y211.732 F1000
G0 Z3.0 ; Pen up

G0 X82.536 Y212.148 F3000 ; Travel to line 256
G0 Z0.0 ; Pen down
G1 X83.992 Y210.692 F1000
G0 Z3.0 ; Pen up

G0 X84.824 Y211.316 F3000 ; Travel to line 257
G0 Z0.0 ; Pen down
G1 X83.368 Y212.772 F1000
G0 Z3.0 ; Pen up

G0 X84.200 Y213.396 F3000 ; Travel to line 258
G0 Z0.0 ; Pen down
G1 X85.240 Y212.148 F1000
G0 Z3.0 ; Pen up

G0 X85.864 Y212.980 F3000 ; Travel to line 259
G0 Z0.0 ; Pen down
G1 X84.824 Y214.020 F1000
G0 Z3.0 ; Pen up

G0 X85.448 Y214.852 F3000 ; Travel to line 260
G0 Z0.0 ; Pen down
G1 X86.488 Y213.812 F1000
G0 Z3.0 ; Pen up

G0 X87.112 Y214.852 F3000 ; Travel to line 261
G0 Z0.0 ; Pen down
G1 X86.072 Y215.684 F1000
G0 Z3.0 ; Pen up

G0 X86.696 Y216.724 F3000 ; Travel to line 262
G0 Z0.0 ; Pen down
G1 X87.528 Y215.684 F1000
G0 Z3.0 ; Pen up

G0 X87.736 Y216.724 F3000 ; Travel to line 263
G0 Z0.0 ; Pen down
G1 X87.112 Y217.556 F1000
G0 Z3.0 ; Pen up

G0 X87.320 Y218.596 F3000 ; Travel to line 264
G0 Z0.0 ; Pen down
G1 X88.152 Y217.972 F1000
G0 Z3.0 ; Pen up

G0 X88.360 Y219.220 F3000 ; Travel to line 265
G0 Z0.0 ; Pen down
G1 X87.736 Y219.844 F1000
G0 Z3.0 ; Pen up

G0 X88.568 Y220.468 F3000 ; Travel to line 266
G0 Z0.0 ; Pen down
G1 X87.736 Y221.300 F1000
G0 Z3.0 ; Pen up

G0 X88.568 Y221.716 F3000 ; Travel to line 267
G0 Z0.0 ; Pen down
G1 X87.736 Y222.548 F1000
G0 Z3.0 ; Pen up

G0 X88.152 Y223.380 F3000 ; Travel to line 268
G0 Z0.0 ; Pen down
G1 X87.112 Y224.628 F1000
G0 Z3.0 ; Pen up

G0 X87.320 Y224.420 F3000 ; Travel to line 269
G0 Z0.0 ; Pen down
G1 X88.360 Y223.380 F1000
G0 Z3.0 ; Pen up

G0 X88.152 Y225.044 F3000 ; Travel to line 270
G0 Z0.0 ; Pen down
G1 X87.944 Y225.044 F1000
G0 Z3.0 ; Pen up

G0 X87.944 Y225.252 F3000 ; Travel to line 271
G0 Z0.0 ; Pen down
G1 X85.864 Y227.332 F1000
G0 Z3.0 ; Pen up

G0 X85.656 Y227.332 F3000 ; Travel to line 272
G0 Z0.0 ; Pen down
G1 X85.656 Y227.540 F1000
G0 Z3.0 ; Pen up

G0 X85.448 Y227.540 F3000 ; Travel to line 273
G0 Z0.0 ; Pen down
G1 X85.448 Y227.748 F1000
G0 Z3.0 ; Pen up

G0 X85.240 Y227.748 F3000 ; Travel to line 274
G0 Z0.0 ; Pen down
G1 X85.240 Y227.956 F1000
G0 Z3.0 ; Pen up

G0 X87.112 Y227.540 F3000 ; Travel to line 275
G0 Z0.0 ; Pen down
G1 X80.040 Y234.404 F1000
G0 Z3.0 ; Pen up

G0 X80.040 Y234.612 F3000 ; Travel to line 276
G0 Z0.0 ; Pen down
G1 X79.832 Y234.612 F1000
G0 Z3.0 ; Pen up

G0 X77.752 Y235.236 F3000 ; Travel to line 277
G0 Z0.0 ; Pen down
G1 X82.952 Y230.036 F1000
G0 Z3.0 ; Pen up

G0 X83.160 Y230.036 F3000 ; Travel to line 278
G0 Z0.0 ; Pen down
G1 X83.160 Y229.828 F1000
G0 Z3.0 ; Pen up

G0 X83.368 Y229.828 F3000 ; Travel to line 279
G0 Z0.0 ; Pen down
G1 X83.368 Y229.620 F1000
G0 Z3.0 ; Pen up

G0 X83.576 Y229.620 F3000 ; Travel to line 280
G0 Z0.0 ; Pen down
G1 X83.576 Y229.412 F1000
G0 Z3.0 ; Pen up

G0 X80.248 Y231.284 F3000 ; Travel to line 281
G0 Z0.0 ; Pen down
G1 X80.248 Y231.492 F1000
G0 Z3.0 ; Pen up

G0 X80.248 Y231.492 F3000 ; Travel to line 282
G0 Z0.0 ; Pen down
G1 X75.880 Y235.652 F1000
G0 Z3.0 ; Pen up

G0 X74.424 Y235.860 F3000 ; Travel to line 283
G0 Z0.0 ; Pen down
G1 X78.376 Y231.908 F1000
G0 Z3.0 ; Pen up

G0 X76.920 Y231.908 F3000 ; Travel to line 284
G0 Z0.0 ; Pen down
G1 X72.968 Y235.860 F1000
G0 Z3.0 ; Pen up

G0 X72.136 Y235.860 F3000 ; Travel to line 285
G0 Z0.0 ; Pen down
G1 X71.928 Y235.652 F1000
G1 X70.888 Y235.652 F1000
G1 X70.680 Y235.444 F1000
G1 X70.056 Y235.444 F1000
G1 X69.848 Y235.236 F1000
G1 X68.184 Y234.820 F1000
G1 X66.520 Y233.988 F1000
G1 X66.104 Y233.572 F1000
G1 X65.272 Y233.156 F1000
G1 X64.648 Y232.532 F1000
G1 X64.440 Y232.532 F1000
G1 X62.568 Y230.660 F1000
G1 X62.568 Y230.452 F1000
G1 X61.944 Y229.828 F1000
G1 X61.944 Y229.620 F1000
G1 X61.112 Y228.580 F1000
G1 X60.280 Y226.916 F1000
G1 X60.280 Y226.500 F1000
G1 X60.072 Y226.292 F1000
G1 X60.072 Y225.876 F1000
G1 X59.656 Y225.044 F1000
G1 X59.656 Y224.420 F1000
G1 X59.448 Y224.212 F1000
G1 X59.448 Y223.172 F1000
G1 X59.240 Y222.964 F1000
G1 X59.240 Y219.636 F1000
G1 X59.448 Y219.428 F1000
G1 X59.448 Y218.388 F1000
G1 X59.656 Y218.180 F1000
G1 X59.656 Y217.556 F1000
G1 X59.864 Y217.348 F1000
G1 X60.280 Y215.684 F1000
G1 X61.112 Y214.020 F1000
G1 X61.528 Y213.604 F1000
G1 X61.944 Y212.772 F1000
G1 X62.568 Y212.148 F1000
G1 X62.568 Y211.940 F1000
G1 X64.440 Y210.068 F1000
G1 X64.648 Y210.068 F1000
G1 X65.272 Y209.444 F1000
G1 X65.480 Y209.444 F1000
G1 X66.520 Y208.612 F1000
G1 X68.184 Y207.780 F1000
G1 X68.600 Y207.780 F1000
G1 X68.808 Y207.572 F1000
G1 X69.224 Y207.572 F1000
G1 X70.056 Y207.156 F1000
G1 X70.680 Y207.156 F1000
G1 X70.888 Y206.948 F1000
G1 X71.928 Y206.948 F1000
G1 X72.136 Y206.740 F1000
G1 X75.464 Y206.740 F1000
G1 X75.672 Y206.948 F1000
G1 X76.712 Y206.948 F1000
G1 X76.920 Y207.156 F1000
G1 X77.544 Y207.156 F1000
G1 X77.752 Y207.364 F1000
G1 X79.416 Y207.780 F1000
G1 X81.080 Y208.612 F1000
G1 X81.496 Y209.028 F1000
G1 X82.328 Y209.444 F1000
G1 X82.952 Y210.068 F1000
G1 X83.160 Y210.068 F1000
G1 X85.032 Y211.940 F1000
G1 X85.032 Y212.148 F1000
G1 X85.656 Y212.772 F1000
G1 X85.656 Y212.980 F1000
G1 X86.488 Y214.020 F1000
G1 X87.320 Y215.684 F1000
G1 X87.320 Y216.100 F1000
G1 X87.528 Y216.308 F1000
G1 X87.528 Y216.724 F1000
G1 X87.944 Y217.556 F1000
G1 X87.944 Y218.180 F1000
G1 X88.152 Y218.388 F1000
G1 X88.152 Y219.428 F1000
G1 X88.360 Y219.636 F1000
G1 X88.360 Y222.964 F1000
G1 X88.152 Y223.172 F1000
G1 X88.152 Y224.212 F1000
G1 X87.944 Y224.420 F1000
G1 X87.944 Y225.044 F1000
G1 X87.736 Y225.252 F1000
G1 X87.320 Y226.916 F1000
G1 X86.488 Y228.580 F1000
G1 X86.072 Y228.996 F1000
G1 X85.656 Y229.828 F1000
G1 X85.032 Y230.452 F1000
G1 X85.032 Y230.660 F1000
G1 X83.160 Y232.532 F1000
G1 X82.952 Y232.532 F1000
G1 X82.328 Y233.156 F1000
G1 X82.120 Y233.156 F1000
G1 X81.080 Y233.988 F1000
G1 X79.416 Y234.820 F1000
G1 X79.000 Y234.820 F1000
G1 X78.792 Y235.028 F1000
G1 X78.376 Y235.028 F1000
G1 X77.544 Y235.444 F1000
G1 X76.920 Y235.444 F1000
G1 X76.712 Y235.652 F1000
G1 X75.672 Y235.652 F1000
G1 X75.464 Y235.860 F1000
G1 X72.136 Y235.860 F1000
G0 Z3.0 ; Pen up

G0 X71.720 Y235.652 F3000 ; Travel to line 286
G0 Z0.0 ; Pen down
G1 X75.464 Y231.908 F1000
G0 Z3.0 ; Pen up

G0 X74.424 Y231.700 F3000 ; Travel to line 287
G0 Z0.0 ; Pen down
G1 X70.472 Y235.444 F1000
G0 Z3.0 ; Pen up

G0 X69.432 Y235.236 F3000 ; Travel to line 288
G0 Z0.0 ; Pen down
G1 X73.176 Y231.284 F1000
G0 Z3.0 ; Pen up

G0 X72.344 Y230.868 F3000 ; Travel to line 289
G0 Z0.0 ; Pen down
G1 X68.392 Y234.820 F1000
G0 Z3.0 ; Pen up

G0 X67.352 Y234.404 F3000 ; Travel to line 290
G0 Z0.0 ; Pen down
G1 X71.512 Y230.452 F1000
G0 Z3.0 ; Pen up

G0 X70.680 Y229.828 F3000 ; Travel to line 291
G0 Z0.0 ; Pen down
G1 X66.520 Y233.988 F1000
G0 Z3.0 ; Pen up

G0 X65.688 Y233.364 F3000 ; Travel to line 292
G0 Z0.0 ; Pen down
G1 X69.848 Y229.204 F1000
G0 Z3.0 ; Pen up

G0 X69.016 Y228.372 F3000 ; Travel to line 293
G0 Z0.0 ; Pen down
G1 X64.856 Y232.740 F1000
G0 Z3.0 ; Pen up

G0 X64.024 Y232.116 F3000 ; Travel to line 294
G0 Z0.0 ; Pen down
G1 X68.600 Y227.540 F1000
G0 Z3.0 ; Pen up

G0 X67.976 Y226.916 F3000 ; Travel to line 295
G0 Z0.0 ; Pen down
G1 X63.400 Y231.492 F1000
G0 Z3.0 ; Pen up

G0 X62.568 Y230.660 F3000 ; Travel to line 296
G0 Z0.0 ; Pen down
G1 X67.352 Y225.876 F1000
G0 Z3.0 ; Pen up

G0 X66.936 Y225.044 F3000 ; Travel to line 297
G0 Z0.0 ; Pen down
G1 X61.944 Y229.828 F1000
G0 Z3.0 ; Pen up

G0 X61.528 Y228.996 F3000 ; Travel to line 298
G0 Z0.0 ; Pen down
G1 X66.520 Y223.796 F1000
G0 Z3.0 ; Pen up

G0 X66.312 Y222.756 F3000 ; Travel to line 299
G0 Z0.0 ; Pen down
G1 X60.904 Y228.164 F1000
G0 Z3.0 ; Pen up

G0 X60.488 Y227.332 F3000 ; Travel to line 300
G0 Z0.0 ; Pen down
G1 X66.312 Y221.508 F1000
G0 Z3.0 ; Pen up

G0 X66.312 Y220.052 F3000 ; Travel to line 301
G0 Z0.0 ; Pen down
G1 X60.072 Y226.292 F1000
G0 Z3.0 ; Pen up

G0 X77.544 Y235.444 F3000 ; Travel to line 302
G0 Z0.0 ; Pen down
G1 X77.752 Y235.444 F1000
G0 Z3.0 ; Pen up

G0 X87.112 Y227.332 F3000 ; Travel to line 303
G0 Z0.0 ; Pen down
G1 X87.320 Y227.332 F1000
G0 Z3.0 ; Pen up

G0 X98.968 Y224.420 F3000 ; Travel to line 304
G0 Z0.0 ; Pen down
G1 X118.728 Y204.868 F1000
G0 Z3.0 ; Pen up

G0 X119.768 Y205.076 F3000 ; Travel to line 305
G0 Z0.0 ; Pen down
G1 X99.384 Y225.668 F1000
G0 Z3.0 ; Pen up

G0 X99.592 Y226.708 F3000 ; Travel to line 306
G0 Z0.0 ; Pen down
G1 X121.016 Y205.492 F1000
G0 Z3.0 ; Pen up

G0 X122.056 Y205.908 F3000 ; Travel to line 307
G0 Z0.0 ; Pen down
G1 X100.008 Y227.748 F1000
G0 Z3.0 ; Pen up

G0 X100.424 Y228.580 F3000 ; Travel to line 308
G0 Z0.0 ; Pen down
G1 X122.888 Y206.324 F1000
G0 Z3.0 ; Pen up

G0 X123.720 Y206.740 F3000 ; Travel to line 309
G0 Z0.0 ; Pen down
G1 X117.272 Y213.188 F1000
G0 Z3.0 ; Pen up

G0 X119.144 Y212.772 F3000 ; Travel to line 310
G0 Z0.0 ; Pen down
G1 X119.352 Y212.772 F1000
G0 Z3.0 ; Pen up

G0 X119.352 Y212.564 F3000 ; Travel to line 311
G0 Z0.0 ; Pen down
G1 X124.760 Y207.364 F1000
G0 Z3.0 ; Pen up

G0 X125.592 Y207.988 F3000 ; Travel to line 312
G0 Z0.0 ; Pen down
G1 X120.808 Y212.564 F1000
G0 Z3.0 ; Pen up

G0 X122.056 Y212.772 F3000 ; Travel to line 313
G0 Z0.0 ; Pen down
G1 X126.424 Y208.404 F1000
G0 Z3.0 ; Pen up

G0 X127.048 Y209.236 F3000 ; Travel to line 314
G0 Z0.0 ; Pen down
G1 X123.096 Y212.980 F1000
G0 Z3.0 ; Pen up

G0 X124.136 Y213.396 F3000 ; Travel to line 315
G0 Z0.0 ; Pen down
G1 X127.672 Y209.860 F1000
G0 Z3.0 ; Pen up

G0 X128.504 Y210.692 F3000 ; Travel to line 316
G0 Z0.0 ; Pen down
G1 X125.176 Y214.020 F1000
G0 Z3.0 ; Pen up

G0 X126.008 Y214.644 F3000 ; Travel to line 317
G0 Z0.0 ; Pen down
G1 X129.128 Y211.524 F1000
G0 Z3.0 ; Pen up

G0 X129.544 Y212.356 F3000 ; Travel to line 318
G0 Z0.0 ; Pen down
G1 X126.840 Y215.060 F1000
G0 Z3.0 ; Pen up

G0 X127.256 Y215.892 F3000 ; Travel to line 319
G0 Z0.0 ; Pen down
G1 X130.168 Y213.188 F1000
G0 Z3.0 ; Pen up

G0 X130.584 Y214.228 F3000 ; Travel to line 320
G0 Z0.0 ; Pen down
G1 X127.880 Y216.724 F1000
G0 Z3.0 ; Pen up

G0 X128.504 Y217.764 F3000 ; Travel to line 321
G0 Z0.0 ; Pen down
G1 X131.000 Y215.060 F1000
G0 Z3.0 ; Pen up

G0 X131.416 Y216.308 F3000 ; Travel to line 322
G0 Z0.0 ; Pen down
G1 X128.920 Y218.804 F1000
G0 Z3.0 ; Pen up

G0 X129.128 Y219.844 F3000 ; Travel to line 323
G0 Z0.0 ; Pen down
G1 X131.832 Y217.348 F1000
G0 Z3.0 ; Pen up

G0 X132.040 Y218.388 F3000 ; Travel to line 324
G0 Z0.0 ; Pen down
G1 X129.336 Y221.092 F1000
G0 Z3.0 ; Pen up

G0 X129.336 Y222.548 F3000 ; Travel to line 325
G0 Z0.0 ; Pen down
G1 X132.248 Y219.636 F1000
G0 Z3.0 ; Pen up

G0 X132.248 Y221.092 F3000 ; Travel to line 326
G0 Z0.0 ; Pen down
G1 X128.712 Y224.628 F1000
G0 Z3.0 ; Pen up

G0 X129.128 Y222.756 F3000 ; Travel to line 327
G0 Z0.0 ; Pen down
G1 X129.128 Y222.548 F1000
G0 Z3.0 ; Pen up

G0 X132.248 Y222.548 F3000 ; Travel to line 328
G0 Z0.0 ; Pen down
G1 X116.648 Y237.940 F1000
G0 Z3.0 ; Pen up

G0 X115.192 Y237.940 F3000 ; Travel to line 329
G0 Z0.0 ; Pen down
G1 X123.928 Y229.204 F1000
G0 Z3.0 ; Pen up

G0 X124.136 Y229.204 F3000 ; Travel to line 330
G0 Z0.0 ; Pen down
G1 X124.136 Y228.996 F1000
G0 Z3.0 ; Pen up

G0 X122.056 Y229.620 F3000 ; Travel to line 331
G0 Z0.0 ; Pen down
G1 X122.056 Y229.828 F1000
G0 Z3.0 ; Pen up

G0 X121.848 Y229.828 F3000 ; Travel to line 332
G0 Z0.0 ; Pen down
G1 X113.736 Y237.940 F1000
G0 Z3.0 ; Pen up

G0 X113.736 Y237.940 F3000 ; Travel to line 333
G0 Z0.0 ; Pen down
G1 X113.528 Y237.732 F1000
G1 X112.280 Y237.732 F1000
G1 X112.072 Y237.524 F1000
G1 X110.616 Y237.316 F1000
G1 X110.408 Y237.108 F1000
G1 X109.368 Y236.900 F1000
G1 X106.872 Y235.652 F1000
G1 X106.456 Y235.236 F1000
G1 X105.624 Y234.820 F1000
G1 X105.000 Y234.196 F1000
G1 X104.792 Y234.196 F1000
G1 X102.504 Y231.908 F1000
G1 X102.504 Y231.700 F1000
G1 X101.880 Y231.076 F1000
G1 X101.880 Y230.868 F1000
G1 X101.048 Y229.828 F1000
G1 X99.800 Y227.332 F1000
G1 X99.800 Y226.916 F1000
G1 X99.384 Y226.084 F1000
G1 X99.384 Y225.460 F1000
G1 X99.176 Y225.252 F1000
G1 X99.176 Y224.628 F1000
G1 X98.968 Y224.420 F1000
G1 X98.968 Y223.172 F1000
G1 X98.760 Y222.964 F1000
G1 X98.760 Y219.636 F1000
G1 X98.968 Y219.428 F1000
G1 X98.968 Y218.180 F1000
G1 X99.176 Y217.972 F1000
G1 X99.384 Y216.516 F1000
G1 X99.592 Y216.308 F1000
G1 X99.800 Y215.268 F1000
G1 X101.048 Y212.772 F1000
G1 X101.464 Y212.356 F1000
G1 X101.880 Y211.524 F1000
G1 X102.504 Y210.900 F1000
G1 X102.504 Y210.692 F1000
G1 X104.792 Y208.404 F1000
G1 X105.000 Y208.404 F1000
G1 X105.624 Y207.780 F1000
G1 X105.832 Y207.780 F1000
G1 X106.872 Y206.948 F1000
G1 X109.368 Y205.700 F1000
G1 X109.784 Y205.700 F1000
G1 X110.616 Y205.284 F1000
G1 X111.240 Y205.284 F1000
G1 X111.448 Y205.076 F1000
G1 X112.072 Y205.076 F1000
G1 X112.280 Y204.868 F1000
G1 X113.528 Y204.868 F1000
G1 X113.736 Y204.660 F1000
G1 X117.064 Y204.660 F1000
G1 X117.272 Y204.868 F1000
G1 X118.520 Y204.868 F1000
G1 X118.728 Y205.076 F1000
G1 X120.184 Y205.284 F1000
G1 X120.392 Y205.492 F1000
G1 X121.432 Y205.700 F1000
G1 X123.928 Y206.948 F1000
G1 X124.344 Y207.364 F1000
G1 X125.176 Y207.780 F1000
G1 X125.800 Y208.404 F1000
G1 X126.008 Y208.404 F1000
G1 X128.296 Y210.692 F1000
G1 X128.296 Y210.900 F1000
G1 X128.920 Y211.524 F1000
G1 X128.920 Y211.732 F1000
G1 X129.752 Y212.772 F1000
G1 X131.000 Y215.268 F1000
G1 X131.000 Y215.684 F1000
G1 X131.416 Y216.516 F1000
G1 X131.416 Y217.140 F1000
G1 X131.624 Y217.348 F1000
G1 X131.624 Y217.972 F1000
G1 X131.832 Y218.180 F1000
G1 X131.832 Y219.428 F1000
G1 X132.040 Y219.636 F1000
G1 X132.040 Y222.964 F1000
G1 X131.832 Y223.172 F1000
G1 X131.832 Y224.420 F1000
G1 X131.624 Y224.628 F1000
G1 X131.416 Y226.084 F1000
G1 X131.208 Y226.292 F1000
G1 X131.000 Y227.332 F1000
G1 X129.752 Y229.828 F1000
G1 X129.336 Y230.244 F1000
G1 X128.920 Y231.076 F1000
G1 X128.296 Y231.700 F1000
G1 X128.296 Y231.908 F1000
G1 X126.008 Y234.196 F1000
G1 X125.800 Y234.196 F1000
G1 X125.176 Y234.820 F1000
G1 X124.968 Y234.820 F1000
G1 X123.928 Y235.652 F1000
G1 X121.432 Y236.900 F1000
G1 X121.016 Y236.900 F1000
G1 X120.184 Y237.316 F1000
G1 X119.560 Y237.316 F1000
G1 X119.352 Y237.524 F1000
G1 X118.728 Y237.524 F1000
G1 X118.520 Y237.732 F1000
G1 X117.272 Y237.732 F1000
G1 X117.064 Y237.940 F1000
G1 X113.736 Y237.940 F1000
G0 Z3.0 ; Pen up

G0 X112.488 Y237.732 F3000 ; Travel to line 334
G0 Z0.0 ; Pen down
G1 X120.392 Y229.828 F1000
G0 Z3.0 ; Pen up

G0 X119.352 Y229.620 F3000 ; Travel to line 335
G0 Z0.0 ; Pen down
G1 X111.448 Y237.524 F1000
G0 Z3.0 ; Pen up

G0 X110.408 Y237.108 F3000 ; Travel to line 336
G0 Z0.0 ; Pen down
G1 X118.104 Y229.412 F1000
G0 Z3.0 ; Pen up

G0 X117.064 Y228.996 F3000 ; Travel to line 337
G0 Z0.0 ; Pen down
G1 X109.368 Y236.900 F1000
G0 Z3.0 ; Pen up

G0 X108.328 Y236.276 F3000 ; Travel to line 338
G0 Z0.0 ; Pen down
G1 X116.232 Y228.580 F1000
G0 Z3.0 ; Pen up

G0 X115.400 Y227.956 F3000 ; Travel to line 339
G0 Z0.0 ; Pen down
G1 X107.288 Y235.860 F1000
G0 Z3.0 ; Pen up

G0 X106.664 Y235.236 F3000 ; Travel to line 340
G0 Z0.0 ; Pen down
G1 X114.568 Y227.332 F1000
G0 Z3.0 ; Pen up

G0 X113.944 Y226.500 F3000 ; Travel to line 341
G0 Z0.0 ; Pen down
G1 X105.624 Y234.820 F1000
G0 Z3.0 ; Pen up

G0 X104.792 Y234.196 F3000 ; Travel to line 342
G0 Z0.0 ; Pen down
G1 X113.320 Y225.668 F1000
G0 Z3.0 ; Pen up

G0 X112.904 Y224.836 F3000 ; Travel to line 343
G0 Z0.0 ; Pen down
G1 X104.168 Y233.572 F1000
G0 Z3.0 ; Pen up

G0 X103.336 Y232.740 F3000 ; Travel to line 344
G0 Z0.0 ; Pen down
G1 X112.488 Y223.796 F1000
G0 Z3.0 ; Pen up

G0 X112.280 Y222.548 F3000 ; Travel to line 345
G0 Z0.0 ; Pen down
G1 X102.712 Y232.116 F1000
G0 Z3.0 ; Pen up

G0 X102.088 Y231.284 F3000 ; Travel to line 346
G0 Z0.0 ; Pen down
G1 X112.072 Y221.508 F1000
G0 Z3.0 ; Pen up

G0 X112.072 Y220.052 F3000 ; Travel to line 347
G0 Z0.0 ; Pen down
G1 X101.464 Y230.452 F1000
G0 Z3.0 ; Pen up

G0 X101.048 Y229.620 F3000 ; Travel to line 348
G0 Z0.0 ; Pen down
G1 X112.696 Y217.972 F1000
G0 Z3.0 ; Pen up

G0 X112.280 Y219.844 F3000 ; Travel to line 349
G0 Z0.0 ; Pen down
G1 X112.072 Y219.844 F1000
G0 Z3.0 ; Pen up

G0 X99.384 Y217.140 F3000 ; Travel to line 350
G0 Z0.0 ; Pen down
G1 X111.240 Y205.076 F1000
G0 Z3.0 ; Pen up

G0 X111.448 Y205.076 F3000 ; Travel to line 351
G0 Z0.0 ; Pen down
G1 X111.448 Y204.868 F1000
G0 Z3.0 ; Pen up

G0 X113.112 Y204.660 F3000 ; Travel to line 352
G0 Z0.0 ; Pen down
G1 X98.968 Y219.012 F1000
G0 Z3.0 ; Pen up

G0 X98.760 Y220.676 F3000 ; Travel to line 353
G0 Z0.0 ; Pen down
G1 X114.776 Y204.452 F1000
G0 Z3.0 ; Pen up

G0 X116.232 Y204.452 F3000 ; Travel to line 354
G0 Z0.0 ; Pen down
G1 X98.760 Y222.132 F1000
G0 Z3.0 ; Pen up

G0 X98.968 Y223.172 F3000 ; Travel to line 355
G0 Z0.0 ; Pen down
G1 X117.272 Y204.660 F1000
G0 Z3.0 ; Pen up

G0 X109.368 Y205.492 F3000 ; Travel to line 356
G0 Z0.0 ; Pen down
G1 X109.368 Y205.700 F1000
G0 Z3.0 ; Pen up

G0 X109.368 Y205.700 F3000 ; Travel to line 357
G0 Z0.0 ; Pen down
G1 X100.008 Y215.060 F1000
G0 Z3.0 ; Pen up

G0 X99.800 Y215.060 F3000 ; Travel to line 358
G0 Z0.0 ; Pen down
G1 X99.800 Y215.268 F1000
G0 Z3.0 ; Pen up

G0 X99.176 Y217.140 F3000 ; Travel to line 359
G0 Z0.0 ; Pen down
G1 X99.176 Y217.348 F1000
G0 Z3.0 ; Pen up

G0 X101.464 Y212.148 F3000 ; Travel to line 360
G0 Z0.0 ; Pen down
G1 X106.456 Y207.156 F1000
G0 Z3.0 ; Pen up

G0 X132.040 Y224.004 F3000 ; Travel to line 361
G0 Z0.0 ; Pen down
G1 X118.312 Y237.732 F1000
G0 Z3.0 ; Pen up

G0 X119.976 Y237.316 F3000 ; Travel to line 362
G0 Z0.0 ; Pen down
G1 X131.624 Y225.876 F1000
G0 Z3.0 ; Pen up

G0 X130.792 Y228.164 F3000 ; Travel to line 363
G0 Z0.0 ; Pen down
G1 X130.584 Y228.164 F1000
G0 Z3.0 ; Pen up

G0 X130.584 Y228.372 F3000 ; Travel to line 364
G0 Z0.0 ; Pen down
G1 X122.472 Y236.276 F1000
G0 Z3.0 ; Pen up

G0 X122.472 Y236.484 F3000 ; Travel to line 365
G0 Z0.0 ; Pen down
G1 X122.264 Y236.484 F1000
G0 Z3.0 ; Pen up

G0 X126.008 Y234.196 F3000 ; Travel to line 366
G0 Z0.0 ; Pen down
G1 X126.216 Y234.196 F1000
G0 Z3.0 ; Pen up

G0 X126.216 Y233.988 F3000 ; Travel to line 367
G0 Z0.0 ; Pen down
G1 X126.424 Y233.988 F1000
G0 Z3.0 ; Pen up

G0 X126.424 Y233.780 F3000 ; Travel to line 368
G0 Z0.0 ; Pen down
G1 X126.632 Y233.780 F1000
G0 Z3.0 ; Pen up

G0 X126.632 Y233.572 F3000 ; Travel to line 369
G0 Z0.0 ; Pen down
G1 X126.840 Y233.572 F1000
G0 Z3.0 ; Pen up

G0 X126.840 Y233.364 F3000 ; Travel to line 370
G0 Z0.0 ; Pen down
G1 X127.048 Y233.364 F1000
G0 Z3.0 ; Pen up

G0 X127.048 Y233.156 F3000 ; Travel to line 371
G0 Z0.0 ; Pen down
G1 X127.256 Y233.156 F1000
G0 Z3.0 ; Pen up

G0 X127.256 Y232.948 F3000 ; Travel to line 372
G0 Z0.0 ; Pen down
G1 X127.464 Y232.948 F1000
G0 Z3.0 ; Pen up

G0 X127.464 Y232.740 F3000 ; Travel to line 373
G0 Z0.0 ; Pen down
G1 X127.672 Y232.740 F1000
G0 Z3.0 ; Pen up

G0 X127.672 Y232.532 F3000 ; Travel to line 374
G0 Z0.0 ; Pen down
G1 X127.880 Y232.532 F1000
G0 Z3.0 ; Pen up

G0 X127.880 Y232.324 F3000 ; Travel to line 375
G0 Z0.0 ; Pen down
G1 X128.088 Y232.324 F1000
G0 Z3.0 ; Pen up

G0 X128.088 Y232.116 F3000 ; Travel to line 376
G0 Z0.0 ; Pen down
G1 X128.296 Y232.116 F1000
G0 Z3.0 ; Pen up

G0 X128.296 Y231.908 F3000 ; Travel to line 377
G0 Z0.0 ; Pen down
G1 X128.504 Y231.908 F1000
G0 Z3.0 ; Pen up

G0 X147.848 Y217.764 F3000 ; Travel to line 378
G0 Z0.0 ; Pen down
G1 X149.096 Y216.308 F1000
G0 Z3.0 ; Pen up

G0 X149.928 Y216.932 F3000 ; Travel to line 379
G0 Z0.0 ; Pen down
G1 X148.472 Y218.596 F1000
G0 Z3.0 ; Pen up

G0 X149.096 Y219.220 F3000 ; Travel to line 380
G0 Z0.0 ; Pen down
G1 X150.760 Y217.556 F1000
G0 Z3.0 ; Pen up

G0 X151.592 Y218.180 F3000 ; Travel to line 381
G0 Z0.0 ; Pen down
G1 X149.928 Y219.844 F1000
G0 Z3.0 ; Pen up

G0 X150.760 Y220.468 F3000 ; Travel to line 382
G0 Z0.0 ; Pen down
G1 X152.424 Y218.596 F1000
G0 Z3.0 ; Pen up

G0 X153.464 Y219.012 F3000 ; Travel to line 383
G0 Z0.0 ; Pen down
G1 X151.592 Y220.884 F1000
G0 Z3.0 ; Pen up

G0 X152.632 Y221.508 F3000 ; Travel to line 384
G0 Z0.0 ; Pen down
G1 X154.504 Y219.428 F1000
G0 Z3.0 ; Pen up

G0 X155.752 Y219.636 F3000 ; Travel to line 385
G0 Z0.0 ; Pen down
G1 X153.672 Y221.924 F1000
G0 Z3.0 ; Pen up

G0 X154.712 Y222.132 F3000 ; Travel to line 386
G0 Z0.0 ; Pen down
G1 X157.208 Y219.636 F1000
G0 Z3.0 ; Pen up

G0 X158.664 Y219.636 F3000 ; Travel to line 387
G0 Z0.0 ; Pen down
G1 X155.752 Y222.340 F1000
G0 Z3.0 ; Pen up

G0 X157.208 Y222.340 F3000 ; Travel to line 388
G0 Z0.0 ; Pen down
G1 X160.536 Y219.012 F1000
G0 Z3.0 ; Pen up

G0 X158.664 Y219.428 F3000 ; Travel to line 389
G0 Z0.0 ; Pen down
G1 X158.664 Y219.636 F1000
G0 Z3.0 ; Pen up

G0 X158.872 Y222.132 F3000 ; Travel to line 390
G0 Z0.0 ; Pen down
G1 X163.448 Y217.556 F1000
G0 Z3.0 ; Pen up

G0 X163.656 Y217.556 F3000 ; Travel to line 391
G0 Z0.0 ; Pen down
G1 X163.656 Y217.348 F1000
G0 Z3.0 ; Pen up

G0 X163.864 Y217.348 F3000 ; Travel to line 392
G0 Z0.0 ; Pen down
G1 X163.864 Y217.140 F1000
G0 Z3.0 ; Pen up

G0 X164.280 Y216.932 F3000 ; Travel to line 393
G0 Z0.0 ; Pen down
G1 X164.280 Y216.724 F1000
G0 Z3.0 ; Pen up

G0 X165.112 Y216.100 F3000 ; Travel to line 394
G0 Z0.0 ; Pen down
G1 X165.112 Y215.892 F1000
G0 Z3.0 ; Pen up

G0 X165.320 Y215.892 F3000 ; Travel to line 395
G0 Z0.0 ; Pen down
G1 X165.320 Y215.684 F1000
G0 Z3.0 ; Pen up

G0 X165.528 Y215.684 F3000 ; Travel to line 396
G0 Z0.0 ; Pen down
G1 X165.528 Y215.476 F1000
G0 Z3.0 ; Pen up

G0 X165.736 Y215.476 F3000 ; Travel to line 397
G0 Z0.0 ; Pen down
G1 X165.736 Y215.268 F1000
G0 Z3.0 ; Pen up

G0 X165.944 Y215.268 F3000 ; Travel to line 398
G0 Z0.0 ; Pen down
G1 X168.440 Y212.772 F1000
G0 Z3.0 ; Pen up

G0 X167.400 Y212.356 F3000 ; Travel to line 399
G0 Z0.0 ; Pen down
G1 X168.648 Y211.108 F1000
G0 Z3.0 ; Pen up

G0 X167.816 Y210.484 F3000 ; Travel to line 400
G0 Z0.0 ; Pen down
G1 X167.816 Y210.276 F1000
G0 Z3.0 ; Pen up

G0 X168.024 Y210.276 F3000 ; Travel to line 401
G0 Z0.0 ; Pen down
G1 X168.648 Y209.652 F1000
G0 Z3.0 ; Pen up

G0 X168.024 Y208.820 F3000 ; Travel to line 402
G0 Z0.0 ; Pen down
G1 X168.440 Y208.612 F1000
G0 Z3.0 ; Pen up

G0 X168.024 Y208.612 F3000 ; Travel to line 403
G0 Z0.0 ; Pen down
G1 X168.440 Y208.196 F1000
G0 Z3.0 ; Pen up

G0 X168.024 Y207.988 F3000 ; Travel to line 404
G0 Z0.0 ; Pen down
G1 X168.232 Y207.780 F1000
G0 Z3.0 ; Pen up

G0 X167.816 Y207.156 F3000 ; Travel to line 405
G0 Z0.0 ; Pen down
G1 X168.024 Y206.948 F1000
G0 Z3.0 ; Pen up

G0 X167.816 Y207.156 F3000 ; Travel to line 406
G0 Z0.0 ; Pen down
G1 X167.816 Y206.948 F1000
G1 X167.816 Y207.156 F1000
G0 Z3.0 ; Pen up

G0 X168.024 Y214.644 F3000 ; Travel to line 407
G0 Z0.0 ; Pen down
G1 X160.744 Y221.716 F1000
G0 Z3.0 ; Pen up

G0 X163.656 Y220.260 F3000 ; Travel to line 408
G0 Z0.0 ; Pen down
G1 X166.568 Y217.348 F1000
G0 Z3.0 ; Pen up

G0 X148.472 Y215.476 F3000 ; Travel to line 409
G0 Z0.0 ; Pen down
G1 X147.224 Y216.932 F1000
G0 Z3.0 ; Pen up

G0 X146.808 Y215.892 F3000 ; Travel to line 410
G0 Z0.0 ; Pen down
G1 X148.056 Y214.644 F1000
G0 Z3.0 ; Pen up

G0 X147.432 Y214.020 F3000 ; Travel to line 411
G0 Z0.0 ; Pen down
G1 X146.392 Y215.060 F1000
G0 Z3.0 ; Pen up

G0 X145.976 Y214.228 F3000 ; Travel to line 412
G0 Z0.0 ; Pen down
G1 X145.768 Y212.564 F1000
G1 X145.560 Y212.356 F1000
G1 X145.560 Y209.444 F1000
G1 X145.768 Y209.236 F1000
G1 X145.976 Y207.572 F1000
G1 X145.976 Y210.276 F1000
G1 X146.184 Y210.484 F1000
G1 X146.184 Y211.316 F1000
G1 X146.392 Y211.524 F1000
G1 X146.808 Y213.188 F1000
G1 X147.224 Y214.020 F1000
G1 X148.056 Y215.060 F1000
G1 X148.056 Y215.268 F1000
G1 X149.512 Y216.932 F1000
G1 X149.720 Y216.932 F1000
G1 X150.552 Y217.764 F1000
G1 X150.760 Y217.764 F1000
G1 X151.800 Y218.596 F1000
G1 X152.632 Y219.012 F1000
G1 X154.296 Y219.428 F1000
G1 X154.504 Y219.636 F1000
G1 X155.336 Y219.636 F1000
G1 X155.544 Y219.844 F1000
G1 X158.456 Y219.844 F1000
G1 X158.664 Y219.636 F1000
G1 X159.496 Y219.636 F1000
G1 X159.704 Y219.428 F1000
G1 X161.368 Y219.012 F1000
G1 X162.200 Y218.596 F1000
G1 X163.240 Y217.764 F1000
G1 X163.448 Y217.764 F1000
G1 X164.280 Y216.932 F1000
G1 X164.488 Y216.932 F1000
G1 X165.944 Y215.268 F1000
G1 X165.944 Y215.060 F1000
G1 X166.360 Y214.644 F1000
G1 X167.192 Y213.188 F1000
G1 X167.192 Y212.772 F1000
G1 X167.400 Y212.564 F1000
G1 X167.400 Y212.148 F1000
G1 X167.816 Y211.316 F1000
G1 X167.816 Y210.484 F1000
G1 X168.024 Y210.276 F1000
G1 X168.024 Y207.572 F1000
G1 X168.232 Y209.236 F1000
G1 X168.440 Y209.444 F1000
G1 X168.440 Y212.356 F1000
G1 X168.232 Y212.564 F1000
G1 X168.232 Y213.396 F1000
G1 X168.024 Y213.604 F1000
G1 X167.816 Y214.852 F1000
G1 X166.776 Y216.932 F1000
G1 X165.736 Y218.180 F1000
G1 X165.736 Y218.388 F1000
G1 X164.488 Y219.636 F1000
G1 X164.280 Y219.636 F1000
G1 X163.032 Y220.676 F1000
G1 X160.328 Y221.924 F1000
G1 X158.664 Y222.132 F1000
G1 X158.456 Y222.340 F1000
G1 X155.544 Y222.340 F1000
G1 X155.336 Y222.132 F1000
G1 X154.504 Y222.132 F1000
G1 X154.296 Y221.924 F1000
G1 X153.048 Y221.716 F1000
G1 X150.968 Y220.676 F1000
G1 X149.720 Y219.636 F1000
G1 X149.512 Y219.636 F1000
G1 X148.264 Y218.388 F1000
G1 X148.264 Y218.180 F1000
G1 X147.224 Y216.932 F1000
G1 X145.976 Y214.228 F1000
G0 Z3.0 ; Pen up

G0 X145.976 Y214.020 F3000 ; Travel to line 413
G0 Z0.0 ; Pen down
G1 X147.016 Y212.980 F1000
G0 Z3.0 ; Pen up

G0 X146.600 Y211.940 F3000 ; Travel to line 414
G0 Z0.0 ; Pen down
G1 X145.768 Y212.772 F1000
G0 Z3.0 ; Pen up

G0 X145.560 Y211.524 F3000 ; Travel to line 415
G0 Z0.0 ; Pen down
G1 X146.392 Y210.692 F1000
G0 Z3.0 ; Pen up

G0 X145.560 Y210.068 F3000 ; Travel to line 416
G0 Z0.0 ; Pen down
G1 X146.184 Y209.444 F1000
G0 Z3.0 ; Pen up

G0 X145.768 Y208.820 F3000 ; Travel to line 417
G0 Z0.0 ; Pen down
G1 X146.184 Y208.404 F1000
G0 Z3.0 ; Pen up

G0 X146.184 Y208.196 F3000 ; Travel to line 418
G0 Z0.0 ; Pen down
G1 X145.768 Y208.612 F1000
G0 Z3.0 ; Pen up

G0 X145.976 Y207.780 F3000 ; Travel to line 419
G0 Z0.0 ; Pen down
G1 X146.184 Y207.572 F1000
G0 Z3.0 ; Pen up

G0 X146.184 Y207.156 F3000 ; Travel to line 420
G0 Z0.0 ; Pen down
G1 X146.392 Y206.948 F1000
G0 Z3.0 ; Pen up

G0 X146.184 Y207.156 F3000 ; Travel to line 421
G0 Z0.0 ; Pen down
G1 X146.184 Y206.948 F1000
G1 X146.184 Y207.156 F1000
G0 Z3.0 ; Pen up

G0 X145.144 Y174.292 F3000 ; Travel to line 422
G0 Z0.0 ; Pen down
G1 X145.352 Y174.084 F1000
G1 X146.392 Y174.084 F1000
G1 X146.600 Y173.876 F1000
G1 X147.848 Y173.876 F1000
G1 X148.056 Y173.668 F1000
G1 X148.680 Y173.668 F1000
G1 X148.888 Y173.460 F1000
G1 X149.304 Y173.460 F1000
G1 X149.512 Y173.252 F1000
G1 X149.928 Y173.252 F1000
G1 X150.136 Y173.044 F1000
G1 X150.552 Y173.044 F1000
G1 X150.760 Y172.836 F1000
G1 X150.968 Y172.836 F1000
G1 X151.176 Y172.628 F1000
G1 X151.384 Y172.628 F1000
G1 X151.592 Y172.420 F1000
G1 X152.008 Y172.420 F1000
G1 X152.216 Y172.212 F1000
G1 X152.632 Y172.212 F1000
G1 X152.840 Y172.004 F1000
G1 X153.048 Y172.004 F1000
G1 X153.256 Y171.796 F1000
G1 X153.464 Y171.796 F1000
G1 X153.672 Y171.588 F1000
G1 X153.880 Y171.588 F1000
G1 X154.296 Y171.172 F1000
G1 X154.504 Y171.172 F1000
G1 X155.128 Y170.548 F1000
G1 X155.336 Y170.548 F1000
G1 X155.544 Y170.340 F1000
G1 X155.752 Y170.340 F1000
G1 X155.960 Y170.132 F1000
G1 X156.168 Y170.132 F1000
G1 X156.584 Y169.716 F1000
G1 X156.792 Y169.716 F1000
G1 X159.704 Y166.804 F1000
G1 X159.704 Y166.596 F1000
G1 X160.744 Y165.556 F1000
G1 X160.744 Y165.348 F1000
G1 X161.368 Y164.724 F1000
G1 X161.368 Y164.516 F1000
G1 X161.992 Y163.892 F1000
G1 X161.992 Y163.684 F1000
G1 X162.200 Y163.476 F1000
G1 X162.200 Y163.268 F1000
G1 X162.408 Y163.060 F1000
G1 X162.408 Y162.852 F1000
G1 X162.616 Y162.644 F1000
G1 X162.616 Y162.436 F1000
G1 X163.032 Y162.020 F1000
G1 X163.032 Y161.812 F1000
G1 X163.240 Y161.604 F1000
G1 X163.240 Y161.396 F1000
G1 X163.448 Y161.188 F1000
G1 X163.448 Y160.564 F1000
G1 X163.656 Y160.356 F1000
G1 X163.656 Y160.148 F1000
G1 X163.864 Y159.940 F1000
G1 X163.864 Y159.732 F1000
G1 X164.072 Y159.524 F1000
G1 X164.072 Y159.316 F1000
G1 X164.280 Y159.108 F1000
G1 X164.280 Y158.276 F1000
G1 X164.488 Y158.068 F1000
G1 X164.488 Y157.236 F1000
G1 X164.696 Y157.028 F1000
G1 X164.696 Y156.612 F1000
G1 X164.904 Y156.404 F1000
G1 X164.904 Y155.572 F1000
G1 X165.112 Y155.364 F1000
G1 X165.112 Y153.284 F1000
G1 X165.320 Y153.076 F1000
G1 X165.320 Y151.620 F1000
G1 X165.320 Y153.076 F1000
G1 X165.112 Y153.284 F1000
G1 X165.112 Y155.156 F1000
G1 X164.904 Y155.364 F1000
G1 X164.904 Y156.404 F1000
G1 X164.696 Y156.612 F1000
G1 X164.696 Y157.028 F1000
G1 X164.488 Y157.236 F1000
G1 X164.488 Y158.068 F1000
G1 X164.280 Y158.276 F1000
G1 X164.280 Y158.900 F1000
G1 X164.072 Y159.108 F1000
G1 X164.072 Y159.524 F1000
G1 X163.864 Y159.732 F1000
G1 X163.864 Y159.940 F1000
G1 X163.656 Y160.148 F1000
G1 X163.656 Y160.356 F1000
G1 X163.448 Y160.564 F1000
G1 X163.448 Y161.188 F1000
G1 X163.240 Y161.396 F1000
G1 X163.240 Y161.604 F1000
G1 X163.032 Y161.812 F1000
G1 X163.032 Y162.020 F1000
G1 X162.616 Y162.436 F1000
G1 X162.616 Y162.644 F1000
G1 X162.408 Y162.852 F1000
G1 X162.408 Y163.060 F1000
G1 X161.992 Y163.476 F1000
G1 X161.992 Y163.684 F1000
G1 X161.784 Y163.892 F1000
