; Blueprint to G-code
; Input: /home/david/code/blueprint2gcode/test_data/test_images_solid/test1_simple_shapes.png
; Generated with blueprint2gcode.py

G21 ; Set units to millimeters
G90 ; Absolute positioning
G0 Z3.0 ; Pen up
G0 X0 Y0 ; Move to origin

G0 X55.593 Y104.307 F3000 ; Travel to line 1
G0 Z0.0 ; Pen down
G1 X55.247 Y103.960 F1000
G1 X54.207 Y103.960 F1000
G1 X53.860 Y103.613 F1000
G1 X52.820 Y103.613 F1000
G1 X52.473 Y103.267 F1000
G1 X51.433 Y103.267 F1000
G1 X51.087 Y102.920 F1000
G1 X50.393 Y102.920 F1000
G1 X50.047 Y102.573 F1000
G1 X49.700 Y102.573 F1000
G1 X49.353 Y102.227 F1000
G1 X48.660 Y102.227 F1000
G1 X48.313 Y101.880 F1000
G1 X47.967 Y101.880 F1000
G1 X47.620 Y101.533 F1000
G1 X47.273 Y101.533 F1000
G1 X46.927 Y101.187 F1000
G1 X46.580 Y101.187 F1000
G1 X46.233 Y100.840 F1000
G1 X45.887 Y100.840 F1000
G1 X45.540 Y100.493 F1000
G1 X45.193 Y100.493 F1000
G1 X44.500 Y99.800 F1000
G1 X44.153 Y99.800 F1000
G1 X43.807 Y99.453 F1000
G1 X43.460 Y99.453 F1000
G1 X42.420 Y98.413 F1000
G1 X42.073 Y98.413 F1000
G1 X41.033 Y97.373 F1000
G1 X40.687 Y97.373 F1000
G1 X38.953 Y95.640 F1000
G1 X38.607 Y95.640 F1000
G1 X36.527 Y93.560 F1000
G1 X36.527 Y93.213 F1000
G1 X34.793 Y91.480 F1000
G1 X34.793 Y91.133 F1000
G1 X33.753 Y90.093 F1000
G1 X33.753 Y89.747 F1000
G1 X32.713 Y88.707 F1000
G1 X32.713 Y88.360 F1000
G1 X32.367 Y88.013 F1000
G1 X32.367 Y87.667 F1000
G1 X31.673 Y86.973 F1000
G1 X31.673 Y86.627 F1000
G1 X31.327 Y86.280 F1000
G1 X31.327 Y85.933 F1000
G1 X30.980 Y85.587 F1000
G1 X30.980 Y85.240 F1000
G1 X30.633 Y84.893 F1000
G1 X30.633 Y84.547 F1000
G1 X30.287 Y84.200 F1000
G1 X30.287 Y83.853 F1000
G1 X29.940 Y83.507 F1000
G1 X29.940 Y82.813 F1000
G1 X29.593 Y82.467 F1000
G1 X29.593 Y82.120 F1000
G1 X29.247 Y81.773 F1000
G1 X29.247 Y81.080 F1000
G1 X28.900 Y80.733 F1000
G1 X28.900 Y79.693 F1000
G1 X28.553 Y79.347 F1000
G1 X28.553 Y78.307 F1000
G1 X28.207 Y77.960 F1000
G1 X28.207 Y76.920 F1000
G1 X27.860 Y76.573 F1000
G1 X27.860 Y74.147 F1000
G1 X27.513 Y73.800 F1000
G1 X27.513 Y66.867 F1000
G1 X27.860 Y66.520 F1000
G1 X27.860 Y64.093 F1000
G1 X28.207 Y63.747 F1000
G1 X28.207 Y62.707 F1000
G1 X28.553 Y62.360 F1000
G1 X28.553 Y61.320 F1000
G1 X28.900 Y60.973 F1000
G1 X28.900 Y59.933 F1000
G1 X29.247 Y59.587 F1000
G1 X29.247 Y58.893 F1000
G1 X29.593 Y58.547 F1000
G1 X29.593 Y58.200 F1000
G1 X29.940 Y57.853 F1000
G1 X29.940 Y57.160 F1000
G1 X30.287 Y56.813 F1000
G1 X30.287 Y56.467 F1000
G1 X30.633 Y56.120 F1000
G1 X30.633 Y55.773 F1000
G1 X30.980 Y55.427 F1000
G1 X30.980 Y55.080 F1000
G1 X31.327 Y54.733 F1000
G1 X31.327 Y54.387 F1000
G1 X31.673 Y54.040 F1000
G1 X31.673 Y53.693 F1000
G1 X32.367 Y53.000 F1000
G1 X32.367 Y52.653 F1000
G1 X32.713 Y52.307 F1000
G1 X32.713 Y51.960 F1000
G1 X33.753 Y50.920 F1000
G1 X33.753 Y50.573 F1000
G1 X34.793 Y49.533 F1000
G1 X34.793 Y49.187 F1000
G1 X36.527 Y47.453 F1000
G1 X36.527 Y47.107 F1000
G1 X38.260 Y45.373 F1000
G1 X38.607 Y45.373 F1000
G1 X40.340 Y43.640 F1000
G1 X40.687 Y43.640 F1000
G1 X41.727 Y42.600 F1000
G1 X42.073 Y42.600 F1000
G1 X43.113 Y41.560 F1000
G1 X43.460 Y41.560 F1000
G1 X43.807 Y41.213 F1000
G1 X44.153 Y41.213 F1000
G1 X44.847 Y40.520 F1000
G1 X45.193 Y40.520 F1000
G1 X45.540 Y40.173 F1000
G1 X45.887 Y40.173 F1000
G1 X46.233 Y39.827 F1000
G1 X46.580 Y39.827 F1000
G1 X46.927 Y39.480 F1000
G1 X47.273 Y39.480 F1000
G1 X47.620 Y39.133 F1000
G1 X47.967 Y39.133 F1000
G1 X48.313 Y38.787 F1000
G1 X49.007 Y38.787 F1000
G1 X49.353 Y38.440 F1000
G1 X49.700 Y38.440 F1000
G1 X50.047 Y38.093 F1000
G1 X50.740 Y38.093 F1000
G1 X51.087 Y37.747 F1000
G1 X51.780 Y37.747 F1000
G1 X52.127 Y37.400 F1000
G1 X52.820 Y37.400 F1000
G1 X53.167 Y37.053 F1000
G1 X54.207 Y37.053 F1000
G1 X54.553 Y36.707 F1000
G1 X55.940 Y36.707 F1000
G1 X56.287 Y36.360 F1000
G1 X58.713 Y36.360 F1000
G1 X59.060 Y36.013 F1000
G1 X64.607 Y36.013 F1000
G1 X64.953 Y36.360 F1000
G1 X67.380 Y36.360 F1000
G1 X67.727 Y36.707 F1000
G1 X69.113 Y36.707 F1000
G1 X69.460 Y37.053 F1000
G1 X70.500 Y37.053 F1000
G1 X70.847 Y37.400 F1000
G1 X71.540 Y37.400 F1000
G1 X71.887 Y37.747 F1000
G1 X72.580 Y37.747 F1000
G1 X72.927 Y38.093 F1000
G1 X73.620 Y38.093 F1000
G1 X73.967 Y38.440 F1000
G1 X74.313 Y38.440 F1000
G1 X74.660 Y38.787 F1000
G1 X75.353 Y38.787 F1000
G1 X75.700 Y39.133 F1000
G1 X76.047 Y39.133 F1000
G1 X76.393 Y39.480 F1000
G1 X76.740 Y39.480 F1000
G1 X77.087 Y39.827 F1000
G1 X77.433 Y39.827 F1000
G1 X77.780 Y40.173 F1000
G1 X78.127 Y40.173 F1000
G1 X78.473 Y40.520 F1000
G1 X78.820 Y40.520 F1000
G1 X79.513 Y41.213 F1000
G1 X79.860 Y41.213 F1000
G1 X80.207 Y41.560 F1000
G1 X80.553 Y41.560 F1000
G1 X81.593 Y42.600 F1000
G1 X81.940 Y42.600 F1000
G1 X82.980 Y43.640 F1000
G1 X83.327 Y43.640 F1000
G1 X85.060 Y45.373 F1000
G1 X85.407 Y45.373 F1000
G1 X86.793 Y46.760 F1000
G1 X86.793 Y47.107 F1000
G1 X88.527 Y48.840 F1000
G1 X88.527 Y49.187 F1000
G1 X89.567 Y50.227 F1000
G1 X89.567 Y50.573 F1000
G1 X90.607 Y51.613 F1000
G1 X90.607 Y51.960 F1000
G1 X90.953 Y52.307 F1000
G1 X90.953 Y52.653 F1000
G1 X91.647 Y53.347 F1000
G1 X91.647 Y53.693 F1000
G1 X91.993 Y54.040 F1000
G1 X91.993 Y54.387 F1000
G1 X92.340 Y54.733 F1000
G1 X92.340 Y55.080 F1000
G1 X92.687 Y55.427 F1000
G1 X92.687 Y55.773 F1000
G1 X93.033 Y56.120 F1000
G1 X93.033 Y56.467 F1000
G1 X93.380 Y56.813 F1000
G1 X93.380 Y57.507 F1000
G1 X93.727 Y57.853 F1000
G1 X93.727 Y58.200 F1000
G1 X94.073 Y58.547 F1000
G1 X94.073 Y59.240 F1000
G1 X94.420 Y59.587 F1000
G1 X94.420 Y60.280 F1000
G1 X94.767 Y60.627 F1000
G1 X94.767 Y61.320 F1000
G1 X95.113 Y61.667 F1000
G1 X95.113 Y62.707 F1000
G1 X95.460 Y63.053 F1000
G1 X95.460 Y64.440 F1000
G1 X95.807 Y64.787 F1000
G1 X95.807 Y67.213 F1000
G1 X96.153 Y67.560 F1000
G1 X96.153 Y73.107 F1000
G1 X95.807 Y73.453 F1000
G1 X95.807 Y75.880 F1000
G1 X95.460 Y76.227 F1000
G1 X95.460 Y77.613 F1000
G1 X95.113 Y77.960 F1000
G1 X95.113 Y79.000 F1000
G1 X94.767 Y79.347 F1000
G1 X94.767 Y80.040 F1000
G1 X94.420 Y80.387 F1000
G1 X94.420 Y81.080 F1000
G1 X94.073 Y81.427 F1000
G1 X94.073 Y82.120 F1000
G1 X93.727 Y82.467 F1000
G1 X93.727 Y82.813 F1000
G1 X93.380 Y83.160 F1000
G1 X93.380 Y83.853 F1000
G1 X93.033 Y84.200 F1000
G1 X93.033 Y84.547 F1000
G1 X92.687 Y84.893 F1000
G1 X92.687 Y85.240 F1000
G1 X92.340 Y85.587 F1000
G1 X92.340 Y85.933 F1000
G1 X91.993 Y86.280 F1000
G1 X91.993 Y86.627 F1000
G1 X91.647 Y86.973 F1000
G1 X91.647 Y87.320 F1000
G1 X90.953 Y88.013 F1000
G1 X90.953 Y88.360 F1000
G1 X90.607 Y88.707 F1000
G1 X90.607 Y89.053 F1000
G1 X89.567 Y90.093 F1000
G1 X89.567 Y90.440 F1000
G1 X88.527 Y91.480 F1000
G1 X88.527 Y91.827 F1000
G1 X86.793 Y93.560 F1000
G1 X86.793 Y93.907 F1000
G1 X85.060 Y95.640 F1000
G1 X84.713 Y95.640 F1000
G1 X82.980 Y97.373 F1000
G1 X82.633 Y97.373 F1000
G1 X81.593 Y98.413 F1000
G1 X81.247 Y98.413 F1000
G1 X80.207 Y99.453 F1000
G1 X79.860 Y99.453 F1000
G1 X79.513 Y99.800 F1000
G1 X79.167 Y99.800 F1000
G1 X78.473 Y100.493 F1000
G1 X78.127 Y100.493 F1000
G1 X77.780 Y100.840 F1000
G1 X77.433 Y100.840 F1000
G1 X77.087 Y101.187 F1000
G1 X76.740 Y101.187 F1000
G1 X76.393 Y101.533 F1000
G1 X76.047 Y101.533 F1000
G1 X75.700 Y101.880 F1000
G1 X75.353 Y101.880 F1000
G1 X75.007 Y102.227 F1000
G1 X74.313 Y102.227 F1000
G1 X73.967 Y102.573 F1000
G1 X73.620 Y102.573 F1000
G1 X73.273 Y102.920 F1000
G1 X72.580 Y102.920 F1000
G1 X72.233 Y103.267 F1000
G1 X71.193 Y103.267 F1000
G1 X70.847 Y103.613 F1000
G1 X69.807 Y103.613 F1000
G1 X69.460 Y103.960 F1000
G1 X68.420 Y103.960 F1000
G1 X68.073 Y104.307 F1000
G1 X65.647 Y104.307 F1000
G1 X65.300 Y104.653 F1000
G1 X58.367 Y104.653 F1000
G1 X58.020 Y104.307 F1000
G0 Z3.0 ; Pen up

G0 X58.367 Y104.653 F3000 ; Travel to line 2
G0 Z0.0 ; Pen down
G1 X58.020 Y104.307 F1000
G1 X55.593 Y104.307 F1000
G1 X55.247 Y103.960 F1000
G1 X54.207 Y103.960 F1000
G1 X53.860 Y103.613 F1000
G1 X52.820 Y103.613 F1000
G1 X52.473 Y103.267 F1000
G1 X51.433 Y103.267 F1000
G1 X51.087 Y102.920 F1000
G1 X50.393 Y102.920 F1000
G1 X50.047 Y102.573 F1000
G1 X49.353 Y102.573 F1000
G1 X49.007 Y102.227 F1000
G1 X48.660 Y102.227 F1000
G1 X48.313 Y101.880 F1000
G1 X47.967 Y101.880 F1000
G1 X47.620 Y101.533 F1000
G1 X46.927 Y101.533 F1000
G1 X46.580 Y101.187 F1000
G1 X46.233 Y101.187 F1000
G1 X45.887 Y100.840 F1000
G1 X45.540 Y100.840 F1000
G1 X44.847 Y100.147 F1000
G1 X44.500 Y100.147 F1000
G1 X44.153 Y99.800 F1000
G1 X43.807 Y99.800 F1000
G1 X43.113 Y99.107 F1000
G1 X42.767 Y99.107 F1000
G1 X42.073 Y98.413 F1000
G1 X41.727 Y98.413 F1000
G1 X40.687 Y97.373 F1000
G1 X40.340 Y97.373 F1000
G1 X34.793 Y91.827 F1000
G1 X34.793 Y91.480 F1000
G1 X33.753 Y90.440 F1000
G1 X33.753 Y90.093 F1000
G1 X33.060 Y89.400 F1000
G1 X33.060 Y89.053 F1000
G1 X32.367 Y88.360 F1000
G1 X32.367 Y88.013 F1000
G1 X32.020 Y87.667 F1000
G1 X32.020 Y87.320 F1000
G1 X31.327 Y86.627 F1000
G1 X31.327 Y86.280 F1000
G1 X30.980 Y85.933 F1000
G1 X30.980 Y85.587 F1000
G1 X30.633 Y85.240 F1000
G1 X30.633 Y84.547 F1000
G1 X30.287 Y84.200 F1000
G1 X30.287 Y83.853 F1000
G1 X29.940 Y83.507 F1000
G1 X29.940 Y83.160 F1000
G1 X29.593 Y82.813 F1000
G1 X29.593 Y82.120 F1000
G1 X29.247 Y81.773 F1000
G1 X29.247 Y81.080 F1000
G1 X28.900 Y80.733 F1000
G1 X28.900 Y79.693 F1000
G1 X28.553 Y79.347 F1000
G1 X28.553 Y78.307 F1000
G1 X28.207 Y77.960 F1000
G1 X28.207 Y76.920 F1000
G1 X27.860 Y76.573 F1000
G1 X27.860 Y74.147 F1000
G1 X27.513 Y73.800 F1000
G1 X27.513 Y66.867 F1000
G1 X27.860 Y66.520 F1000
G1 X27.860 Y64.093 F1000
G1 X28.207 Y63.747 F1000
G1 X28.207 Y62.707 F1000
G1 X28.553 Y62.360 F1000
G1 X28.553 Y61.320 F1000
G1 X28.900 Y60.973 F1000
G1 X28.900 Y59.933 F1000
G1 X29.247 Y59.587 F1000
G1 X29.247 Y58.893 F1000
G1 X29.593 Y58.547 F1000
G1 X29.593 Y57.853 F1000
G1 X29.940 Y57.507 F1000
G1 X29.940 Y57.160 F1000
G1 X30.287 Y56.813 F1000
G1 X30.287 Y56.467 F1000
G1 X30.633 Y56.120 F1000
G1 X30.633 Y55.427 F1000
G1 X30.980 Y55.080 F1000
G1 X30.980 Y54.733 F1000
G1 X31.327 Y54.387 F1000
G1 X31.327 Y54.040 F1000
G1 X32.020 Y53.347 F1000
G1 X32.020 Y53.000 F1000
G1 X32.367 Y52.653 F1000
G1 X32.367 Y52.307 F1000
G1 X33.060 Y51.613 F1000
G1 X33.060 Y51.267 F1000
G1 X33.753 Y50.573 F1000
G1 X33.753 Y50.227 F1000
G1 X34.793 Y49.187 F1000
G1 X34.793 Y48.840 F1000
G1 X39.993 Y43.640 F1000
G1 X40.340 Y43.640 F1000
G1 X41.380 Y42.600 F1000
G1 X41.727 Y42.600 F1000
G1 X42.420 Y41.907 F1000
G1 X42.767 Y41.907 F1000
G1 X43.460 Y41.213 F1000
G1 X43.807 Y41.213 F1000
G1 X44.153 Y40.867 F1000
G1 X44.500 Y40.867 F1000
G1 X45.193 Y40.173 F1000
G1 X45.540 Y40.173 F1000
G1 X45.887 Y39.827 F1000
G1 X46.233 Y39.827 F1000
G1 X46.580 Y39.480 F1000
G1 X47.273 Y39.480 F1000
G1 X47.620 Y39.133 F1000
G1 X47.967 Y39.133 F1000
G1 X48.313 Y38.787 F1000
G1 X48.660 Y38.787 F1000
G1 X49.007 Y38.440 F1000
G1 X49.700 Y38.440 F1000
G1 X50.047 Y38.093 F1000
G1 X50.740 Y38.093 F1000
G1 X51.087 Y37.747 F1000
G1 X51.780 Y37.747 F1000
G1 X52.127 Y37.400 F1000
G1 X52.820 Y37.400 F1000
G1 X53.167 Y37.053 F1000
G1 X54.207 Y37.053 F1000
G1 X54.553 Y36.707 F1000
G1 X55.940 Y36.707 F1000
G1 X56.287 Y36.360 F1000
G1 X58.713 Y36.360 F1000
G1 X59.060 Y36.013 F1000
G1 X64.607 Y36.013 F1000
G1 X64.953 Y36.360 F1000
G1 X67.380 Y36.360 F1000
G1 X67.727 Y36.707 F1000
G1 X69.113 Y36.707 F1000
G1 X69.460 Y37.053 F1000
G1 X70.500 Y37.053 F1000
G1 X70.847 Y37.400 F1000
G1 X71.540 Y37.400 F1000
G1 X71.887 Y37.747 F1000
G1 X72.580 Y37.747 F1000
G1 X72.927 Y38.093 F1000
G1 X73.620 Y38.093 F1000
G1 X73.967 Y38.440 F1000
G1 X74.660 Y38.440 F1000
G1 X75.007 Y38.787 F1000
G1 X75.353 Y38.787 F1000
G1 X75.700 Y39.133 F1000
G1 X76.047 Y39.133 F1000
G1 X76.393 Y39.480 F1000
G1 X77.087 Y39.480 F1000
G1 X77.433 Y39.827 F1000
G1 X77.780 Y39.827 F1000
G1 X78.127 Y40.173 F1000
G1 X78.473 Y40.173 F1000
G1 X79.167 Y40.867 F1000
G1 X79.513 Y40.867 F1000
G1 X79.860 Y41.213 F1000
G1 X80.207 Y41.213 F1000
G1 X80.900 Y41.907 F1000
G1 X81.247 Y41.907 F1000
G1 X81.940 Y42.600 F1000
G1 X82.287 Y42.600 F1000
G1 X83.327 Y43.640 F1000
G1 X83.673 Y43.640 F1000
G1 X88.527 Y48.493 F1000
G1 X88.527 Y48.840 F1000
G1 X89.567 Y49.880 F1000
G1 X89.567 Y50.227 F1000
G1 X90.260 Y50.920 F1000
G1 X90.260 Y51.267 F1000
G1 X90.953 Y51.960 F1000
G1 X90.953 Y52.307 F1000
G1 X91.300 Y52.653 F1000
G1 X91.300 Y53.000 F1000
G1 X91.993 Y53.693 F1000
G1 X91.993 Y54.040 F1000
G1 X92.340 Y54.387 F1000
G1 X92.340 Y54.733 F1000
G1 X92.687 Y55.080 F1000
G1 X92.687 Y55.773 F1000
G1 X93.033 Y56.120 F1000
G1 X93.033 Y56.467 F1000
G1 X93.380 Y56.813 F1000
G1 X93.380 Y57.160 F1000
G1 X93.727 Y57.507 F1000
G1 X93.727 Y58.200 F1000
G1 X94.073 Y58.547 F1000
G1 X94.073 Y59.240 F1000
G1 X94.420 Y59.587 F1000
G1 X94.420 Y60.280 F1000
G1 X94.767 Y60.627 F1000
G1 X94.767 Y61.320 F1000
G1 X95.113 Y61.667 F1000
G1 X95.113 Y62.707 F1000
G1 X95.460 Y63.053 F1000
G1 X95.460 Y64.440 F1000
G1 X95.807 Y64.787 F1000
G1 X95.807 Y67.213 F1000
G1 X96.153 Y67.560 F1000
G1 X96.153 Y73.107 F1000
G1 X95.807 Y73.453 F1000
G1 X95.807 Y75.880 F1000
G1 X95.460 Y76.227 F1000
G1 X95.460 Y77.613 F1000
G1 X95.113 Y77.960 F1000
G1 X95.113 Y79.000 F1000
G1 X94.767 Y79.347 F1000
G1 X94.767 Y80.040 F1000
G1 X94.420 Y80.387 F1000
G1 X94.420 Y81.080 F1000
G1 X94.073 Y81.427 F1000
G1 X94.073 Y82.120 F1000
G1 X93.727 Y82.467 F1000
G1 X93.727 Y83.160 F1000
G1 X93.380 Y83.507 F1000
G1 X93.380 Y83.853 F1000
G1 X93.033 Y84.200 F1000
G1 X93.033 Y84.547 F1000
G1 X92.687 Y84.893 F1000
G1 X92.687 Y85.587 F1000
G1 X92.340 Y85.933 F1000
G1 X92.340 Y86.280 F1000
G1 X91.993 Y86.627 F1000
G1 X91.993 Y86.973 F1000
G1 X91.300 Y87.667 F1000
G1 X91.300 Y88.013 F1000
G1 X90.953 Y88.360 F1000
G1 X90.953 Y88.707 F1000
G1 X90.260 Y89.400 F1000
G1 X90.260 Y89.747 F1000
G1 X89.567 Y90.440 F1000
G1 X89.567 Y90.787 F1000
G1 X88.527 Y91.827 F1000
G1 X88.527 Y92.173 F1000
G1 X83.327 Y97.373 F1000
G1 X82.980 Y97.373 F1000
G1 X81.940 Y98.413 F1000
G1 X81.593 Y98.413 F1000
G1 X80.900 Y99.107 F1000
G1 X80.553 Y99.107 F1000
G1 X79.860 Y99.800 F1000
G1 X79.513 Y99.800 F1000
G1 X79.167 Y100.147 F1000
G1 X78.820 Y100.147 F1000
G1 X78.127 Y100.840 F1000
G1 X77.780 Y100.840 F1000
G1 X77.433 Y101.187 F1000
G1 X77.087 Y101.187 F1000
G1 X76.740 Y101.533 F1000
G1 X76.047 Y101.533 F1000
G1 X75.700 Y101.880 F1000
G1 X75.353 Y101.880 F1000
G1 X75.007 Y102.227 F1000
G1 X74.660 Y102.227 F1000
G1 X74.313 Y102.573 F1000
G1 X73.620 Y102.573 F1000
G1 X73.273 Y102.920 F1000
G1 X72.580 Y102.920 F1000
G1 X72.233 Y103.267 F1000
G1 X71.193 Y103.267 F1000
G1 X70.847 Y103.613 F1000
G1 X69.807 Y103.613 F1000
G1 X69.460 Y103.960 F1000
G1 X68.420 Y103.960 F1000
G1 X68.073 Y104.307 F1000
G1 X65.647 Y104.307 F1000
G1 X65.300 Y104.653 F1000
G0 Z3.0 ; Pen up

G0 X64.260 Y121.987 F3000 ; Travel to line 3
G0 Z0.0 ; Pen down
G1 X30.633 Y172.253 F1000
G0 Z3.0 ; Pen up

G0 X30.287 Y171.560 F3000 ; Travel to line 4
G0 Z0.0 ; Pen down
G1 X62.527 Y121.987 F1000
G0 Z3.0 ; Pen up

G0 X60.793 Y121.987 F3000 ; Travel to line 5
G0 Z0.0 ; Pen down
G1 X29.940 Y170.173 F1000
G0 Z3.0 ; Pen up

G0 X29.247 Y169.133 F3000 ; Travel to line 6
G0 Z0.0 ; Pen down
G1 X59.060 Y121.987 F1000
G0 Z3.0 ; Pen up

G0 X57.327 Y122.333 F3000 ; Travel to line 7
G0 Z0.0 ; Pen down
G1 X28.900 Y168.093 F1000
G0 Z3.0 ; Pen up

G0 X28.553 Y166.707 F3000 ; Travel to line 8
G0 Z0.0 ; Pen down
G1 X55.593 Y122.680 F1000
G1 X55.593 Y122.680 F1000
G1 X28.553 Y166.707 F1000
G0 Z3.0 ; Pen up

G0 X28.553 Y166.360 F3000 ; Travel to line 9
G0 Z0.0 ; Pen down
G1 X55.247 Y122.680 F1000
G1 X55.247 Y122.680 F1000
G1 X28.553 Y166.360 F1000
G1 X28.553 Y166.360 F1000
G1 X55.247 Y122.680 F1000
G0 Z3.0 ; Pen up

G0 X54.900 Y122.680 F3000 ; Travel to line 10
G0 Z0.0 ; Pen down
G1 X28.207 Y166.013 F1000
G0 Z3.0 ; Pen up

G0 X28.207 Y165.667 F3000 ; Travel to line 11
G0 Z0.0 ; Pen down
G1 X53.860 Y123.027 F1000
G0 Z3.0 ; Pen up

G0 X52.127 Y123.373 F3000 ; Travel to line 12
G0 Z0.0 ; Pen down
G1 X27.860 Y164.280 F1000
G0 Z3.0 ; Pen up

G0 X27.513 Y162.893 F3000 ; Travel to line 13
G0 Z0.0 ; Pen down
G1 X50.393 Y124.067 F1000
G0 Z3.0 ; Pen up

G0 X48.313 Y124.760 F3000 ; Travel to line 14
G0 Z0.0 ; Pen down
G1 X27.513 Y161.160 F1000
G0 Z3.0 ; Pen up

G0 X31.327 Y173.640 F3000 ; Travel to line 15
G0 Z0.0 ; Pen down
G1 X65.993 Y122.333 F1000
G0 Z3.0 ; Pen up

G0 X67.727 Y122.333 F3000 ; Travel to line 16
G0 Z0.0 ; Pen down
G1 X32.020 Y174.680 F1000
G0 Z3.0 ; Pen up

G0 X32.713 Y175.720 F3000 ; Travel to line 17
G0 Z0.0 ; Pen down
G1 X69.113 Y122.680 F1000
G0 Z3.0 ; Pen up

G0 X70.500 Y123.027 F3000 ; Travel to line 18
G0 Z0.0 ; Pen down
G1 X33.060 Y176.413 F1000
G0 Z3.0 ; Pen up

G0 X33.407 Y176.760 F3000 ; Travel to line 19
G0 Z0.0 ; Pen down
G1 X71.540 Y123.373 F1000
G0 Z3.0 ; Pen up

G0 X72.927 Y123.720 F3000 ; Travel to line 20
G0 Z0.0 ; Pen down
G1 X33.753 Y176.760 F1000
G0 Z3.0 ; Pen up

G0 X33.753 Y177.453 F3000 ; Travel to line 21
G0 Z0.0 ; Pen down
G1 X73.967 Y124.067 F1000
G0 Z3.0 ; Pen up

G0 X75.007 Y124.760 F3000 ; Travel to line 22
G0 Z0.0 ; Pen down
G1 X34.100 Y177.800 F1000
G0 Z3.0 ; Pen up

G0 X34.447 Y178.147 F3000 ; Travel to line 23
G0 Z0.0 ; Pen down
G1 X76.047 Y125.107 F1000
G0 Z3.0 ; Pen up

G0 X77.433 Y125.800 F3000 ; Travel to line 24
G0 Z0.0 ; Pen down
G1 X34.793 Y178.493 F1000
G0 Z3.0 ; Pen up

G0 X34.793 Y178.840 F3000 ; Travel to line 25
G0 Z0.0 ; Pen down
G1 X78.127 Y126.147 F1000
G0 Z3.0 ; Pen up

G0 X79.513 Y126.840 F3000 ; Travel to line 26
G0 Z0.0 ; Pen down
G1 X35.140 Y179.187 F1000
G0 Z3.0 ; Pen up

G0 X35.487 Y179.533 F3000 ; Travel to line 27
G0 Z0.0 ; Pen down
G1 X80.553 Y127.533 F1000
G0 Z3.0 ; Pen up

G0 X81.593 Y128.227 F3000 ; Travel to line 28
G0 Z0.0 ; Pen down
G1 X35.833 Y179.880 F1000
G0 Z3.0 ; Pen up

G0 X36.180 Y180.227 F3000 ; Travel to line 29
G0 Z0.0 ; Pen down
G1 X82.633 Y128.920 F1000
G0 Z3.0 ; Pen up

G0 X83.327 Y129.613 F3000 ; Travel to line 30
G0 Z0.0 ; Pen down
G1 X36.527 Y180.573 F1000
G1 X36.527 Y180.573 F1000
G1 X84.367 Y130.307 F1000
G0 Z3.0 ; Pen up

G0 X85.407 Y131.347 F3000 ; Travel to line 31
G0 Z0.0 ; Pen down
G1 X36.873 Y180.920 F1000
G0 Z3.0 ; Pen up

G0 X37.220 Y181.267 F3000 ; Travel to line 32
G0 Z0.0 ; Pen down
G1 X86.447 Y132.387 F1000
G1 X86.447 Y132.387 F1000
G1 X37.220 Y181.267 F1000
G1 X37.220 Y181.267 F1000
G1 X86.100 Y132.040 F1000
G0 Z3.0 ; Pen up

G0 X86.447 Y132.387 F3000 ; Travel to line 33
G0 Z0.0 ; Pen down
G1 X37.567 Y181.613 F1000
G1 X37.567 Y181.613 F1000
G1 X87.140 Y133.080 F1000
G0 Z3.0 ; Pen up

G0 X87.833 Y133.773 F3000 ; Travel to line 34
G0 Z0.0 ; Pen down
G1 X37.913 Y181.960 F1000
G0 Z3.0 ; Pen up

G0 X37.567 Y181.613 F3000 ; Travel to line 35
G0 Z0.0 ; Pen down
G1 X86.447 Y132.387 F1000
G1 X86.447 Y132.387 F1000
G1 X37.567 Y181.267 F1000
G0 Z3.0 ; Pen up

G0 X38.260 Y182.307 F3000 ; Travel to line 36
G0 Z0.0 ; Pen down
G1 X88.527 Y134.467 F1000
G0 Z3.0 ; Pen up

G0 X89.220 Y135.507 F3000 ; Travel to line 37
G0 Z0.0 ; Pen down
G1 X38.607 Y182.653 F1000
G0 Z3.0 ; Pen up

G0 X38.953 Y183.000 F3000 ; Travel to line 38
G0 Z0.0 ; Pen down
G1 X90.260 Y136.547 F1000
G0 Z3.0 ; Pen up

G0 X90.953 Y137.587 F3000 ; Travel to line 39
G0 Z0.0 ; Pen down
G1 X39.300 Y183.000 F1000
G0 Z3.0 ; Pen up

G0 X39.647 Y183.347 F3000 ; Travel to line 40
G0 Z0.0 ; Pen down
G1 X91.647 Y138.627 F1000
G0 Z3.0 ; Pen up

G0 X92.340 Y139.667 F3000 ; Travel to line 41
G0 Z0.0 ; Pen down
G1 X39.647 Y183.693 F1000
G0 Z3.0 ; Pen up

G0 X39.993 Y184.040 F3000 ; Travel to line 42
G0 Z0.0 ; Pen down
G1 X92.687 Y140.707 F1000
G0 Z3.0 ; Pen up

G0 X93.380 Y141.747 F3000 ; Travel to line 43
G0 Z0.0 ; Pen down
G1 X40.687 Y184.387 F1000
G0 Z3.0 ; Pen up

G0 X41.033 Y184.387 F3000 ; Travel to line 44
G0 Z0.0 ; Pen down
G1 X93.727 Y142.787 F1000
G0 Z3.0 ; Pen up

G0 X94.420 Y143.827 F3000 ; Travel to line 45
G0 Z0.0 ; Pen down
G1 X41.033 Y184.733 F1000
G0 Z3.0 ; Pen up

G0 X41.380 Y185.080 F3000 ; Travel to line 46
G0 Z0.0 ; Pen down
G1 X94.767 Y145.213 F1000
G0 Z3.0 ; Pen up

G0 X95.113 Y146.253 F3000 ; Travel to line 47
G0 Z0.0 ; Pen down
G1 X42.073 Y185.427 F1000
G0 Z3.0 ; Pen up

G0 X42.420 Y185.773 F3000 ; Travel to line 48
G0 Z0.0 ; Pen down
G1 X95.460 Y147.640 F1000
G0 Z3.0 ; Pen up

G0 X95.807 Y148.680 F3000 ; Travel to line 49
G0 Z0.0 ; Pen down
G1 X42.767 Y185.773 F1000
G0 Z3.0 ; Pen up

G0 X43.460 Y186.467 F3000 ; Travel to line 50
G0 Z0.0 ; Pen down
G1 X96.153 Y150.067 F1000
G0 Z3.0 ; Pen up

G0 X96.500 Y151.453 F3000 ; Travel to line 51
G0 Z0.0 ; Pen down
G1 X44.500 Y187.160 F1000
G0 Z3.0 ; Pen up

G0 X45.540 Y187.507 F3000 ; Travel to line 52
G0 Z0.0 ; Pen down
G1 X96.500 Y153.533 F1000
G0 Z3.0 ; Pen up

G0 X96.847 Y155.267 F3000 ; Travel to line 53
G0 Z0.0 ; Pen down
G1 X46.580 Y188.200 F1000
G0 Z3.0 ; Pen up

G0 X47.967 Y188.893 F3000 ; Travel to line 54
G0 Z0.0 ; Pen down
G1 X96.847 Y156.653 F1000
G0 Z3.0 ; Pen up

G0 X96.847 Y158.387 F3000 ; Travel to line 55
G0 Z0.0 ; Pen down
G1 X49.007 Y189.240 F1000
G0 Z3.0 ; Pen up

G0 X49.700 Y189.587 F3000 ; Travel to line 56
G0 Z0.0 ; Pen down
G1 X96.847 Y160.120 F1000
G0 Z3.0 ; Pen up

G0 X96.500 Y161.853 F3000 ; Travel to line 57
G0 Z0.0 ; Pen down
G1 X51.087 Y189.933 F1000
G0 Z3.0 ; Pen up

G0 X52.127 Y190.280 F3000 ; Travel to line 58
G0 Z0.0 ; Pen down
G1 X96.153 Y163.240 F1000
G0 Z3.0 ; Pen up

G0 X96.153 Y163.587 F3000 ; Travel to line 59
G0 Z0.0 ; Pen down
G1 X52.473 Y190.280 F1000
G1 X52.473 Y190.280 F1000
G1 X96.153 Y163.587 F1000
G1 X96.153 Y163.587 F1000
G1 X52.473 Y190.280 F1000
G0 Z3.0 ; Pen up

G0 X52.820 Y190.627 F3000 ; Travel to line 60
G0 Z0.0 ; Pen down
G1 X96.153 Y163.933 F1000
G0 Z3.0 ; Pen up

G0 X95.807 Y165.320 F3000 ; Travel to line 61
G0 Z0.0 ; Pen down
G1 X53.860 Y190.627 F1000
G0 Z3.0 ; Pen up

G0 X54.900 Y190.973 F3000 ; Travel to line 62
G0 Z0.0 ; Pen down
G1 X95.113 Y167.053 F1000
G1 X95.113 Y167.053 F1000
G1 X95.460 Y167.053 F1000
G0 Z3.0 ; Pen up

G0 X113.833 Y166.707 F3000 ; Travel to line 63
G0 Z0.0 ; Pen down
G1 X163.060 Y121.987 F1000
G0 Z3.0 ; Pen up

G0 X160.633 Y121.987 F3000 ; Travel to line 64
G0 Z0.0 ; Pen down
G1 X113.833 Y164.973 F1000
G0 Z3.0 ; Pen up

G0 X113.833 Y162.893 F3000 ; Travel to line 65
G0 Z0.0 ; Pen down
G1 X157.860 Y121.987 F1000
G0 Z3.0 ; Pen up

G0 X155.433 Y121.987 F3000 ; Travel to line 66
G0 Z0.0 ; Pen down
G1 X113.833 Y161.160 F1000
G0 Z3.0 ; Pen up

G0 X113.833 Y159.427 F3000 ; Travel to line 67
G0 Z0.0 ; Pen down
G1 X153.353 Y121.987 F1000
G0 Z3.0 ; Pen up

G0 X150.927 Y121.987 F3000 ; Travel to line 68
G0 Z0.0 ; Pen down
G1 X113.833 Y157.347 F1000
G0 Z3.0 ; Pen up

G0 X113.833 Y155.613 F3000 ; Travel to line 69
G0 Z0.0 ; Pen down
G1 X148.500 Y121.987 F1000
G0 Z3.0 ; Pen up

G0 X146.420 Y121.987 F3000 ; Travel to line 70
G0 Z0.0 ; Pen down
G1 X113.833 Y153.880 F1000
G0 Z3.0 ; Pen up

G0 X113.833 Y151.800 F3000 ; Travel to line 71
G0 Z0.0 ; Pen down
G1 X143.993 Y121.987 F1000
G0 Z3.0 ; Pen up

G0 X141.913 Y121.987 F3000 ; Travel to line 72
G0 Z0.0 ; Pen down
G1 X113.833 Y150.067 F1000
G0 Z3.0 ; Pen up

G0 X113.833 Y147.987 F3000 ; Travel to line 73
G0 Z0.0 ; Pen down
G1 X139.833 Y121.987 F1000
G0 Z3.0 ; Pen up

G0 X137.407 Y121.987 F3000 ; Travel to line 74
G0 Z0.0 ; Pen down
G1 X113.833 Y145.560 F1000
G0 Z3.0 ; Pen up

G0 X113.833 Y142.787 F3000 ; Travel to line 75
G0 Z0.0 ; Pen down
G1 X134.633 Y121.987 F1000
G0 Z3.0 ; Pen up

G0 X131.860 Y121.987 F3000 ; Travel to line 76
G0 Z0.0 ; Pen down
G1 X113.833 Y140.013 F1000
G0 Z3.0 ; Pen up

G0 X113.833 Y136.893 F3000 ; Travel to line 77
G0 Z0.0 ; Pen down
G1 X128.740 Y121.987 F1000
G0 Z3.0 ; Pen up

G0 X125.620 Y121.987 F3000 ; Travel to line 78
G0 Z0.0 ; Pen down
G1 X113.833 Y133.773 F1000
G0 Z3.0 ; Pen up

G0 X113.833 Y131.000 F3000 ; Travel to line 79
G0 Z0.0 ; Pen down
G1 X122.847 Y121.987 F1000
G0 Z3.0 ; Pen up

G0 X120.073 Y121.987 F3000 ; Travel to line 80
G0 Z0.0 ; Pen down
G1 X113.833 Y128.227 F1000
G0 Z3.0 ; Pen up

G0 X113.833 Y125.453 F3000 ; Travel to line 81
G0 Z0.0 ; Pen down
G1 X117.300 Y121.987 F1000
G1 X117.300 Y121.987 F1000
G1 X113.833 Y125.453 F1000
G0 Z3.0 ; Pen up

G0 X113.833 Y124.067 F3000 ; Travel to line 82
G0 Z0.0 ; Pen down
G1 X115.913 Y121.987 F1000
G0 Z3.0 ; Pen up

G0 X114.180 Y121.987 F3000 ; Travel to line 83
G0 Z0.0 ; Pen down
G1 X113.833 Y122.333 F1000
G0 Z3.0 ; Pen up

G0 X113.833 Y122.680 F3000 ; Travel to line 84
G0 Z0.0 ; Pen down
G1 X114.527 Y121.987 F1000
G1 X114.527 Y121.987 F1000
G1 X113.833 Y122.680 F1000
G0 Z3.0 ; Pen up

G0 X114.180 Y104.653 F3000 ; Travel to line 85
G0 Z0.0 ; Pen down
G1 X114.180 Y36.013 F1000
G1 X182.473 Y36.013 F1000
G1 X182.820 Y36.360 F1000
G1 X182.820 Y104.653 F1000
G0 Z3.0 ; Pen up

G0 X182.820 Y121.987 F3000 ; Travel to line 86
G0 Z0.0 ; Pen down
G1 X113.833 Y179.533 F1000
G0 Z3.0 ; Pen up

G0 X113.833 Y180.920 F3000 ; Travel to line 87
G0 Z0.0 ; Pen down
G1 X183.513 Y124.067 F1000
G0 Z3.0 ; Pen up

G0 X183.513 Y126.147 F3000 ; Travel to line 88
G0 Z0.0 ; Pen down
G1 X113.833 Y182.307 F1000
G0 Z3.0 ; Pen up

G0 X113.833 Y184.040 F3000 ; Travel to line 89
G0 Z0.0 ; Pen down
G1 X183.513 Y128.573 F1000
G0 Z3.0 ; Pen up

G0 X183.513 Y130.653 F3000 ; Travel to line 90
G0 Z0.0 ; Pen down
G1 X113.833 Y185.427 F1000
G0 Z3.0 ; Pen up

G0 X113.833 Y186.813 F3000 ; Travel to line 91
G0 Z0.0 ; Pen down
G1 X183.513 Y132.733 F1000
G0 Z3.0 ; Pen up

G0 X183.513 Y134.467 F3000 ; Travel to line 92
G0 Z0.0 ; Pen down
G1 X113.833 Y188.200 F1000
G0 Z3.0 ; Pen up

G0 X113.833 Y189.240 F3000 ; Travel to line 93
G0 Z0.0 ; Pen down
G1 X183.513 Y136.547 F1000
G0 Z3.0 ; Pen up

G0 X183.513 Y138.627 F3000 ; Travel to line 94
G0 Z0.0 ; Pen down
G1 X113.833 Y190.627 F1000
G0 Z3.0 ; Pen up

G0 X113.833 Y191.667 F3000 ; Travel to line 95
G0 Z0.0 ; Pen down
G1 X183.513 Y140.360 F1000
G0 Z3.0 ; Pen up

G0 X183.513 Y142.440 F3000 ; Travel to line 96
G0 Z0.0 ; Pen down
G1 X115.567 Y191.667 F1000
G0 Z3.0 ; Pen up

G0 X117.300 Y191.667 F3000 ; Travel to line 97
G0 Z0.0 ; Pen down
G1 X183.513 Y144.173 F1000
G0 Z3.0 ; Pen up

G0 X183.513 Y145.907 F3000 ; Travel to line 98
G0 Z0.0 ; Pen down
G1 X119.033 Y191.667 F1000
G0 Z3.0 ; Pen up

G0 X120.767 Y191.667 F3000 ; Travel to line 99
G0 Z0.0 ; Pen down
G1 X183.513 Y147.640 F1000
G0 Z3.0 ; Pen up

G0 X183.513 Y149.373 F3000 ; Travel to line 100
G0 Z0.0 ; Pen down
G1 X122.500 Y191.667 F1000
G0 Z3.0 ; Pen up

G0 X123.887 Y191.667 F3000 ; Travel to line 101
G0 Z0.0 ; Pen down
G1 X183.513 Y151.453 F1000
G0 Z3.0 ; Pen up

G0 X183.513 Y153.187 F3000 ; Travel to line 102
G0 Z0.0 ; Pen down
G1 X126.313 Y191.667 F1000
G0 Z3.0 ; Pen up

G0 X128.047 Y191.667 F3000 ; Travel to line 103
G0 Z0.0 ; Pen down
G1 X183.513 Y155.267 F1000
G0 Z3.0 ; Pen up

G0 X183.513 Y156.653 F3000 ; Travel to line 104
G0 Z0.0 ; Pen down
G1 X129.780 Y191.667 F1000
G0 Z3.0 ; Pen up

G0 X131.513 Y191.667 F3000 ; Travel to line 105
G0 Z0.0 ; Pen down
G1 X183.513 Y158.387 F1000
G0 Z3.0 ; Pen up

G0 X183.513 Y160.120 F3000 ; Travel to line 106
G0 Z0.0 ; Pen down
G1 X133.247 Y191.667 F1000
G0 Z3.0 ; Pen up

G0 X134.980 Y191.667 F3000 ; Travel to line 107
G0 Z0.0 ; Pen down
G1 X183.513 Y161.507 F1000
G0 Z3.0 ; Pen up

G0 X183.513 Y162.893 F3000 ; Travel to line 108
G0 Z0.0 ; Pen down
G1 X136.367 Y191.667 F1000
G0 Z3.0 ; Pen up

G0 X136.713 Y191.667 F3000 ; Travel to line 109
G0 Z0.0 ; Pen down
G1 X183.513 Y163.240 F1000
G1 X183.513 Y163.240 F1000
G1 X136.713 Y191.667 F1000
G1 X136.713 Y191.667 F1000
G1 X183.513 Y163.240 F1000
G0 Z3.0 ; Pen up

G0 X183.513 Y163.587 F3000 ; Travel to line 110
G0 Z0.0 ; Pen down
G1 X137.407 Y191.667 F1000
G0 Z3.0 ; Pen up

G0 X138.793 Y191.667 F3000 ; Travel to line 111
G0 Z0.0 ; Pen down
G1 X183.513 Y164.627 F1000
G0 Z3.0 ; Pen up

G0 X183.513 Y166.360 F3000 ; Travel to line 112
G0 Z0.0 ; Pen down
G1 X140.527 Y191.667 F1000
G0 Z3.0 ; Pen up

G0 X113.833 Y177.800 F3000 ; Travel to line 113
G0 Z0.0 ; Pen down
G1 X180.393 Y121.987 F1000
G0 Z3.0 ; Pen up

G0 X177.967 Y121.987 F3000 ; Travel to line 114
G0 Z0.0 ; Pen down
G1 X113.833 Y176.413 F1000
G0 Z3.0 ; Pen up

G0 X113.833 Y175.720 F3000 ; Travel to line 115
G0 Z0.0 ; Pen down
G1 X176.580 Y121.987 F1000
G1 X176.580 Y121.987 F1000
G1 X113.833 Y175.720 F1000
G0 Z3.0 ; Pen up

G0 X113.833 Y175.373 F3000 ; Travel to line 116
G0 Z0.0 ; Pen down
G1 X175.887 Y121.987 F1000
G1 X175.887 Y121.987 F1000
G1 X113.833 Y175.373 F1000
G1 X113.833 Y175.373 F1000
G1 X176.233 Y121.987 F1000
G0 Z3.0 ; Pen up

G0 X175.540 Y121.987 F3000 ; Travel to line 117
G0 Z0.0 ; Pen down
G1 X113.833 Y174.680 F1000
G0 Z3.0 ; Pen up

G0 X113.833 Y173.293 F3000 ; Travel to line 118
G0 Z0.0 ; Pen down
G1 X172.767 Y121.987 F1000
G0 Z3.0 ; Pen up

G0 X170.340 Y121.987 F3000 ; Travel to line 119
G0 Z0.0 ; Pen down
G1 X113.833 Y171.560 F1000
G0 Z3.0 ; Pen up

G0 X113.833 Y170.173 F3000 ; Travel to line 120
G0 Z0.0 ; Pen down
G1 X167.913 Y121.987 F1000
G0 Z3.0 ; Pen up

G0 X165.487 Y121.987 F3000 ; Travel to line 121
G0 Z0.0 ; Pen down
G1 X113.833 Y168.440 F1000
G0 Z3.0 ; Pen up

G0 X114.180 Y104.307 F3000 ; Travel to line 122
G0 Z0.0 ; Pen down
G1 X114.527 Y104.653 F1000
G1 X182.473 Y104.653 F1000
G1 X182.820 Y104.307 F1000
G1 X182.820 Y36.707 F1000
G1 X182.127 Y36.013 F1000
G1 X114.527 Y36.013 F1000
G1 X114.180 Y36.360 F1000
G0 Z3.0 ; Pen up

G0 X217.833 Y122.333 F3000 ; Travel to line 123
G0 Z0.0 ; Pen down
G1 X218.180 Y121.987 F1000
G1 X218.180 Y121.987 F1000
G1 X217.833 Y122.333 F1000
G0 Z3.0 ; Pen up

G0 X218.180 Y123.373 F3000 ; Travel to line 124
G0 Z0.0 ; Pen down
G1 X219.567 Y121.987 F1000
G0 Z3.0 ; Pen up

G0 X220.953 Y121.987 F3000 ; Travel to line 125
G0 Z0.0 ; Pen down
G1 X218.527 Y124.413 F1000
G0 Z3.0 ; Pen up

G0 X218.873 Y124.413 F3000 ; Travel to line 126
G0 Z0.0 ; Pen down
G1 X221.300 Y121.987 F1000
G0 Z3.0 ; Pen up

G0 X224.073 Y121.987 F3000 ; Travel to line 127
G0 Z0.0 ; Pen down
G1 X219.567 Y126.493 F1000
G0 Z3.0 ; Pen up

G0 X220.260 Y128.573 F3000 ; Travel to line 128
G0 Z0.0 ; Pen down
G1 X226.847 Y121.987 F1000
G0 Z3.0 ; Pen up

G0 X229.620 Y121.987 F3000 ; Travel to line 129
G0 Z0.0 ; Pen down
G1 X220.953 Y130.653 F1000
G0 Z3.0 ; Pen up

G0 X221.647 Y132.733 F3000 ; Travel to line 130
G0 Z0.0 ; Pen down
G1 X232.047 Y121.987 F1000
G0 Z3.0 ; Pen up

G0 X234.127 Y121.987 F3000 ; Travel to line 131
G0 Z0.0 ; Pen down
G1 X222.340 Y134.120 F1000
G0 Z3.0 ; Pen up

G0 X222.687 Y135.507 F3000 ; Travel to line 132
G0 Z0.0 ; Pen down
G1 X235.860 Y121.987 F1000
G0 Z3.0 ; Pen up

G0 X237.593 Y121.987 F3000 ; Travel to line 133
G0 Z0.0 ; Pen down
G1 X223.380 Y137.240 F1000
G0 Z3.0 ; Pen up

G0 X224.073 Y138.627 F3000 ; Travel to line 134
G0 Z0.0 ; Pen down
G1 X239.673 Y121.987 F1000
G0 Z3.0 ; Pen up

G0 X241.407 Y121.987 F3000 ; Travel to line 135
G0 Z0.0 ; Pen down
G1 X224.420 Y140.013 F1000
G0 Z3.0 ; Pen up

G0 X225.113 Y141.747 F3000 ; Travel to line 136
G0 Z0.0 ; Pen down
G1 X243.487 Y121.987 F1000
G0 Z3.0 ; Pen up

G0 X244.873 Y121.987 F3000 ; Travel to line 137
G0 Z0.0 ; Pen down
G1 X225.460 Y142.787 F1000
G0 Z3.0 ; Pen up

G0 X225.807 Y143.827 F3000 ; Travel to line 138
G0 Z0.0 ; Pen down
G1 X246.260 Y121.987 F1000
G0 Z3.0 ; Pen up

G0 X247.647 Y121.987 F3000 ; Travel to line 139
G0 Z0.0 ; Pen down
G1 X226.500 Y145.213 F1000
G0 Z3.0 ; Pen up

G0 X226.847 Y146.253 F3000 ; Travel to line 140
G0 Z0.0 ; Pen down
G1 X249.033 Y121.987 F1000
G0 Z3.0 ; Pen up

G0 X250.420 Y121.987 F3000 ; Travel to line 141
G0 Z0.0 ; Pen down
G1 X227.193 Y147.293 F1000
G0 Z3.0 ; Pen up

G0 X227.540 Y148.333 F3000 ; Travel to line 142
G0 Z0.0 ; Pen down
G1 X251.807 Y121.987 F1000
G0 Z3.0 ; Pen up

G0 X254.233 Y121.987 F3000 ; Travel to line 143
G0 Z0.0 ; Pen down
G1 X228.233 Y150.413 F1000
G0 Z3.0 ; Pen up

G0 X228.233 Y149.720 F3000 ; Travel to line 144
G0 Z0.0 ; Pen down
G1 X253.540 Y121.987 F1000
G1 X253.540 Y121.987 F1000
G1 X228.233 Y149.720 F1000
G0 Z3.0 ; Pen up

G0 X227.887 Y149.373 F3000 ; Travel to line 145
G0 Z0.0 ; Pen down
G1 X253.193 Y121.987 F1000
G1 X253.193 Y121.987 F1000
G1 X227.887 Y149.373 F1000
G1 X227.887 Y149.373 F1000
G1 X253.193 Y121.987 F1000
G1 X253.193 Y121.987 F1000
G1 X227.887 Y149.373 F1000
G0 Z3.0 ; Pen up

G0 X228.927 Y151.453 F3000 ; Travel to line 146
G0 Z0.0 ; Pen down
G1 X255.620 Y121.987 F1000
G0 Z3.0 ; Pen up

G0 X257.007 Y121.987 F3000 ; Travel to line 147
G0 Z0.0 ; Pen down
G1 X229.273 Y152.493 F1000
G0 Z3.0 ; Pen up

G0 X229.620 Y153.533 F3000 ; Travel to line 148
G0 Z0.0 ; Pen down
G1 X258.393 Y121.987 F1000
G0 Z3.0 ; Pen up

G0 X259.433 Y121.987 F3000 ; Travel to line 149
G0 Z0.0 ; Pen down
G1 X229.967 Y154.573 F1000
G0 Z3.0 ; Pen up

G0 X230.313 Y155.613 F3000 ; Travel to line 150
G0 Z0.0 ; Pen down
G1 X260.820 Y121.987 F1000
G0 Z3.0 ; Pen up

G0 X261.513 Y121.987 F3000 ; Travel to line 151
G0 Z0.0 ; Pen down
G1 X230.313 Y155.960 F1000
G1 X230.313 Y155.960 F1000
G1 X261.513 Y121.987 F1000
G1 X261.513 Y121.987 F1000
G1 X230.313 Y155.960 F1000
G0 Z3.0 ; Pen up

G0 X230.660 Y156.307 F3000 ; Travel to line 152
G0 Z0.0 ; Pen down
G1 X261.860 Y121.987 F1000
G1 X261.860 Y121.987 F1000
G1 X230.660 Y156.307 F1000
G0 Z3.0 ; Pen up

G0 X230.660 Y156.653 F3000 ; Travel to line 153
G0 Z0.0 ; Pen down
G1 X262.207 Y121.987 F1000
G0 Z3.0 ; Pen up

G0 X263.940 Y121.987 F3000 ; Travel to line 154
G0 Z0.0 ; Pen down
G1 X231.007 Y157.693 F1000
G0 Z3.0 ; Pen up

G0 X231.353 Y158.733 F3000 ; Travel to line 155
G0 Z0.0 ; Pen down
G1 X264.980 Y121.987 F1000
G0 Z3.0 ; Pen up

G0 X266.367 Y121.987 F3000 ; Travel to line 156
G0 Z0.0 ; Pen down
G1 X232.047 Y159.773 F1000
G0 Z3.0 ; Pen up

G0 X232.393 Y160.813 F3000 ; Travel to line 157
G0 Z0.0 ; Pen down
G1 X267.753 Y121.987 F1000
G0 Z3.0 ; Pen up

G0 X268.793 Y121.987 F3000 ; Travel to line 158
G0 Z0.0 ; Pen down
G1 X232.740 Y162.200 F1000
G0 Z3.0 ; Pen up

G0 X233.087 Y163.240 F3000 ; Travel to line 159
G0 Z0.0 ; Pen down
G1 X270.180 Y122.333 F1000
G0 Z3.0 ; Pen up

G0 X269.140 Y125.107 F3000 ; Travel to line 160
G0 Z0.0 ; Pen down
G1 X233.433 Y164.280 F1000
G0 Z3.0 ; Pen up

G0 X233.780 Y164.973 F3000 ; Travel to line 161
G0 Z0.0 ; Pen down
G1 X268.100 Y127.533 F1000
G0 Z3.0 ; Pen up

G0 X268.100 Y127.187 F3000 ; Travel to line 162
G0 Z0.0 ; Pen down
G1 X268.447 Y127.187 F1000
G0 Z3.0 ; Pen up

G0 X267.407 Y129.613 F3000 ; Travel to line 163
G0 Z0.0 ; Pen down
G1 X234.127 Y166.013 F1000
G0 Z3.0 ; Pen up

G0 X234.473 Y167.053 F3000 ; Travel to line 164
G0 Z0.0 ; Pen down
G1 X266.367 Y132.387 F1000
G0 Z3.0 ; Pen up

G0 X265.673 Y134.467 F3000 ; Travel to line 165
G0 Z0.0 ; Pen down
G1 X265.327 Y134.467 F1000
G0 Z3.0 ; Pen up

G0 X265.327 Y134.813 F3000 ; Travel to line 166
G0 Z0.0 ; Pen down
G1 X235.167 Y168.093 F1000
G0 Z3.0 ; Pen up

G0 X235.513 Y169.133 F3000 ; Travel to line 167
G0 Z0.0 ; Pen down
G1 X264.633 Y136.893 F1000
G0 Z3.0 ; Pen up

G0 X263.940 Y139.320 F3000 ; Travel to line 168
G0 Z0.0 ; Pen down
G1 X263.593 Y139.320 F1000
G0 Z3.0 ; Pen up

G0 X263.593 Y139.667 F3000 ; Travel to line 169
G0 Z0.0 ; Pen down
G1 X235.860 Y170.520 F1000
G0 Z3.0 ; Pen up

G0 X236.207 Y171.560 F3000 ; Travel to line 170
G0 Z0.0 ; Pen down
G1 X262.553 Y142.440 F1000
G0 Z3.0 ; Pen up

G0 X261.860 Y144.867 F3000 ; Travel to line 171
G0 Z0.0 ; Pen down
G1 X261.513 Y144.867 F1000
G0 Z3.0 ; Pen up

G0 X261.513 Y145.213 F3000 ; Travel to line 172
G0 Z0.0 ; Pen down
G1 X236.553 Y172.600 F1000
G0 Z3.0 ; Pen up

G0 X237.247 Y173.640 F3000 ; Travel to line 173
G0 Z0.0 ; Pen down
G1 X260.820 Y147.293 F1000
G0 Z3.0 ; Pen up

G0 X259.780 Y150.067 F3000 ; Travel to line 174
G0 Z0.0 ; Pen down
G1 X237.593 Y174.680 F1000
G0 Z3.0 ; Pen up

G0 X237.593 Y175.373 F3000 ; Travel to line 175
G0 Z0.0 ; Pen down
G1 X259.087 Y151.800 F1000
G0 Z3.0 ; Pen up

G0 X258.740 Y152.147 F3000 ; Travel to line 176
G0 Z0.0 ; Pen down
G1 X259.087 Y152.147 F1000
G1 X259.087 Y152.147 F1000
G1 X258.740 Y152.147 F1000
G1 X258.740 Y152.147 F1000
G1 X259.087 Y152.147 F1000
G1 X259.087 Y152.147 F1000
G1 X258.740 Y152.147 F1000
G0 Z3.0 ; Pen up

G0 X258.047 Y154.920 F3000 ; Travel to line 177
G0 Z0.0 ; Pen down
G1 X257.700 Y154.920 F1000
G0 Z3.0 ; Pen up

G0 X257.700 Y155.267 F3000 ; Travel to line 178
G0 Z0.0 ; Pen down
G1 X238.287 Y176.760 F1000
G0 Z3.0 ; Pen up

G0 X237.940 Y175.720 F3000 ; Travel to line 179
G0 Z0.0 ; Pen down
G1 X258.740 Y152.493 F1000
G1 X258.740 Y152.493 F1000
G1 X237.940 Y175.720 F1000
G1 X237.940 Y175.720 F1000
G1 X258.740 Y152.493 F1000
G1 X258.740 Y152.493 F1000
G1 X237.940 Y175.720 F1000
G0 Z3.0 ; Pen up

G0 X238.633 Y178.147 F3000 ; Travel to line 180
G0 Z0.0 ; Pen down
G1 X257.007 Y157.347 F1000
G0 Z3.0 ; Pen up

; Return to origin
G0 X0 Y0
G0 Z3.0

; Total drawing distance: 11520.68 mm
; Total travel distance: 672.30 mm
; Total lines: 180
; Estimated time: 704.7 seconds (11.7 minutes)
M2 ; End program