; Blueprint to G-code
; Input: test_images_solid/test6_logo_style.png
; Generated with blueprint2gcode.py

G21 ; Set units to millimeters
G90 ; Absolute positioning
G0 Z3.0 ; Pen up
G0 X0 Y0 ; Move to origin

G0 X53.000 Y83.760 F3000 ; Travel to line 1
G0 Z0.0 ; Pen down
G1 X53.260 Y83.500 F1000
G1 X53.260 Y83.500 F1000
G1 X53.000 Y83.760 F1000
G0 Z3.0 ; Pen up

G0 X53.000 Y84.020 F3000 ; Travel to line 2
G0 Z0.0 ; Pen down
G1 X53.520 Y83.500 F1000
G0 Z3.0 ; Pen up

G0 X53.780 Y83.500 F3000 ; Travel to line 3
G0 Z0.0 ; Pen down
G1 X53.000 Y84.280 F1000
G1 X53.000 Y84.280 F1000
G1 X54.040 Y83.500 F1000
G0 Z3.0 ; Pen up

G0 X54.560 Y83.500 F3000 ; Travel to line 4
G0 Z0.0 ; Pen down
G1 X53.000 Y85.060 F1000
G1 X53.000 Y85.060 F1000
G1 X54.820 Y83.500 F1000
G1 X54.820 Y83.500 F1000
G1 X53.000 Y85.320 F1000
G0 Z3.0 ; Pen up

G0 X53.000 Y84.800 F3000 ; Travel to line 5
G0 Z0.0 ; Pen down
G1 X54.300 Y83.500 F1000
G1 X54.300 Y83.500 F1000
G1 X53.000 Y84.540 F1000
G0 Z3.0 ; Pen up

G0 X53.000 Y85.840 F3000 ; Travel to line 6
G0 Z0.0 ; Pen down
G1 X55.600 Y83.500 F1000
G1 X55.600 Y83.500 F1000
G1 X53.000 Y86.100 F1000
G1 X53.000 Y86.100 F1000
G1 X55.860 Y83.500 F1000
G0 Z3.0 ; Pen up

G0 X55.340 Y83.500 F3000 ; Travel to line 7
G0 Z0.0 ; Pen down
G1 X53.000 Y85.580 F1000
G1 X53.000 Y85.580 F1000
G1 X55.080 Y83.500 F1000
G0 Z3.0 ; Pen up

G0 X56.380 Y83.500 F3000 ; Travel to line 8
G0 Z0.0 ; Pen down
G1 X53.000 Y86.880 F1000
G1 X53.000 Y86.880 F1000
G1 X56.640 Y83.500 F1000
G0 Z3.0 ; Pen up

G0 X57.160 Y83.500 F3000 ; Travel to line 9
G0 Z0.0 ; Pen down
G1 X53.000 Y87.400 F1000
G1 X53.000 Y87.400 F1000
G1 X56.900 Y83.500 F1000
G1 X56.900 Y83.500 F1000
G1 X53.000 Y87.140 F1000
G0 Z3.0 ; Pen up

G0 X53.000 Y87.660 F3000 ; Travel to line 10
G0 Z0.0 ; Pen down
G1 X57.420 Y83.500 F1000
G1 X57.420 Y83.500 F1000
G1 X53.000 Y87.920 F1000
G0 Z3.0 ; Pen up

G0 X53.000 Y88.440 F3000 ; Travel to line 11
G0 Z0.0 ; Pen down
G1 X57.940 Y83.500 F1000
G1 X57.940 Y83.500 F1000
G1 X53.000 Y88.180 F1000
G1 X53.000 Y88.180 F1000
G1 X57.680 Y83.500 F1000
G0 Z3.0 ; Pen up

G0 X58.200 Y83.500 F3000 ; Travel to line 12
G0 Z0.0 ; Pen down
G1 X53.000 Y88.700 F1000
G1 X53.000 Y88.700 F1000
G1 X58.460 Y83.500 F1000
G0 Z3.0 ; Pen up

G0 X58.980 Y83.500 F3000 ; Travel to line 13
G0 Z0.0 ; Pen down
G1 X53.000 Y89.220 F1000
G0 Z3.0 ; Pen up

G0 X53.000 Y88.960 F3000 ; Travel to line 14
G0 Z0.0 ; Pen down
G1 X58.720 Y83.500 F1000
G1 X58.720 Y83.500 F1000
G1 X53.000 Y88.960 F1000
G0 Z3.0 ; Pen up

G0 X53.000 Y89.480 F3000 ; Travel to line 15
G0 Z0.0 ; Pen down
G1 X59.240 Y83.500 F1000
G1 X59.240 Y83.500 F1000
G1 X53.000 Y89.480 F1000
G0 Z3.0 ; Pen up

G0 X53.000 Y89.740 F3000 ; Travel to line 16
G0 Z0.0 ; Pen down
G1 X59.500 Y83.500 F1000
G0 Z3.0 ; Pen up

G0 X59.760 Y83.500 F3000 ; Travel to line 17
G0 Z0.0 ; Pen down
G1 X53.000 Y90.000 F1000
G0 Z3.0 ; Pen up

G0 X53.000 Y90.520 F3000 ; Travel to line 18
G0 Z0.0 ; Pen down
G1 X60.280 Y83.500 F1000
G1 X60.280 Y83.500 F1000
G1 X53.000 Y90.520 F1000
G0 Z3.0 ; Pen up

G0 X53.000 Y90.780 F3000 ; Travel to line 19
G0 Z0.0 ; Pen down
G1 X60.540 Y83.500 F1000
G0 Z3.0 ; Pen up

G0 X61.840 Y83.500 F3000 ; Travel to line 20
G0 Z0.0 ; Pen down
G1 X53.000 Y92.340 F1000
G0 Z3.0 ; Pen up

G0 X53.000 Y92.600 F3000 ; Travel to line 21
G0 Z0.0 ; Pen down
G1 X62.100 Y83.500 F1000
G0 Z3.0 ; Pen up

G0 X62.360 Y83.500 F3000 ; Travel to line 22
G0 Z0.0 ; Pen down
G1 X53.000 Y92.860 F1000
G0 Z3.0 ; Pen up

G0 X53.000 Y93.120 F3000 ; Travel to line 23
G0 Z0.0 ; Pen down
G1 X62.880 Y83.500 F1000
G1 X62.880 Y83.500 F1000
G1 X53.000 Y93.380 F1000
G0 Z3.0 ; Pen up

G0 X53.000 Y93.640 F3000 ; Travel to line 24
G0 Z0.0 ; Pen down
G1 X63.400 Y83.500 F1000
G1 X63.400 Y83.500 F1000
G1 X53.000 Y93.900 F1000
G1 X53.000 Y93.900 F1000
G1 X63.660 Y83.500 F1000
G0 Z3.0 ; Pen up

G0 X63.920 Y83.500 F3000 ; Travel to line 25
G0 Z0.0 ; Pen down
G1 X53.000 Y94.420 F1000
G0 Z3.0 ; Pen up

G0 X53.000 Y94.680 F3000 ; Travel to line 26
G0 Z0.0 ; Pen down
G1 X64.180 Y83.500 F1000
G0 Z3.0 ; Pen up

G0 X64.960 Y83.500 F3000 ; Travel to line 27
G0 Z0.0 ; Pen down
G1 X53.000 Y95.460 F1000
G0 Z3.0 ; Pen up

G0 X53.000 Y95.200 F3000 ; Travel to line 28
G0 Z0.0 ; Pen down
G1 X64.700 Y83.500 F1000
G1 X64.700 Y83.500 F1000
G1 X53.000 Y94.940 F1000
G0 Z3.0 ; Pen up

G0 X53.000 Y96.500 F3000 ; Travel to line 29
G0 Z0.0 ; Pen down
G1 X67.040 Y82.720 F1000
G1 X67.040 Y82.720 F1000
G1 X53.000 Y97.020 F1000
G0 Z3.0 ; Pen up

G0 X53.000 Y97.280 F3000 ; Travel to line 30
G0 Z0.0 ; Pen down
G1 X67.300 Y82.980 F1000
G0 Z3.0 ; Pen up

G0 X66.780 Y82.460 F3000 ; Travel to line 31
G0 Z0.0 ; Pen down
G1 X67.040 Y82.200 F1000
G0 Z3.0 ; Pen up

G0 X66.780 Y81.940 F3000 ; Travel to line 32
G0 Z0.0 ; Pen down
G1 X66.520 Y82.200 F1000
G0 Z3.0 ; Pen up

G0 X66.260 Y81.940 F3000 ; Travel to line 33
G0 Z0.0 ; Pen down
G1 X66.520 Y81.680 F1000
G1 X66.520 Y81.680 F1000
G1 X66.260 Y81.940 F1000
G0 Z3.0 ; Pen up

G0 X66.000 Y81.680 F3000 ; Travel to line 34
G0 Z0.0 ; Pen down
G1 X66.260 Y81.420 F1000
G1 X66.260 Y81.420 F1000
G1 X66.000 Y81.420 F1000
G0 Z3.0 ; Pen up

G0 X66.000 Y81.160 F3000 ; Travel to line 35
G0 Z0.0 ; Pen down
G1 X66.260 Y80.900 F1000
G1 X66.260 Y80.900 F1000
G1 X66.000 Y81.160 F1000
G0 Z3.0 ; Pen up

G0 X65.740 Y81.160 F3000 ; Travel to line 36
G0 Z0.0 ; Pen down
G1 X66.000 Y80.900 F1000
G0 Z3.0 ; Pen up

G0 X65.740 Y80.640 F3000 ; Travel to line 37
G0 Z0.0 ; Pen down
G1 X66.000 Y80.380 F1000
G1 X66.000 Y80.380 F1000
G1 X65.740 Y80.640 F1000
G0 Z3.0 ; Pen up

G0 X65.480 Y80.380 F3000 ; Travel to line 38
G0 Z0.0 ; Pen down
G1 X65.740 Y80.120 F1000
G1 X65.740 Y80.120 F1000
G1 X65.480 Y80.380 F1000
G0 Z3.0 ; Pen up

G0 X65.220 Y80.120 F3000 ; Travel to line 39
G0 Z0.0 ; Pen down
G1 X65.480 Y79.860 F1000
G0 Z3.0 ; Pen up

G0 X65.220 Y79.860 F3000 ; Travel to line 40
G0 Z0.0 ; Pen down
G1 X65.480 Y79.600 F1000
G0 Z3.0 ; Pen up

G0 X65.220 Y79.600 F3000 ; Travel to line 41
G0 Z0.0 ; Pen down
G1 X64.960 Y79.860 F1000
G0 Z3.0 ; Pen up

G0 X64.960 Y79.600 F3000 ; Travel to line 42
G0 Z0.0 ; Pen down
G1 X65.220 Y79.340 F1000
G0 Z3.0 ; Pen up

G0 X64.960 Y79.340 F3000 ; Travel to line 43
G0 Z0.0 ; Pen down
G1 X65.220 Y79.080 F1000
G0 Z3.0 ; Pen up

G0 X64.960 Y79.080 F3000 ; Travel to line 44
G0 Z0.0 ; Pen down
G1 X64.700 Y79.340 F1000
G0 Z3.0 ; Pen up

G0 X64.700 Y79.080 F3000 ; Travel to line 45
G0 Z0.0 ; Pen down
G1 X64.960 Y78.820 F1000
G0 Z3.0 ; Pen up

G0 X64.960 Y78.560 F3000 ; Travel to line 46
G0 Z0.0 ; Pen down
G1 X64.700 Y78.820 F1000
G0 Z3.0 ; Pen up

G0 X64.700 Y78.560 F3000 ; Travel to line 47
G0 Z0.0 ; Pen down
G1 X64.440 Y78.820 F1000
G0 Z3.0 ; Pen up

G0 X64.440 Y78.560 F3000 ; Travel to line 48
G0 Z0.0 ; Pen down
G1 X64.700 Y78.300 F1000
G1 X64.700 Y78.300 F1000
G1 X64.440 Y78.560 F1000
G0 Z3.0 ; Pen up

G0 X64.180 Y78.300 F3000 ; Travel to line 49
G0 Z0.0 ; Pen down
G1 X64.440 Y78.040 F1000
G1 X64.440 Y78.040 F1000
G1 X64.180 Y78.300 F1000
G0 Z3.0 ; Pen up

G0 X64.180 Y78.040 F3000 ; Travel to line 50
G0 Z0.0 ; Pen down
G1 X64.440 Y77.780 F1000
G0 Z3.0 ; Pen up

G0 X64.180 Y77.780 F3000 ; Travel to line 51
G0 Z0.0 ; Pen down
G1 X63.920 Y78.040 F1000
G0 Z3.0 ; Pen up

G0 X63.920 Y77.780 F3000 ; Travel to line 52
G0 Z0.0 ; Pen down
G1 X64.180 Y77.520 F1000
G1 X64.180 Y77.520 F1000
G1 X63.920 Y77.780 F1000
G0 Z3.0 ; Pen up

G0 X63.920 Y77.520 F3000 ; Travel to line 53
G0 Z0.0 ; Pen down
G1 X64.180 Y77.260 F1000
G0 Z3.0 ; Pen up

G0 X63.920 Y77.000 F3000 ; Travel to line 54
G0 Z0.0 ; Pen down
G1 X63.660 Y77.260 F1000
G0 Z3.0 ; Pen up

G0 X63.660 Y77.000 F3000 ; Travel to line 55
G0 Z0.0 ; Pen down
G1 X63.920 Y76.740 F1000
G1 X63.920 Y76.740 F1000
G1 X63.660 Y77.000 F1000
G0 Z3.0 ; Pen up

G0 X63.660 Y76.740 F3000 ; Travel to line 56
G0 Z0.0 ; Pen down
G1 X63.400 Y77.000 F1000
G0 Z3.0 ; Pen up

G0 X63.400 Y76.740 F3000 ; Travel to line 57
G0 Z0.0 ; Pen down
G1 X63.660 Y76.480 F1000
G0 Z3.0 ; Pen up

G0 X63.660 Y77.520 F3000 ; Travel to line 58
G0 Z0.0 ; Pen down
G1 X63.920 Y77.260 F1000
G1 X63.920 Y77.260 F1000
G1 X63.660 Y77.520 F1000
G0 Z3.0 ; Pen up

G0 X65.220 Y83.500 F3000 ; Travel to line 59
G0 Z0.0 ; Pen down
G1 X53.000 Y95.980 F1000
G1 X53.000 Y95.980 F1000
G1 X65.740 Y83.500 F1000
G0 Z3.0 ; Pen up

G0 X67.820 Y83.500 F3000 ; Travel to line 60
G0 Z0.0 ; Pen down
G1 X53.000 Y98.580 F1000
G1 X53.000 Y98.580 F1000
G1 X68.340 Y83.500 F1000
G0 Z3.0 ; Pen up

G0 X69.380 Y83.500 F3000 ; Travel to line 61
G0 Z0.0 ; Pen down
G1 X53.000 Y99.880 F1000
G0 Z3.0 ; Pen up

G0 X53.000 Y99.620 F3000 ; Travel to line 62
G0 Z0.0 ; Pen down
G1 X68.860 Y83.500 F1000
G1 X68.860 Y83.500 F1000
G1 X53.000 Y99.100 F1000
G0 Z3.0 ; Pen up

G0 X53.000 Y98.060 F3000 ; Travel to line 63
G0 Z0.0 ; Pen down
G1 X67.560 Y83.240 F1000
G1 X67.560 Y83.240 F1000
G1 X53.000 Y97.540 F1000
G0 Z3.0 ; Pen up

G0 X53.000 Y100.140 F3000 ; Travel to line 64
G0 Z0.0 ; Pen down
G1 X69.900 Y83.500 F1000
G1 X69.900 Y83.500 F1000
G1 X53.000 Y100.660 F1000
G0 Z3.0 ; Pen up

G0 X53.000 Y101.700 F3000 ; Travel to line 65
G0 Z0.0 ; Pen down
G1 X71.200 Y83.500 F1000
G0 Z3.0 ; Pen up

G0 X71.460 Y83.500 F3000 ; Travel to line 66
G0 Z0.0 ; Pen down
G1 X53.000 Y102.220 F1000
G1 X53.000 Y102.220 F1000
G1 X71.980 Y83.500 F1000
G0 Z3.0 ; Pen up

G0 X73.020 Y83.500 F3000 ; Travel to line 67
G0 Z0.0 ; Pen down
G1 X53.000 Y103.780 F1000
G1 X53.000 Y103.780 F1000
G1 X73.540 Y83.500 F1000
G0 Z3.0 ; Pen up

G0 X73.800 Y83.500 F3000 ; Travel to line 68
G0 Z0.0 ; Pen down
G1 X53.000 Y104.300 F1000
G0 Z3.0 ; Pen up

G0 X53.000 Y105.340 F3000 ; Travel to line 69
G0 Z0.0 ; Pen down
G1 X75.100 Y83.500 F1000
G1 X75.100 Y83.500 F1000
G1 X53.000 Y105.860 F1000
G0 Z3.0 ; Pen up

G0 X53.000 Y106.120 F3000 ; Travel to line 70
G0 Z0.0 ; Pen down
G1 X75.620 Y83.500 F1000
G0 Z3.0 ; Pen up

G0 X76.660 Y83.500 F3000 ; Travel to line 71
G0 Z0.0 ; Pen down
G1 X53.000 Y107.420 F1000
G1 X53.000 Y107.420 F1000
G1 X77.180 Y83.500 F1000
G0 Z3.0 ; Pen up

G0 X77.440 Y83.500 F3000 ; Travel to line 72
G0 Z0.0 ; Pen down
G1 X53.000 Y107.940 F1000
G0 Z3.0 ; Pen up

G0 X53.000 Y106.900 F3000 ; Travel to line 73
G0 Z0.0 ; Pen down
G1 X76.140 Y83.500 F1000
G1 X76.140 Y83.500 F1000
G1 X53.000 Y106.380 F1000
G0 Z3.0 ; Pen up

G0 X53.000 Y108.980 F3000 ; Travel to line 74
G0 Z0.0 ; Pen down
G1 X78.740 Y83.500 F1000
G1 X78.740 Y83.500 F1000
G1 X53.000 Y109.500 F1000
G0 Z3.0 ; Pen up

G0 X53.000 Y110.540 F3000 ; Travel to line 75
G0 Z0.0 ; Pen down
G1 X79.000 Y84.540 F1000
G0 Z3.0 ; Pen up

G0 X79.000 Y84.280 F3000 ; Travel to line 76
G0 Z0.0 ; Pen down
G1 X53.000 Y110.020 F1000
G1 X53.000 Y110.020 F1000
G1 X79.000 Y83.760 F1000
G0 Z3.0 ; Pen up

G0 X78.220 Y83.500 F3000 ; Travel to line 77
G0 Z0.0 ; Pen down
G1 X53.000 Y108.460 F1000
G1 X53.000 Y108.460 F1000
G1 X77.700 Y83.500 F1000
G0 Z3.0 ; Pen up

G0 X79.000 Y84.800 F3000 ; Travel to line 78
G0 Z0.0 ; Pen down
G1 X53.000 Y111.060 F1000
G1 X53.000 Y111.060 F1000
G1 X79.000 Y85.320 F1000
G0 Z3.0 ; Pen up

G0 X79.000 Y86.360 F3000 ; Travel to line 79
G0 Z0.0 ; Pen down
G1 X53.000 Y112.360 F1000
G0 Z3.0 ; Pen up

G0 X53.000 Y112.100 F3000 ; Travel to line 80
G0 Z0.0 ; Pen down
G1 X79.000 Y85.840 F1000
G1 X79.000 Y85.840 F1000
G1 X53.000 Y111.580 F1000
G0 Z3.0 ; Pen up

G0 X53.000 Y112.620 F3000 ; Travel to line 81
G0 Z0.0 ; Pen down
G1 X79.000 Y86.880 F1000
G1 X79.000 Y86.880 F1000
G1 X53.000 Y113.140 F1000
G0 Z3.0 ; Pen up

G0 X53.000 Y114.180 F3000 ; Travel to line 82
G0 Z0.0 ; Pen down
G1 X79.000 Y88.440 F1000
G1 X79.000 Y88.440 F1000
G1 X53.000 Y114.700 F1000
G0 Z3.0 ; Pen up

G0 X53.000 Y114.960 F3000 ; Travel to line 83
G0 Z0.0 ; Pen down
G1 X79.000 Y88.960 F1000
G0 Z3.0 ; Pen up

G0 X79.000 Y90.000 F3000 ; Travel to line 84
G0 Z0.0 ; Pen down
G1 X53.000 Y116.260 F1000
G1 X53.000 Y116.260 F1000
G1 X79.000 Y90.520 F1000
G0 Z3.0 ; Pen up

G0 X79.000 Y90.780 F3000 ; Travel to line 85
G0 Z0.0 ; Pen down
G1 X53.000 Y116.780 F1000
G0 Z3.0 ; Pen up

G0 X53.000 Y115.740 F3000 ; Travel to line 86
G0 Z0.0 ; Pen down
G1 X79.000 Y89.480 F1000
G1 X79.000 Y89.480 F1000
G1 X53.000 Y115.220 F1000
G0 Z3.0 ; Pen up

G0 X53.000 Y117.820 F3000 ; Travel to line 87
G0 Z0.0 ; Pen down
G1 X79.000 Y92.080 F1000
G1 X79.000 Y92.080 F1000
G1 X53.000 Y118.340 F1000
G0 Z3.0 ; Pen up

G0 X53.000 Y119.380 F3000 ; Travel to line 88
G0 Z0.0 ; Pen down
G1 X79.000 Y93.120 F1000
G1 X79.000 Y93.120 F1000
G1 X53.000 Y118.860 F1000
G1 X53.000 Y118.860 F1000
G1 X79.000 Y92.600 F1000
G0 Z3.0 ; Pen up

G0 X79.000 Y91.560 F3000 ; Travel to line 89
G0 Z0.0 ; Pen down
G1 X53.000 Y117.300 F1000
G1 X53.000 Y117.300 F1000
G1 X79.000 Y91.040 F1000
G0 Z3.0 ; Pen up

G0 X79.000 Y93.640 F3000 ; Travel to line 90
G0 Z0.0 ; Pen down
G1 X53.000 Y119.900 F1000
G1 X53.000 Y119.900 F1000
G1 X79.000 Y94.160 F1000
G0 Z3.0 ; Pen up

G0 X79.000 Y95.200 F3000 ; Travel to line 91
G0 Z0.0 ; Pen down
G1 X53.000 Y121.200 F1000
G0 Z3.0 ; Pen up

G0 X53.000 Y121.460 F3000 ; Travel to line 92
G0 Z0.0 ; Pen down
G1 X79.000 Y95.720 F1000
G1 X79.000 Y95.720 F1000
G1 X53.000 Y121.980 F1000
G0 Z3.0 ; Pen up

G0 X53.000 Y123.020 F3000 ; Travel to line 93
G0 Z0.0 ; Pen down
G1 X79.000 Y97.020 F1000
G0 Z3.0 ; Pen up

G0 X79.000 Y97.280 F3000 ; Travel to line 94
G0 Z0.0 ; Pen down
G1 X53.000 Y123.540 F1000
G1 X53.000 Y123.540 F1000
G1 X79.000 Y97.800 F1000
G0 Z3.0 ; Pen up

G0 X79.000 Y98.840 F3000 ; Travel to line 95
G0 Z0.0 ; Pen down
G1 X53.000 Y125.100 F1000
G1 X53.000 Y125.100 F1000
G1 X79.000 Y99.360 F1000
G0 Z3.0 ; Pen up

G0 X79.000 Y99.620 F3000 ; Travel to line 96
G0 Z0.0 ; Pen down
G1 X53.000 Y125.620 F1000
G0 Z3.0 ; Pen up

G0 X53.000 Y126.660 F3000 ; Travel to line 97
G0 Z0.0 ; Pen down
G1 X79.000 Y100.920 F1000
G1 X79.000 Y100.920 F1000
G1 X53.000 Y127.180 F1000
G0 Z3.0 ; Pen up

G0 X53.000 Y127.440 F3000 ; Travel to line 98
G0 Z0.0 ; Pen down
G1 X79.000 Y101.440 F1000
G0 Z3.0 ; Pen up

G0 X79.000 Y100.400 F3000 ; Travel to line 99
G0 Z0.0 ; Pen down
G1 X53.000 Y126.140 F1000
G1 X53.000 Y126.140 F1000
G1 X79.000 Y99.880 F1000
G0 Z3.0 ; Pen up

G0 X79.000 Y102.480 F3000 ; Travel to line 100
G0 Z0.0 ; Pen down
G1 X53.000 Y128.740 F1000
G1 X53.000 Y128.740 F1000
G1 X79.000 Y103.000 F1000
G0 Z3.0 ; Pen up

G0 X79.000 Y104.040 F3000 ; Travel to line 101
G0 Z0.0 ; Pen down
G1 X53.000 Y130.040 F1000
G0 Z3.0 ; Pen up

G0 X53.000 Y130.300 F3000 ; Travel to line 102
G0 Z0.0 ; Pen down
G1 X79.000 Y104.560 F1000
G1 X79.000 Y104.560 F1000
G1 X53.000 Y130.820 F1000
G0 Z3.0 ; Pen up

G0 X53.000 Y129.780 F3000 ; Travel to line 103
G0 Z0.0 ; Pen down
G1 X79.000 Y103.520 F1000
G1 X79.000 Y103.520 F1000
G1 X53.000 Y129.260 F1000
G0 Z3.0 ; Pen up

G0 X53.000 Y128.220 F3000 ; Travel to line 104
G0 Z0.0 ; Pen down
G1 X79.000 Y101.960 F1000
G1 X79.000 Y101.960 F1000
G1 X53.000 Y127.700 F1000
G1 X53.000 Y127.700 F1000
G1 X53.000 Y135.500 F1000
G1 X53.000 Y135.500 F1000
G1 X60.800 Y135.500 F1000
G1 X60.800 Y135.500 F1000
G1 X79.000 Y117.040 F1000
G1 X79.000 Y117.040 F1000
G1 X60.280 Y135.500 F1000
G0 Z3.0 ; Pen up

G0 X60.020 Y135.500 F3000 ; Travel to line 105
G0 Z0.0 ; Pen down
G1 X79.000 Y116.520 F1000
G0 Z3.0 ; Pen up

G0 X79.000 Y115.480 F3000 ; Travel to line 106
G0 Z0.0 ; Pen down
G1 X58.720 Y135.500 F1000
G1 X58.720 Y135.500 F1000
G1 X79.000 Y114.960 F1000
G0 Z3.0 ; Pen up

G0 X79.000 Y114.700 F3000 ; Travel to line 107
G0 Z0.0 ; Pen down
G1 X58.200 Y135.500 F1000
G0 Z3.0 ; Pen up

G0 X59.240 Y135.500 F3000 ; Travel to line 108
G0 Z0.0 ; Pen down
G1 X79.000 Y116.000 F1000
G1 X79.000 Y116.000 F1000
G1 X59.760 Y135.500 F1000
G0 Z3.0 ; Pen up

G0 X61.840 Y135.500 F3000 ; Travel to line 109
G0 Z0.0 ; Pen down
G1 X79.000 Y118.600 F1000
G1 X79.000 Y118.600 F1000
G1 X62.360 Y135.500 F1000
G1 X62.360 Y135.500 F1000
G1 X79.000 Y118.860 F1000
G0 Z3.0 ; Pen up

G0 X79.000 Y119.380 F3000 ; Travel to line 110
G0 Z0.0 ; Pen down
G1 X62.880 Y135.500 F1000
G0 Z3.0 ; Pen up

G0 X63.400 Y135.500 F3000 ; Travel to line 111
G0 Z0.0 ; Pen down
G1 X79.000 Y119.900 F1000
G0 Z3.0 ; Pen up

G0 X79.000 Y120.940 F3000 ; Travel to line 112
G0 Z0.0 ; Pen down
G1 X64.440 Y135.500 F1000
G0 Z3.0 ; Pen up

G0 X63.920 Y135.500 F3000 ; Travel to line 113
G0 Z0.0 ; Pen down
G1 X79.000 Y120.420 F1000
G1 X79.000 Y120.420 F1000
G1 X63.920 Y135.500 F1000
G0 Z3.0 ; Pen up

G0 X64.960 Y135.500 F3000 ; Travel to line 114
G0 Z0.0 ; Pen down
G1 X79.000 Y121.460 F1000
G1 X79.000 Y121.460 F1000
G1 X64.960 Y135.500 F1000
G0 Z3.0 ; Pen up

G0 X65.480 Y135.500 F3000 ; Travel to line 115
G0 Z0.0 ; Pen down
G1 X79.000 Y121.980 F1000
G0 Z3.0 ; Pen up

G0 X79.000 Y122.500 F3000 ; Travel to line 116
G0 Z0.0 ; Pen down
G1 X66.000 Y135.500 F1000
G0 Z3.0 ; Pen up

G0 X66.260 Y135.500 F3000 ; Travel to line 117
G0 Z0.0 ; Pen down
G1 X79.000 Y122.760 F1000
G0 Z3.0 ; Pen up

G0 X79.000 Y123.020 F3000 ; Travel to line 118
G0 Z0.0 ; Pen down
G1 X66.520 Y135.500 F1000
G0 Z3.0 ; Pen up

G0 X67.040 Y135.500 F3000 ; Travel to line 119
G0 Z0.0 ; Pen down
G1 X79.000 Y123.540 F1000
G0 Z3.0 ; Pen up

G0 X79.000 Y124.580 F3000 ; Travel to line 120
G0 Z0.0 ; Pen down
G1 X68.080 Y135.500 F1000
G0 Z3.0 ; Pen up

G0 X67.560 Y135.500 F3000 ; Travel to line 121
G0 Z0.0 ; Pen down
G1 X79.000 Y124.060 F1000
G1 X79.000 Y124.060 F1000
G1 X67.560 Y135.500 F1000
G0 Z3.0 ; Pen up

G0 X68.600 Y135.500 F3000 ; Travel to line 122
G0 Z0.0 ; Pen down
G1 X79.000 Y125.100 F1000
G0 Z3.0 ; Pen up

G0 X79.000 Y125.360 F3000 ; Travel to line 123
G0 Z0.0 ; Pen down
G1 X68.860 Y135.500 F1000
G0 Z3.0 ; Pen up

G0 X69.120 Y135.500 F3000 ; Travel to line 124
G0 Z0.0 ; Pen down
G1 X79.000 Y125.620 F1000
G0 Z3.0 ; Pen up

G0 X79.000 Y126.140 F3000 ; Travel to line 125
G0 Z0.0 ; Pen down
G1 X69.640 Y135.500 F1000
G0 Z3.0 ; Pen up

G0 X70.160 Y135.500 F3000 ; Travel to line 126
G0 Z0.0 ; Pen down
G1 X79.000 Y126.660 F1000
G1 X79.000 Y126.660 F1000
G1 X70.160 Y135.500 F1000
G0 Z3.0 ; Pen up

G0 X70.680 Y135.500 F3000 ; Travel to line 127
G0 Z0.0 ; Pen down
G1 X79.000 Y127.180 F1000
G0 Z3.0 ; Pen up

G0 X79.000 Y127.700 F3000 ; Travel to line 128
G0 Z0.0 ; Pen down
G1 X79.000 Y135.500 F1000
G1 X79.000 Y135.500 F1000
G1 X71.200 Y135.500 F1000
G1 X71.200 Y135.500 F1000
G1 X79.000 Y127.700 F1000
G1 X79.000 Y127.700 F1000
G1 X71.200 Y135.500 F1000
G0 Z3.0 ; Pen up

G0 X71.720 Y135.500 F3000 ; Travel to line 129
G0 Z0.0 ; Pen down
G1 X79.000 Y128.220 F1000
G0 Z3.0 ; Pen up

G0 X79.000 Y128.740 F3000 ; Travel to line 130
G0 Z0.0 ; Pen down
G1 X72.240 Y135.500 F1000
G0 Z3.0 ; Pen up

G0 X72.760 Y135.500 F3000 ; Travel to line 131
G0 Z0.0 ; Pen down
G1 X79.000 Y129.260 F1000
G1 X79.000 Y129.260 F1000
G1 X72.760 Y135.500 F1000
G0 Z3.0 ; Pen up

G0 X73.280 Y135.500 F3000 ; Travel to line 132
G0 Z0.0 ; Pen down
G1 X79.000 Y129.780 F1000
G0 Z3.0 ; Pen up

G0 X79.000 Y130.820 F3000 ; Travel to line 133
G0 Z0.0 ; Pen down
G1 X74.320 Y135.500 F1000
G0 Z3.0 ; Pen up

G0 X74.840 Y135.500 F3000 ; Travel to line 134
G0 Z0.0 ; Pen down
G1 X79.000 Y131.340 F1000
G0 Z3.0 ; Pen up

G0 X79.000 Y131.600 F3000 ; Travel to line 135
G0 Z0.0 ; Pen down
G1 X75.100 Y135.500 F1000
G0 Z3.0 ; Pen up

G0 X75.360 Y135.500 F3000 ; Travel to line 136
G0 Z0.0 ; Pen down
G1 X79.000 Y131.860 F1000
G0 Z3.0 ; Pen up

G0 X79.000 Y132.380 F3000 ; Travel to line 137
G0 Z0.0 ; Pen down
G1 X75.880 Y135.500 F1000
G0 Z3.0 ; Pen up

G0 X76.400 Y135.500 F3000 ; Travel to line 138
G0 Z0.0 ; Pen down
G1 X79.000 Y132.900 F1000
G1 X79.000 Y132.900 F1000
G1 X76.400 Y135.500 F1000
G0 Z3.0 ; Pen up

G0 X76.920 Y135.500 F3000 ; Travel to line 139
G0 Z0.0 ; Pen down
G1 X79.000 Y133.420 F1000
G0 Z3.0 ; Pen up

G0 X79.000 Y134.460 F3000 ; Travel to line 140
G0 Z0.0 ; Pen down
G1 X77.960 Y135.500 F1000
G0 Z3.0 ; Pen up

G0 X78.480 Y135.500 F3000 ; Travel to line 141
G0 Z0.0 ; Pen down
G1 X79.000 Y134.980 F1000
G0 Z3.0 ; Pen up

G0 X77.440 Y135.500 F3000 ; Travel to line 142
G0 Z0.0 ; Pen down
G1 X79.000 Y133.940 F1000
G1 X79.000 Y133.940 F1000
G1 X77.440 Y135.500 F1000
G0 Z3.0 ; Pen up

G0 X73.800 Y135.500 F3000 ; Travel to line 143
G0 Z0.0 ; Pen down
G1 X79.000 Y130.300 F1000
G1 X79.000 Y130.300 F1000
G1 X73.800 Y135.500 F1000
G0 Z3.0 ; Pen up

G0 X73.280 Y148.500 F3000 ; Travel to line 144
G0 Z0.0 ; Pen down
G1 X68.860 Y153.180 F1000
G0 Z3.0 ; Pen up

G0 X68.860 Y153.440 F3000 ; Travel to line 145
G0 Z0.0 ; Pen down
G1 X73.800 Y148.500 F1000
G1 X73.800 Y148.500 F1000
G1 X66.000 Y148.500 F1000
G0 Z3.0 ; Pen up

G0 X66.260 Y148.760 F3000 ; Travel to line 146
G0 Z0.0 ; Pen down
G1 X66.520 Y148.500 F1000
G1 X66.520 Y148.500 F1000
G1 X66.260 Y148.760 F1000
G0 Z3.0 ; Pen up

G0 X66.520 Y149.020 F3000 ; Travel to line 147
G0 Z0.0 ; Pen down
G1 X67.040 Y148.500 F1000
G0 Z3.0 ; Pen up

G0 X67.300 Y148.500 F3000 ; Travel to line 148
G0 Z0.0 ; Pen down
G1 X66.520 Y149.280 F1000
G0 Z3.0 ; Pen up

G0 X66.520 Y149.540 F3000 ; Travel to line 149
G0 Z0.0 ; Pen down
G1 X67.560 Y148.500 F1000
G0 Z3.0 ; Pen up

G0 X67.820 Y148.500 F3000 ; Travel to line 150
G0 Z0.0 ; Pen down
G1 X66.780 Y149.540 F1000
G0 Z3.0 ; Pen up

G0 X66.780 Y149.800 F3000 ; Travel to line 151
G0 Z0.0 ; Pen down
G1 X68.080 Y148.500 F1000
G0 Z3.0 ; Pen up

G0 X68.860 Y148.500 F3000 ; Travel to line 152
G0 Z0.0 ; Pen down
G1 X67.040 Y150.320 F1000
G0 Z3.0 ; Pen up

G0 X67.040 Y150.060 F3000 ; Travel to line 153
G0 Z0.0 ; Pen down
G1 X68.340 Y148.500 F1000
G1 X68.340 Y148.500 F1000
G1 X67.040 Y149.800 F1000
G0 Z3.0 ; Pen up

G0 X67.300 Y150.580 F3000 ; Travel to line 154
G0 Z0.0 ; Pen down
G1 X69.120 Y148.500 F1000
G0 Z3.0 ; Pen up

G0 X69.380 Y148.500 F3000 ; Travel to line 155
G0 Z0.0 ; Pen down
G1 X67.300 Y150.840 F1000
G1 X67.300 Y150.840 F1000
G1 X69.640 Y148.500 F1000
G0 Z3.0 ; Pen up

G0 X69.900 Y148.500 F3000 ; Travel to line 156
G0 Z0.0 ; Pen down
G1 X67.560 Y151.100 F1000
G0 Z3.0 ; Pen up

G0 X67.820 Y151.360 F3000 ; Travel to line 157
G0 Z0.0 ; Pen down
G1 X70.680 Y148.500 F1000
G0 Z3.0 ; Pen up

G0 X70.420 Y148.500 F3000 ; Travel to line 158
G0 Z0.0 ; Pen down
G1 X67.820 Y151.100 F1000
G1 X67.820 Y151.100 F1000
G1 X70.160 Y148.500 F1000
G0 Z3.0 ; Pen up

G0 X71.460 Y148.500 F3000 ; Travel to line 159
G0 Z0.0 ; Pen down
G1 X68.080 Y151.880 F1000
G0 Z3.0 ; Pen up

G0 X68.080 Y151.620 F3000 ; Travel to line 160
G0 Z0.0 ; Pen down
G1 X70.940 Y148.500 F1000
G1 X70.940 Y148.500 F1000
G1 X68.080 Y151.620 F1000
G0 Z3.0 ; Pen up

G0 X68.340 Y152.140 F3000 ; Travel to line 161
G0 Z0.0 ; Pen down
G1 X71.720 Y148.500 F1000
G0 Z3.0 ; Pen up

G0 X71.980 Y148.500 F3000 ; Travel to line 162
G0 Z0.0 ; Pen down
G1 X68.340 Y152.400 F1000
G1 X68.340 Y152.400 F1000
G1 X72.240 Y148.500 F1000
G0 Z3.0 ; Pen up

G0 X72.500 Y148.500 F3000 ; Travel to line 163
G0 Z0.0 ; Pen down
G1 X68.600 Y152.660 F1000
G0 Z3.0 ; Pen up

G0 X69.120 Y153.440 F3000 ; Travel to line 164
G0 Z0.0 ; Pen down
G1 X74.060 Y148.500 F1000
G1 X74.060 Y148.500 F1000
G1 X69.120 Y153.700 F1000
G0 Z3.0 ; Pen up

G0 X69.380 Y153.700 F3000 ; Travel to line 165
G0 Z0.0 ; Pen down
G1 X74.580 Y148.500 F1000
G1 X74.580 Y148.500 F1000
G1 X69.380 Y153.960 F1000
G0 Z3.0 ; Pen up

G0 X69.380 Y154.220 F3000 ; Travel to line 166
G0 Z0.0 ; Pen down
G1 X74.840 Y148.500 F1000
G0 Z3.0 ; Pen up

G0 X75.100 Y148.500 F3000 ; Travel to line 167
G0 Z0.0 ; Pen down
G1 X69.640 Y154.220 F1000
G0 Z3.0 ; Pen up

G0 X69.640 Y154.480 F3000 ; Travel to line 168
G0 Z0.0 ; Pen down
G1 X75.620 Y148.500 F1000
G1 X75.620 Y148.500 F1000
G1 X69.640 Y154.480 F1000
G0 Z3.0 ; Pen up

G0 X69.900 Y154.740 F3000 ; Travel to line 169
G0 Z0.0 ; Pen down
G1 X75.880 Y148.500 F1000
G0 Z3.0 ; Pen up

G0 X76.400 Y148.500 F3000 ; Travel to line 170
G0 Z0.0 ; Pen down
G1 X69.900 Y155.000 F1000
G0 Z3.0 ; Pen up

G0 X70.160 Y155.000 F3000 ; Travel to line 171
G0 Z0.0 ; Pen down
G1 X76.660 Y148.500 F1000
G1 X76.660 Y148.500 F1000
G1 X70.160 Y155.260 F1000
G0 Z3.0 ; Pen up

G0 X70.160 Y155.520 F3000 ; Travel to line 172
G0 Z0.0 ; Pen down
G1 X77.180 Y148.500 F1000
G0 Z3.0 ; Pen up

G0 X77.960 Y148.500 F3000 ; Travel to line 173
G0 Z0.0 ; Pen down
G1 X70.420 Y156.040 F1000
G0 Z3.0 ; Pen up

G0 X70.420 Y155.780 F3000 ; Travel to line 174
G0 Z0.0 ; Pen down
G1 X77.440 Y148.500 F1000
G1 X77.440 Y148.500 F1000
G1 X70.420 Y155.520 F1000
G0 Z3.0 ; Pen up

G0 X70.680 Y156.300 F3000 ; Travel to line 175
G0 Z0.0 ; Pen down
G1 X78.220 Y148.500 F1000
G0 Z3.0 ; Pen up

G0 X78.480 Y148.500 F3000 ; Travel to line 176
G0 Z0.0 ; Pen down
G1 X70.940 Y156.300 F1000
G1 X70.940 Y156.300 F1000
G1 X78.740 Y148.500 F1000
G0 Z3.0 ; Pen up

G0 X79.000 Y148.500 F3000 ; Travel to line 177
G0 Z0.0 ; Pen down
G1 X70.940 Y156.820 F1000
G0 Z3.0 ; Pen up

G0 X71.200 Y157.340 F3000 ; Travel to line 178
G0 Z0.0 ; Pen down
G1 X79.780 Y148.500 F1000
G0 Z3.0 ; Pen up

G0 X79.520 Y148.500 F3000 ; Travel to line 179
G0 Z0.0 ; Pen down
G1 X71.200 Y156.820 F1000
G1 X71.200 Y156.820 F1000
G1 X79.260 Y148.500 F1000
G0 Z3.0 ; Pen up

G0 X80.300 Y148.500 F3000 ; Travel to line 180
G0 Z0.0 ; Pen down
G1 X71.460 Y157.340 F1000
G0 Z3.0 ; Pen up

G0 X71.460 Y157.600 F3000 ; Travel to line 181
G0 Z0.0 ; Pen down
G1 X80.560 Y148.500 F1000
G0 Z3.0 ; Pen up

G0 X80.820 Y148.500 F3000 ; Travel to line 182
G0 Z0.0 ; Pen down
G1 X71.720 Y157.600 F1000
G0 Z3.0 ; Pen up

G0 X71.720 Y158.120 F3000 ; Travel to line 183
G0 Z0.0 ; Pen down
G1 X81.340 Y148.500 F1000
G0 Z3.0 ; Pen up

G0 X81.600 Y148.500 F3000 ; Travel to line 184
G0 Z0.0 ; Pen down
G1 X71.980 Y158.120 F1000
G0 Z3.0 ; Pen up

G0 X71.980 Y158.380 F3000 ; Travel to line 185
G0 Z0.0 ; Pen down
G1 X81.860 Y148.500 F1000
G0 Z3.0 ; Pen up

G0 X82.380 Y148.500 F3000 ; Travel to line 186
G0 Z0.0 ; Pen down
G1 X72.240 Y158.640 F1000
G0 Z3.0 ; Pen up

G0 X72.500 Y158.900 F3000 ; Travel to line 187
G0 Z0.0 ; Pen down
G1 X82.900 Y148.500 F1000
G1 X82.900 Y148.500 F1000
G1 X72.500 Y158.900 F1000
G0 Z3.0 ; Pen up

G0 X72.500 Y159.420 F3000 ; Travel to line 188
G0 Z0.0 ; Pen down
G1 X83.420 Y148.500 F1000
G0 Z3.0 ; Pen up

G0 X83.940 Y148.500 F3000 ; Travel to line 189
G0 Z0.0 ; Pen down
G1 X72.760 Y159.680 F1000
G0 Z3.0 ; Pen up

G0 X72.760 Y159.940 F3000 ; Travel to line 190
G0 Z0.0 ; Pen down
G1 X84.200 Y148.500 F1000
G0 Z3.0 ; Pen up

G0 X84.460 Y148.500 F3000 ; Travel to line 191
G0 Z0.0 ; Pen down
G1 X73.020 Y159.940 F1000
G0 Z3.0 ; Pen up

G0 X73.280 Y160.200 F3000 ; Travel to line 192
G0 Z0.0 ; Pen down
G1 X84.980 Y148.500 F1000
G0 Z3.0 ; Pen up

G0 X85.240 Y148.500 F3000 ; Travel to line 193
G0 Z0.0 ; Pen down
G1 X73.280 Y160.460 F1000
G0 Z3.0 ; Pen up

G0 X73.280 Y160.720 F3000 ; Travel to line 194
G0 Z0.0 ; Pen down
G1 X85.500 Y148.500 F1000
G0 Z3.0 ; Pen up

G0 X86.020 Y148.500 F3000 ; Travel to line 195
G0 Z0.0 ; Pen down
G1 X73.540 Y160.980 F1000
G0 Z3.0 ; Pen up

G0 X73.800 Y161.240 F3000 ; Travel to line 196
G0 Z0.0 ; Pen down
G1 X86.540 Y148.500 F1000
G0 Z3.0 ; Pen up

G0 X86.800 Y148.500 F3000 ; Travel to line 197
G0 Z0.0 ; Pen down
G1 X73.800 Y161.500 F1000
G0 Z3.0 ; Pen up

G0 X74.060 Y161.500 F3000 ; Travel to line 198
G0 Z0.0 ; Pen down
G1 X87.060 Y148.500 F1000
G0 Z3.0 ; Pen up

G0 X87.580 Y148.500 F3000 ; Travel to line 199
G0 Z0.0 ; Pen down
G1 X74.060 Y162.020 F1000
G0 Z3.0 ; Pen up

G0 X74.320 Y162.020 F3000 ; Travel to line 200
G0 Z0.0 ; Pen down
G1 X87.840 Y148.500 F1000
G0 Z3.0 ; Pen up

G0 X88.100 Y148.500 F3000 ; Travel to line 201
G0 Z0.0 ; Pen down
G1 X74.320 Y162.280 F1000
G0 Z3.0 ; Pen up

G0 X74.580 Y162.540 F3000 ; Travel to line 202
G0 Z0.0 ; Pen down
G1 X88.620 Y148.500 F1000
G0 Z3.0 ; Pen up

G0 X89.660 Y148.500 F3000 ; Travel to line 203
G0 Z0.0 ; Pen down
G1 X74.840 Y163.320 F1000
G0 Z3.0 ; Pen up

G0 X75.100 Y163.580 F3000 ; Travel to line 204
G0 Z0.0 ; Pen down
G1 X90.180 Y148.500 F1000
G0 Z3.0 ; Pen up

G0 X90.440 Y148.500 F3000 ; Travel to line 205
G0 Z0.0 ; Pen down
G1 X75.100 Y163.840 F1000
G0 Z3.0 ; Pen up

G0 X75.360 Y163.840 F3000 ; Travel to line 206
G0 Z0.0 ; Pen down
G1 X90.700 Y148.500 F1000
G0 Z3.0 ; Pen up

G0 X91.220 Y148.500 F3000 ; Travel to line 207
G0 Z0.0 ; Pen down
G1 X75.620 Y164.100 F1000
G0 Z3.0 ; Pen up

G0 X75.620 Y164.360 F3000 ; Travel to line 208
G0 Z0.0 ; Pen down
G1 X91.480 Y148.500 F1000
G0 Z3.0 ; Pen up

G0 X91.740 Y148.500 F3000 ; Travel to line 209
G0 Z0.0 ; Pen down
G1 X75.620 Y164.620 F1000
G0 Z3.0 ; Pen up

G0 X75.880 Y164.880 F3000 ; Travel to line 210
G0 Z0.0 ; Pen down
G1 X92.260 Y148.500 F1000
G0 Z3.0 ; Pen up

G0 X92.780 Y148.500 F3000 ; Travel to line 211
G0 Z0.0 ; Pen down
G1 X76.140 Y165.140 F1000
G0 Z3.0 ; Pen up

G0 X76.140 Y165.400 F3000 ; Travel to line 212
G0 Z0.0 ; Pen down
G1 X93.040 Y148.500 F1000
G0 Z3.0 ; Pen up

G0 X93.300 Y148.500 F3000 ; Travel to line 213
G0 Z0.0 ; Pen down
G1 X76.400 Y165.400 F1000
G0 Z3.0 ; Pen up

G0 X76.400 Y165.920 F3000 ; Travel to line 214
G0 Z0.0 ; Pen down
G1 X93.820 Y148.500 F1000
G0 Z3.0 ; Pen up

G0 X94.080 Y148.500 F3000 ; Travel to line 215
G0 Z0.0 ; Pen down
G1 X76.660 Y165.920 F1000
G0 Z3.0 ; Pen up

G0 X76.660 Y166.180 F3000 ; Travel to line 216
G0 Z0.0 ; Pen down
G1 X94.340 Y148.500 F1000
G0 Z3.0 ; Pen up

G0 X94.860 Y148.500 F3000 ; Travel to line 217
G0 Z0.0 ; Pen down
G1 X76.920 Y166.440 F1000
G0 Z3.0 ; Pen up

G0 X77.180 Y166.700 F3000 ; Travel to line 218
G0 Z0.0 ; Pen down
G1 X95.380 Y148.500 F1000
G0 Z3.0 ; Pen up

G0 X95.640 Y148.500 F3000 ; Travel to line 219
G0 Z0.0 ; Pen down
G1 X77.180 Y166.960 F1000
G0 Z3.0 ; Pen up

G0 X77.180 Y167.220 F3000 ; Travel to line 220
G0 Z0.0 ; Pen down
G1 X95.900 Y148.500 F1000
G0 Z3.0 ; Pen up

G0 X96.420 Y148.500 F3000 ; Travel to line 221
G0 Z0.0 ; Pen down
G1 X77.440 Y167.480 F1000
G0 Z3.0 ; Pen up

G0 X77.440 Y167.740 F3000 ; Travel to line 222
G0 Z0.0 ; Pen down
G1 X96.680 Y148.500 F1000
G0 Z3.0 ; Pen up

G0 X96.940 Y148.500 F3000 ; Travel to line 223
G0 Z0.0 ; Pen down
G1 X77.700 Y167.740 F1000
G0 Z3.0 ; Pen up

G0 X77.960 Y168.000 F3000 ; Travel to line 224
G0 Z0.0 ; Pen down
G1 X97.460 Y148.500 F1000
G0 Z3.0 ; Pen up

G0 X98.500 Y148.500 F3000 ; Travel to line 225
G0 Z0.0 ; Pen down
G1 X78.220 Y168.780 F1000
G0 Z3.0 ; Pen up

G0 X77.960 Y168.520 F3000 ; Travel to line 226
G0 Z0.0 ; Pen down
G1 X97.980 Y148.500 F1000
G1 X97.980 Y148.500 F1000
G1 X77.960 Y168.520 F1000
G0 Z3.0 ; Pen up

G0 X78.480 Y169.040 F3000 ; Travel to line 227
G0 Z0.0 ; Pen down
G1 X99.020 Y148.500 F1000
G0 Z3.0 ; Pen up

G0 X99.280 Y148.500 F3000 ; Travel to line 228
G0 Z0.0 ; Pen down
G1 X78.480 Y169.300 F1000
G0 Z3.0 ; Pen up

G0 X78.740 Y169.300 F3000 ; Travel to line 229
G0 Z0.0 ; Pen down
G1 X99.540 Y148.500 F1000
G0 Z3.0 ; Pen up

G0 X100.060 Y148.500 F3000 ; Travel to line 230
G0 Z0.0 ; Pen down
G1 X78.740 Y169.820 F1000
G0 Z3.0 ; Pen up

G0 X79.000 Y169.820 F3000 ; Travel to line 231
G0 Z0.0 ; Pen down
G1 X100.320 Y148.500 F1000
G0 Z3.0 ; Pen up

G0 X100.580 Y148.500 F3000 ; Travel to line 232
G0 Z0.0 ; Pen down
G1 X79.000 Y170.080 F1000
G0 Z3.0 ; Pen up

G0 X79.260 Y170.340 F3000 ; Travel to line 233
G0 Z0.0 ; Pen down
G1 X101.100 Y148.500 F1000
G0 Z3.0 ; Pen up

G0 X101.620 Y148.500 F3000 ; Travel to line 234
G0 Z0.0 ; Pen down
G1 X79.520 Y170.600 F1000
G0 Z3.0 ; Pen up

G0 X79.520 Y170.860 F3000 ; Travel to line 235
G0 Z0.0 ; Pen down
G1 X101.880 Y148.500 F1000
G0 Z3.0 ; Pen up

G0 X102.140 Y148.500 F3000 ; Travel to line 236
G0 Z0.0 ; Pen down
G1 X79.520 Y171.120 F1000
G0 Z3.0 ; Pen up

G0 X79.780 Y171.380 F3000 ; Travel to line 237
G0 Z0.0 ; Pen down
G1 X102.660 Y148.500 F1000
G0 Z3.0 ; Pen up

G0 X102.920 Y148.500 F3000 ; Travel to line 238
G0 Z0.0 ; Pen down
G1 X79.780 Y171.640 F1000
G0 Z3.0 ; Pen up

G0 X80.040 Y171.640 F3000 ; Travel to line 239
G0 Z0.0 ; Pen down
G1 X103.180 Y148.500 F1000
G0 Z3.0 ; Pen up

G0 X103.700 Y148.500 F3000 ; Travel to line 240
G0 Z0.0 ; Pen down
G1 X80.300 Y171.900 F1000
G0 Z3.0 ; Pen up

G0 X80.300 Y172.420 F3000 ; Travel to line 241
G0 Z0.0 ; Pen down
G1 X104.220 Y148.500 F1000
G1 X104.220 Y148.500 F1000
G1 X80.300 Y172.420 F1000
G0 Z3.0 ; Pen up

G0 X80.560 Y172.680 F3000 ; Travel to line 242
G0 Z0.0 ; Pen down
G1 X104.740 Y148.500 F1000
G0 Z3.0 ; Pen up

G0 X105.260 Y148.500 F3000 ; Travel to line 243
G0 Z0.0 ; Pen down
G1 X80.820 Y172.940 F1000
G0 Z3.0 ; Pen up

G0 X80.820 Y173.200 F3000 ; Travel to line 244
G0 Z0.0 ; Pen down
G1 X105.520 Y148.500 F1000
G0 Z3.0 ; Pen up

G0 X105.780 Y148.500 F3000 ; Travel to line 245
G0 Z0.0 ; Pen down
G1 X81.080 Y173.200 F1000
G0 Z3.0 ; Pen up

G0 X81.080 Y173.720 F3000 ; Travel to line 246
G0 Z0.0 ; Pen down
G1 X106.300 Y148.500 F1000
G0 Z3.0 ; Pen up

G0 X106.560 Y148.500 F3000 ; Travel to line 247
G0 Z0.0 ; Pen down
G1 X81.340 Y173.720 F1000
G0 Z3.0 ; Pen up

G0 X81.340 Y173.980 F3000 ; Travel to line 248
G0 Z0.0 ; Pen down
G1 X106.820 Y148.500 F1000
G0 Z3.0 ; Pen up

G0 X107.340 Y148.500 F3000 ; Travel to line 249
G0 Z0.0 ; Pen down
G1 X81.600 Y174.240 F1000
G0 Z3.0 ; Pen up

G0 X81.860 Y174.500 F3000 ; Travel to line 250
G0 Z0.0 ; Pen down
G1 X107.860 Y148.500 F1000
G0 Z3.0 ; Pen up

G0 X108.120 Y148.500 F3000 ; Travel to line 251
G0 Z0.0 ; Pen down
G1 X81.860 Y174.760 F1000
G0 Z3.0 ; Pen up

G0 X81.860 Y175.020 F3000 ; Travel to line 252
G0 Z0.0 ; Pen down
G1 X108.380 Y148.500 F1000
G0 Z3.0 ; Pen up

G0 X108.900 Y148.500 F3000 ; Travel to line 253
G0 Z0.0 ; Pen down
G1 X82.120 Y175.280 F1000
G0 Z3.0 ; Pen up

G0 X82.120 Y175.540 F3000 ; Travel to line 254
G0 Z0.0 ; Pen down
G1 X109.160 Y148.500 F1000
G0 Z3.0 ; Pen up

G0 X109.420 Y148.500 F3000 ; Travel to line 255
G0 Z0.0 ; Pen down
G1 X82.380 Y175.540 F1000
G0 Z3.0 ; Pen up

G0 X82.640 Y175.800 F3000 ; Travel to line 256
G0 Z0.0 ; Pen down
G1 X109.940 Y148.500 F1000
G0 Z3.0 ; Pen up

G0 X110.460 Y148.500 F3000 ; Travel to line 257
G0 Z0.0 ; Pen down
G1 X82.640 Y176.320 F1000
G0 Z3.0 ; Pen up

G0 X82.900 Y176.320 F3000 ; Travel to line 258
G0 Z0.0 ; Pen down
G1 X110.720 Y148.500 F1000
G0 Z3.0 ; Pen up

G0 X110.980 Y148.500 F3000 ; Travel to line 259
G0 Z0.0 ; Pen down
G1 X82.900 Y176.580 F1000
G0 Z3.0 ; Pen up

G0 X83.160 Y176.840 F3000 ; Travel to line 260
G0 Z0.0 ; Pen down
G1 X111.500 Y148.500 F1000
G0 Z3.0 ; Pen up

G0 X111.760 Y148.500 F3000 ; Travel to line 261
G0 Z0.0 ; Pen down
G1 X83.160 Y177.100 F1000
G0 Z3.0 ; Pen up

G0 X83.420 Y177.100 F3000 ; Travel to line 262
G0 Z0.0 ; Pen down
G1 X112.020 Y148.500 F1000
G0 Z3.0 ; Pen up

G0 X112.540 Y148.500 F3000 ; Travel to line 263
G0 Z0.0 ; Pen down
G1 X83.420 Y177.620 F1000
G0 Z3.0 ; Pen up

G0 X83.680 Y177.880 F3000 ; Travel to line 264
G0 Z0.0 ; Pen down
G1 X113.060 Y148.500 F1000
G1 X113.060 Y148.500 F1000
G1 X83.680 Y177.880 F1000
G0 Z3.0 ; Pen up

G0 X83.940 Y178.140 F3000 ; Travel to line 265
G0 Z0.0 ; Pen down
G1 X113.580 Y148.500 F1000
G0 Z3.0 ; Pen up

G0 X114.100 Y148.500 F3000 ; Travel to line 266
G0 Z0.0 ; Pen down
G1 X84.200 Y178.400 F1000
G0 Z3.0 ; Pen up

G0 X84.200 Y178.660 F3000 ; Travel to line 267
G0 Z0.0 ; Pen down
G1 X114.360 Y148.500 F1000
G0 Z3.0 ; Pen up

G0 X114.620 Y148.500 F3000 ; Travel to line 268
G0 Z0.0 ; Pen down
G1 X84.200 Y178.920 F1000
G0 Z3.0 ; Pen up

G0 X84.460 Y179.180 F3000 ; Travel to line 269
G0 Z0.0 ; Pen down
G1 X115.140 Y148.500 F1000
G0 Z3.0 ; Pen up

G0 X115.400 Y148.500 F3000 ; Travel to line 270
G0 Z0.0 ; Pen down
G1 X84.460 Y179.440 F1000
G0 Z3.0 ; Pen up

G0 X84.720 Y179.440 F3000 ; Travel to line 271
G0 Z0.0 ; Pen down
G1 X115.660 Y148.500 F1000
G0 Z3.0 ; Pen up

G0 X116.180 Y148.500 F3000 ; Travel to line 272
G0 Z0.0 ; Pen down
G1 X84.980 Y179.700 F1000
G0 Z3.0 ; Pen up

G0 X84.980 Y180.220 F3000 ; Travel to line 273
G0 Z0.0 ; Pen down
G1 X116.700 Y148.500 F1000
G0 Z3.0 ; Pen up

G0 X116.960 Y148.500 F3000 ; Travel to line 274
G0 Z0.0 ; Pen down
G1 X85.240 Y180.220 F1000
G0 Z3.0 ; Pen up

G0 X85.240 Y180.480 F3000 ; Travel to line 275
G0 Z0.0 ; Pen down
G1 X117.220 Y148.500 F1000
G0 Z3.0 ; Pen up

G0 X117.740 Y148.500 F3000 ; Travel to line 276
G0 Z0.0 ; Pen down
G1 X85.500 Y180.740 F1000
G0 Z3.0 ; Pen up

G0 X85.500 Y181.000 F3000 ; Travel to line 277
G0 Z0.0 ; Pen down
G1 X118.000 Y148.500 F1000
G0 Z3.0 ; Pen up

G0 X118.260 Y148.500 F3000 ; Travel to line 278
G0 Z0.0 ; Pen down
G1 X85.760 Y181.000 F1000
G0 Z3.0 ; Pen up

G0 X85.760 Y181.520 F3000 ; Travel to line 279
G0 Z0.0 ; Pen down
G1 X118.780 Y148.500 F1000
G0 Z3.0 ; Pen up

G0 X119.820 Y148.500 F3000 ; Travel to line 280
G0 Z0.0 ; Pen down
G1 X86.280 Y182.040 F1000
G0 Z3.0 ; Pen up

G0 X86.020 Y181.780 F3000 ; Travel to line 281
G0 Z0.0 ; Pen down
G1 X119.300 Y148.500 F1000
G1 X119.300 Y148.500 F1000
G1 X86.020 Y181.780 F1000
G0 Z3.0 ; Pen up

G0 X86.540 Y182.300 F3000 ; Travel to line 282
G0 Z0.0 ; Pen down
G1 X120.340 Y148.500 F1000
G0 Z3.0 ; Pen up

G0 X120.600 Y148.500 F3000 ; Travel to line 283
G0 Z0.0 ; Pen down
G1 X86.540 Y182.560 F1000
G0 Z3.0 ; Pen up

G0 X86.540 Y182.820 F3000 ; Travel to line 284
G0 Z0.0 ; Pen down
G1 X120.860 Y148.500 F1000
G0 Z3.0 ; Pen up

G0 X121.380 Y148.500 F3000 ; Travel to line 285
G0 Z0.0 ; Pen down
G1 X86.800 Y183.080 F1000
G0 Z3.0 ; Pen up

G0 X86.800 Y183.340 F3000 ; Travel to line 286
G0 Z0.0 ; Pen down
G1 X121.640 Y148.500 F1000
G0 Z3.0 ; Pen up

G0 X121.900 Y148.500 F3000 ; Travel to line 287
G0 Z0.0 ; Pen down
G1 X87.060 Y183.340 F1000
G0 Z3.0 ; Pen up

G0 X87.320 Y183.600 F3000 ; Travel to line 288
G0 Z0.0 ; Pen down
G1 X122.420 Y148.500 F1000
G0 Z3.0 ; Pen up

G0 X122.940 Y148.500 F3000 ; Travel to line 289
G0 Z0.0 ; Pen down
G1 X87.320 Y184.120 F1000
G0 Z3.0 ; Pen up

G0 X87.580 Y184.120 F3000 ; Travel to line 290
G0 Z0.0 ; Pen down
G1 X123.200 Y148.500 F1000
G0 Z3.0 ; Pen up

G0 X123.460 Y148.500 F3000 ; Travel to line 291
G0 Z0.0 ; Pen down
G1 X87.580 Y184.380 F1000
G0 Z3.0 ; Pen up

G0 X87.840 Y184.640 F3000 ; Travel to line 292
G0 Z0.0 ; Pen down
G1 X123.980 Y148.500 F1000
G0 Z3.0 ; Pen up

G0 X124.240 Y148.500 F3000 ; Travel to line 293
G0 Z0.0 ; Pen down
G1 X87.840 Y184.900 F1000
G0 Z3.0 ; Pen up

G0 X88.100 Y184.900 F3000 ; Travel to line 294
G0 Z0.0 ; Pen down
G1 X124.500 Y148.500 F1000
G0 Z3.0 ; Pen up

G0 X125.020 Y148.500 F3000 ; Travel to line 295
G0 Z0.0 ; Pen down
G1 X88.100 Y185.420 F1000
G0 Z3.0 ; Pen up

G0 X88.360 Y185.680 F3000 ; Travel to line 296
G0 Z0.0 ; Pen down
G1 X125.540 Y148.500 F1000
G1 X125.540 Y148.500 F1000
G1 X88.360 Y185.680 F1000
G0 Z3.0 ; Pen up

G0 X88.620 Y185.940 F3000 ; Travel to line 297
G0 Z0.0 ; Pen down
G1 X126.060 Y148.500 F1000
G0 Z3.0 ; Pen up

G0 X126.580 Y148.500 F3000 ; Travel to line 298
G0 Z0.0 ; Pen down
G1 X88.880 Y186.200 F1000
G0 Z3.0 ; Pen up

G0 X88.880 Y186.460 F3000 ; Travel to line 299
G0 Z0.0 ; Pen down
G1 X126.840 Y148.500 F1000
G0 Z3.0 ; Pen up

G0 X127.100 Y148.500 F3000 ; Travel to line 300
G0 Z0.0 ; Pen down
G1 X88.880 Y186.720 F1000
G0 Z3.0 ; Pen up

G0 X89.140 Y186.980 F3000 ; Travel to line 301
G0 Z0.0 ; Pen down
G1 X127.620 Y148.500 F1000
G0 Z3.0 ; Pen up

G0 X127.880 Y148.500 F3000 ; Travel to line 302
G0 Z0.0 ; Pen down
G1 X89.140 Y187.240 F1000
G0 Z3.0 ; Pen up

G0 X89.400 Y187.240 F3000 ; Travel to line 303
G0 Z0.0 ; Pen down
G1 X128.140 Y148.500 F1000
G0 Z3.0 ; Pen up

G0 X128.660 Y148.500 F3000 ; Travel to line 304
G0 Z0.0 ; Pen down
G1 X89.660 Y187.500 F1000
G0 Z3.0 ; Pen up

G0 X89.660 Y188.020 F3000 ; Travel to line 305
G0 Z0.0 ; Pen down
G1 X129.180 Y148.500 F1000
G0 Z3.0 ; Pen up

G0 X129.440 Y148.500 F3000 ; Travel to line 306
G0 Z0.0 ; Pen down
G1 X89.920 Y188.020 F1000
G0 Z3.0 ; Pen up

G0 X89.920 Y188.280 F3000 ; Travel to line 307
G0 Z0.0 ; Pen down
G1 X129.700 Y148.500 F1000
G0 Z3.0 ; Pen up

G0 X130.480 Y148.500 F3000 ; Travel to line 308
G0 Z0.0 ; Pen down
G1 X90.180 Y188.800 F1000
G0 Z3.0 ; Pen up

G0 X90.440 Y188.800 F3000 ; Travel to line 309
G0 Z0.0 ; Pen down
G1 X131.000 Y148.500 F1000
G0 Z3.0 ; Pen up

G0 X131.780 Y148.500 F3000 ; Travel to line 310
G0 Z0.0 ; Pen down
G1 X90.700 Y189.320 F1000
G0 Z3.0 ; Pen up

G0 X90.440 Y189.320 F3000 ; Travel to line 311
G0 Z0.0 ; Pen down
G1 X131.520 Y148.500 F1000
G1 X131.520 Y148.500 F1000
G1 X90.440 Y189.320 F1000
G0 Z3.0 ; Pen up

G0 X90.960 Y189.840 F3000 ; Travel to line 312
G0 Z0.0 ; Pen down
G1 X132.820 Y148.500 F1000
G0 Z3.0 ; Pen up

G0 X132.560 Y148.500 F3000 ; Travel to line 313
G0 Z0.0 ; Pen down
G1 X90.700 Y189.840 F1000
G1 X90.700 Y189.840 F1000
G1 X132.300 Y148.500 F1000
G0 Z3.0 ; Pen up

G0 X133.340 Y148.500 F3000 ; Travel to line 314
G0 Z0.0 ; Pen down
G1 X90.960 Y190.100 F1000
G0 Z3.0 ; Pen up

G0 X91.220 Y190.360 F3000 ; Travel to line 315
G0 Z0.0 ; Pen down
G1 X133.600 Y148.500 F1000
G1 X133.600 Y148.500 F1000
G1 X91.220 Y190.360 F1000
G0 Z3.0 ; Pen up

G0 X91.220 Y190.620 F3000 ; Travel to line 316
G0 Z0.0 ; Pen down
G1 X134.120 Y148.500 F1000
G0 Z3.0 ; Pen up

G0 X134.900 Y148.500 F3000 ; Travel to line 317
G0 Z0.0 ; Pen down
G1 X91.480 Y191.140 F1000
G0 Z3.0 ; Pen up

G0 X91.740 Y191.140 F3000 ; Travel to line 318
G0 Z0.0 ; Pen down
G1 X135.420 Y148.500 F1000
G0 Z3.0 ; Pen up

G0 X135.680 Y148.500 F3000 ; Travel to line 319
G0 Z0.0 ; Pen down
G1 X91.740 Y191.400 F1000
G0 Z3.0 ; Pen up

G0 X92.000 Y191.400 F3000 ; Travel to line 320
G0 Z0.0 ; Pen down
G1 X135.940 Y148.500 F1000
G0 Z3.0 ; Pen up

G0 X136.200 Y148.500 F3000 ; Travel to line 321
G0 Z0.0 ; Pen down
G1 X144.000 Y148.500 F1000
G1 X144.000 Y148.500 F1000
G1 X94.340 Y195.560 F1000
G0 Z3.0 ; Pen up

G0 X94.340 Y195.820 F3000 ; Travel to line 322
G0 Z0.0 ; Pen down
G1 X143.480 Y149.540 F1000
G1 X143.480 Y149.540 F1000
G1 X94.340 Y195.820 F1000
G0 Z3.0 ; Pen up

G0 X94.600 Y196.080 F3000 ; Travel to line 323
G0 Z0.0 ; Pen down
G1 X142.960 Y150.320 F1000
G0 Z3.0 ; Pen up

G0 X143.220 Y148.500 F3000 ; Travel to line 324
G0 Z0.0 ; Pen down
G1 X94.080 Y195.040 F1000
G1 X94.080 Y195.040 F1000
G1 X143.480 Y148.500 F1000
G0 Z3.0 ; Pen up

G0 X143.740 Y148.500 F3000 ; Travel to line 325
G0 Z0.0 ; Pen down
G1 X94.080 Y195.300 F1000
G0 Z3.0 ; Pen up

G0 X93.820 Y195.040 F3000 ; Travel to line 326
G0 Z0.0 ; Pen down
G1 X142.700 Y148.500 F1000
G0 Z3.0 ; Pen up

G0 X142.440 Y148.500 F3000 ; Travel to line 327
G0 Z0.0 ; Pen down
G1 X93.820 Y194.780 F1000
G0 Z3.0 ; Pen up

G0 X93.820 Y194.520 F3000 ; Travel to line 328
G0 Z0.0 ; Pen down
G1 X142.180 Y148.500 F1000
G0 Z3.0 ; Pen up

G0 X141.920 Y148.500 F3000 ; Travel to line 329
G0 Z0.0 ; Pen down
G1 X93.560 Y194.520 F1000
G0 Z3.0 ; Pen up

G0 X93.560 Y194.260 F3000 ; Travel to line 330
G0 Z0.0 ; Pen down
G1 X141.400 Y148.500 F1000
G0 Z3.0 ; Pen up

G0 X141.140 Y148.500 F3000 ; Travel to line 331
G0 Z0.0 ; Pen down
G1 X93.300 Y194.000 F1000
G1 X93.300 Y194.000 F1000
G1 X140.880 Y148.500 F1000
G0 Z3.0 ; Pen up

G0 X140.360 Y148.500 F3000 ; Travel to line 332
G0 Z0.0 ; Pen down
G1 X93.300 Y193.740 F1000
G0 Z3.0 ; Pen up

G0 X93.040 Y193.740 F3000 ; Travel to line 333
G0 Z0.0 ; Pen down
G1 X140.100 Y148.500 F1000
G1 X140.100 Y148.500 F1000
G1 X93.040 Y193.480 F1000
G0 Z3.0 ; Pen up

G0 X93.040 Y193.220 F3000 ; Travel to line 334
G0 Z0.0 ; Pen down
G1 X139.580 Y148.500 F1000
G0 Z3.0 ; Pen up

G0 X138.540 Y148.500 F3000 ; Travel to line 335
G0 Z0.0 ; Pen down
G1 X92.780 Y192.700 F1000
G0 Z3.0 ; Pen up

G0 X92.520 Y192.700 F3000 ; Travel to line 336
G0 Z0.0 ; Pen down
G1 X138.280 Y148.500 F1000
G0 Z3.0 ; Pen up

G0 X138.020 Y148.500 F3000 ; Travel to line 337
G0 Z0.0 ; Pen down
G1 X92.520 Y192.440 F1000
G0 Z3.0 ; Pen up

G0 X92.260 Y192.440 F3000 ; Travel to line 338
G0 Z0.0 ; Pen down
G1 X137.760 Y148.500 F1000
G0 Z3.0 ; Pen up

G0 X137.240 Y148.500 F3000 ; Travel to line 339
G0 Z0.0 ; Pen down
G1 X92.260 Y192.180 F1000
G0 Z3.0 ; Pen up

G0 X92.000 Y191.660 F3000 ; Travel to line 340
G0 Z0.0 ; Pen down
G1 X136.460 Y148.500 F1000
G0 Z3.0 ; Pen up

G0 X136.720 Y148.500 F3000 ; Travel to line 341
G0 Z0.0 ; Pen down
G1 X92.260 Y191.920 F1000
G1 X92.260 Y191.920 F1000
G1 X136.980 Y148.500 F1000
G0 Z3.0 ; Pen up

G0 X141.920 Y152.140 F3000 ; Travel to line 342
G0 Z0.0 ; Pen down
G1 X94.860 Y196.340 F1000
G0 Z3.0 ; Pen up

G0 X94.600 Y196.340 F3000 ; Travel to line 343
G0 Z0.0 ; Pen down
G1 X142.180 Y151.620 F1000
G1 X142.180 Y151.620 F1000
G1 X94.600 Y196.340 F1000
G0 Z3.0 ; Pen up

G0 X95.120 Y196.600 F3000 ; Travel to line 344
G0 Z0.0 ; Pen down
G1 X141.140 Y153.440 F1000
G0 Z3.0 ; Pen up

G0 X139.840 Y155.520 F3000 ; Travel to line 345
G0 Z0.0 ; Pen down
G1 X95.120 Y197.120 F1000
G0 Z3.0 ; Pen up

G0 X95.120 Y196.860 F3000 ; Travel to line 346
G0 Z0.0 ; Pen down
G1 X140.620 Y154.220 F1000
G1 X140.620 Y154.220 F1000
G1 X95.120 Y196.860 F1000
G0 Z3.0 ; Pen up

G0 X95.380 Y197.640 F3000 ; Travel to line 347
G0 Z0.0 ; Pen down
G1 X138.800 Y157.340 F1000
G0 Z3.0 ; Pen up

G0 X139.060 Y156.820 F3000 ; Travel to line 348
G0 Z0.0 ; Pen down
G1 X95.380 Y197.380 F1000
G1 X95.380 Y197.380 F1000
G1 X139.580 Y156.040 F1000
G0 Z3.0 ; Pen up

G0 X138.280 Y158.120 F3000 ; Travel to line 349
G0 Z0.0 ; Pen down
G1 X95.640 Y197.640 F1000
G0 Z3.0 ; Pen up

G0 X95.640 Y197.900 F3000 ; Travel to line 350
G0 Z0.0 ; Pen down
G1 X138.020 Y158.640 F1000
G0 Z3.0 ; Pen up

G0 X137.500 Y159.420 F3000 ; Travel to line 351
G0 Z0.0 ; Pen down
G1 X95.900 Y197.900 F1000
G0 Z3.0 ; Pen up

G0 X95.900 Y198.160 F3000 ; Travel to line 352
G0 Z0.0 ; Pen down
G1 X137.240 Y159.940 F1000
G0 Z3.0 ; Pen up

G0 X135.940 Y162.020 F3000 ; Travel to line 353
G0 Z0.0 ; Pen down
G1 X96.160 Y198.680 F1000
G0 Z3.0 ; Pen up

G0 X96.160 Y198.420 F3000 ; Travel to line 354
G0 Z0.0 ; Pen down
G1 X136.460 Y161.240 F1000
G1 X136.460 Y161.240 F1000
G1 X95.900 Y198.420 F1000
G0 Z3.0 ; Pen up

G0 X96.420 Y199.200 F3000 ; Travel to line 355
G0 Z0.0 ; Pen down
G1 X134.900 Y163.840 F1000
G0 Z3.0 ; Pen up

G0 X135.160 Y163.320 F3000 ; Travel to line 356
G0 Z0.0 ; Pen down
G1 X96.160 Y198.940 F1000
G1 X96.160 Y198.940 F1000
G1 X135.680 Y162.540 F1000
G0 Z3.0 ; Pen up

G0 X134.380 Y164.620 F3000 ; Travel to line 357
G0 Z0.0 ; Pen down
G1 X96.680 Y199.200 F1000
G0 Z3.0 ; Pen up

G0 X96.680 Y199.460 F3000 ; Travel to line 358
G0 Z0.0 ; Pen down
G1 X134.120 Y165.140 F1000
G1 X134.120 Y165.140 F1000
G1 X96.680 Y199.460 F1000
G0 Z3.0 ; Pen up

G0 X96.680 Y199.720 F3000 ; Travel to line 359
G0 Z0.0 ; Pen down
G1 X133.340 Y166.440 F1000
G0 Z3.0 ; Pen up

G0 X132.820 Y167.220 F3000 ; Travel to line 360
G0 Z0.0 ; Pen down
G1 X96.940 Y199.980 F1000
G1 X96.940 Y199.980 F1000
G1 X132.560 Y167.740 F1000
G1 X132.560 Y167.740 F1000
G1 X96.940 Y200.240 F1000
G0 Z3.0 ; Pen up

G0 X97.200 Y200.500 F3000 ; Travel to line 361
G0 Z0.0 ; Pen down
G1 X131.780 Y169.040 F1000
G1 X131.780 Y169.040 F1000
G1 X97.200 Y200.500 F1000
G0 Z3.0 ; Pen up

G0 X97.460 Y200.500 F3000 ; Travel to line 362
G0 Z0.0 ; Pen down
G1 X131.260 Y169.820 F1000
G0 Z3.0 ; Pen up

G0 X131.000 Y170.340 F3000 ; Travel to line 363
G0 Z0.0 ; Pen down
G1 X97.460 Y200.760 F1000
G0 Z3.0 ; Pen up

G0 X97.460 Y201.020 F3000 ; Travel to line 364
G0 Z0.0 ; Pen down
G1 X130.220 Y171.640 F1000
G1 X130.220 Y171.640 F1000
G1 X97.720 Y201.020 F1000
G0 Z3.0 ; Pen up

G0 X97.720 Y201.280 F3000 ; Travel to line 365
G0 Z0.0 ; Pen down
G1 X129.700 Y172.420 F1000
G0 Z3.0 ; Pen up

G0 X129.440 Y172.940 F3000 ; Travel to line 366
G0 Z0.0 ; Pen down
G1 X97.720 Y201.540 F1000
G1 X97.720 Y201.540 F1000
G1 X128.920 Y173.720 F1000
G0 Z3.0 ; Pen up

G0 X128.660 Y174.240 F3000 ; Travel to line 367
G0 Z0.0 ; Pen down
G1 X97.980 Y201.800 F1000
G0 Z3.0 ; Pen up

G0 X98.240 Y201.800 F3000 ; Travel to line 368
G0 Z0.0 ; Pen down
G1 X128.140 Y175.020 F1000
G0 Z3.0 ; Pen up

G0 X127.360 Y176.320 F3000 ; Travel to line 369
G0 Z0.0 ; Pen down
G1 X98.240 Y202.320 F1000
G0 Z3.0 ; Pen up

G0 X98.240 Y202.060 F3000 ; Travel to line 370
G0 Z0.0 ; Pen down
G1 X127.880 Y175.540 F1000
G1 X127.880 Y175.540 F1000
G1 X98.240 Y202.060 F1000
G0 Z3.0 ; Pen up

G0 X98.500 Y202.580 F3000 ; Travel to line 371
G0 Z0.0 ; Pen down
G1 X126.580 Y177.620 F1000
G1 X126.580 Y177.620 F1000
G1 X98.500 Y202.580 F1000
G0 Z3.0 ; Pen up

G0 X98.500 Y202.840 F3000 ; Travel to line 372
G0 Z0.0 ; Pen down
G1 X126.320 Y178.140 F1000
G0 Z3.0 ; Pen up

G0 X125.800 Y178.920 F3000 ; Travel to line 373
G0 Z0.0 ; Pen down
G1 X98.760 Y202.840 F1000
G0 Z3.0 ; Pen up

G0 X98.760 Y203.100 F3000 ; Travel to line 374
G0 Z0.0 ; Pen down
G1 X125.540 Y179.440 F1000
G1 X125.540 Y179.440 F1000
G1 X99.020 Y203.100 F1000
G0 Z3.0 ; Pen up

G0 X99.020 Y203.360 F3000 ; Travel to line 375
G0 Z0.0 ; Pen down
G1 X124.760 Y180.740 F1000
G0 Z3.0 ; Pen up

G0 X123.980 Y182.040 F3000 ; Travel to line 376
G0 Z0.0 ; Pen down
G1 X99.280 Y203.880 F1000
G0 Z3.0 ; Pen up

G0 X99.280 Y203.620 F3000 ; Travel to line 377
G0 Z0.0 ; Pen down
G1 X124.240 Y181.520 F1000
G1 X124.240 Y181.520 F1000
G1 X99.020 Y203.620 F1000
G0 Z3.0 ; Pen up

G0 X99.540 Y204.140 F3000 ; Travel to line 378
G0 Z0.0 ; Pen down
G1 X123.200 Y183.340 F1000
G1 X123.200 Y183.340 F1000
G1 X99.280 Y204.140 F1000
G1 X99.280 Y204.140 F1000
G1 X123.460 Y182.820 F1000
G0 Z3.0 ; Pen up

G0 X122.420 Y184.640 F3000 ; Travel to line 379
G0 Z0.0 ; Pen down
G1 X99.800 Y204.400 F1000
G0 Z3.0 ; Pen up

G0 X99.800 Y204.660 F3000 ; Travel to line 380
G0 Z0.0 ; Pen down
G1 X121.900 Y185.420 F1000
G1 X121.900 Y185.420 F1000
G1 X99.800 Y204.660 F1000
G0 Z3.0 ; Pen up

G0 X99.800 Y204.920 F3000 ; Travel to line 381
G0 Z0.0 ; Pen down
G1 X121.640 Y185.940 F1000
G0 Z3.0 ; Pen up

G0 X120.860 Y187.240 F3000 ; Travel to line 382
G0 Z0.0 ; Pen down
G1 X100.060 Y205.440 F1000
G0 Z3.0 ; Pen up

G0 X100.060 Y205.180 F3000 ; Travel to line 383
G0 Z0.0 ; Pen down
G1 X121.120 Y186.720 F1000
G1 X121.120 Y186.720 F1000
G1 X100.060 Y204.920 F1000
G0 Z3.0 ; Pen up

G0 X100.320 Y205.440 F3000 ; Travel to line 384
G0 Z0.0 ; Pen down
G1 X120.340 Y188.020 F1000
G0 Z3.0 ; Pen up

G0 X119.300 Y189.840 F3000 ; Travel to line 385
G0 Z0.0 ; Pen down
G1 X100.580 Y205.960 F1000
G0 Z3.0 ; Pen up

G0 X100.580 Y206.220 F3000 ; Travel to line 386
G0 Z0.0 ; Pen down
G1 X118.780 Y190.620 F1000
G1 X118.780 Y190.620 F1000
G1 X100.580 Y206.220 F1000
G0 Z3.0 ; Pen up

G0 X100.840 Y206.220 F3000 ; Travel to line 387
G0 Z0.0 ; Pen down
G1 X118.520 Y191.140 F1000
G0 Z3.0 ; Pen up

G0 X117.740 Y192.440 F3000 ; Travel to line 388
G0 Z0.0 ; Pen down
G1 X101.100 Y206.740 F1000
G0 Z3.0 ; Pen up

G0 X101.100 Y207.000 F3000 ; Travel to line 389
G0 Z0.0 ; Pen down
G1 X117.220 Y193.220 F1000
G0 Z3.0 ; Pen up

G0 X116.440 Y194.520 F3000 ; Travel to line 390
G0 Z0.0 ; Pen down
G1 X101.360 Y207.520 F1000
G0 Z3.0 ; Pen up

G0 X101.360 Y207.260 F3000 ; Travel to line 391
G0 Z0.0 ; Pen down
G1 X116.960 Y193.740 F1000
G1 X116.960 Y193.740 F1000
G1 X101.360 Y207.000 F1000
G0 Z3.0 ; Pen up

G0 X100.840 Y206.740 F3000 ; Travel to line 392
G0 Z0.0 ; Pen down
G1 X118.000 Y191.920 F1000
G1 X118.000 Y191.920 F1000
G1 X100.840 Y206.480 F1000
G0 Z3.0 ; Pen up

G0 X100.320 Y205.700 F3000 ; Travel to line 393
G0 Z0.0 ; Pen down
G1 X120.080 Y188.540 F1000
G1 X120.080 Y188.540 F1000
G1 X100.320 Y205.700 F1000
G0 Z3.0 ; Pen up

G0 X101.620 Y207.520 F3000 ; Travel to line 394
G0 Z0.0 ; Pen down
G1 X116.180 Y195.040 F1000
G1 X116.180 Y195.040 F1000
G1 X101.620 Y207.520 F1000
G0 Z3.0 ; Pen up

G0 X101.620 Y207.780 F3000 ; Travel to line 395
G0 Z0.0 ; Pen down
G1 X115.660 Y195.820 F1000
G0 Z3.0 ; Pen up

G0 X115.400 Y196.340 F3000 ; Travel to line 396
G0 Z0.0 ; Pen down
G1 X101.620 Y208.040 F1000
G0 Z3.0 ; Pen up

G0 X101.880 Y208.300 F3000 ; Travel to line 397
G0 Z0.0 ; Pen down
G1 X114.880 Y197.120 F1000
G1 X114.880 Y197.120 F1000
G1 X101.880 Y208.300 F1000
G0 Z3.0 ; Pen up

G0 X102.140 Y208.300 F3000 ; Travel to line 398
G0 Z0.0 ; Pen down
G1 X114.620 Y197.640 F1000
G0 Z3.0 ; Pen up

G0 X114.100 Y198.420 F3000 ; Travel to line 399
G0 Z0.0 ; Pen down
G1 X102.140 Y208.560 F1000
G1 X102.140 Y208.560 F1000
G1 X113.840 Y198.940 F1000
G1 X113.840 Y198.940 F1000
G1 X102.140 Y208.820 F1000
G0 Z3.0 ; Pen up

G0 X102.400 Y209.340 F3000 ; Travel to line 400
G0 Z0.0 ; Pen down
G1 X113.060 Y200.240 F1000
G1 X113.060 Y200.240 F1000
G1 X102.400 Y209.080 F1000
G1 X102.400 Y209.080 F1000
G1 X113.320 Y199.720 F1000
G0 Z3.0 ; Pen up

G0 X112.540 Y201.020 F3000 ; Travel to line 401
G0 Z0.0 ; Pen down
G1 X102.660 Y209.340 F1000
G0 Z3.0 ; Pen up

G0 X102.660 Y209.600 F3000 ; Travel to line 402
G0 Z0.0 ; Pen down
G1 X112.280 Y201.540 F1000
G0 Z3.0 ; Pen up

G0 X111.500 Y202.840 F3000 ; Travel to line 403
G0 Z0.0 ; Pen down
G1 X102.920 Y210.120 F1000
G1 X102.920 Y210.120 F1000
G1 X110.980 Y203.620 F1000
G1 X110.980 Y203.620 F1000
G1 X103.180 Y210.120 F1000
G0 Z3.0 ; Pen up

G0 X103.180 Y210.380 F3000 ; Travel to line 404
G0 Z0.0 ; Pen down
G1 X110.720 Y204.140 F1000
G0 Z3.0 ; Pen up

G0 X109.940 Y205.440 F3000 ; Travel to line 405
G0 Z0.0 ; Pen down
G1 X103.440 Y210.900 F1000
G0 Z3.0 ; Pen up

G0 X103.440 Y210.640 F3000 ; Travel to line 406
G0 Z0.0 ; Pen down
G1 X110.200 Y204.920 F1000
G1 X110.200 Y204.920 F1000
G1 X103.440 Y210.640 F1000
G0 Z3.0 ; Pen up

G0 X103.700 Y210.900 F3000 ; Travel to line 407
G0 Z0.0 ; Pen down
G1 X109.420 Y206.220 F1000
G1 X109.420 Y206.220 F1000
G1 X103.700 Y211.160 F1000
G1 X103.700 Y211.160 F1000
G1 X109.160 Y206.740 F1000
G0 Z3.0 ; Pen up

G0 X108.640 Y207.520 F3000 ; Travel to line 408
G0 Z0.0 ; Pen down
G1 X103.960 Y211.420 F1000
G0 Z3.0 ; Pen up

G0 X103.960 Y211.680 F3000 ; Travel to line 409
G0 Z0.0 ; Pen down
G1 X108.380 Y208.040 F1000
G1 X108.380 Y208.040 F1000
G1 X103.960 Y211.680 F1000
G0 Z3.0 ; Pen up

G0 X103.960 Y211.940 F3000 ; Travel to line 410
G0 Z0.0 ; Pen down
G1 X107.860 Y208.820 F1000
G0 Z3.0 ; Pen up

G0 X107.080 Y210.120 F3000 ; Travel to line 411
G0 Z0.0 ; Pen down
G1 X104.220 Y212.200 F1000
G1 X104.220 Y212.200 F1000
G1 X107.600 Y209.340 F1000
G1 X107.600 Y209.340 F1000
G1 X104.220 Y211.940 F1000
G0 Z3.0 ; Pen up

G0 X104.480 Y212.720 F3000 ; Travel to line 412
G0 Z0.0 ; Pen down
G1 X106.820 Y210.640 F1000
G1 X106.820 Y210.640 F1000
G1 X104.480 Y212.460 F1000
G1 X104.480 Y212.460 F1000
G1 X106.820 Y210.640 F1000
G0 Z3.0 ; Pen up

G0 X106.300 Y211.420 F3000 ; Travel to line 413
G0 Z0.0 ; Pen down
G1 X104.740 Y212.720 F1000
G0 Z3.0 ; Pen up

G0 X104.740 Y212.980 F3000 ; Travel to line 414
G0 Z0.0 ; Pen down
G1 X106.040 Y211.940 F1000
G1 X106.040 Y211.940 F1000
G1 X104.740 Y213.240 F1000
G0 Z3.0 ; Pen up

G0 X105.000 Y213.240 F3000 ; Travel to line 415
G0 Z0.0 ; Pen down
G1 X105.520 Y212.720 F1000
G0 Z3.0 ; Pen up

G0 X105.000 Y213.500 F3000 ; Travel to line 416
G0 Z0.0 ; Pen down
G1 X105.260 Y213.240 F1000
G1 X105.260 Y213.240 F1000
G1 X105.000 Y213.500 F1000
G0 Z3.0 ; Pen up

G0 X102.920 Y209.860 F3000 ; Travel to line 417
G0 Z0.0 ; Pen down
G1 X111.760 Y202.320 F1000
G1 X111.760 Y202.320 F1000
G1 X102.920 Y209.600 F1000
G0 Z3.0 ; Pen up

G0 X104.740 Y221.820 F3000 ; Travel to line 418
G0 Z0.0 ; Pen down
G1 X104.740 Y231.440 F1000
G0 Z3.0 ; Pen up

G0 X99.540 Y238.720 F3000 ; Travel to line 419
G0 Z0.0 ; Pen down
G1 X99.800 Y238.980 F1000
G1 X110.200 Y238.980 F1000
G1 X110.460 Y238.720 F1000
G1 X113.840 Y238.720 F1000
G1 X114.100 Y238.460 F1000
G1 X116.180 Y238.460 F1000
G1 X116.440 Y238.200 F1000
G1 X118.260 Y238.200 F1000
G1 X118.520 Y237.940 F1000
G1 X119.820 Y237.940 F1000
G1 X120.080 Y237.680 F1000
G1 X121.380 Y237.680 F1000
G1 X121.640 Y237.420 F1000
G1 X122.680 Y237.420 F1000
G1 X122.940 Y237.160 F1000
G1 X123.980 Y237.160 F1000
G1 X124.240 Y236.900 F1000
G1 X125.020 Y236.900 F1000
G1 X125.280 Y236.640 F1000
G1 X126.320 Y236.640 F1000
G1 X126.580 Y236.380 F1000
G1 X127.100 Y236.380 F1000
G1 X127.360 Y236.120 F1000
G1 X128.140 Y236.120 F1000
G1 X128.400 Y235.860 F1000
G1 X129.180 Y235.860 F1000
G1 X129.440 Y235.600 F1000
G1 X129.960 Y235.600 F1000
G1 X130.220 Y235.340 F1000
G1 X131.000 Y235.340 F1000
G1 X131.260 Y235.080 F1000
G1 X131.780 Y235.080 F1000
G1 X132.040 Y234.820 F1000
G1 X132.560 Y234.820 F1000
G1 X132.820 Y234.560 F1000
G1 X133.340 Y234.560 F1000
G1 X133.600 Y234.300 F1000
G1 X134.120 Y234.300 F1000
G1 X134.380 Y234.040 F1000
G1 X134.900 Y234.040 F1000
G1 X135.160 Y233.780 F1000
G1 X135.680 Y233.780 F1000
G1 X135.940 Y233.520 F1000
G1 X136.460 Y233.520 F1000
G1 X136.720 Y233.260 F1000
G1 X136.980 Y233.260 F1000
G1 X137.240 Y233.000 F1000
G1 X137.760 Y233.000 F1000
G1 X138.020 Y232.740 F1000
G1 X138.280 Y232.740 F1000
G1 X138.540 Y232.480 F1000
G1 X139.060 Y232.480 F1000
G1 X139.320 Y232.220 F1000
G1 X139.580 Y232.220 F1000
G1 X139.840 Y231.960 F1000
G1 X140.360 Y231.960 F1000
G1 X140.620 Y231.700 F1000
G1 X140.880 Y231.700 F1000
G1 X141.140 Y231.440 F1000
G1 X141.400 Y231.440 F1000
G1 X141.660 Y231.180 F1000
G1 X142.180 Y231.180 F1000
G1 X142.440 Y230.920 F1000
G1 X142.700 Y230.920 F1000
G1 X142.960 Y230.660 F1000
G1 X143.220 Y230.660 F1000
G1 X143.480 Y230.400 F1000
G1 X143.740 Y230.400 F1000
G1 X144.000 Y230.140 F1000
G1 X144.260 Y230.140 F1000
G1 X144.520 Y229.880 F1000
G1 X144.780 Y229.880 F1000
G1 X145.040 Y229.620 F1000
G1 X145.300 Y229.620 F1000
G1 X145.560 Y229.360 F1000
G1 X145.820 Y229.360 F1000
G1 X146.080 Y229.100 F1000
G1 X146.340 Y229.100 F1000
G1 X146.600 Y228.840 F1000
G1 X146.860 Y228.840 F1000
G1 X147.120 Y228.580 F1000
G1 X147.380 Y228.580 F1000
G1 X147.640 Y228.320 F1000
G1 X147.900 Y228.320 F1000
G1 X148.420 Y227.800 F1000
G1 X148.680 Y227.800 F1000
G1 X148.940 Y227.540 F1000
G1 X149.200 Y227.540 F1000
G1 X149.460 Y227.280 F1000
G1 X149.720 Y227.280 F1000
G1 X149.980 Y227.020 F1000
G1 X150.240 Y227.020 F1000
G1 X150.760 Y226.500 F1000
G1 X151.020 Y226.500 F1000
G1 X151.280 Y226.240 F1000
G1 X151.540 Y226.240 F1000
G1 X152.060 Y225.720 F1000
G1 X152.320 Y225.720 F1000
G1 X152.840 Y225.200 F1000
G1 X153.100 Y225.200 F1000
G1 X153.360 Y224.940 F1000
G1 X153.620 Y224.940 F1000
G1 X154.140 Y224.420 F1000
G1 X154.400 Y224.420 F1000
G1 X154.920 Y223.900 F1000
G1 X155.180 Y223.900 F1000
G1 X155.700 Y223.380 F1000
G1 X155.960 Y223.380 F1000
G1 X156.480 Y222.860 F1000
G1 X156.740 Y222.860 F1000
G1 X157.520 Y222.080 F1000
G1 X157.780 Y222.080 F1000
G1 X158.560 Y221.300 F1000
G1 X158.820 Y221.300 F1000
G1 X159.600 Y220.520 F1000
G1 X159.860 Y220.520 F1000
G1 X160.640 Y219.740 F1000
G1 X160.900 Y219.740 F1000
G1 X161.940 Y218.700 F1000
G1 X162.200 Y218.700 F1000
G1 X163.500 Y217.400 F1000
G1 X163.760 Y217.400 F1000
G1 X165.840 Y215.320 F1000
G1 X166.100 Y215.320 F1000
G1 X171.820 Y209.600 F1000
G1 X171.820 Y209.340 F1000
G1 X173.900 Y207.260 F1000
G1 X173.900 Y207.000 F1000
G1 X175.200 Y205.700 F1000
G1 X175.200 Y205.440 F1000
G1 X176.240 Y204.400 F1000
G1 X176.240 Y204.140 F1000
G1 X177.020 Y203.360 F1000
G1 X177.020 Y203.100 F1000
G1 X177.800 Y202.320 F1000
G1 X177.800 Y202.060 F1000
G1 X178.580 Y201.280 F1000
G1 X178.580 Y201.020 F1000
G1 X179.100 Y200.500 F1000
G1 X179.100 Y200.240 F1000
G1 X179.620 Y199.720 F1000
G1 X179.620 Y199.460 F1000
G1 X180.400 Y198.680 F1000
G1 X180.400 Y198.420 F1000
G1 X180.660 Y198.160 F1000
G1 X180.660 Y197.900 F1000
G1 X181.180 Y197.380 F1000
G1 X181.180 Y197.120 F1000
G1 X181.700 Y196.600 F1000
G1 X181.700 Y196.340 F1000
G1 X181.960 Y196.080 F1000
G1 X181.960 Y195.820 F1000
G1 X182.480 Y195.300 F1000
G1 X182.480 Y195.040 F1000
G1 X182.740 Y194.780 F1000
G1 X182.740 Y194.520 F1000
G1 X183.260 Y194.000 F1000
G1 X183.260 Y193.740 F1000
G1 X183.520 Y193.480 F1000
G1 X183.520 Y193.220 F1000
G1 X183.780 Y192.960 F1000
G1 X183.780 Y192.700 F1000
G1 X184.300 Y192.180 F1000
G1 X184.300 Y191.920 F1000
G1 X184.560 Y191.660 F1000
G1 X184.560 Y191.400 F1000
G1 X184.820 Y191.140 F1000
G1 X184.820 Y190.880 F1000
G1 X185.080 Y190.620 F1000
G1 X185.080 Y190.360 F1000
G1 X185.340 Y190.100 F1000
G1 X185.340 Y189.840 F1000
G1 X185.600 Y189.580 F1000
G1 X185.600 Y189.320 F1000
G1 X185.860 Y189.060 F1000
G1 X185.860 Y188.800 F1000
G1 X186.120 Y188.540 F1000
G1 X186.120 Y188.280 F1000
G1 X186.380 Y188.020 F1000
G1 X186.380 Y187.760 F1000
G1 X186.640 Y187.500 F1000
G1 X186.640 Y187.240 F1000
G1 X186.900 Y186.980 F1000
G1 X186.900 Y186.720 F1000
G1 X187.160 Y186.460 F1000
G1 X187.160 Y186.200 F1000
G1 X187.420 Y185.940 F1000
G1 X187.420 Y185.420 F1000
G1 X187.680 Y185.160 F1000
G1 X187.680 Y184.900 F1000
G1 X187.940 Y184.640 F1000
G1 X187.940 Y184.380 F1000
G1 X188.200 Y184.120 F1000
G1 X188.200 Y183.600 F1000
G1 X188.460 Y183.340 F1000
G1 X188.460 Y183.080 F1000
G1 X188.720 Y182.820 F1000
G1 X188.720 Y182.300 F1000
G1 X188.980 Y182.040 F1000
G1 X188.980 Y181.780 F1000
G1 X189.240 Y181.520 F1000
G1 X189.240 Y181.000 F1000
G1 X189.500 Y180.740 F1000
G1 X189.500 Y180.480 F1000
G1 X189.760 Y180.220 F1000
G1 X189.760 Y179.700 F1000
G1 X190.020 Y179.440 F1000
G1 X190.020 Y178.920 F1000
G1 X190.280 Y178.660 F1000
G1 X190.280 Y178.140 F1000
G1 X190.540 Y177.880 F1000
G1 X190.540 Y177.360 F1000
G1 X190.800 Y177.100 F1000
G1 X190.800 Y176.580 F1000
G1 X191.060 Y176.320 F1000
G1 X191.060 Y175.800 F1000
G1 X191.320 Y175.540 F1000
G1 X191.320 Y175.020 F1000
G1 X191.580 Y174.760 F1000
G1 X191.580 Y173.980 F1000
G1 X191.840 Y173.720 F1000
G1 X191.840 Y173.200 F1000
G1 X192.100 Y172.940 F1000
G1 X192.100 Y172.160 F1000
G1 X192.360 Y171.900 F1000
G1 X192.360 Y171.120 F1000
G1 X192.620 Y170.860 F1000
G1 X192.620 Y170.340 F1000
G1 X192.880 Y170.080 F1000
G1 X192.880 Y169.040 F1000
G1 X193.140 Y168.780 F1000
G1 X193.140 Y168.000 F1000
G1 X193.400 Y167.740 F1000
G1 X193.400 Y166.960 F1000
G1 X193.660 Y166.700 F1000
G1 X193.660 Y165.660 F1000
G1 X193.920 Y165.400 F1000
G1 X193.920 Y164.100 F1000
G1 X194.180 Y163.840 F1000
G1 X194.180 Y162.540 F1000
G1 X194.440 Y162.280 F1000
G1 X194.440 Y160.980 F1000
G1 X194.700 Y160.720 F1000
G1 X194.700 Y158.900 F1000
G1 X194.960 Y158.640 F1000
G1 X194.960 Y156.560 F1000
G1 X195.220 Y156.300 F1000
G1 X195.220 Y152.920 F1000
G1 X195.480 Y152.660 F1000
G1 X195.480 Y144.340 F1000
G1 X195.220 Y144.080 F1000
G1 X195.220 Y140.700 F1000
G1 X194.960 Y140.440 F1000
G1 X194.960 Y138.360 F1000
G1 X194.700 Y138.100 F1000
G1 X194.700 Y136.280 F1000
G1 X194.440 Y136.020 F1000
G1 X194.440 Y134.720 F1000
G1 X194.180 Y134.460 F1000
G1 X194.180 Y133.160 F1000
G1 X193.920 Y132.900 F1000
G1 X193.920 Y131.600 F1000
G1 X193.660 Y131.340 F1000
G1 X193.660 Y130.300 F1000
G1 X193.400 Y130.040 F1000
G1 X193.400 Y129.260 F1000
G1 X193.140 Y129.000 F1000
G1 X193.140 Y128.220 F1000
G1 X192.880 Y127.960 F1000
G1 X192.880 Y126.920 F1000
G1 X192.620 Y126.660 F1000
G1 X192.620 Y126.140 F1000
G1 X192.360 Y125.880 F1000
G1 X192.360 Y125.100 F1000
G1 X192.100 Y124.840 F1000
G1 X192.100 Y124.060 F1000
G1 X191.840 Y123.800 F1000
G1 X191.840 Y123.280 F1000
G1 X191.580 Y123.020 F1000
G1 X191.580 Y122.240 F1000
G1 X191.320 Y121.980 F1000
G1 X191.320 Y121.460 F1000
G1 X191.060 Y121.200 F1000
G1 X191.060 Y120.680 F1000
G1 X190.800 Y120.420 F1000
G1 X190.800 Y119.900 F1000
G1 X190.540 Y119.640 F1000
G1 X190.540 Y119.120 F1000
G1 X190.280 Y118.860 F1000
G1 X190.280 Y118.340 F1000
G1 X190.020 Y118.080 F1000
G1 X190.020 Y117.560 F1000
G1 X189.760 Y117.300 F1000
G1 X189.760 Y116.780 F1000
G1 X189.500 Y116.520 F1000
G1 X189.500 Y116.260 F1000
G1 X189.240 Y116.000 F1000
G1 X189.240 Y115.480 F1000
G1 X188.980 Y115.220 F1000
G1 X188.980 Y114.960 F1000
G1 X188.720 Y114.700 F1000
G1 X188.720 Y114.180 F1000
G1 X188.460 Y113.920 F1000
G1 X188.460 Y113.660 F1000
G1 X188.200 Y113.400 F1000
G1 X188.200 Y112.880 F1000
G1 X187.940 Y112.620 F1000
G1 X187.940 Y112.360 F1000
G1 X187.680 Y112.100 F1000
G1 X187.680 Y111.840 F1000
G1 X187.420 Y111.580 F1000
G1 X187.420 Y111.060 F1000
G1 X187.160 Y110.800 F1000
G1 X187.160 Y110.540 F1000
G1 X186.900 Y110.280 F1000
G1 X186.900 Y110.020 F1000
G1 X186.640 Y109.760 F1000
G1 X186.640 Y109.500 F1000
G1 X186.380 Y109.240 F1000
G1 X186.380 Y108.980 F1000
G1 X186.120 Y108.720 F1000
G1 X186.120 Y108.460 F1000
G1 X185.860 Y108.200 F1000
G1 X185.860 Y107.940 F1000
G1 X185.600 Y107.680 F1000
G1 X185.600 Y107.420 F1000
G1 X185.340 Y107.160 F1000
G1 X185.340 Y106.900 F1000
G1 X185.080 Y106.640 F1000
G1 X185.080 Y106.380 F1000
G1 X184.820 Y106.120 F1000
G1 X184.820 Y105.860 F1000
G1 X184.560 Y105.600 F1000
G1 X184.560 Y105.340 F1000
G1 X184.300 Y105.080 F1000
G1 X184.300 Y104.820 F1000
G1 X183.780 Y104.300 F1000
G1 X183.780 Y104.040 F1000
G1 X183.520 Y103.780 F1000
G1 X183.520 Y103.520 F1000
G1 X183.260 Y103.260 F1000
G1 X183.260 Y103.000 F1000
G1 X182.740 Y102.480 F1000
G1 X182.740 Y102.220 F1000
G1 X182.480 Y101.960 F1000
G1 X182.480 Y101.700 F1000
G1 X181.960 Y101.180 F1000
G1 X181.960 Y100.920 F1000
G1 X181.700 Y100.660 F1000
G1 X181.700 Y100.400 F1000
G1 X181.180 Y99.880 F1000
G1 X181.180 Y99.620 F1000
G1 X180.660 Y99.100 F1000
G1 X180.660 Y98.840 F1000
G1 X180.400 Y98.580 F1000
G1 X180.400 Y98.320 F1000
G1 X179.620 Y97.540 F1000
G1 X179.620 Y97.280 F1000
G1 X179.100 Y96.760 F1000
G1 X179.100 Y96.500 F1000
G1 X178.580 Y95.980 F1000
G1 X178.580 Y95.720 F1000
G1 X177.800 Y94.940 F1000
G1 X177.800 Y94.680 F1000
G1 X177.020 Y93.900 F1000
G1 X177.020 Y93.640 F1000
G1 X176.240 Y92.860 F1000
G1 X176.240 Y92.600 F1000
G1 X175.200 Y91.560 F1000
G1 X175.200 Y91.300 F1000
G1 X173.900 Y90.000 F1000
G1 X173.900 Y89.740 F1000
G1 X171.820 Y87.660 F1000
G1 X171.820 Y87.400 F1000
G1 X166.100 Y81.680 F1000
G1 X165.840 Y81.680 F1000
G1 X163.760 Y79.600 F1000
G1 X163.500 Y79.600 F1000
G1 X162.200 Y78.300 F1000
G1 X161.940 Y78.300 F1000
G1 X160.900 Y77.260 F1000
G1 X160.640 Y77.260 F1000
G1 X159.860 Y76.480 F1000
G1 X159.600 Y76.480 F1000
G1 X158.820 Y75.700 F1000
G1 X158.560 Y75.700 F1000
G1 X157.780 Y74.920 F1000
G1 X157.520 Y74.920 F1000
G1 X157.000 Y74.400 F1000
G1 X156.740 Y74.400 F1000
G1 X156.220 Y73.880 F1000
G1 X155.960 Y73.880 F1000
G1 X155.180 Y73.100 F1000
G1 X154.920 Y73.100 F1000
G1 X154.660 Y72.840 F1000
G1 X154.400 Y72.840 F1000
G1 X153.880 Y72.320 F1000
G1 X153.620 Y72.320 F1000
G1 X153.100 Y71.800 F1000
G1 X152.840 Y71.800 F1000
G1 X152.580 Y71.540 F1000
G1 X152.320 Y71.540 F1000
G1 X151.800 Y71.020 F1000
G1 X151.540 Y71.020 F1000
G1 X151.280 Y70.760 F1000
G1 X151.020 Y70.760 F1000
G1 X150.500 Y70.240 F1000
G1 X150.240 Y70.240 F1000
G1 X149.980 Y69.980 F1000
G1 X149.720 Y69.980 F1000
G1 X149.460 Y69.720 F1000
G1 X149.200 Y69.720 F1000
G1 X148.680 Y69.200 F1000
G1 X148.420 Y69.200 F1000
G1 X148.160 Y68.940 F1000
G1 X147.900 Y68.940 F1000
G1 X147.640 Y68.680 F1000
G1 X147.380 Y68.680 F1000
G1 X147.120 Y68.420 F1000
G1 X146.860 Y68.420 F1000
G1 X146.600 Y68.160 F1000
G1 X146.340 Y68.160 F1000
G1 X146.080 Y67.900 F1000
G1 X145.820 Y67.900 F1000
G1 X145.560 Y67.640 F1000
G1 X145.300 Y67.640 F1000
G1 X145.040 Y67.380 F1000
G1 X144.780 Y67.380 F1000
G1 X144.520 Y67.120 F1000
G1 X144.260 Y67.120 F1000
G1 X144.000 Y66.860 F1000
G1 X143.740 Y66.860 F1000
G1 X143.480 Y66.600 F1000
G1 X143.220 Y66.600 F1000
G1 X142.960 Y66.340 F1000
G1 X142.700 Y66.340 F1000
G1 X142.440 Y66.080 F1000
G1 X141.920 Y66.080 F1000
G1 X141.660 Y65.820 F1000
G1 X141.400 Y65.820 F1000
G1 X141.140 Y65.560 F1000
G1 X140.880 Y65.560 F1000
G1 X140.620 Y65.300 F1000
G1 X140.100 Y65.300 F1000
G1 X139.840 Y65.040 F1000
G1 X139.580 Y65.040 F1000
G1 X139.320 Y64.780 F1000
G1 X138.800 Y64.780 F1000
G1 X138.540 Y64.520 F1000
G1 X138.280 Y64.520 F1000
G1 X138.020 Y64.260 F1000
G1 X137.500 Y64.260 F1000
G1 X137.240 Y64.000 F1000
G1 X136.980 Y64.000 F1000
G1 X136.720 Y63.740 F1000
G1 X136.200 Y63.740 F1000
G1 X135.940 Y63.480 F1000
G1 X135.420 Y63.480 F1000
G1 X135.160 Y63.220 F1000
G1 X134.640 Y63.220 F1000
G1 X134.380 Y62.960 F1000
G1 X133.860 Y62.960 F1000
G1 X133.600 Y62.700 F1000
G1 X133.080 Y62.700 F1000
G1 X132.820 Y62.440 F1000
G1 X132.300 Y62.440 F1000
G1 X132.040 Y62.180 F1000
G1 X131.520 Y62.180 F1000
G1 X131.260 Y61.920 F1000
G1 X130.480 Y61.920 F1000
G1 X130.220 Y61.660 F1000
G1 X129.700 Y61.660 F1000
G1 X129.440 Y61.400 F1000
G1 X128.660 Y61.400 F1000
G1 X128.400 Y61.140 F1000
G1 X127.620 Y61.140 F1000
G1 X127.360 Y60.880 F1000
G1 X126.840 Y60.880 F1000
G1 X126.580 Y60.620 F1000
G1 X125.540 Y60.620 F1000
G1 X125.280 Y60.360 F1000
G1 X124.500 Y60.360 F1000
G1 X124.240 Y60.100 F1000
G1 X123.460 Y60.100 F1000
G1 X123.200 Y59.840 F1000
G1 X122.160 Y59.840 F1000
G1 X121.900 Y59.580 F1000
G1 X120.600 Y59.580 F1000
G1 X120.340 Y59.320 F1000
G1 X119.040 Y59.320 F1000
G1 X118.780 Y59.060 F1000
G1 X117.480 Y59.060 F1000
G1 X117.220 Y58.800 F1000
G1 X115.400 Y58.800 F1000
G1 X115.140 Y58.540 F1000
G1 X113.060 Y58.540 F1000
G1 X112.800 Y58.280 F1000
G1 X109.420 Y58.280 F1000
G1 X109.160 Y58.020 F1000
G1 X100.840 Y58.020 F1000
G1 X100.580 Y58.280 F1000
G1 X97.200 Y58.280 F1000
G1 X96.940 Y58.540 F1000
G1 X94.860 Y58.540 F1000
G1 X94.600 Y58.800 F1000
G1 X92.780 Y58.800 F1000
G1 X92.520 Y59.060 F1000
G1 X91.220 Y59.060 F1000
G1 X90.960 Y59.320 F1000
G1 X89.660 Y59.320 F1000
G1 X89.400 Y59.580 F1000
G1 X88.100 Y59.580 F1000
G1 X87.840 Y59.840 F1000
G1 X86.800 Y59.840 F1000
G1 X86.540 Y60.100 F1000
G1 X85.760 Y60.100 F1000
G1 X85.500 Y60.360 F1000
G1 X84.720 Y60.360 F1000
G1 X84.460 Y60.620 F1000
G1 X83.420 Y60.620 F1000
G1 X83.160 Y60.880 F1000
G1 X82.640 Y60.880 F1000
G1 X82.380 Y61.140 F1000
G1 X81.600 Y61.140 F1000
G1 X81.340 Y61.400 F1000
G1 X80.560 Y61.400 F1000
G1 X80.300 Y61.660 F1000
G1 X79.780 Y61.660 F1000
G1 X79.520 Y61.920 F1000
G1 X78.740 Y61.920 F1000
G1 X78.480 Y62.180 F1000
G1 X77.960 Y62.180 F1000
G1 X77.700 Y62.440 F1000
G1 X77.180 Y62.440 F1000
G1 X76.920 Y62.700 F1000
G1 X76.400 Y62.700 F1000
G1 X76.140 Y62.960 F1000
G1 X75.620 Y62.960 F1000
G1 X75.360 Y63.220 F1000
G1 X74.840 Y63.220 F1000
G1 X74.580 Y63.480 F1000
G1 X74.060 Y63.480 F1000
G1 X73.800 Y63.740 F1000
G1 X73.280 Y63.740 F1000
G1 X73.020 Y64.000 F1000
G1 X72.760 Y64.000 F1000
G1 X72.500 Y64.260 F1000
G1 X71.980 Y64.260 F1000
G1 X71.720 Y64.520 F1000
G1 X71.460 Y64.520 F1000
G1 X71.200 Y64.780 F1000
G1 X70.680 Y64.780 F1000
G1 X70.420 Y65.040 F1000
G1 X70.160 Y65.040 F1000
G1 X69.900 Y65.300 F1000
G1 X69.380 Y65.300 F1000
G1 X69.120 Y65.560 F1000
G1 X68.860 Y65.560 F1000
G1 X68.600 Y65.820 F1000
G1 X68.340 Y65.820 F1000
G1 X68.080 Y66.080 F1000
G1 X67.560 Y66.080 F1000
G1 X67.300 Y66.340 F1000
G1 X67.040 Y66.340 F1000
G1 X66.780 Y66.600 F1000
G1 X66.520 Y66.600 F1000
G1 X66.260 Y66.860 F1000
G1 X66.000 Y66.860 F1000
G1 X65.740 Y67.120 F1000
G1 X65.480 Y67.120 F1000
G1 X65.220 Y67.380 F1000
G1 X64.960 Y67.380 F1000
G1 X64.700 Y67.640 F1000
G1 X64.440 Y67.640 F1000
G1 X64.180 Y67.900 F1000
G1 X63.920 Y67.900 F1000
G1 X63.660 Y68.160 F1000
G1 X63.400 Y68.160 F1000
G1 X63.140 Y68.420 F1000
G1 X62.880 Y68.420 F1000
G1 X62.620 Y68.680 F1000
G1 X62.360 Y68.680 F1000
G1 X62.100 Y68.940 F1000
G1 X61.840 Y68.940 F1000
G1 X61.580 Y69.200 F1000
G1 X61.320 Y69.200 F1000
G1 X60.800 Y69.720 F1000
G1 X60.540 Y69.720 F1000
G1 X60.280 Y69.980 F1000
G1 X60.020 Y69.980 F1000
G1 X59.760 Y70.240 F1000
G1 X59.500 Y70.240 F1000
G1 X58.980 Y70.760 F1000
G1 X58.720 Y70.760 F1000
G1 X58.460 Y71.020 F1000
G1 X58.200 Y71.020 F1000
G1 X57.680 Y71.540 F1000
G1 X57.420 Y71.540 F1000
G1 X57.160 Y71.800 F1000
G1 X56.900 Y71.800 F1000
G1 X56.380 Y72.320 F1000
G1 X56.120 Y72.320 F1000
G1 X55.600 Y72.840 F1000
G1 X55.340 Y72.840 F1000
G1 X55.080 Y73.100 F1000
G1 X54.820 Y73.100 F1000
G1 X54.040 Y73.880 F1000
G1 X53.780 Y73.880 F1000
G1 X53.260 Y74.400 F1000
G1 X53.000 Y74.400 F1000
G1 X52.480 Y74.920 F1000
G1 X52.220 Y74.920 F1000
G1 X51.440 Y75.700 F1000
G1 X51.180 Y75.700 F1000
G1 X50.400 Y76.480 F1000
G1 X50.140 Y76.480 F1000
G1 X49.360 Y77.260 F1000
G1 X49.100 Y77.260 F1000
G1 X48.060 Y78.300 F1000
G1 X47.800 Y78.300 F1000
G1 X46.500 Y79.600 F1000
G1 X46.240 Y79.600 F1000
G1 X44.160 Y81.680 F1000
G1 X43.900 Y81.680 F1000
G1 X38.180 Y87.400 F1000
G1 X38.180 Y87.660 F1000
G1 X36.100 Y89.740 F1000
G1 X36.100 Y90.000 F1000
G1 X34.800 Y91.300 F1000
G1 X34.800 Y91.560 F1000
G1 X33.760 Y92.600 F1000
G1 X33.760 Y92.860 F1000
G1 X32.980 Y93.640 F1000
G1 X32.980 Y93.900 F1000
G1 X32.200 Y94.680 F1000
G1 X32.200 Y94.940 F1000
G1 X31.420 Y95.720 F1000
G1 X31.420 Y95.980 F1000
G1 X30.640 Y96.760 F1000
G1 X30.640 Y97.020 F1000
G1 X30.120 Y97.540 F1000
G1 X30.120 Y97.800 F1000
G1 X29.600 Y98.320 F1000
G1 X29.600 Y98.580 F1000
G1 X29.080 Y99.100 F1000
G1 X29.080 Y99.360 F1000
G1 X28.560 Y99.880 F1000
G1 X28.560 Y100.140 F1000
G1 X28.300 Y100.400 F1000
G1 X28.300 Y100.660 F1000
G1 X27.780 Y101.180 F1000
G1 X27.780 Y101.440 F1000
G1 X27.260 Y101.960 F1000
G1 X27.260 Y102.220 F1000
G1 X27.000 Y102.480 F1000
G1 X27.000 Y102.740 F1000
G1 X26.480 Y103.260 F1000
G1 X26.480 Y103.520 F1000
G1 X26.220 Y103.780 F1000
G1 X26.220 Y104.040 F1000
G1 X25.960 Y104.300 F1000
G1 X25.960 Y104.560 F1000
G1 X25.700 Y104.820 F1000
G1 X25.700 Y105.080 F1000
G1 X25.180 Y105.600 F1000
G1 X25.180 Y105.860 F1000
G1 X24.920 Y106.120 F1000
G1 X24.920 Y106.380 F1000
G1 X24.660 Y106.640 F1000
G1 X24.660 Y106.900 F1000
G1 X24.400 Y107.160 F1000
G1 X24.400 Y107.420 F1000
G1 X24.140 Y107.680 F1000
G1 X24.140 Y107.940 F1000
G1 X23.880 Y108.200 F1000
G1 X23.880 Y108.460 F1000
G1 X23.620 Y108.720 F1000
G1 X23.620 Y108.980 F1000
G1 X23.360 Y109.240 F1000
G1 X23.360 Y109.500 F1000
G1 X23.100 Y109.760 F1000
G1 X23.100 Y110.020 F1000
G1 X22.840 Y110.280 F1000
G1 X22.840 Y110.540 F1000
G1 X22.580 Y110.800 F1000
G1 X22.580 Y111.060 F1000
G1 X22.320 Y111.320 F1000
G1 X22.320 Y111.840 F1000
G1 X22.060 Y112.100 F1000
G1 X22.060 Y112.360 F1000
G1 X21.800 Y112.620 F1000
G1 X21.800 Y112.880 F1000
G1 X21.540 Y113.140 F1000
G1 X21.540 Y113.660 F1000
G1 X21.280 Y113.920 F1000
G1 X21.280 Y114.180 F1000
G1 X21.020 Y114.440 F1000
G1 X21.020 Y114.960 F1000
G1 X20.760 Y115.220 F1000
G1 X20.760 Y115.480 F1000
G1 X20.500 Y115.740 F1000
G1 X20.500 Y116.260 F1000
G1 X20.240 Y116.520 F1000
G1 X20.240 Y116.780 F1000
G1 X19.980 Y117.040 F1000
G1 X19.980 Y117.560 F1000
G1 X19.720 Y117.820 F1000
G1 X19.720 Y118.340 F1000
G1 X19.460 Y118.600 F1000
G1 X19.460 Y119.120 F1000
G1 X19.200 Y119.380 F1000
G1 X19.200 Y119.900 F1000
G1 X18.940 Y120.160 F1000
G1 X18.940 Y120.680 F1000
G1 X18.680 Y120.940 F1000
G1 X18.680 Y121.460 F1000
G1 X18.420 Y121.720 F1000
G1 X18.420 Y122.240 F1000
G1 X18.160 Y122.500 F1000
G1 X18.160 Y123.280 F1000
G1 X17.900 Y123.540 F1000
G1 X17.900 Y124.060 F1000
G1 X17.640 Y124.320 F1000
G1 X17.640 Y125.100 F1000
G1 X17.380 Y125.360 F1000
G1 X17.380 Y126.140 F1000
G1 X17.120 Y126.400 F1000
G1 X17.120 Y126.920 F1000
G1 X16.860 Y127.180 F1000
G1 X16.860 Y128.220 F1000
G1 X16.600 Y128.480 F1000
G1 X16.600 Y129.260 F1000
G1 X16.340 Y129.520 F1000
G1 X16.340 Y130.560 F1000
G1 X16.080 Y130.820 F1000
G1 X16.080 Y131.860 F1000
G1 X15.820 Y132.120 F1000
G1 X15.820 Y133.420 F1000
G1 X15.560 Y133.680 F1000
G1 X15.560 Y134.980 F1000
G1 X15.300 Y135.240 F1000
G1 X15.300 Y137.060 F1000
G1 X15.040 Y137.320 F1000
G1 X15.040 Y139.400 F1000
G1 X14.780 Y139.660 F1000
G1 X14.780 Y143.040 F1000
G1 X14.520 Y143.300 F1000
G1 X14.520 Y153.700 F1000
G1 X14.780 Y153.960 F1000
G1 X14.780 Y157.340 F1000
G1 X15.040 Y157.600 F1000
G1 X15.040 Y159.680 F1000
G1 X15.300 Y159.940 F1000
G1 X15.300 Y161.760 F1000
G1 X15.560 Y162.020 F1000
G1 X15.560 Y163.320 F1000
G1 X15.820 Y163.580 F1000
G1 X15.820 Y164.880 F1000
G1 X16.080 Y165.140 F1000
G1 X16.080 Y166.180 F1000
G1 X16.340 Y166.440 F1000
G1 X16.340 Y167.480 F1000
G1 X16.600 Y167.740 F1000
G1 X16.600 Y168.520 F1000
G1 X16.860 Y168.780 F1000
G1 X16.860 Y169.820 F1000
G1 X17.120 Y170.080 F1000
G1 X17.120 Y170.600 F1000
G1 X17.380 Y170.860 F1000
G1 X17.380 Y171.640 F1000
G1 X17.640 Y171.900 F1000
G1 X17.640 Y172.680 F1000
G1 X17.900 Y172.940 F1000
G1 X17.900 Y173.460 F1000
G1 X18.160 Y173.720 F1000
G1 X18.160 Y174.500 F1000
G1 X18.420 Y174.760 F1000
G1 X18.420 Y175.280 F1000
G1 X18.680 Y175.540 F1000
G1 X18.680 Y176.060 F1000
G1 X18.940 Y176.320 F1000
G1 X18.940 Y176.840 F1000
G1 X19.200 Y177.100 F1000
G1 X19.200 Y177.620 F1000
G1 X19.460 Y177.880 F1000
G1 X19.460 Y178.400 F1000
G1 X19.720 Y178.660 F1000
G1 X19.720 Y179.180 F1000
G1 X19.980 Y179.440 F1000
G1 X19.980 Y179.960 F1000
G1 X20.240 Y180.220 F1000
G1 X20.240 Y180.480 F1000
G1 X20.500 Y180.740 F1000
G1 X20.500 Y181.260 F1000
G1 X20.760 Y181.520 F1000
G1 X20.760 Y181.780 F1000
G1 X21.020 Y182.040 F1000
G1 X21.020 Y182.560 F1000
G1 X21.280 Y182.820 F1000
G1 X21.280 Y183.080 F1000
G1 X21.540 Y183.340 F1000
G1 X21.540 Y183.860 F1000
G1 X21.800 Y184.120 F1000
G1 X21.800 Y184.380 F1000
G1 X22.060 Y184.640 F1000
G1 X22.060 Y184.900 F1000
G1 X22.320 Y185.160 F1000
G1 X22.320 Y185.680 F1000
G1 X22.580 Y185.940 F1000
G1 X22.580 Y186.200 F1000
G1 X22.840 Y186.460 F1000
G1 X22.840 Y186.720 F1000
G1 X23.100 Y186.980 F1000
G1 X23.100 Y187.240 F1000
G1 X23.360 Y187.500 F1000
G1 X23.360 Y187.760 F1000
G1 X23.620 Y188.020 F1000
G1 X23.620 Y188.280 F1000
G1 X23.880 Y188.540 F1000
G1 X23.880 Y188.800 F1000
G1 X24.140 Y189.060 F1000
G1 X24.140 Y189.320 F1000
G1 X24.400 Y189.580 F1000
G1 X24.400 Y189.840 F1000
G1 X24.660 Y190.100 F1000
G1 X24.660 Y190.360 F1000
G1 X24.920 Y190.620 F1000
G1 X24.920 Y190.880 F1000
G1 X25.180 Y191.140 F1000
G1 X25.180 Y191.400 F1000
G1 X25.700 Y191.920 F1000
G1 X25.700 Y192.180 F1000
G1 X25.960 Y192.440 F1000
G1 X25.960 Y192.700 F1000
G1 X26.220 Y192.960 F1000
G1 X26.220 Y193.220 F1000
G1 X26.480 Y193.480 F1000
G1 X26.480 Y193.740 F1000
G1 X27.000 Y194.260 F1000
G1 X27.000 Y194.520 F1000
G1 X27.260 Y194.780 F1000
G1 X27.260 Y195.040 F1000
G1 X27.780 Y195.560 F1000
G1 X27.780 Y195.820 F1000
G1 X28.300 Y196.340 F1000
G1 X28.300 Y196.600 F1000
G1 X28.560 Y196.860 F1000
G1 X28.560 Y197.120 F1000
G1 X29.080 Y197.640 F1000
G1 X29.080 Y197.900 F1000
G1 X29.600 Y198.420 F1000
G1 X29.600 Y198.680 F1000
G1 X30.120 Y199.200 F1000
G1 X30.120 Y199.460 F1000
G1 X30.640 Y199.980 F1000
G1 X30.640 Y200.240 F1000
G1 X31.420 Y201.020 F1000
G1 X31.420 Y201.280 F1000
G1 X32.200 Y202.060 F1000
G1 X32.200 Y202.320 F1000
G1 X32.980 Y203.100 F1000
G1 X32.980 Y203.360 F1000
G1 X33.760 Y204.140 F1000
G1 X33.760 Y204.400 F1000
G1 X34.800 Y205.440 F1000
G1 X34.800 Y205.700 F1000
G1 X36.100 Y207.000 F1000
G1 X36.100 Y207.260 F1000
G1 X38.180 Y209.340 F1000
G1 X38.180 Y209.600 F1000
G1 X43.900 Y215.320 F1000
G1 X44.160 Y215.320 F1000
G1 X46.240 Y217.400 F1000
G1 X46.500 Y217.400 F1000
G1 X47.800 Y218.700 F1000
G1 X48.060 Y218.700 F1000
G1 X49.100 Y219.740 F1000
G1 X49.360 Y219.740 F1000
G1 X50.140 Y220.520 F1000
G1 X50.400 Y220.520 F1000
G1 X51.180 Y221.300 F1000
G1 X51.440 Y221.300 F1000
G1 X52.220 Y222.080 F1000
G1 X52.480 Y222.080 F1000
G1 X53.260 Y222.860 F1000
G1 X53.520 Y222.860 F1000
G1 X54.040 Y223.380 F1000
G1 X54.300 Y223.380 F1000
G1 X54.820 Y223.900 F1000
G1 X55.080 Y223.900 F1000
G1 X55.600 Y224.420 F1000
G1 X55.860 Y224.420 F1000
G1 X56.380 Y224.940 F1000
G1 X56.640 Y224.940 F1000
G1 X56.900 Y225.200 F1000
G1 X57.160 Y225.200 F1000
G1 X57.680 Y225.720 F1000
G1 X57.940 Y225.720 F1000
G1 X58.460 Y226.240 F1000
G1 X58.720 Y226.240 F1000
G1 X58.980 Y226.500 F1000
G1 X59.240 Y226.500 F1000
G1 X59.760 Y227.020 F1000
G1 X60.020 Y227.020 F1000
G1 X60.280 Y227.280 F1000
G1 X60.540 Y227.280 F1000
G1 X60.800 Y227.540 F1000
G1 X61.060 Y227.540 F1000
G1 X61.320 Y227.800 F1000
G1 X61.580 Y227.800 F1000
G1 X62.100 Y228.320 F1000
G1 X62.360 Y228.320 F1000
G1 X62.620 Y228.580 F1000
G1 X62.880 Y228.580 F1000
G1 X63.140 Y228.840 F1000
G1 X63.400 Y228.840 F1000
G1 X63.660 Y229.100 F1000
G1 X63.920 Y229.100 F1000
G1 X64.180 Y229.360 F1000
G1 X64.440 Y229.360 F1000
G1 X64.700 Y229.620 F1000
G1 X64.960 Y229.620 F1000
G1 X65.220 Y229.880 F1000
G1 X65.480 Y229.880 F1000
G1 X65.740 Y230.140 F1000
G1 X66.000 Y230.140 F1000
G1 X66.260 Y230.400 F1000
G1 X66.520 Y230.400 F1000
G1 X66.780 Y230.660 F1000
G1 X67.040 Y230.660 F1000
G1 X67.300 Y230.920 F1000
G1 X67.560 Y230.920 F1000
G1 X67.820 Y231.180 F1000
G1 X68.340 Y231.180 F1000
G1 X68.600 Y231.440 F1000
G1 X68.860 Y231.440 F1000
G1 X69.120 Y231.700 F1000
G1 X69.380 Y231.700 F1000
G1 X69.640 Y231.960 F1000
G1 X70.160 Y231.960 F1000
G1 X70.420 Y232.220 F1000
G1 X70.680 Y232.220 F1000
G1 X70.940 Y232.480 F1000
G1 X71.460 Y232.480 F1000
G1 X71.720 Y232.740 F1000
G1 X71.980 Y232.740 F1000
G1 X72.240 Y233.000 F1000
G1 X72.760 Y233.000 F1000
G1 X73.020 Y233.260 F1000
G1 X73.280 Y233.260 F1000
G1 X73.540 Y233.520 F1000
G1 X74.060 Y233.520 F1000
G1 X74.320 Y233.780 F1000
G1 X74.840 Y233.780 F1000
G1 X75.100 Y234.040 F1000
G1 X75.620 Y234.040 F1000
G1 X75.880 Y234.300 F1000
G1 X76.400 Y234.300 F1000
G1 X76.660 Y234.560 F1000
G1 X77.180 Y234.560 F1000
G1 X77.440 Y234.820 F1000
G1 X77.960 Y234.820 F1000
G1 X78.220 Y235.080 F1000
G1 X78.740 Y235.080 F1000
G1 X79.000 Y235.340 F1000
G1 X79.780 Y235.340 F1000
G1 X80.040 Y235.600 F1000
G1 X80.560 Y235.600 F1000
G1 X80.820 Y235.860 F1000
G1 X81.600 Y235.860 F1000
G1 X81.860 Y236.120 F1000
G1 X82.640 Y236.120 F1000
G1 X82.900 Y236.380 F1000
G1 X83.420 Y236.380 F1000
G1 X83.680 Y236.640 F1000
G1 X84.720 Y236.640 F1000
G1 X84.980 Y236.900 F1000
G1 X85.760 Y236.900 F1000
G1 X86.020 Y237.160 F1000
G1 X87.060 Y237.160 F1000
G1 X87.320 Y237.420 F1000
G1 X88.360 Y237.420 F1000
G1 X88.620 Y237.680 F1000
G1 X89.920 Y237.680 F1000
G1 X90.180 Y237.940 F1000
G1 X91.480 Y237.940 F1000
G1 X91.740 Y238.200 F1000
G1 X93.560 Y238.200 F1000
G1 X93.820 Y238.460 F1000
G1 X95.900 Y238.460 F1000
G1 X96.160 Y238.720 F1000
G0 Z3.0 ; Pen up

G0 X99.800 Y238.980 F3000 ; Travel to line 420
G0 Z0.0 ; Pen down
G1 X99.540 Y238.720 F1000
G1 X96.160 Y238.720 F1000
G1 X95.900 Y238.460 F1000
G1 X93.820 Y238.460 F1000
G1 X93.560 Y238.200 F1000
G1 X91.740 Y238.200 F1000
G1 X91.480 Y237.940 F1000
G1 X90.180 Y237.940 F1000
G1 X89.920 Y237.680 F1000
G1 X88.620 Y237.680 F1000
G1 X88.360 Y237.420 F1000
G1 X87.320 Y237.420 F1000
G1 X87.060 Y237.160 F1000
G1 X86.020 Y237.160 F1000
G1 X85.760 Y236.900 F1000
G1 X84.720 Y236.900 F1000
G1 X84.460 Y236.640 F1000
G1 X83.680 Y236.640 F1000
G1 X83.420 Y236.380 F1000
G1 X82.640 Y236.380 F1000
G1 X82.380 Y236.120 F1000
G1 X81.600 Y236.120 F1000
G1 X81.340 Y235.860 F1000
G1 X80.560 Y235.860 F1000
G1 X80.300 Y235.600 F1000
G1 X79.780 Y235.600 F1000
G1 X79.520 Y235.340 F1000
G1 X78.740 Y235.340 F1000
G1 X78.480 Y235.080 F1000
G1 X77.960 Y235.080 F1000
G1 X77.700 Y234.820 F1000
G1 X77.180 Y234.820 F1000
G1 X76.920 Y234.560 F1000
G1 X76.400 Y234.560 F1000
G1 X76.140 Y234.300 F1000
G1 X75.620 Y234.300 F1000
G1 X75.360 Y234.040 F1000
G1 X74.840 Y234.040 F1000
G1 X74.580 Y233.780 F1000
G1 X74.320 Y233.780 F1000
G1 X74.060 Y233.520 F1000
G1 X73.540 Y233.520 F1000
G1 X73.280 Y233.260 F1000
G1 X72.760 Y233.260 F1000
G1 X72.500 Y233.000 F1000
G1 X72.240 Y233.000 F1000
G1 X71.980 Y232.740 F1000
G1 X71.460 Y232.740 F1000
G1 X71.200 Y232.480 F1000
G1 X70.940 Y232.480 F1000
G1 X70.680 Y232.220 F1000
G1 X70.420 Y232.220 F1000
G1 X70.160 Y231.960 F1000
G1 X69.640 Y231.960 F1000
G1 X69.380 Y231.700 F1000
G1 X69.120 Y231.700 F1000
G1 X68.860 Y231.440 F1000
G1 X68.600 Y231.440 F1000
G1 X68.340 Y231.180 F1000
G1 X67.820 Y231.180 F1000
G1 X67.560 Y230.920 F1000
G1 X67.300 Y230.920 F1000
G1 X67.040 Y230.660 F1000
G1 X66.780 Y230.660 F1000
G1 X66.520 Y230.400 F1000
G1 X66.260 Y230.400 F1000
G1 X66.000 Y230.140 F1000
G1 X65.740 Y230.140 F1000
G1 X65.480 Y229.880 F1000
G1 X65.220 Y229.880 F1000
G1 X64.960 Y229.620 F1000
G1 X64.700 Y229.620 F1000
G1 X64.440 Y229.360 F1000
G1 X64.180 Y229.360 F1000
G1 X63.920 Y229.100 F1000
G1 X63.660 Y229.100 F1000
G1 X63.400 Y228.840 F1000
G1 X63.140 Y228.840 F1000
G1 X62.880 Y228.580 F1000
G1 X62.620 Y228.580 F1000
G1 X62.360 Y228.320 F1000
G1 X62.100 Y228.320 F1000
G1 X61.580 Y227.800 F1000
G1 X61.320 Y227.800 F1000
G1 X61.060 Y227.540 F1000
G1 X60.800 Y227.540 F1000
G1 X60.540 Y227.280 F1000
G1 X60.280 Y227.280 F1000
G1 X60.020 Y227.020 F1000
G1 X59.760 Y227.020 F1000
G1 X59.240 Y226.500 F1000
G1 X58.980 Y226.500 F1000
G1 X58.720 Y226.240 F1000
G1 X58.460 Y226.240 F1000
G1 X57.940 Y225.720 F1000
G1 X57.680 Y225.720 F1000
G1 X57.160 Y225.200 F1000
G1 X56.900 Y225.200 F1000
G1 X56.640 Y224.940 F1000
G1 X56.380 Y224.940 F1000
G1 X55.860 Y224.420 F1000
G1 X55.600 Y224.420 F1000
G1 X55.080 Y223.900 F1000
G1 X54.820 Y223.900 F1000
G1 X54.300 Y223.380 F1000
G1 X54.040 Y223.380 F1000
G1 X53.520 Y222.860 F1000
G1 X53.260 Y222.860 F1000
G1 X52.480 Y222.080 F1000
G1 X52.220 Y222.080 F1000
G1 X51.440 Y221.300 F1000
G1 X51.180 Y221.300 F1000
G1 X50.400 Y220.520 F1000
G1 X50.140 Y220.520 F1000
G1 X49.360 Y219.740 F1000
G1 X49.100 Y219.740 F1000
G1 X48.060 Y218.700 F1000
G1 X47.800 Y218.700 F1000
G1 X46.760 Y217.660 F1000
G1 X46.500 Y217.660 F1000
G1 X44.680 Y215.840 F1000
G1 X44.420 Y215.840 F1000
G1 X37.660 Y209.080 F1000
G1 X37.660 Y208.820 F1000
G1 X35.840 Y207.000 F1000
G1 X35.840 Y206.740 F1000
G1 X34.800 Y205.700 F1000
G1 X34.800 Y205.440 F1000
G1 X33.760 Y204.400 F1000
G1 X33.760 Y204.140 F1000
G1 X32.980 Y203.360 F1000
G1 X32.980 Y203.100 F1000
G1 X32.200 Y202.320 F1000
G1 X32.200 Y202.060 F1000
G1 X31.420 Y201.280 F1000
G1 X31.420 Y201.020 F1000
G1 X30.640 Y200.240 F1000
G1 X30.640 Y199.980 F1000
G1 X30.120 Y199.460 F1000
G1 X30.120 Y199.200 F1000
G1 X29.600 Y198.680 F1000
G1 X29.600 Y198.420 F1000
G1 X29.080 Y197.900 F1000
G1 X29.080 Y197.640 F1000
G1 X28.560 Y197.120 F1000
G1 X28.560 Y196.860 F1000
G1 X28.300 Y196.600 F1000
G1 X28.300 Y196.340 F1000
G1 X27.780 Y195.820 F1000
G1 X27.780 Y195.560 F1000
G1 X27.260 Y195.040 F1000
G1 X27.260 Y194.780 F1000
G1 X27.000 Y194.520 F1000
G1 X27.000 Y194.260 F1000
G1 X26.480 Y193.740 F1000
G1 X26.480 Y193.480 F1000
G1 X26.220 Y193.220 F1000
G1 X26.220 Y192.960 F1000
G1 X25.960 Y192.700 F1000
G1 X25.960 Y192.440 F1000
G1 X25.700 Y192.180 F1000
G1 X25.700 Y191.920 F1000
G1 X25.180 Y191.400 F1000
G1 X25.180 Y191.140 F1000
G1 X24.920 Y190.880 F1000
G1 X24.920 Y190.620 F1000
G1 X24.660 Y190.360 F1000
G1 X24.660 Y190.100 F1000
G1 X24.400 Y189.840 F1000
G1 X24.400 Y189.580 F1000
G1 X24.140 Y189.320 F1000
G1 X24.140 Y189.060 F1000
G1 X23.880 Y188.800 F1000
G1 X23.880 Y188.540 F1000
G1 X23.620 Y188.280 F1000
G1 X23.620 Y188.020 F1000
G1 X23.360 Y187.760 F1000
G1 X23.360 Y187.500 F1000
G1 X23.100 Y187.240 F1000
G1 X23.100 Y186.980 F1000
G1 X22.840 Y186.720 F1000
G1 X22.840 Y186.460 F1000
G1 X22.580 Y186.200 F1000
G1 X22.580 Y185.940 F1000
G1 X22.320 Y185.680 F1000
G1 X22.320 Y185.160 F1000
G1 X22.060 Y184.900 F1000
G1 X22.060 Y184.640 F1000
G1 X21.800 Y184.380 F1000
G1 X21.800 Y184.120 F1000
G1 X21.540 Y183.860 F1000
G1 X21.540 Y183.340 F1000
G1 X21.280 Y183.080 F1000
G1 X21.280 Y182.820 F1000
G1 X21.020 Y182.560 F1000
G1 X21.020 Y182.300 F1000
G1 X20.760 Y182.040 F1000
G1 X20.760 Y181.520 F1000
G1 X20.500 Y181.260 F1000
G1 X20.500 Y181.000 F1000
G1 X20.240 Y180.740 F1000
G1 X20.240 Y180.220 F1000
G1 X19.980 Y179.960 F1000
G1 X19.980 Y179.440 F1000
G1 X19.720 Y179.180 F1000
G1 X19.720 Y178.920 F1000
G1 X19.460 Y178.660 F1000
G1 X19.460 Y178.140 F1000
G1 X19.200 Y177.880 F1000
G1 X19.200 Y177.360 F1000
G1 X18.940 Y177.100 F1000
G1 X18.940 Y176.580 F1000
G1 X18.680 Y176.320 F1000
G1 X18.680 Y175.800 F1000
G1 X18.420 Y175.540 F1000
G1 X18.420 Y175.020 F1000
G1 X18.160 Y174.760 F1000
G1 X18.160 Y173.980 F1000
G1 X17.900 Y173.720 F1000
G1 X17.900 Y173.200 F1000
G1 X17.640 Y172.940 F1000
G1 X17.640 Y172.160 F1000
G1 X17.380 Y171.900 F1000
G1 X17.380 Y171.120 F1000
G1 X17.120 Y170.860 F1000
G1 X17.120 Y170.080 F1000
G1 X16.860 Y169.820 F1000
G1 X16.860 Y169.040 F1000
G1 X16.600 Y168.780 F1000
G1 X16.600 Y167.740 F1000
G1 X16.340 Y167.480 F1000
G1 X16.340 Y166.440 F1000
G1 X16.080 Y166.180 F1000
G1 X16.080 Y165.140 F1000
G1 X15.820 Y164.880 F1000
G1 X15.820 Y163.580 F1000
G1 X15.560 Y163.320 F1000
G1 X15.560 Y162.020 F1000
G1 X15.300 Y161.760 F1000
G1 X15.300 Y159.940 F1000
G1 X15.040 Y159.680 F1000
G1 X15.040 Y157.600 F1000
G1 X14.780 Y157.340 F1000
G1 X14.780 Y153.960 F1000
G1 X14.520 Y153.700 F1000
G1 X14.520 Y143.300 F1000
G1 X14.780 Y143.040 F1000
G1 X14.780 Y139.660 F1000
G1 X15.040 Y139.400 F1000
G1 X15.040 Y137.320 F1000
G1 X15.300 Y137.060 F1000
G1 X15.300 Y135.240 F1000
G1 X15.560 Y134.980 F1000
G1 X15.560 Y133.680 F1000
G1 X15.820 Y133.420 F1000
G1 X15.820 Y132.120 F1000
G1 X16.080 Y131.860 F1000
G1 X16.080 Y130.820 F1000
G1 X16.340 Y130.560 F1000
G1 X16.340 Y129.520 F1000
G1 X16.600 Y129.260 F1000
G1 X16.600 Y128.220 F1000
G1 X16.860 Y127.960 F1000
G1 X16.860 Y127.180 F1000
G1 X17.120 Y126.920 F1000
G1 X17.120 Y126.140 F1000
G1 X17.380 Y125.880 F1000
G1 X17.380 Y125.100 F1000
G1 X17.640 Y124.840 F1000
G1 X17.640 Y124.060 F1000
G1 X17.900 Y123.800 F1000
G1 X17.900 Y123.280 F1000
G1 X18.160 Y123.020 F1000
G1 X18.160 Y122.240 F1000
G1 X18.420 Y121.980 F1000
G1 X18.420 Y121.460 F1000
G1 X18.680 Y121.200 F1000
G1 X18.680 Y120.680 F1000
G1 X18.940 Y120.420 F1000
G1 X18.940 Y119.900 F1000
G1 X19.200 Y119.640 F1000
G1 X19.200 Y119.120 F1000
G1 X19.460 Y118.860 F1000
G1 X19.460 Y118.340 F1000
G1 X19.720 Y118.080 F1000
G1 X19.720 Y117.820 F1000
G1 X19.980 Y117.560 F1000
G1 X19.980 Y117.040 F1000
G1 X20.240 Y116.780 F1000
G1 X20.240 Y116.260 F1000
G1 X20.500 Y116.000 F1000
G1 X20.500 Y115.740 F1000
G1 X20.760 Y115.480 F1000
G1 X20.760 Y114.960 F1000
G1 X21.020 Y114.700 F1000
G1 X21.020 Y114.440 F1000
G1 X21.280 Y114.180 F1000
G1 X21.280 Y113.920 F1000
G1 X21.540 Y113.660 F1000
G1 X21.540 Y113.140 F1000
G1 X21.800 Y112.880 F1000
G1 X21.800 Y112.620 F1000
G1 X22.060 Y112.360 F1000
G1 X22.060 Y112.100 F1000
G1 X22.320 Y111.840 F1000
G1 X22.320 Y111.320 F1000
G1 X22.580 Y111.060 F1000
G1 X22.580 Y110.800 F1000
G1 X22.840 Y110.540 F1000
G1 X22.840 Y110.280 F1000
G1 X23.100 Y110.020 F1000
G1 X23.100 Y109.760 F1000
G1 X23.360 Y109.500 F1000
G1 X23.360 Y109.240 F1000
G1 X23.620 Y108.980 F1000
G1 X23.620 Y108.720 F1000
G1 X23.880 Y108.460 F1000
G1 X23.880 Y108.200 F1000
G1 X24.140 Y107.940 F1000
G1 X24.140 Y107.680 F1000
G1 X24.400 Y107.420 F1000
G1 X24.400 Y107.160 F1000
G1 X24.660 Y106.900 F1000
G1 X24.660 Y106.640 F1000
G1 X24.920 Y106.380 F1000
G1 X24.920 Y106.120 F1000
G1 X25.180 Y105.860 F1000
G1 X25.180 Y105.600 F1000
G1 X25.700 Y105.080 F1000
G1 X25.700 Y104.820 F1000
G1 X25.960 Y104.560 F1000
G1 X25.960 Y104.300 F1000
G1 X26.220 Y104.040 F1000
G1 X26.220 Y103.780 F1000
G1 X26.480 Y103.520 F1000
G1 X26.480 Y103.260 F1000
G1 X27.000 Y102.740 F1000
G1 X27.000 Y102.480 F1000
G1 X27.260 Y102.220 F1000
G1 X27.260 Y101.960 F1000
G1 X27.780 Y101.440 F1000
G1 X27.780 Y101.180 F1000
G1 X28.300 Y100.660 F1000
G1 X28.300 Y100.400 F1000
G1 X28.560 Y100.140 F1000
G1 X28.560 Y99.880 F1000
G1 X29.080 Y99.360 F1000
G1 X29.080 Y99.100 F1000
G1 X29.600 Y98.580 F1000
G1 X29.600 Y98.320 F1000
G1 X30.120 Y97.800 F1000
G1 X30.120 Y97.540 F1000
G1 X30.640 Y97.020 F1000
G1 X30.640 Y96.760 F1000
G1 X31.420 Y95.980 F1000
G1 X31.420 Y95.720 F1000
G1 X32.200 Y94.940 F1000
G1 X32.200 Y94.680 F1000
G1 X32.980 Y93.900 F1000
G1 X32.980 Y93.640 F1000
G1 X33.760 Y92.860 F1000
G1 X33.760 Y92.600 F1000
G1 X34.800 Y91.560 F1000
G1 X34.800 Y91.300 F1000
G1 X35.840 Y90.260 F1000
G1 X35.840 Y90.000 F1000
G1 X37.660 Y88.180 F1000
G1 X37.660 Y87.920 F1000
G1 X44.420 Y81.160 F1000
G1 X44.680 Y81.160 F1000
G1 X46.500 Y79.340 F1000
G1 X46.760 Y79.340 F1000
G1 X47.800 Y78.300 F1000
G1 X48.060 Y78.300 F1000
G1 X49.100 Y77.260 F1000
G1 X49.360 Y77.260 F1000
G1 X50.140 Y76.480 F1000
G1 X50.400 Y76.480 F1000
G1 X51.180 Y75.700 F1000
G1 X51.440 Y75.700 F1000
G1 X52.220 Y74.920 F1000
G1 X52.480 Y74.920 F1000
G1 X53.000 Y74.400 F1000
G1 X53.260 Y74.400 F1000
G1 X53.780 Y73.880 F1000
G1 X54.040 Y73.880 F1000
G1 X54.820 Y73.100 F1000
G1 X55.080 Y73.100 F1000
G1 X55.340 Y72.840 F1000
G1 X55.600 Y72.840 F1000
G1 X56.120 Y72.320 F1000
G1 X56.380 Y72.320 F1000
G1 X56.900 Y71.800 F1000
G1 X57.160 Y71.800 F1000
G1 X57.420 Y71.540 F1000
G1 X57.680 Y71.540 F1000
G1 X58.200 Y71.020 F1000
G1 X58.460 Y71.020 F1000
G1 X58.720 Y70.760 F1000
G1 X58.980 Y70.760 F1000
G1 X59.500 Y70.240 F1000
G1 X59.760 Y70.240 F1000
G1 X60.020 Y69.980 F1000
G1 X60.280 Y69.980 F1000
G1 X60.540 Y69.720 F1000
G1 X60.800 Y69.720 F1000
G1 X61.320 Y69.200 F1000
G1 X61.580 Y69.200 F1000
G1 X61.840 Y68.940 F1000
G1 X62.100 Y68.940 F1000
G1 X62.360 Y68.680 F1000
G1 X62.620 Y68.680 F1000
G1 X62.880 Y68.420 F1000
G1 X63.140 Y68.420 F1000
G1 X63.400 Y68.160 F1000
G1 X63.660 Y68.160 F1000
G1 X63.920 Y67.900 F1000
G1 X64.180 Y67.900 F1000
G1 X64.440 Y67.640 F1000
G1 X64.700 Y67.640 F1000
G1 X64.960 Y67.380 F1000
G1 X65.220 Y67.380 F1000
G1 X65.480 Y67.120 F1000
G1 X65.740 Y67.120 F1000
G1 X66.000 Y66.860 F1000
G1 X66.260 Y66.860 F1000
G1 X66.520 Y66.600 F1000
G1 X66.780 Y66.600 F1000
G1 X67.040 Y66.340 F1000
G1 X67.300 Y66.340 F1000
G1 X67.560 Y66.080 F1000
G1 X68.080 Y66.080 F1000
G1 X68.340 Y65.820 F1000
G1 X68.600 Y65.820 F1000
G1 X68.860 Y65.560 F1000
G1 X69.120 Y65.560 F1000
G1 X69.380 Y65.300 F1000
G1 X69.900 Y65.300 F1000
G1 X70.160 Y65.040 F1000
G1 X70.420 Y65.040 F1000
G1 X70.680 Y64.780 F1000
G1 X70.940 Y64.780 F1000
G1 X71.200 Y64.520 F1000
G1 X71.720 Y64.520 F1000
G1 X71.980 Y64.260 F1000
G1 X72.240 Y64.260 F1000
G1 X72.500 Y64.000 F1000
G1 X73.020 Y64.000 F1000
G1 X73.280 Y63.740 F1000
G1 X73.800 Y63.740 F1000
G1 X74.060 Y63.480 F1000
G1 X74.320 Y63.480 F1000
G1 X74.580 Y63.220 F1000
G1 X75.100 Y63.220 F1000
G1 X75.360 Y62.960 F1000
G1 X75.880 Y62.960 F1000
G1 X76.140 Y62.700 F1000
G1 X76.660 Y62.700 F1000
G1 X76.920 Y62.440 F1000
G1 X77.440 Y62.440 F1000
G1 X77.700 Y62.180 F1000
G1 X78.220 Y62.180 F1000
G1 X78.480 Y61.920 F1000
G1 X79.260 Y61.920 F1000
G1 X79.520 Y61.660 F1000
G1 X80.040 Y61.660 F1000
G1 X80.300 Y61.400 F1000
G1 X81.080 Y61.400 F1000
G1 X81.340 Y61.140 F1000
G1 X82.120 Y61.140 F1000
G1 X82.380 Y60.880 F1000
G1 X83.160 Y60.880 F1000
G1 X83.420 Y60.620 F1000
G1 X84.200 Y60.620 F1000
G1 X84.460 Y60.360 F1000
G1 X85.500 Y60.360 F1000
G1 X85.760 Y60.100 F1000
G1 X86.540 Y60.100 F1000
G1 X86.800 Y59.840 F1000
G1 X87.840 Y59.840 F1000
G1 X88.100 Y59.580 F1000
G1 X89.400 Y59.580 F1000
G1 X89.660 Y59.320 F1000
G1 X90.960 Y59.320 F1000
G1 X91.220 Y59.060 F1000
G1 X92.520 Y59.060 F1000
G1 X92.780 Y58.800 F1000
G1 X94.600 Y58.800 F1000
G1 X94.860 Y58.540 F1000
G1 X96.940 Y58.540 F1000
G1 X97.200 Y58.280 F1000
G1 X100.580 Y58.280 F1000
G1 X100.840 Y58.020 F1000
G1 X109.160 Y58.020 F1000
G1 X109.420 Y58.280 F1000
G1 X112.800 Y58.280 F1000
G1 X113.060 Y58.540 F1000
G1 X115.140 Y58.540 F1000
G1 X115.400 Y58.800 F1000
G1 X117.220 Y58.800 F1000
G1 X117.480 Y59.060 F1000
G1 X118.780 Y59.060 F1000
G1 X119.040 Y59.320 F1000
G1 X120.340 Y59.320 F1000
G1 X120.600 Y59.580 F1000
G1 X121.900 Y59.580 F1000
G1 X122.160 Y59.840 F1000
G1 X123.200 Y59.840 F1000
G1 X123.460 Y60.100 F1000
G1 X124.240 Y60.100 F1000
G1 X124.500 Y60.360 F1000
G1 X125.540 Y60.360 F1000
G1 X125.800 Y60.620 F1000
G1 X126.580 Y60.620 F1000
G1 X126.840 Y60.880 F1000
G1 X127.620 Y60.880 F1000
G1 X127.880 Y61.140 F1000
G1 X128.660 Y61.140 F1000
G1 X128.920 Y61.400 F1000
G1 X129.700 Y61.400 F1000
G1 X129.960 Y61.660 F1000
G1 X130.480 Y61.660 F1000
G1 X130.740 Y61.920 F1000
G1 X131.520 Y61.920 F1000
G1 X131.780 Y62.180 F1000
G1 X132.300 Y62.180 F1000
G1 X132.560 Y62.440 F1000
G1 X133.080 Y62.440 F1000
G1 X133.340 Y62.700 F1000
G1 X133.860 Y62.700 F1000
G1 X134.120 Y62.960 F1000
G1 X134.640 Y62.960 F1000
G1 X134.900 Y63.220 F1000
G1 X135.420 Y63.220 F1000
G1 X135.680 Y63.480 F1000
G1 X135.940 Y63.480 F1000
G1 X136.200 Y63.740 F1000
G1 X136.720 Y63.740 F1000
G1 X136.980 Y64.000 F1000
G1 X137.500 Y64.000 F1000
G1 X137.760 Y64.260 F1000
G1 X138.020 Y64.260 F1000
G1 X138.280 Y64.520 F1000
G1 X138.800 Y64.520 F1000
G1 X139.060 Y64.780 F1000
G1 X139.320 Y64.780 F1000
G1 X139.580 Y65.040 F1000
G1 X139.840 Y65.040 F1000
G1 X140.100 Y65.300 F1000
G1 X140.620 Y65.300 F1000
G1 X140.880 Y65.560 F1000
G1 X141.140 Y65.560 F1000
G1 X141.400 Y65.820 F1000
G1 X141.660 Y65.820 F1000
G1 X141.920 Y66.080 F1000
G1 X142.440 Y66.080 F1000
G1 X142.700 Y66.340 F1000
G1 X142.960 Y66.340 F1000
G1 X143.220 Y66.600 F1000
G1 X143.480 Y66.600 F1000
G1 X143.740 Y66.860 F1000
G1 X144.000 Y66.860 F1000
G1 X144.260 Y67.120 F1000
G1 X144.520 Y67.120 F1000
G1 X144.780 Y67.380 F1000
G1 X145.040 Y67.380 F1000
G1 X145.300 Y67.640 F1000
G1 X145.560 Y67.640 F1000
G1 X145.820 Y67.900 F1000
G1 X146.080 Y67.900 F1000
G1 X146.340 Y68.160 F1000
G1 X146.600 Y68.160 F1000
G1 X146.860 Y68.420 F1000
G1 X147.120 Y68.420 F1000
G1 X147.380 Y68.680 F1000
G1 X147.640 Y68.680 F1000
G1 X147.900 Y68.940 F1000
G1 X148.160 Y68.940 F1000
G1 X148.420 Y69.200 F1000
G1 X148.680 Y69.200 F1000
G1 X149.200 Y69.720 F1000
G1 X149.460 Y69.720 F1000
G1 X149.720 Y69.980 F1000
G1 X149.980 Y69.980 F1000
G1 X150.240 Y70.240 F1000
G1 X150.500 Y70.240 F1000
G1 X151.020 Y70.760 F1000
G1 X151.280 Y70.760 F1000
G1 X151.540 Y71.020 F1000
G1 X151.800 Y71.020 F1000
G1 X152.320 Y71.540 F1000
G1 X152.580 Y71.540 F1000
G1 X152.840 Y71.800 F1000
G1 X153.100 Y71.800 F1000
G1 X153.620 Y72.320 F1000
G1 X153.880 Y72.320 F1000
G1 X154.400 Y72.840 F1000
G1 X154.660 Y72.840 F1000
G1 X154.920 Y73.100 F1000
G1 X155.180 Y73.100 F1000
G1 X155.960 Y73.880 F1000
G1 X156.220 Y73.880 F1000
G1 X156.740 Y74.400 F1000
G1 X157.000 Y74.400 F1000
G1 X157.520 Y74.920 F1000
G1 X157.780 Y74.920 F1000
G1 X158.560 Y75.700 F1000
G1 X158.820 Y75.700 F1000
G1 X159.600 Y76.480 F1000
G1 X159.860 Y76.480 F1000
G1 X160.640 Y77.260 F1000
G1 X160.900 Y77.260 F1000
G1 X161.940 Y78.300 F1000
G1 X162.200 Y78.300 F1000
G1 X163.240 Y79.340 F1000
G1 X163.500 Y79.340 F1000
G1 X165.320 Y81.160 F1000
G1 X165.580 Y81.160 F1000
G1 X172.340 Y87.920 F1000
G1 X172.340 Y88.180 F1000
G1 X174.160 Y90.000 F1000
G1 X174.160 Y90.260 F1000
G1 X175.200 Y91.300 F1000
G1 X175.200 Y91.560 F1000
G1 X176.240 Y92.600 F1000
G1 X176.240 Y92.860 F1000
G1 X177.020 Y93.640 F1000
G1 X177.020 Y93.900 F1000
G1 X177.800 Y94.680 F1000
G1 X177.800 Y94.940 F1000
G1 X178.580 Y95.720 F1000
G1 X178.580 Y95.980 F1000
G1 X179.100 Y96.500 F1000
G1 X179.100 Y96.760 F1000
G1 X179.620 Y97.280 F1000
G1 X179.620 Y97.540 F1000
G1 X180.400 Y98.320 F1000
G1 X180.400 Y98.580 F1000
G1 X180.660 Y98.840 F1000
G1 X180.660 Y99.100 F1000
G1 X181.180 Y99.620 F1000
G1 X181.180 Y99.880 F1000
G1 X181.700 Y100.400 F1000
G1 X181.700 Y100.660 F1000
G1 X181.960 Y100.920 F1000
G1 X181.960 Y101.180 F1000
G1 X182.480 Y101.700 F1000
G1 X182.480 Y101.960 F1000
G1 X182.740 Y102.220 F1000
G1 X182.740 Y102.480 F1000
G1 X183.260 Y103.000 F1000
G1 X183.260 Y103.260 F1000
G1 X183.520 Y103.520 F1000
G1 X183.520 Y103.780 F1000
G1 X183.780 Y104.040 F1000
G1 X183.780 Y104.300 F1000
G1 X184.300 Y104.820 F1000
G1 X184.300 Y105.080 F1000
G1 X184.560 Y105.340 F1000
G1 X184.560 Y105.600 F1000
G1 X184.820 Y105.860 F1000
G1 X184.820 Y106.120 F1000
G1 X185.080 Y106.380 F1000
G1 X185.080 Y106.640 F1000
G1 X185.340 Y106.900 F1000
G1 X185.340 Y107.160 F1000
G1 X185.600 Y107.420 F1000
G1 X185.600 Y107.680 F1000
G1 X185.860 Y107.940 F1000
G1 X185.860 Y108.200 F1000
G1 X186.120 Y108.460 F1000
G1 X186.120 Y108.720 F1000
G1 X186.380 Y108.980 F1000
G1 X186.380 Y109.240 F1000
G1 X186.640 Y109.500 F1000
G1 X186.640 Y109.760 F1000
G1 X186.900 Y110.020 F1000
G1 X186.900 Y110.280 F1000
G1 X187.160 Y110.540 F1000
G1 X187.160 Y110.800 F1000
G1 X187.420 Y111.060 F1000
G1 X187.420 Y111.580 F1000
G1 X187.680 Y111.840 F1000
G1 X187.680 Y112.100 F1000
G1 X187.940 Y112.360 F1000
G1 X187.940 Y112.620 F1000
G1 X188.200 Y112.880 F1000
G1 X188.200 Y113.400 F1000
G1 X188.460 Y113.660 F1000
G1 X188.460 Y113.920 F1000
G1 X188.720 Y114.180 F1000
G1 X188.720 Y114.440 F1000
G1 X188.980 Y114.700 F1000
G1 X188.980 Y115.220 F1000
G1 X189.240 Y115.480 F1000
G1 X189.240 Y115.740 F1000
G1 X189.500 Y116.000 F1000
G1 X189.500 Y116.520 F1000
G1 X189.760 Y116.780 F1000
G1 X189.760 Y117.300 F1000
G1 X190.020 Y117.560 F1000
G1 X190.020 Y117.820 F1000
G1 X190.280 Y118.080 F1000
G1 X190.280 Y118.600 F1000
G1 X190.540 Y118.860 F1000
G1 X190.540 Y119.380 F1000
G1 X190.800 Y119.640 F1000
G1 X190.800 Y120.160 F1000
G1 X191.060 Y120.420 F1000
G1 X191.060 Y120.940 F1000
G1 X191.320 Y121.200 F1000
G1 X191.320 Y121.720 F1000
G1 X191.580 Y121.980 F1000
G1 X191.580 Y122.760 F1000
G1 X191.840 Y123.020 F1000
G1 X191.840 Y123.540 F1000
G1 X192.100 Y123.800 F1000
G1 X192.100 Y124.580 F1000
G1 X192.360 Y124.840 F1000
G1 X192.360 Y125.620 F1000
G1 X192.620 Y125.880 F1000
G1 X192.620 Y126.660 F1000
G1 X192.880 Y126.920 F1000
G1 X192.880 Y127.700 F1000
G1 X193.140 Y127.960 F1000
G1 X193.140 Y129.000 F1000
G1 X193.400 Y129.260 F1000
G1 X193.400 Y130.040 F1000
G1 X193.660 Y130.300 F1000
G1 X193.660 Y131.340 F1000
G1 X193.920 Y131.600 F1000
G1 X193.920 Y132.900 F1000
G1 X194.180 Y133.160 F1000
G1 X194.180 Y134.460 F1000
G1 X194.440 Y134.720 F1000
G1 X194.440 Y136.020 F1000
G1 X194.700 Y136.280 F1000
G1 X194.700 Y138.100 F1000
G1 X194.960 Y138.360 F1000
G1 X194.960 Y140.440 F1000
G1 X195.220 Y140.700 F1000
G1 X195.220 Y144.080 F1000
G1 X195.480 Y144.340 F1000
G1 X195.480 Y152.660 F1000
G1 X195.220 Y152.920 F1000
G1 X195.220 Y156.300 F1000
G1 X194.960 Y156.560 F1000
G1 X194.960 Y158.640 F1000
G1 X194.700 Y158.900 F1000
G1 X194.700 Y160.720 F1000
G1 X194.440 Y160.980 F1000
G1 X194.440 Y162.280 F1000
G1 X194.180 Y162.540 F1000
G1 X194.180 Y163.840 F1000
G1 X193.920 Y164.100 F1000
G1 X193.920 Y165.400 F1000
