; Blueprint to G-code
; Input: test_images_solid/test4_floor_plan_with_walls.png
; Generated with blueprint2gcode.py

G21 ; Set units to millimeters
G90 ; Absolute positioning
G0 Z3.0 ; Pen up
G0 X0 Y0 ; Move to origin

G0 X69.506 Y113.469 F3000 ; Travel to line 1
G0 Z0.0 ; Pen down
G1 X62.500 Y119.000 F1000
G0 Z3.0 ; Pen up

G0 X62.500 Y119.369 F3000 ; Travel to line 2
G0 Z0.0 ; Pen down
G1 X69.506 Y113.838 F1000
G0 Z3.0 ; Pen up

G0 X69.506 Y114.206 F3000 ; Travel to line 3
G0 Z0.0 ; Pen down
G1 X62.500 Y119.738 F1000
G0 Z3.0 ; Pen up

G0 X62.500 Y120.106 F3000 ; Travel to line 4
G0 Z0.0 ; Pen down
G1 X69.506 Y114.575 F1000
G0 Z3.0 ; Pen up

G0 X69.506 Y114.944 F3000 ; Travel to line 5
G0 Z0.0 ; Pen down
G1 X62.500 Y120.475 F1000
G0 Z3.0 ; Pen up

G0 X62.500 Y120.844 F3000 ; Travel to line 6
G0 Z0.0 ; Pen down
G1 X69.506 Y115.312 F1000
G0 Z3.0 ; Pen up

G0 X69.506 Y115.681 F3000 ; Travel to line 7
G0 Z0.0 ; Pen down
G1 X62.500 Y121.213 F1000
G0 Z3.0 ; Pen up

G0 X62.500 Y121.581 F3000 ; Travel to line 8
G0 Z0.0 ; Pen down
G1 X69.506 Y116.050 F1000
G0 Z3.0 ; Pen up

G0 X69.506 Y116.419 F3000 ; Travel to line 9
G0 Z0.0 ; Pen down
G1 X62.500 Y121.950 F1000
G0 Z3.0 ; Pen up

G0 X62.500 Y122.319 F3000 ; Travel to line 10
G0 Z0.0 ; Pen down
G1 X69.506 Y116.788 F1000
G0 Z3.0 ; Pen up

G0 X69.506 Y117.156 F3000 ; Travel to line 11
G0 Z0.0 ; Pen down
G1 X62.500 Y122.688 F1000
G0 Z3.0 ; Pen up

G0 X62.500 Y123.056 F3000 ; Travel to line 12
G0 Z0.0 ; Pen down
G1 X69.506 Y117.525 F1000
G1 X69.506 Y117.525 F1000
G1 X62.500 Y123.425 F1000
G0 Z3.0 ; Pen up

G0 X62.500 Y123.794 F3000 ; Travel to line 13
G0 Z0.0 ; Pen down
G1 X69.506 Y117.894 F1000
G0 Z3.0 ; Pen up

G0 X69.506 Y118.263 F3000 ; Travel to line 14
G0 Z0.0 ; Pen down
G1 X62.500 Y124.163 F1000
G0 Z3.0 ; Pen up

G0 X62.500 Y124.900 F3000 ; Travel to line 15
G0 Z0.0 ; Pen down
G1 X69.506 Y119.000 F1000
G0 Z3.0 ; Pen up

G0 X69.506 Y119.369 F3000 ; Travel to line 16
G0 Z0.0 ; Pen down
G1 X62.500 Y125.269 F1000
G1 X62.500 Y125.269 F1000
G1 X69.506 Y119.738 F1000
G0 Z3.0 ; Pen up

G0 X69.506 Y120.106 F3000 ; Travel to line 17
G0 Z0.0 ; Pen down
G1 X62.500 Y125.638 F1000
G0 Z3.0 ; Pen up

G0 X62.500 Y126.006 F3000 ; Travel to line 18
G0 Z0.0 ; Pen down
G1 X69.506 Y120.475 F1000
G0 Z3.0 ; Pen up

G0 X69.506 Y120.844 F3000 ; Travel to line 19
G0 Z0.0 ; Pen down
G1 X62.500 Y126.375 F1000
G0 Z3.0 ; Pen up

G0 X62.500 Y126.744 F3000 ; Travel to line 20
G0 Z0.0 ; Pen down
G1 X69.506 Y121.213 F1000
G0 Z3.0 ; Pen up

G0 X69.506 Y121.581 F3000 ; Travel to line 21
G0 Z0.0 ; Pen down
G1 X62.500 Y127.113 F1000
G0 Z3.0 ; Pen up

G0 X62.500 Y127.481 F3000 ; Travel to line 22
G0 Z0.0 ; Pen down
G1 X69.506 Y121.950 F1000
G0 Z3.0 ; Pen up

G0 X69.506 Y122.319 F3000 ; Travel to line 23
G0 Z0.0 ; Pen down
G1 X62.500 Y127.850 F1000
G0 Z3.0 ; Pen up

G0 X62.500 Y128.219 F3000 ; Travel to line 24
G0 Z0.0 ; Pen down
G1 X69.506 Y122.688 F1000
G0 Z3.0 ; Pen up

G0 X69.506 Y123.056 F3000 ; Travel to line 25
G0 Z0.0 ; Pen down
G1 X62.500 Y128.588 F1000
G0 Z3.0 ; Pen up

G0 X62.500 Y128.956 F3000 ; Travel to line 26
G0 Z0.0 ; Pen down
G1 X69.506 Y123.425 F1000
G0 Z3.0 ; Pen up

G0 X69.506 Y123.794 F3000 ; Travel to line 27
G0 Z0.0 ; Pen down
G1 X62.500 Y129.325 F1000
G0 Z3.0 ; Pen up

G0 X62.500 Y129.694 F3000 ; Travel to line 28
G0 Z0.0 ; Pen down
G1 X69.506 Y124.163 F1000
G0 Z3.0 ; Pen up

G0 X69.506 Y124.531 F3000 ; Travel to line 29
G0 Z0.0 ; Pen down
G1 X62.500 Y130.062 F1000
G0 Z3.0 ; Pen up

G0 X62.500 Y130.800 F3000 ; Travel to line 30
G0 Z0.0 ; Pen down
G1 X69.506 Y125.269 F1000
G0 Z3.0 ; Pen up

G0 X69.506 Y126.006 F3000 ; Travel to line 31
G0 Z0.0 ; Pen down
G1 X62.500 Y131.906 F1000
G0 Z3.0 ; Pen up

G0 X62.500 Y132.275 F3000 ; Travel to line 32
G0 Z0.0 ; Pen down
G1 X69.506 Y126.375 F1000
G0 Z3.0 ; Pen up

G0 X69.506 Y126.744 F3000 ; Travel to line 33
G0 Z0.0 ; Pen down
G1 X62.500 Y132.644 F1000
G0 Z3.0 ; Pen up

G0 X62.500 Y133.013 F3000 ; Travel to line 34
G0 Z0.0 ; Pen down
G1 X69.506 Y127.113 F1000
G0 Z3.0 ; Pen up

G0 X69.506 Y127.481 F3000 ; Travel to line 35
G0 Z0.0 ; Pen down
G1 X62.500 Y133.381 F1000
G0 Z3.0 ; Pen up

G0 X62.500 Y133.750 F3000 ; Travel to line 36
G0 Z0.0 ; Pen down
G1 X69.506 Y127.850 F1000
G0 Z3.0 ; Pen up

G0 X69.506 Y128.219 F3000 ; Travel to line 37
G0 Z0.0 ; Pen down
G1 X62.500 Y134.119 F1000
G0 Z3.0 ; Pen up

G0 X62.500 Y134.488 F3000 ; Travel to line 38
G0 Z0.0 ; Pen down
G1 X69.506 Y128.588 F1000
G0 Z3.0 ; Pen up

G0 X69.506 Y128.956 F3000 ; Travel to line 39
G0 Z0.0 ; Pen down
G1 X62.500 Y134.856 F1000
G0 Z3.0 ; Pen up

G0 X62.500 Y135.594 F3000 ; Travel to line 40
G0 Z0.0 ; Pen down
G1 X69.506 Y130.062 F1000
G0 Z3.0 ; Pen up

G0 X69.506 Y130.431 F3000 ; Travel to line 41
G0 Z0.0 ; Pen down
G1 X62.500 Y135.963 F1000
G0 Z3.0 ; Pen up

G0 X62.500 Y136.331 F3000 ; Travel to line 42
G0 Z0.0 ; Pen down
G1 X69.506 Y130.800 F1000
G0 Z3.0 ; Pen up

G0 X69.506 Y131.537 F3000 ; Travel to line 43
G0 Z0.0 ; Pen down
G1 X62.500 Y137.069 F1000
G0 Z3.0 ; Pen up

G0 X62.500 Y137.438 F3000 ; Travel to line 44
G0 Z0.0 ; Pen down
G1 X69.506 Y131.906 F1000
G0 Z3.0 ; Pen up

G0 X69.506 Y132.275 F3000 ; Travel to line 45
G0 Z0.0 ; Pen down
G1 X62.500 Y137.806 F1000
G0 Z3.0 ; Pen up

G0 X62.500 Y138.175 F3000 ; Travel to line 46
G0 Z0.0 ; Pen down
G1 X69.506 Y132.644 F1000
G0 Z3.0 ; Pen up

G0 X69.506 Y133.013 F3000 ; Travel to line 47
G0 Z0.0 ; Pen down
G1 X62.500 Y138.544 F1000
G0 Z3.0 ; Pen up

G0 X62.500 Y138.912 F3000 ; Travel to line 48
G0 Z0.0 ; Pen down
G1 X69.506 Y133.381 F1000
G0 Z3.0 ; Pen up

G0 X69.506 Y133.750 F3000 ; Travel to line 49
G0 Z0.0 ; Pen down
G1 X62.500 Y139.281 F1000
G0 Z3.0 ; Pen up

G0 X62.500 Y139.650 F3000 ; Travel to line 50
G0 Z0.0 ; Pen down
G1 X69.506 Y134.119 F1000
G0 Z3.0 ; Pen up

G0 X69.506 Y134.856 F3000 ; Travel to line 51
G0 Z0.0 ; Pen down
G1 X62.500 Y140.756 F1000
G0 Z3.0 ; Pen up

G0 X62.500 Y140.388 F3000 ; Travel to line 52
G0 Z0.0 ; Pen down
G1 X69.506 Y134.488 F1000
G1 X69.506 Y134.488 F1000
G1 X62.500 Y140.019 F1000
G0 Z3.0 ; Pen up

G0 X62.500 Y141.125 F3000 ; Travel to line 53
G0 Z0.0 ; Pen down
G1 X69.506 Y135.225 F1000
G0 Z3.0 ; Pen up

G0 X69.506 Y135.594 F3000 ; Travel to line 54
G0 Z0.0 ; Pen down
G1 X62.500 Y141.494 F1000
G0 Z3.0 ; Pen up

G0 X62.500 Y141.863 F3000 ; Travel to line 55
G0 Z0.0 ; Pen down
G1 X69.506 Y135.963 F1000
G0 Z3.0 ; Pen up

G0 X69.506 Y136.331 F3000 ; Travel to line 56
G0 Z0.0 ; Pen down
G1 X62.500 Y142.231 F1000
G0 Z3.0 ; Pen up

G0 X62.500 Y142.600 F3000 ; Travel to line 57
G0 Z0.0 ; Pen down
G1 X69.506 Y136.700 F1000
G0 Z3.0 ; Pen up

G0 X69.506 Y137.438 F3000 ; Travel to line 58
G0 Z0.0 ; Pen down
G1 X62.500 Y143.338 F1000
G0 Z3.0 ; Pen up

G0 X62.500 Y143.706 F3000 ; Travel to line 59
G0 Z0.0 ; Pen down
G1 X69.506 Y137.806 F1000
G0 Z3.0 ; Pen up

G0 X69.506 Y138.175 F3000 ; Travel to line 60
G0 Z0.0 ; Pen down
G1 X62.500 Y144.075 F1000
G0 Z3.0 ; Pen up

G0 X62.500 Y144.444 F3000 ; Travel to line 61
G0 Z0.0 ; Pen down
G1 X69.506 Y138.544 F1000
G0 Z3.0 ; Pen up

G0 X69.506 Y138.912 F3000 ; Travel to line 62
G0 Z0.0 ; Pen down
G1 X62.500 Y144.812 F1000
G0 Z3.0 ; Pen up

G0 X62.500 Y145.181 F3000 ; Travel to line 63
G0 Z0.0 ; Pen down
G1 X69.506 Y139.281 F1000
G0 Z3.0 ; Pen up

G0 X69.506 Y139.650 F3000 ; Travel to line 64
G0 Z0.0 ; Pen down
G1 X62.500 Y145.550 F1000
G0 Z3.0 ; Pen up

G0 X62.500 Y145.919 F3000 ; Travel to line 65
G0 Z0.0 ; Pen down
G1 X69.506 Y140.019 F1000
G0 Z3.0 ; Pen up

G0 X69.506 Y140.388 F3000 ; Travel to line 66
G0 Z0.0 ; Pen down
G1 X62.500 Y146.288 F1000
G0 Z3.0 ; Pen up

G0 X62.500 Y147.025 F3000 ; Travel to line 67
G0 Z0.0 ; Pen down
G1 X69.506 Y141.494 F1000
G0 Z3.0 ; Pen up

G0 X69.506 Y141.863 F3000 ; Travel to line 68
G0 Z0.0 ; Pen down
G1 X62.500 Y147.394 F1000
G0 Z3.0 ; Pen up

G0 X62.500 Y147.763 F3000 ; Travel to line 69
G0 Z0.0 ; Pen down
G1 X69.506 Y142.231 F1000
G0 Z3.0 ; Pen up

G0 X69.506 Y142.600 F3000 ; Travel to line 70
G0 Z0.0 ; Pen down
G1 X62.500 Y148.131 F1000
G0 Z3.0 ; Pen up

G0 X62.500 Y148.500 F3000 ; Travel to line 71
G0 Z0.0 ; Pen down
G1 X69.506 Y142.969 F1000
G0 Z3.0 ; Pen up

G0 X69.506 Y143.338 F3000 ; Travel to line 72
G0 Z0.0 ; Pen down
G1 X62.500 Y148.869 F1000
G0 Z3.0 ; Pen up

G0 X62.500 Y149.606 F3000 ; Travel to line 73
G0 Z0.0 ; Pen down
G1 X69.506 Y144.075 F1000
G1 X69.506 Y144.075 F1000
G1 X62.500 Y149.975 F1000
G0 Z3.0 ; Pen up

G0 X62.500 Y150.344 F3000 ; Travel to line 74
G0 Z0.0 ; Pen down
G1 X69.506 Y144.444 F1000
G0 Z3.0 ; Pen up

G0 X69.506 Y144.812 F3000 ; Travel to line 75
G0 Z0.0 ; Pen down
G1 X62.500 Y150.713 F1000
G0 Z3.0 ; Pen up

G0 X62.500 Y151.081 F3000 ; Travel to line 76
G0 Z0.0 ; Pen down
G1 X69.506 Y145.181 F1000
G0 Z3.0 ; Pen up

G0 X69.506 Y145.550 F3000 ; Travel to line 77
G0 Z0.0 ; Pen down
G1 X62.500 Y151.450 F1000
G0 Z3.0 ; Pen up

G0 X62.500 Y151.819 F3000 ; Travel to line 78
G0 Z0.0 ; Pen down
G1 X69.506 Y145.919 F1000
G0 Z3.0 ; Pen up

G0 X69.506 Y146.288 F3000 ; Travel to line 79
G0 Z0.0 ; Pen down
G1 X62.500 Y152.188 F1000
G0 Z3.0 ; Pen up

G0 X62.500 Y152.556 F3000 ; Travel to line 80
G0 Z0.0 ; Pen down
G1 X69.506 Y146.656 F1000
G0 Z3.0 ; Pen up

G0 X69.506 Y147.025 F3000 ; Travel to line 81
G0 Z0.0 ; Pen down
G1 X62.500 Y152.925 F1000
G0 Z3.0 ; Pen up

G0 X62.500 Y153.294 F3000 ; Travel to line 82
G0 Z0.0 ; Pen down
G1 X69.506 Y147.394 F1000
G0 Z3.0 ; Pen up

G0 X69.506 Y147.763 F3000 ; Travel to line 83
G0 Z0.0 ; Pen down
G1 X62.500 Y153.663 F1000
G0 Z3.0 ; Pen up

G0 X62.500 Y154.031 F3000 ; Travel to line 84
G0 Z0.0 ; Pen down
G1 X69.506 Y148.131 F1000
G0 Z3.0 ; Pen up

G0 X69.506 Y148.500 F3000 ; Travel to line 85
G0 Z0.0 ; Pen down
G1 X62.500 Y154.400 F1000
G0 Z3.0 ; Pen up

G0 X62.500 Y154.769 F3000 ; Travel to line 86
G0 Z0.0 ; Pen down
G1 X69.506 Y148.869 F1000
G0 Z3.0 ; Pen up

G0 X69.506 Y149.238 F3000 ; Travel to line 87
G0 Z0.0 ; Pen down
G1 X62.500 Y155.138 F1000
G0 Z3.0 ; Pen up

G0 X62.500 Y155.875 F3000 ; Travel to line 88
G0 Z0.0 ; Pen down
G1 X69.506 Y149.975 F1000
G0 Z3.0 ; Pen up

G0 X69.506 Y150.344 F3000 ; Travel to line 89
G0 Z0.0 ; Pen down
G1 X62.500 Y156.244 F1000
G0 Z3.0 ; Pen up

G0 X62.500 Y156.613 F3000 ; Travel to line 90
G0 Z0.0 ; Pen down
G1 X69.506 Y150.713 F1000
G0 Z3.0 ; Pen up

G0 X69.506 Y151.081 F3000 ; Travel to line 91
G0 Z0.0 ; Pen down
G1 X62.500 Y156.981 F1000
G0 Z3.0 ; Pen up

G0 X62.500 Y157.350 F3000 ; Travel to line 92
G0 Z0.0 ; Pen down
G1 X69.506 Y151.450 F1000
G0 Z3.0 ; Pen up

G0 X69.506 Y151.819 F3000 ; Travel to line 93
G0 Z0.0 ; Pen down
G1 X62.500 Y157.719 F1000
G0 Z3.0 ; Pen up

G0 X62.500 Y158.088 F3000 ; Travel to line 94
G0 Z0.0 ; Pen down
G1 X69.506 Y152.188 F1000
G0 Z3.0 ; Pen up

G0 X69.506 Y152.556 F3000 ; Travel to line 95
G0 Z0.0 ; Pen down
G1 X62.500 Y158.456 F1000
G0 Z3.0 ; Pen up

G0 X62.500 Y158.825 F3000 ; Travel to line 96
G0 Z0.0 ; Pen down
G1 X69.506 Y152.925 F1000
G0 Z3.0 ; Pen up

G0 X69.506 Y153.294 F3000 ; Travel to line 97
G0 Z0.0 ; Pen down
G1 X62.500 Y159.194 F1000
G1 X62.500 Y159.194 F1000
G1 X69.506 Y153.663 F1000
G0 Z3.0 ; Pen up

G0 X69.506 Y154.031 F3000 ; Travel to line 98
G0 Z0.0 ; Pen down
G1 X62.500 Y159.562 F1000
G0 Z3.0 ; Pen up

G0 X62.500 Y159.931 F3000 ; Travel to line 99
G0 Z0.0 ; Pen down
G1 X69.506 Y154.400 F1000
G0 Z3.0 ; Pen up

G0 X69.506 Y155.138 F3000 ; Travel to line 100
G0 Z0.0 ; Pen down
G1 X62.500 Y161.038 F1000
G0 Z3.0 ; Pen up

G0 X62.500 Y160.669 F3000 ; Travel to line 101
G0 Z0.0 ; Pen down
G1 X69.506 Y154.769 F1000
G1 X69.506 Y154.769 F1000
G1 X62.500 Y160.300 F1000
G0 Z3.0 ; Pen up

G0 X62.500 Y161.775 F3000 ; Travel to line 102
G0 Z0.0 ; Pen down
G1 X69.506 Y155.875 F1000
G0 Z3.0 ; Pen up

G0 X69.506 Y156.244 F3000 ; Travel to line 103
G0 Z0.0 ; Pen down
G1 X62.500 Y162.144 F1000
G0 Z3.0 ; Pen up

G0 X62.500 Y162.513 F3000 ; Travel to line 104
G0 Z0.0 ; Pen down
G1 X69.506 Y156.613 F1000
G0 Z3.0 ; Pen up

G0 X69.506 Y156.981 F3000 ; Travel to line 105
G0 Z0.0 ; Pen down
G1 X62.500 Y162.881 F1000
G0 Z3.0 ; Pen up

G0 X62.500 Y163.250 F3000 ; Travel to line 106
G0 Z0.0 ; Pen down
G1 X69.506 Y157.350 F1000
G0 Z3.0 ; Pen up

G0 X69.506 Y157.719 F3000 ; Travel to line 107
G0 Z0.0 ; Pen down
G1 X62.500 Y163.619 F1000
G0 Z3.0 ; Pen up

G0 X62.500 Y163.988 F3000 ; Travel to line 108
G0 Z0.0 ; Pen down
G1 X69.506 Y158.088 F1000
G0 Z3.0 ; Pen up

G0 X69.506 Y158.456 F3000 ; Travel to line 109
G0 Z0.0 ; Pen down
G1 X62.500 Y164.356 F1000
G0 Z3.0 ; Pen up

G0 X62.500 Y164.725 F3000 ; Travel to line 110
G0 Z0.0 ; Pen down
G1 X69.506 Y158.825 F1000
G0 Z3.0 ; Pen up

G0 X69.506 Y159.194 F3000 ; Travel to line 111
G0 Z0.0 ; Pen down
G1 X62.500 Y165.094 F1000
G0 Z3.0 ; Pen up

G0 X62.500 Y165.463 F3000 ; Travel to line 112
G0 Z0.0 ; Pen down
G1 X69.506 Y159.562 F1000
G0 Z3.0 ; Pen up

G0 X69.506 Y159.931 F3000 ; Travel to line 113
G0 Z0.0 ; Pen down
G1 X62.500 Y165.831 F1000
G0 Z3.0 ; Pen up

G0 X62.500 Y166.200 F3000 ; Travel to line 114
G0 Z0.0 ; Pen down
G1 X69.506 Y160.300 F1000
G0 Z3.0 ; Pen up

G0 X69.506 Y160.669 F3000 ; Travel to line 115
G0 Z0.0 ; Pen down
G1 X62.500 Y166.569 F1000
G0 Z3.0 ; Pen up

G0 X62.500 Y166.938 F3000 ; Travel to line 116
G0 Z0.0 ; Pen down
G1 X69.506 Y161.038 F1000
G0 Z3.0 ; Pen up

G0 X69.506 Y161.406 F3000 ; Travel to line 117
G0 Z0.0 ; Pen down
G1 X62.500 Y167.306 F1000
G0 Z3.0 ; Pen up

G0 X62.500 Y167.675 F3000 ; Travel to line 118
G0 Z0.0 ; Pen down
G1 X69.506 Y161.775 F1000
G0 Z3.0 ; Pen up

G0 X69.506 Y162.513 F3000 ; Travel to line 119
G0 Z0.0 ; Pen down
G1 X62.500 Y168.413 F1000
G0 Z3.0 ; Pen up

G0 X62.500 Y168.781 F3000 ; Travel to line 120
G0 Z0.0 ; Pen down
G1 X69.506 Y162.881 F1000
G0 Z3.0 ; Pen up

G0 X69.506 Y163.250 F3000 ; Travel to line 121
G0 Z0.0 ; Pen down
G1 X62.500 Y169.150 F1000
G0 Z3.0 ; Pen up

G0 X62.500 Y169.519 F3000 ; Travel to line 122
G0 Z0.0 ; Pen down
G1 X69.506 Y163.619 F1000
G0 Z3.0 ; Pen up

G0 X69.506 Y163.988 F3000 ; Travel to line 123
G0 Z0.0 ; Pen down
G1 X62.500 Y169.888 F1000
G0 Z3.0 ; Pen up

G0 X62.500 Y170.256 F3000 ; Travel to line 124
G0 Z0.0 ; Pen down
G1 X69.506 Y164.356 F1000
G0 Z3.0 ; Pen up

G0 X69.506 Y164.725 F3000 ; Travel to line 125
G0 Z0.0 ; Pen down
G1 X62.500 Y170.625 F1000
G0 Z3.0 ; Pen up

G0 X62.500 Y170.994 F3000 ; Travel to line 126
G0 Z0.0 ; Pen down
G1 X69.506 Y165.094 F1000
G0 Z3.0 ; Pen up

G0 X69.506 Y165.463 F3000 ; Travel to line 127
G0 Z0.0 ; Pen down
G1 X62.500 Y171.363 F1000
G0 Z3.0 ; Pen up

G0 X62.500 Y171.731 F3000 ; Travel to line 128
G0 Z0.0 ; Pen down
G1 X69.506 Y165.831 F1000
G0 Z3.0 ; Pen up

G0 X69.506 Y166.200 F3000 ; Travel to line 129
G0 Z0.0 ; Pen down
G1 X62.500 Y172.100 F1000
G0 Z3.0 ; Pen up

G0 X62.500 Y172.469 F3000 ; Travel to line 130
G0 Z0.0 ; Pen down
G1 X69.506 Y166.569 F1000
G1 X69.506 Y166.569 F1000
G1 X62.500 Y172.838 F1000
G0 Z3.0 ; Pen up

G0 X62.500 Y173.575 F3000 ; Travel to line 131
G0 Z0.0 ; Pen down
G1 X69.506 Y167.675 F1000
G0 Z3.0 ; Pen up

G0 X69.506 Y167.306 F3000 ; Travel to line 132
G0 Z0.0 ; Pen down
G1 X62.500 Y173.206 F1000
G1 X62.500 Y173.206 F1000
G1 X69.506 Y166.938 F1000
G0 Z3.0 ; Pen up

G0 X69.506 Y168.413 F3000 ; Travel to line 133
G0 Z0.0 ; Pen down
G1 X62.500 Y174.312 F1000
G0 Z3.0 ; Pen up

G0 X62.500 Y174.681 F3000 ; Travel to line 134
G0 Z0.0 ; Pen down
G1 X69.506 Y168.781 F1000
G0 Z3.0 ; Pen up

G0 X69.506 Y169.150 F3000 ; Travel to line 135
G0 Z0.0 ; Pen down
G1 X62.500 Y175.050 F1000
G0 Z3.0 ; Pen up

G0 X62.500 Y175.419 F3000 ; Travel to line 136
G0 Z0.0 ; Pen down
G1 X69.506 Y169.519 F1000
G0 Z3.0 ; Pen up

G0 X69.506 Y169.888 F3000 ; Travel to line 137
G0 Z0.0 ; Pen down
G1 X62.131 Y176.156 F1000
G0 Z3.0 ; Pen up

G0 X62.500 Y176.156 F3000 ; Travel to line 138
G0 Z0.0 ; Pen down
G1 X69.506 Y170.256 F1000
G0 Z3.0 ; Pen up

G0 X69.506 Y170.625 F3000 ; Travel to line 139
G0 Z0.0 ; Pen down
G1 X62.500 Y176.525 F1000
G0 Z3.0 ; Pen up

G0 X62.500 Y176.894 F3000 ; Travel to line 140
G0 Z0.0 ; Pen down
G1 X69.506 Y170.994 F1000
G0 Z3.0 ; Pen up

G0 X69.506 Y171.363 F3000 ; Travel to line 141
G0 Z0.0 ; Pen down
G1 X62.500 Y177.263 F1000
G0 Z3.0 ; Pen up

G0 X62.500 Y177.631 F3000 ; Travel to line 142
G0 Z0.0 ; Pen down
G1 X69.506 Y171.731 F1000
G0 Z3.0 ; Pen up

G0 X69.506 Y172.100 F3000 ; Travel to line 143
G0 Z0.0 ; Pen down
G1 X62.500 Y178.000 F1000
G0 Z3.0 ; Pen up

G0 X62.500 Y178.369 F3000 ; Travel to line 144
G0 Z0.0 ; Pen down
G1 X69.506 Y172.469 F1000
G0 Z3.0 ; Pen up

G0 X69.506 Y172.838 F3000 ; Travel to line 145
G0 Z0.0 ; Pen down
G1 X62.500 Y178.738 F1000
G0 Z3.0 ; Pen up

G0 X62.500 Y179.106 F3000 ; Travel to line 146
G0 Z0.0 ; Pen down
G1 X69.506 Y173.206 F1000
G0 Z3.0 ; Pen up

G0 X69.506 Y173.575 F3000 ; Travel to line 147
G0 Z0.0 ; Pen down
G1 X62.500 Y179.475 F1000
G0 Z3.0 ; Pen up

G0 X62.500 Y179.844 F3000 ; Travel to line 148
G0 Z0.0 ; Pen down
G1 X69.506 Y173.944 F1000
G0 Z3.0 ; Pen up

G0 X69.506 Y174.312 F3000 ; Travel to line 149
G0 Z0.0 ; Pen down
G1 X62.500 Y180.213 F1000
G0 Z3.0 ; Pen up

G0 X62.500 Y180.950 F3000 ; Travel to line 150
G0 Z0.0 ; Pen down
G1 X69.506 Y175.050 F1000
G0 Z3.0 ; Pen up

G0 X69.506 Y175.419 F3000 ; Travel to line 151
G0 Z0.0 ; Pen down
G1 X62.500 Y181.319 F1000
G0 Z3.0 ; Pen up

G0 X62.500 Y181.688 F3000 ; Travel to line 152
G0 Z0.0 ; Pen down
G1 X69.506 Y175.788 F1000
G0 Z3.0 ; Pen up

G0 X69.506 Y176.156 F3000 ; Travel to line 153
G0 Z0.0 ; Pen down
G1 X62.500 Y182.056 F1000
G0 Z3.0 ; Pen up

G0 X62.500 Y182.425 F3000 ; Travel to line 154
G0 Z0.0 ; Pen down
G1 X69.506 Y176.525 F1000
G0 Z3.0 ; Pen up

G0 X69.506 Y176.894 F3000 ; Travel to line 155
G0 Z0.0 ; Pen down
G1 X62.500 Y182.794 F1000
G0 Z3.0 ; Pen up

G0 X62.500 Y183.163 F3000 ; Travel to line 156
G0 Z0.0 ; Pen down
G1 X69.506 Y177.263 F1000
G0 Z3.0 ; Pen up

G0 X69.506 Y177.631 F3000 ; Travel to line 157
G0 Z0.0 ; Pen down
G1 X62.500 Y183.531 F1000
G0 Z3.0 ; Pen up

G0 X62.500 Y183.900 F3000 ; Travel to line 158
G0 Z0.0 ; Pen down
G1 X69.506 Y178.000 F1000
G0 Z3.0 ; Pen up

G0 X69.506 Y178.369 F3000 ; Travel to line 159
G0 Z0.0 ; Pen down
G1 X62.500 Y184.269 F1000
G0 Z3.0 ; Pen up

G0 X62.500 Y184.638 F3000 ; Travel to line 160
G0 Z0.0 ; Pen down
G1 X69.506 Y178.738 F1000
G0 Z3.0 ; Pen up

G0 X69.506 Y179.106 F3000 ; Travel to line 161
G0 Z0.0 ; Pen down
G1 X62.500 Y185.006 F1000
G0 Z3.0 ; Pen up

G0 X62.500 Y185.375 F3000 ; Travel to line 162
G0 Z0.0 ; Pen down
G1 X69.506 Y179.475 F1000
G0 Z3.0 ; Pen up

G0 X69.506 Y180.213 F3000 ; Travel to line 163
G0 Z0.0 ; Pen down
G1 X62.500 Y186.481 F1000
G0 Z3.0 ; Pen up

G0 X62.500 Y186.113 F3000 ; Travel to line 164
G0 Z0.0 ; Pen down
G1 X69.506 Y179.844 F1000
G1 X69.506 Y179.844 F1000
G1 X62.500 Y185.744 F1000
G0 Z3.0 ; Pen up

G0 X62.500 Y187.219 F3000 ; Travel to line 165
G0 Z0.0 ; Pen down
G1 X69.506 Y180.950 F1000
G0 Z3.0 ; Pen up

G0 X69.506 Y181.319 F3000 ; Travel to line 166
G0 Z0.0 ; Pen down
G1 X62.500 Y187.588 F1000
G0 Z3.0 ; Pen up

G0 X62.500 Y187.956 F3000 ; Travel to line 167
G0 Z0.0 ; Pen down
G1 X69.506 Y181.688 F1000
G0 Z3.0 ; Pen up

G0 X69.506 Y182.056 F3000 ; Travel to line 168
G0 Z0.0 ; Pen down
G1 X62.500 Y188.325 F1000
G0 Z3.0 ; Pen up

G0 X62.500 Y188.694 F3000 ; Travel to line 169
G0 Z0.0 ; Pen down
G1 X69.506 Y182.425 F1000
G0 Z3.0 ; Pen up

G0 X69.506 Y182.794 F3000 ; Travel to line 170
G0 Z0.0 ; Pen down
G1 X62.500 Y189.062 F1000
G0 Z3.0 ; Pen up

G0 X62.500 Y189.800 F3000 ; Travel to line 171
G0 Z0.0 ; Pen down
G1 X69.875 Y183.531 F1000
G0 Z3.0 ; Pen up

G0 X69.875 Y183.900 F3000 ; Travel to line 172
G0 Z0.0 ; Pen down
G1 X62.500 Y190.169 F1000
G0 Z3.0 ; Pen up

G0 X62.500 Y190.538 F3000 ; Travel to line 173
G0 Z0.0 ; Pen down
G1 X70.244 Y183.900 F1000
G0 Z3.0 ; Pen up

G0 X69.506 Y183.531 F3000 ; Travel to line 174
G0 Z0.0 ; Pen down
G1 X62.500 Y189.431 F1000
G1 X62.500 Y189.431 F1000
G1 X69.506 Y183.163 F1000
G0 Z3.0 ; Pen up

G0 X69.506 Y185.006 F3000 ; Travel to line 175
G0 Z0.0 ; Pen down
G1 X62.500 Y190.906 F1000
G0 Z3.0 ; Pen up

G0 X62.500 Y191.275 F3000 ; Travel to line 176
G0 Z0.0 ; Pen down
G1 X69.506 Y185.375 F1000
G0 Z3.0 ; Pen up

G0 X69.506 Y185.744 F3000 ; Travel to line 177
G0 Z0.0 ; Pen down
G1 X62.500 Y191.644 F1000
G0 Z3.0 ; Pen up

G0 X62.500 Y192.013 F3000 ; Travel to line 178
G0 Z0.0 ; Pen down
G1 X69.506 Y186.113 F1000
G0 Z3.0 ; Pen up

G0 X69.506 Y186.481 F3000 ; Travel to line 179
G0 Z0.0 ; Pen down
G1 X62.500 Y192.381 F1000
G0 Z3.0 ; Pen up

G0 X62.500 Y192.750 F3000 ; Travel to line 180
G0 Z0.0 ; Pen down
G1 X69.506 Y186.850 F1000
G0 Z3.0 ; Pen up

G0 X69.506 Y187.588 F3000 ; Travel to line 181
G0 Z0.0 ; Pen down
G1 X62.500 Y193.488 F1000
G0 Z3.0 ; Pen up

G0 X62.500 Y193.856 F3000 ; Travel to line 182
G0 Z0.0 ; Pen down
G1 X69.506 Y187.956 F1000
G0 Z3.0 ; Pen up

G0 X69.506 Y188.325 F3000 ; Travel to line 183
G0 Z0.0 ; Pen down
G1 X62.500 Y194.225 F1000
G0 Z3.0 ; Pen up

G0 X62.500 Y194.594 F3000 ; Travel to line 184
G0 Z0.0 ; Pen down
G1 X69.506 Y188.694 F1000
G0 Z3.0 ; Pen up

G0 X69.506 Y189.062 F3000 ; Travel to line 185
G0 Z0.0 ; Pen down
G1 X62.500 Y194.963 F1000
G0 Z3.0 ; Pen up

G0 X62.500 Y195.331 F3000 ; Travel to line 186
G0 Z0.0 ; Pen down
G1 X69.506 Y189.431 F1000
G0 Z3.0 ; Pen up

G0 X69.506 Y189.800 F3000 ; Travel to line 187
G0 Z0.0 ; Pen down
G1 X62.500 Y195.700 F1000
G0 Z3.0 ; Pen up

G0 X62.500 Y196.069 F3000 ; Travel to line 188
G0 Z0.0 ; Pen down
G1 X69.506 Y190.169 F1000
G0 Z3.0 ; Pen up

G0 X69.506 Y190.538 F3000 ; Travel to line 189
G0 Z0.0 ; Pen down
G1 X62.500 Y196.438 F1000
G0 Z3.0 ; Pen up

G0 X62.500 Y196.806 F3000 ; Travel to line 190
G0 Z0.0 ; Pen down
G1 X69.506 Y190.906 F1000
G0 Z3.0 ; Pen up

G0 X69.506 Y191.275 F3000 ; Travel to line 191
G0 Z0.0 ; Pen down
G1 X62.500 Y197.175 F1000
G0 Z3.0 ; Pen up

G0 X62.500 Y197.544 F3000 ; Travel to line 192
G0 Z0.0 ; Pen down
G1 X69.506 Y191.644 F1000
G0 Z3.0 ; Pen up

G0 X69.506 Y192.013 F3000 ; Travel to line 193
G0 Z0.0 ; Pen down
G1 X62.500 Y197.913 F1000
G0 Z3.0 ; Pen up

G0 X62.500 Y198.281 F3000 ; Travel to line 194
G0 Z0.0 ; Pen down
G1 X69.506 Y192.381 F1000
G0 Z3.0 ; Pen up

G0 X69.506 Y192.750 F3000 ; Travel to line 195
G0 Z0.0 ; Pen down
G1 X62.500 Y198.650 F1000
G0 Z3.0 ; Pen up

G0 X62.500 Y199.019 F3000 ; Travel to line 196
G0 Z0.0 ; Pen down
G1 X69.506 Y193.119 F1000
G0 Z3.0 ; Pen up

G0 X69.506 Y193.856 F3000 ; Travel to line 197
G0 Z0.0 ; Pen down
G1 X62.500 Y199.756 F1000
G0 Z3.0 ; Pen up

G0 X62.500 Y200.125 F3000 ; Travel to line 198
G0 Z0.0 ; Pen down
G1 X69.506 Y194.225 F1000
G0 Z3.0 ; Pen up

G0 X69.506 Y194.594 F3000 ; Travel to line 199
G0 Z0.0 ; Pen down
G1 X62.500 Y200.494 F1000
G0 Z3.0 ; Pen up

G0 X62.500 Y200.863 F3000 ; Travel to line 200
G0 Z0.0 ; Pen down
G1 X69.506 Y194.963 F1000
G1 X69.506 Y194.963 F1000
G1 X62.500 Y201.231 F1000
G0 Z3.0 ; Pen up

G0 X62.500 Y201.600 F3000 ; Travel to line 201
G0 Z0.0 ; Pen down
G1 X69.506 Y195.331 F1000
G0 Z3.0 ; Pen up

G0 X69.506 Y195.700 F3000 ; Travel to line 202
G0 Z0.0 ; Pen down
G1 X62.500 Y201.969 F1000
G0 Z3.0 ; Pen up

G0 X62.500 Y202.338 F3000 ; Travel to line 203
G0 Z0.0 ; Pen down
G1 X69.506 Y196.069 F1000
G0 Z3.0 ; Pen up

G0 X69.506 Y196.438 F3000 ; Travel to line 204
G0 Z0.0 ; Pen down
G1 X62.500 Y202.706 F1000
G0 Z3.0 ; Pen up

G0 X62.500 Y203.075 F3000 ; Travel to line 205
G0 Z0.0 ; Pen down
G1 X69.506 Y196.806 F1000
G0 Z3.0 ; Pen up

G0 X69.506 Y197.175 F3000 ; Travel to line 206
G0 Z0.0 ; Pen down
G1 X62.500 Y203.444 F1000
G0 Z3.0 ; Pen up

G0 X62.500 Y203.812 F3000 ; Travel to line 207
G0 Z0.0 ; Pen down
G1 X69.506 Y197.544 F1000
G0 Z3.0 ; Pen up

G0 X69.506 Y197.913 F3000 ; Travel to line 208
G0 Z0.0 ; Pen down
G1 X62.500 Y204.181 F1000
G0 Z3.0 ; Pen up

G0 X62.500 Y204.550 F3000 ; Travel to line 209
G0 Z0.0 ; Pen down
G1 X69.506 Y198.281 F1000
G0 Z3.0 ; Pen up

G0 X69.506 Y198.650 F3000 ; Travel to line 210
G0 Z0.0 ; Pen down
G1 X62.500 Y204.919 F1000
G0 Z3.0 ; Pen up

G0 X62.500 Y205.288 F3000 ; Travel to line 211
G0 Z0.0 ; Pen down
G1 X69.506 Y199.019 F1000
G0 Z3.0 ; Pen up

G0 X69.506 Y199.388 F3000 ; Travel to line 212
G0 Z0.0 ; Pen down
G1 X62.500 Y205.656 F1000
G0 Z3.0 ; Pen up

G0 X62.500 Y206.394 F3000 ; Travel to line 213
G0 Z0.0 ; Pen down
G1 X69.506 Y200.125 F1000
G0 Z3.0 ; Pen up

G0 X69.506 Y200.494 F3000 ; Travel to line 214
G0 Z0.0 ; Pen down
G1 X62.500 Y206.763 F1000
G0 Z3.0 ; Pen up

G0 X62.500 Y207.131 F3000 ; Travel to line 215
G0 Z0.0 ; Pen down
G1 X69.506 Y200.863 F1000
G0 Z3.0 ; Pen up

G0 X69.506 Y201.231 F3000 ; Travel to line 216
G0 Z0.0 ; Pen down
G1 X62.500 Y207.500 F1000
G0 Z3.0 ; Pen up

G0 X62.500 Y207.869 F3000 ; Travel to line 217
G0 Z0.0 ; Pen down
G1 X69.506 Y201.600 F1000
G0 Z3.0 ; Pen up

G0 X69.506 Y201.969 F3000 ; Travel to line 218
G0 Z0.0 ; Pen down
G1 X62.500 Y208.238 F1000
G1 X62.500 Y208.238 F1000
G1 X69.506 Y202.338 F1000
G0 Z3.0 ; Pen up

G0 X69.506 Y202.706 F3000 ; Travel to line 219
G0 Z0.0 ; Pen down
G1 X62.500 Y208.606 F1000
G0 Z3.0 ; Pen up

G0 X62.500 Y208.975 F3000 ; Travel to line 220
G0 Z0.0 ; Pen down
G1 X69.506 Y203.075 F1000
G0 Z3.0 ; Pen up

G0 X69.506 Y203.444 F3000 ; Travel to line 221
G0 Z0.0 ; Pen down
G1 X62.500 Y209.344 F1000
G0 Z3.0 ; Pen up

G0 X62.500 Y209.713 F3000 ; Travel to line 222
G0 Z0.0 ; Pen down
G1 X69.506 Y203.812 F1000
G0 Z3.0 ; Pen up

G0 X69.506 Y204.181 F3000 ; Travel to line 223
G0 Z0.0 ; Pen down
G1 X62.500 Y210.081 F1000
G0 Z3.0 ; Pen up

G0 X62.500 Y210.450 F3000 ; Travel to line 224
G0 Z0.0 ; Pen down
G1 X69.506 Y204.550 F1000
G0 Z3.0 ; Pen up

G0 X69.506 Y204.919 F3000 ; Travel to line 225
G0 Z0.0 ; Pen down
G1 X62.500 Y210.819 F1000
G0 Z3.0 ; Pen up

G0 X62.500 Y211.188 F3000 ; Travel to line 226
G0 Z0.0 ; Pen down
G1 X69.506 Y205.288 F1000
G0 Z3.0 ; Pen up

G0 X69.506 Y205.656 F3000 ; Travel to line 227
G0 Z0.0 ; Pen down
G1 X62.500 Y211.556 F1000
G0 Z3.0 ; Pen up

G0 X62.500 Y212.294 F3000 ; Travel to line 228
G0 Z0.0 ; Pen down
G1 X69.506 Y206.394 F1000
G0 Z3.0 ; Pen up

G0 X69.506 Y206.763 F3000 ; Travel to line 229
G0 Z0.0 ; Pen down
G1 X62.500 Y212.663 F1000
G0 Z3.0 ; Pen up

G0 X62.500 Y213.031 F3000 ; Travel to line 230
G0 Z0.0 ; Pen down
G1 X69.506 Y207.131 F1000
G0 Z3.0 ; Pen up

G0 X69.506 Y207.500 F3000 ; Travel to line 231
G0 Z0.0 ; Pen down
G1 X62.500 Y213.400 F1000
G0 Z3.0 ; Pen up

G0 X62.500 Y213.769 F3000 ; Travel to line 232
G0 Z0.0 ; Pen down
G1 X69.506 Y207.869 F1000
G0 Z3.0 ; Pen up

G0 X69.506 Y208.238 F3000 ; Travel to line 233
G0 Z0.0 ; Pen down
G1 X62.500 Y214.138 F1000
G0 Z3.0 ; Pen up

G0 X62.500 Y214.506 F3000 ; Travel to line 234
G0 Z0.0 ; Pen down
G1 X69.506 Y208.606 F1000
G0 Z3.0 ; Pen up

G0 X69.506 Y208.975 F3000 ; Travel to line 235
G0 Z0.0 ; Pen down
G1 X62.500 Y214.875 F1000
G0 Z3.0 ; Pen up

G0 X62.500 Y215.244 F3000 ; Travel to line 236
G0 Z0.0 ; Pen down
G1 X69.506 Y209.344 F1000
G0 Z3.0 ; Pen up

G0 X69.506 Y209.713 F3000 ; Travel to line 237
G0 Z0.0 ; Pen down
G1 X62.500 Y215.613 F1000
G0 Z3.0 ; Pen up

G0 X62.500 Y215.981 F3000 ; Travel to line 238
G0 Z0.0 ; Pen down
G1 X69.506 Y210.081 F1000
G0 Z3.0 ; Pen up

G0 X69.506 Y210.450 F3000 ; Travel to line 239
G0 Z0.0 ; Pen down
G1 X62.500 Y216.350 F1000
G0 Z3.0 ; Pen up

G0 X62.500 Y216.719 F3000 ; Travel to line 240
G0 Z0.0 ; Pen down
G1 X69.506 Y210.819 F1000
G0 Z3.0 ; Pen up

G0 X69.506 Y211.188 F3000 ; Travel to line 241
G0 Z0.0 ; Pen down
G1 X62.500 Y217.088 F1000
G0 Z3.0 ; Pen up

G0 X62.500 Y217.456 F3000 ; Travel to line 242
G0 Z0.0 ; Pen down
G1 X69.506 Y211.556 F1000
G0 Z3.0 ; Pen up

G0 X69.506 Y212.663 F3000 ; Travel to line 243
G0 Z0.0 ; Pen down
G1 X62.500 Y218.931 F1000
G0 Z3.0 ; Pen up

G0 X62.500 Y219.300 F3000 ; Travel to line 244
G0 Z0.0 ; Pen down
G1 X69.506 Y213.031 F1000
G0 Z3.0 ; Pen up

G0 X69.506 Y213.400 F3000 ; Travel to line 245
G0 Z0.0 ; Pen down
G1 X62.500 Y219.669 F1000
G0 Z3.0 ; Pen up

G0 X62.500 Y220.038 F3000 ; Travel to line 246
G0 Z0.0 ; Pen down
G1 X69.506 Y213.769 F1000
G0 Z3.0 ; Pen up

G0 X69.506 Y214.138 F3000 ; Travel to line 247
G0 Z0.0 ; Pen down
G1 X62.500 Y220.406 F1000
G0 Z3.0 ; Pen up

G0 X62.500 Y220.775 F3000 ; Travel to line 248
G0 Z0.0 ; Pen down
G1 X69.506 Y214.506 F1000
G0 Z3.0 ; Pen up

G0 X69.506 Y214.875 F3000 ; Travel to line 249
G0 Z0.0 ; Pen down
G1 X62.500 Y221.144 F1000
G0 Z3.0 ; Pen up

G0 X62.500 Y221.513 F3000 ; Travel to line 250
G0 Z0.0 ; Pen down
G1 X69.506 Y215.244 F1000
G0 Z3.0 ; Pen up

G0 X69.506 Y215.613 F3000 ; Travel to line 251
G0 Z0.0 ; Pen down
G1 X62.500 Y221.881 F1000
G0 Z3.0 ; Pen up

G0 X62.500 Y222.250 F3000 ; Travel to line 252
G0 Z0.0 ; Pen down
G1 X69.506 Y215.981 F1000
G0 Z3.0 ; Pen up

G0 X69.506 Y216.350 F3000 ; Travel to line 253
G0 Z0.0 ; Pen down
G1 X62.500 Y222.619 F1000
G0 Z3.0 ; Pen up

G0 X62.500 Y222.988 F3000 ; Travel to line 254
G0 Z0.0 ; Pen down
G1 X69.506 Y216.719 F1000
G0 Z3.0 ; Pen up

G0 X69.506 Y217.088 F3000 ; Travel to line 255
G0 Z0.0 ; Pen down
G1 X62.500 Y223.356 F1000
G0 Z3.0 ; Pen up

G0 X62.500 Y223.725 F3000 ; Travel to line 256
G0 Z0.0 ; Pen down
G1 X69.506 Y217.456 F1000
G0 Z3.0 ; Pen up

G0 X69.506 Y217.825 F3000 ; Travel to line 257
G0 Z0.0 ; Pen down
G1 X62.500 Y224.094 F1000
G0 Z3.0 ; Pen up

G0 X62.500 Y224.463 F3000 ; Travel to line 258
G0 Z0.0 ; Pen down
G1 X69.506 Y218.194 F1000
G0 Z3.0 ; Pen up

G0 X69.506 Y218.931 F3000 ; Travel to line 259
G0 Z0.0 ; Pen down
G1 X62.500 Y225.200 F1000
G0 Z3.0 ; Pen up

G0 X62.500 Y225.569 F3000 ; Travel to line 260
G0 Z0.0 ; Pen down
G1 X69.506 Y219.300 F1000
G0 Z3.0 ; Pen up

G0 X69.506 Y219.669 F3000 ; Travel to line 261
G0 Z0.0 ; Pen down
G1 X62.500 Y225.938 F1000
G0 Z3.0 ; Pen up

G0 X62.500 Y226.306 F3000 ; Travel to line 262
G0 Z0.0 ; Pen down
G1 X69.506 Y220.038 F1000
G0 Z3.0 ; Pen up

G0 X69.506 Y220.406 F3000 ; Travel to line 263
G0 Z0.0 ; Pen down
G1 X62.500 Y226.675 F1000
G0 Z3.0 ; Pen up

G0 X62.500 Y227.044 F3000 ; Travel to line 264
G0 Z0.0 ; Pen down
G1 X69.506 Y220.775 F1000
G0 Z3.0 ; Pen up

G0 X69.506 Y221.144 F3000 ; Travel to line 265
G0 Z0.0 ; Pen down
G1 X62.500 Y227.413 F1000
G0 Z3.0 ; Pen up

G0 X62.500 Y227.781 F3000 ; Travel to line 266
G0 Z0.0 ; Pen down
G1 X69.506 Y221.513 F1000
G0 Z3.0 ; Pen up

G0 X69.506 Y221.881 F3000 ; Travel to line 267
G0 Z0.0 ; Pen down
G1 X62.500 Y228.150 F1000
G0 Z3.0 ; Pen up

G0 X62.500 Y228.519 F3000 ; Travel to line 268
G0 Z0.0 ; Pen down
G1 X69.506 Y222.250 F1000
G0 Z3.0 ; Pen up

G0 X69.506 Y222.619 F3000 ; Travel to line 269
G0 Z0.0 ; Pen down
G1 X62.500 Y228.888 F1000
G0 Z3.0 ; Pen up

G0 X62.500 Y229.256 F3000 ; Travel to line 270
G0 Z0.0 ; Pen down
G1 X69.506 Y222.988 F1000
G0 Z3.0 ; Pen up

G0 X69.506 Y223.356 F3000 ; Travel to line 271
G0 Z0.0 ; Pen down
G1 X62.500 Y229.625 F1000
G0 Z3.0 ; Pen up

G0 X62.500 Y230.363 F3000 ; Travel to line 272
G0 Z0.0 ; Pen down
G1 X69.506 Y224.463 F1000
G0 Z3.0 ; Pen up

G0 X69.506 Y224.831 F3000 ; Travel to line 273
G0 Z0.0 ; Pen down
G1 X62.500 Y230.731 F1000
G0 Z3.0 ; Pen up

G0 X62.500 Y231.469 F3000 ; Travel to line 274
G0 Z0.0 ; Pen down
G1 X69.506 Y225.569 F1000
G0 Z3.0 ; Pen up

G0 X69.506 Y225.938 F3000 ; Travel to line 275
G0 Z0.0 ; Pen down
G1 X62.500 Y231.838 F1000
G0 Z3.0 ; Pen up

G0 X62.500 Y232.206 F3000 ; Travel to line 276
G0 Z0.0 ; Pen down
G1 X69.506 Y226.306 F1000
G0 Z3.0 ; Pen up

G0 X69.506 Y226.675 F3000 ; Travel to line 277
G0 Z0.0 ; Pen down
G1 X62.500 Y232.575 F1000
G0 Z3.0 ; Pen up

G0 X62.500 Y232.944 F3000 ; Travel to line 278
G0 Z0.0 ; Pen down
G1 X69.506 Y227.044 F1000
G0 Z3.0 ; Pen up

G0 X69.506 Y227.413 F3000 ; Travel to line 279
G0 Z0.0 ; Pen down
G1 X62.500 Y233.312 F1000
G0 Z3.0 ; Pen up

G0 X62.500 Y233.681 F3000 ; Travel to line 280
G0 Z0.0 ; Pen down
G1 X69.506 Y227.781 F1000
G0 Z3.0 ; Pen up

G0 X69.506 Y228.150 F3000 ; Travel to line 281
G0 Z0.0 ; Pen down
G1 X62.500 Y234.050 F1000
G0 Z3.0 ; Pen up

G0 X62.500 Y234.419 F3000 ; Travel to line 282
G0 Z0.0 ; Pen down
G1 X69.506 Y228.519 F1000
G0 Z3.0 ; Pen up

G0 X69.506 Y228.888 F3000 ; Travel to line 283
G0 Z0.0 ; Pen down
G1 X62.500 Y234.788 F1000
G0 Z3.0 ; Pen up

G0 X62.500 Y235.156 F3000 ; Travel to line 284
G0 Z0.0 ; Pen down
G1 X69.506 Y229.256 F1000
G0 Z3.0 ; Pen up

G0 X69.506 Y229.625 F3000 ; Travel to line 285
G0 Z0.0 ; Pen down
G1 X62.500 Y235.525 F1000
G0 Z3.0 ; Pen up

G0 X62.500 Y235.894 F3000 ; Travel to line 286
G0 Z0.0 ; Pen down
G1 X69.506 Y229.994 F1000
G0 Z3.0 ; Pen up

G0 X69.506 Y230.363 F3000 ; Travel to line 287
G0 Z0.0 ; Pen down
G1 X62.500 Y236.263 F1000
G0 Z3.0 ; Pen up

G0 X62.500 Y236.631 F3000 ; Travel to line 288
G0 Z0.0 ; Pen down
G1 X69.506 Y230.731 F1000
G0 Z3.0 ; Pen up

G0 X69.506 Y231.100 F3000 ; Travel to line 289
G0 Z0.0 ; Pen down
G1 X62.500 Y237.000 F1000
G0 Z3.0 ; Pen up

G0 X62.500 Y237.738 F3000 ; Travel to line 290
G0 Z0.0 ; Pen down
G1 X69.506 Y231.469 F1000
G0 Z3.0 ; Pen up

G0 X69.506 Y231.838 F3000 ; Travel to line 291
G0 Z0.0 ; Pen down
G1 X62.500 Y238.106 F1000
G0 Z3.0 ; Pen up

G0 X62.500 Y238.475 F3000 ; Travel to line 292
G0 Z0.0 ; Pen down
G1 X69.506 Y232.206 F1000
G0 Z3.0 ; Pen up

G0 X69.506 Y232.575 F3000 ; Travel to line 293
G0 Z0.0 ; Pen down
G1 X62.500 Y238.844 F1000
G0 Z3.0 ; Pen up

G0 X62.500 Y239.213 F3000 ; Travel to line 294
G0 Z0.0 ; Pen down
G1 X69.506 Y232.944 F1000
G0 Z3.0 ; Pen up

G0 X69.506 Y233.312 F3000 ; Travel to line 295
G0 Z0.0 ; Pen down
G1 X62.500 Y239.581 F1000
G0 Z3.0 ; Pen up

G0 X62.500 Y239.950 F3000 ; Travel to line 296
G0 Z0.0 ; Pen down
G1 X69.506 Y233.681 F1000
G0 Z3.0 ; Pen up

G0 X69.506 Y234.050 F3000 ; Travel to line 297
G0 Z0.0 ; Pen down
G1 X62.500 Y240.319 F1000
G0 Z3.0 ; Pen up

G0 X62.500 Y240.688 F3000 ; Travel to line 298
G0 Z0.0 ; Pen down
G1 X69.506 Y234.419 F1000
G0 Z3.0 ; Pen up

G0 X69.506 Y234.788 F3000 ; Travel to line 299
G0 Z0.0 ; Pen down
G1 X62.500 Y241.056 F1000
G0 Z3.0 ; Pen up

G0 X62.500 Y241.425 F3000 ; Travel to line 300
G0 Z0.0 ; Pen down
G1 X69.506 Y235.156 F1000
G0 Z3.0 ; Pen up

G0 X69.506 Y235.525 F3000 ; Travel to line 301
G0 Z0.0 ; Pen down
G1 X62.500 Y241.794 F1000
G0 Z3.0 ; Pen up

G0 X62.500 Y242.163 F3000 ; Travel to line 302
G0 Z0.0 ; Pen down
G1 X69.506 Y235.894 F1000
G0 Z3.0 ; Pen up

G0 X69.506 Y236.263 F3000 ; Travel to line 303
G0 Z0.0 ; Pen down
G1 X62.500 Y242.531 F1000
G0 Z3.0 ; Pen up

G0 X62.500 Y242.900 F3000 ; Travel to line 304
G0 Z0.0 ; Pen down
G1 X69.506 Y236.631 F1000
G0 Z3.0 ; Pen up

G0 X69.506 Y237.000 F3000 ; Travel to line 305
G0 Z0.0 ; Pen down
G1 X62.500 Y243.269 F1000
G0 Z3.0 ; Pen up

G0 X62.500 Y243.638 F3000 ; Travel to line 306
G0 Z0.0 ; Pen down
G1 X69.506 Y237.369 F1000
G0 Z3.0 ; Pen up

G0 X69.506 Y238.106 F3000 ; Travel to line 307
G0 Z0.0 ; Pen down
G1 X62.500 Y244.375 F1000
G0 Z3.0 ; Pen up

G0 X62.500 Y244.744 F3000 ; Travel to line 308
G0 Z0.0 ; Pen down
G1 X69.506 Y238.475 F1000
G0 Z3.0 ; Pen up

G0 X69.506 Y238.844 F3000 ; Travel to line 309
G0 Z0.0 ; Pen down
G1 X62.500 Y245.113 F1000
G0 Z3.0 ; Pen up

G0 X62.500 Y245.481 F3000 ; Travel to line 310
G0 Z0.0 ; Pen down
G1 X69.506 Y239.213 F1000
G0 Z3.0 ; Pen up

G0 X69.506 Y239.581 F3000 ; Travel to line 311
G0 Z0.0 ; Pen down
G1 X62.500 Y245.850 F1000
G0 Z3.0 ; Pen up

G0 X62.500 Y246.219 F3000 ; Travel to line 312
G0 Z0.0 ; Pen down
G1 X69.506 Y239.950 F1000
G0 Z3.0 ; Pen up

G0 X69.506 Y240.319 F3000 ; Travel to line 313
G0 Z0.0 ; Pen down
G1 X62.500 Y246.588 F1000
G0 Z3.0 ; Pen up

G0 X62.500 Y246.956 F3000 ; Travel to line 314
G0 Z0.0 ; Pen down
G1 X69.506 Y240.688 F1000
G0 Z3.0 ; Pen up

G0 X69.506 Y241.056 F3000 ; Travel to line 315
G0 Z0.0 ; Pen down
G1 X62.500 Y247.325 F1000
G0 Z3.0 ; Pen up

G0 X62.500 Y247.694 F3000 ; Travel to line 316
G0 Z0.0 ; Pen down
G1 X69.506 Y241.425 F1000
G0 Z3.0 ; Pen up

G0 X69.506 Y241.794 F3000 ; Travel to line 317
G0 Z0.0 ; Pen down
G1 X62.500 Y248.063 F1000
G0 Z3.0 ; Pen up

G0 X62.500 Y248.431 F3000 ; Travel to line 318
G0 Z0.0 ; Pen down
G1 X69.506 Y242.163 F1000
G0 Z3.0 ; Pen up

G0 X69.506 Y242.531 F3000 ; Travel to line 319
G0 Z0.0 ; Pen down
G1 X62.500 Y248.800 F1000
G0 Z3.0 ; Pen up

G0 X62.500 Y249.169 F3000 ; Travel to line 320
G0 Z0.0 ; Pen down
G1 X69.506 Y242.900 F1000
G0 Z3.0 ; Pen up

G0 X69.506 Y243.269 F3000 ; Travel to line 321
G0 Z0.0 ; Pen down
G1 X62.500 Y249.538 F1000
G0 Z3.0 ; Pen up

G0 X62.500 Y249.906 F3000 ; Travel to line 322
G0 Z0.0 ; Pen down
G1 X69.506 Y243.638 F1000
G0 Z3.0 ; Pen up

G0 X69.506 Y244.375 F3000 ; Travel to line 323
G0 Z0.0 ; Pen down
G1 X62.500 Y250.644 F1000
G0 Z3.0 ; Pen up

G0 X62.500 Y251.013 F3000 ; Travel to line 324
G0 Z0.0 ; Pen down
G1 X69.506 Y244.744 F1000
G0 Z3.0 ; Pen up

G0 X69.506 Y245.113 F3000 ; Travel to line 325
G0 Z0.0 ; Pen down
G1 X62.500 Y251.381 F1000
G0 Z3.0 ; Pen up

G0 X62.500 Y251.750 F3000 ; Travel to line 326
G0 Z0.0 ; Pen down
G1 X69.506 Y245.481 F1000
G0 Z3.0 ; Pen up

G0 X69.506 Y245.850 F3000 ; Travel to line 327
G0 Z0.0 ; Pen down
G1 X62.500 Y252.119 F1000
G0 Z3.0 ; Pen up

G0 X62.500 Y252.488 F3000 ; Travel to line 328
G0 Z0.0 ; Pen down
G1 X69.506 Y246.219 F1000
G0 Z3.0 ; Pen up

G0 X69.506 Y246.588 F3000 ; Travel to line 329
G0 Z0.0 ; Pen down
G1 X62.500 Y252.856 F1000
G0 Z3.0 ; Pen up

G0 X62.500 Y253.225 F3000 ; Travel to line 330
G0 Z0.0 ; Pen down
G1 X69.506 Y246.956 F1000
G0 Z3.0 ; Pen up

G0 X69.506 Y247.325 F3000 ; Travel to line 331
G0 Z0.0 ; Pen down
G1 X62.500 Y253.594 F1000
G0 Z3.0 ; Pen up

G0 X62.500 Y253.963 F3000 ; Travel to line 332
G0 Z0.0 ; Pen down
G1 X69.506 Y247.694 F1000
G0 Z3.0 ; Pen up

G0 X69.506 Y248.063 F3000 ; Travel to line 333
G0 Z0.0 ; Pen down
G1 X62.500 Y254.331 F1000
G0 Z3.0 ; Pen up

G0 X62.500 Y254.700 F3000 ; Travel to line 334
G0 Z0.0 ; Pen down
G1 X69.506 Y248.431 F1000
G0 Z3.0 ; Pen up

G0 X69.506 Y248.800 F3000 ; Travel to line 335
G0 Z0.0 ; Pen down
G1 X62.500 Y255.069 F1000
G0 Z3.0 ; Pen up

G0 X62.500 Y255.806 F3000 ; Travel to line 336
G0 Z0.0 ; Pen down
G1 X69.506 Y249.906 F1000
G0 Z3.0 ; Pen up

G0 X69.506 Y250.275 F3000 ; Travel to line 337
G0 Z0.0 ; Pen down
G1 X62.500 Y256.175 F1000
G0 Z3.0 ; Pen up

G0 X62.500 Y256.913 F3000 ; Travel to line 338
G0 Z0.0 ; Pen down
G1 X69.506 Y251.013 F1000
G0 Z3.0 ; Pen up

G0 X69.506 Y251.381 F3000 ; Travel to line 339
G0 Z0.0 ; Pen down
G1 X62.500 Y257.281 F1000
G0 Z3.0 ; Pen up

G0 X62.500 Y257.650 F3000 ; Travel to line 340
G0 Z0.0 ; Pen down
G1 X69.506 Y251.750 F1000
G0 Z3.0 ; Pen up

G0 X69.875 Y251.750 F3000 ; Travel to line 341
G0 Z0.0 ; Pen down
G1 X62.500 Y258.019 F1000
G0 Z3.0 ; Pen up

G0 X62.500 Y258.387 F3000 ; Travel to line 342
G0 Z0.0 ; Pen down
G1 X69.875 Y252.119 F1000
G0 Z3.0 ; Pen up

G0 X70.244 Y252.119 F3000 ; Travel to line 343
G0 Z0.0 ; Pen down
G1 X62.500 Y258.756 F1000
G0 Z3.0 ; Pen up

G0 X62.500 Y259.125 F3000 ; Travel to line 344
G0 Z0.0 ; Pen down
G1 X70.613 Y252.119 F1000
G0 Z3.0 ; Pen up

G0 X70.981 Y252.119 F3000 ; Travel to line 345
G0 Z0.0 ; Pen down
G1 X62.869 Y259.125 F1000
G0 Z3.0 ; Pen up

G0 X63.606 Y259.125 F3000 ; Travel to line 346
G0 Z0.0 ; Pen down
G1 X71.350 Y252.119 F1000
G0 Z3.0 ; Pen up

G0 X71.719 Y252.119 F3000 ; Travel to line 347
G0 Z0.0 ; Pen down
G1 X63.975 Y259.125 F1000
G0 Z3.0 ; Pen up

G0 X64.344 Y259.125 F3000 ; Travel to line 348
G0 Z0.0 ; Pen down
G1 X72.088 Y252.119 F1000
G0 Z3.0 ; Pen up

G0 X72.456 Y252.119 F3000 ; Travel to line 349
G0 Z0.0 ; Pen down
G1 X64.713 Y259.125 F1000
G0 Z3.0 ; Pen up

G0 X65.081 Y259.125 F3000 ; Travel to line 350
G0 Z0.0 ; Pen down
G1 X73.194 Y252.119 F1000
G0 Z3.0 ; Pen up

G0 X73.562 Y252.119 F3000 ; Travel to line 351
G0 Z0.0 ; Pen down
G1 X65.450 Y259.125 F1000
G0 Z3.0 ; Pen up

G0 X65.819 Y259.125 F3000 ; Travel to line 352
G0 Z0.0 ; Pen down
G1 X73.931 Y252.119 F1000
G0 Z3.0 ; Pen up

G0 X74.300 Y252.119 F3000 ; Travel to line 353
G0 Z0.0 ; Pen down
G1 X66.188 Y259.125 F1000
G0 Z3.0 ; Pen up

G0 X67.294 Y259.125 F3000 ; Travel to line 354
G0 Z0.0 ; Pen down
G1 X75.406 Y252.119 F1000
G1 X75.406 Y252.119 F1000
G1 X67.294 Y259.125 F1000
G1 X67.294 Y259.125 F1000
G1 X75.406 Y252.119 F1000
G1 X75.406 Y252.119 F1000
G1 X67.294 Y259.125 F1000
G1 X67.294 Y259.125 F1000
G1 X75.037 Y252.119 F1000
G1 X75.037 Y252.119 F1000
G1 X67.294 Y259.125 F1000
G0 Z3.0 ; Pen up

G0 X67.662 Y259.125 F3000 ; Travel to line 355
G0 Z0.0 ; Pen down
G1 X75.775 Y252.119 F1000
G1 X75.775 Y252.119 F1000
G1 X67.662 Y259.125 F1000
G1 X67.662 Y259.125 F1000
G1 X75.775 Y252.119 F1000
G1 X75.775 Y252.119 F1000
G1 X67.662 Y259.125 F1000
G1 X67.662 Y259.125 F1000
G1 X75.775 Y252.119 F1000
G1 X75.775 Y252.119 F1000
G1 X67.662 Y259.125 F1000
G1 X67.662 Y259.125 F1000
G1 X75.406 Y252.119 F1000
G1 X75.406 Y252.119 F1000
G1 X67.662 Y259.125 F1000
G0 Z3.0 ; Pen up

G0 X68.031 Y259.125 F3000 ; Travel to line 356
G0 Z0.0 ; Pen down
G1 X76.144 Y252.119 F1000
G1 X76.144 Y252.119 F1000
G1 X68.031 Y259.125 F1000
G1 X68.031 Y259.125 F1000
G1 X76.144 Y252.119 F1000
G1 X76.144 Y252.119 F1000
G1 X68.031 Y259.125 F1000
G1 X68.031 Y259.125 F1000
G1 X76.513 Y252.119 F1000
G1 X76.513 Y252.119 F1000
G1 X68.400 Y259.125 F1000
G1 X68.400 Y259.125 F1000
G1 X76.513 Y252.119 F1000
G1 X76.513 Y252.119 F1000
G1 X68.400 Y259.125 F1000
G1 X68.400 Y259.125 F1000
G1 X76.513 Y252.119 F1000
G1 X76.513 Y252.119 F1000
G1 X68.400 Y259.125 F1000
G1 X68.400 Y259.125 F1000
G1 X76.881 Y252.119 F1000
G1 X76.881 Y252.119 F1000
G1 X68.769 Y259.125 F1000
G1 X68.769 Y259.125 F1000
G1 X76.881 Y252.119 F1000
G1 X76.881 Y252.119 F1000
G1 X68.769 Y259.125 F1000
G1 X68.769 Y259.125 F1000
G1 X77.250 Y252.119 F1000
G1 X77.250 Y252.119 F1000
G1 X68.769 Y259.125 F1000
G0 Z3.0 ; Pen up

G0 X69.138 Y259.125 F3000 ; Travel to line 357
G0 Z0.0 ; Pen down
G1 X77.619 Y252.119 F1000
G1 X77.619 Y252.119 F1000
G1 X69.138 Y259.125 F1000
G1 X69.138 Y259.125 F1000
G1 X77.619 Y252.119 F1000
G1 X77.619 Y252.119 F1000
G1 X69.138 Y259.125 F1000
G1 X69.138 Y259.125 F1000
G1 X77.250 Y252.119 F1000
G1 X77.250 Y252.119 F1000
G1 X69.138 Y259.125 F1000
G0 Z3.0 ; Pen up

G0 X69.506 Y259.125 F3000 ; Travel to line 358
G0 Z0.0 ; Pen down
G1 X77.619 Y252.119 F1000
G1 X77.619 Y252.119 F1000
G1 X69.506 Y259.125 F1000
G1 X69.506 Y259.125 F1000
G1 X77.988 Y252.119 F1000
G1 X77.988 Y252.119 F1000
G1 X69.506 Y259.125 F1000
G1 X69.506 Y259.125 F1000
G1 X77.988 Y252.119 F1000
G1 X77.988 Y252.119 F1000
G1 X69.506 Y259.125 F1000
G1 X69.506 Y259.125 F1000
G1 X77.988 Y252.119 F1000
G1 X77.988 Y252.119 F1000
G1 X69.875 Y259.125 F1000
G1 X69.875 Y259.125 F1000
G1 X78.356 Y252.119 F1000
G1 X78.356 Y252.119 F1000
G1 X69.875 Y259.125 F1000
G1 X69.875 Y259.125 F1000
G1 X78.356 Y252.119 F1000
G1 X78.356 Y252.119 F1000
G1 X69.875 Y259.125 F1000
G1 X69.875 Y259.125 F1000
G1 X78.356 Y252.119 F1000
G1 X78.356 Y252.119 F1000
G1 X69.875 Y259.125 F1000
G1 X69.875 Y259.125 F1000
G1 X78.725 Y252.119 F1000
G1 X78.725 Y252.119 F1000
G1 X70.244 Y259.125 F1000
G1 X70.244 Y259.125 F1000
G1 X78.725 Y252.119 F1000
G1 X78.725 Y252.119 F1000
G1 X70.244 Y259.125 F1000
G1 X70.244 Y259.125 F1000
G1 X78.725 Y252.119 F1000
G1 X78.725 Y252.119 F1000
G1 X70.244 Y259.125 F1000
G1 X70.244 Y259.125 F1000
G1 X79.094 Y252.119 F1000
G1 X79.094 Y252.119 F1000
G1 X70.244 Y259.125 F1000
G0 Z3.0 ; Pen up

G0 X70.613 Y259.125 F3000 ; Travel to line 359
G0 Z0.0 ; Pen down
G1 X79.463 Y252.119 F1000
G1 X79.463 Y252.119 F1000
G1 X70.613 Y259.125 F1000
G1 X70.613 Y259.125 F1000
G1 X79.094 Y252.119 F1000
G1 X79.094 Y252.119 F1000
G1 X70.613 Y259.125 F1000
G1 X70.613 Y259.125 F1000
G1 X79.094 Y252.119 F1000
G1 X79.094 Y252.119 F1000
G1 X70.613 Y259.125 F1000
G0 Z3.0 ; Pen up

G0 X70.981 Y259.125 F3000 ; Travel to line 360
G0 Z0.0 ; Pen down
G1 X79.463 Y252.119 F1000
G1 X79.463 Y252.119 F1000
G1 X70.981 Y259.125 F1000
G1 X70.981 Y259.125 F1000
G1 X79.831 Y252.119 F1000
G1 X79.831 Y252.119 F1000
G1 X70.981 Y259.125 F1000
G1 X70.981 Y259.125 F1000
G1 X79.831 Y252.119 F1000
G1 X79.831 Y252.119 F1000
G1 X71.350 Y259.125 F1000
G1 X71.350 Y259.125 F1000
G1 X80.200 Y252.119 F1000
G1 X80.200 Y252.119 F1000
G1 X71.350 Y259.125 F1000
G1 X71.350 Y259.125 F1000
G1 X80.200 Y252.119 F1000
G1 X80.200 Y252.119 F1000
G1 X71.350 Y259.125 F1000
G1 X71.350 Y259.125 F1000
G1 X80.200 Y252.119 F1000
G1 X80.200 Y252.119 F1000
G1 X71.719 Y259.125 F1000
G1 X71.719 Y259.125 F1000
G1 X80.569 Y252.119 F1000
G1 X80.569 Y252.119 F1000
G1 X71.719 Y259.125 F1000
G1 X71.719 Y259.125 F1000
G1 X80.569 Y252.119 F1000
G1 X80.569 Y252.119 F1000
G1 X71.719 Y259.125 F1000
G1 X71.719 Y259.125 F1000
G1 X80.569 Y252.119 F1000
G1 X80.569 Y252.119 F1000
G1 X71.719 Y259.125 F1000
G1 X71.719 Y259.125 F1000
G1 X80.569 Y252.119 F1000
G1 X80.569 Y252.119 F1000
G1 X71.719 Y259.125 F1000
G1 X71.719 Y259.125 F1000
G1 X80.569 Y252.119 F1000
G1 X80.569 Y252.119 F1000
G1 X71.719 Y259.125 F1000
G1 X71.719 Y259.125 F1000
G1 X80.569 Y252.119 F1000
G1 X80.569 Y252.119 F1000
G1 X71.719 Y259.125 F1000
G1 X71.719 Y259.125 F1000
G1 X80.569 Y252.119 F1000
G1 X80.569 Y252.119 F1000
G1 X71.719 Y259.125 F1000
G1 X71.719 Y259.125 F1000
G1 X80.569 Y252.119 F1000
G1 X80.569 Y252.119 F1000
G1 X71.719 Y259.125 F1000
G1 X71.719 Y259.125 F1000
G1 X80.569 Y252.119 F1000
G1 X80.569 Y252.119 F1000
G1 X71.719 Y259.125 F1000
G1 X71.719 Y259.125 F1000
G1 X80.569 Y252.119 F1000
G1 X80.569 Y252.119 F1000
G1 X71.719 Y259.125 F1000
G1 X71.719 Y259.125 F1000
G1 X80.569 Y252.119 F1000
G1 X80.569 Y252.119 F1000
G1 X71.719 Y259.125 F1000
G1 X71.719 Y259.125 F1000
G1 X80.569 Y252.119 F1000
G1 X80.569 Y252.119 F1000
G1 X71.719 Y259.125 F1000
G1 X71.719 Y259.125 F1000
G1 X80.569 Y252.119 F1000
G1 X80.569 Y252.119 F1000
G1 X71.719 Y259.125 F1000
G1 X71.719 Y259.125 F1000
G1 X80.569 Y252.119 F1000
G1 X80.569 Y252.119 F1000
G1 X71.719 Y259.125 F1000
G1 X71.719 Y259.125 F1000
G1 X80.569 Y252.119 F1000
G1 X80.569 Y252.119 F1000
G1 X71.719 Y259.125 F1000
G1 X71.719 Y259.125 F1000
G1 X80.569 Y252.119 F1000
G1 X80.569 Y252.119 F1000
G1 X71.719 Y259.125 F1000
G1 X71.719 Y259.125 F1000
G1 X80.569 Y252.119 F1000
G1 X80.569 Y252.119 F1000
G1 X71.719 Y259.125 F1000
G1 X71.719 Y259.125 F1000
G1 X80.569 Y252.119 F1000
G1 X80.569 Y252.119 F1000
G1 X71.719 Y259.125 F1000
G1 X71.719 Y259.125 F1000
G1 X80.569 Y252.119 F1000
G1 X80.569 Y252.119 F1000
G1 X71.719 Y259.125 F1000
G1 X71.719 Y259.125 F1000
G1 X80.569 Y252.119 F1000
G1 X80.569 Y252.119 F1000
G1 X71.719 Y259.125 F1000
G1 X71.719 Y259.125 F1000
G1 X80.569 Y252.119 F1000
G1 X80.569 Y252.119 F1000
G1 X71.719 Y259.125 F1000
G1 X71.719 Y259.125 F1000
G1 X80.569 Y252.119 F1000
G1 X80.569 Y252.119 F1000
G1 X71.719 Y259.125 F1000
G1 X71.719 Y259.125 F1000
G1 X80.569 Y252.119 F1000
G1 X80.569 Y252.119 F1000
G1 X71.719 Y259.125 F1000
G1 X71.719 Y259.125 F1000
G1 X80.569 Y252.119 F1000
G1 X80.569 Y252.119 F1000
G1 X71.719 Y259.125 F1000
G1 X71.719 Y259.125 F1000
G1 X80.569 Y252.119 F1000
G1 X80.569 Y252.119 F1000
G1 X71.719 Y259.125 F1000
G1 X71.719 Y259.125 F1000
G1 X80.569 Y252.119 F1000
G1 X80.569 Y252.119 F1000
G1 X71.719 Y259.125 F1000
G1 X71.719 Y259.125 F1000
G1 X80.569 Y252.119 F1000
G1 X80.569 Y252.119 F1000
G1 X71.719 Y259.125 F1000
G1 X71.719 Y259.125 F1000
G1 X80.569 Y252.119 F1000
G1 X80.569 Y252.119 F1000
G1 X71.719 Y259.125 F1000
G1 X71.719 Y259.125 F1000
G1 X80.569 Y252.119 F1000
G1 X80.569 Y252.119 F1000
G1 X71.719 Y259.125 F1000
G1 X71.719 Y259.125 F1000
G1 X80.569 Y252.119 F1000
G1 X80.569 Y252.119 F1000
G1 X71.719 Y259.125 F1000
G1 X71.719 Y259.125 F1000
G1 X80.569 Y252.119 F1000
G1 X80.569 Y252.119 F1000
G1 X71.719 Y259.125 F1000
G1 X71.719 Y259.125 F1000
G1 X80.569 Y252.119 F1000
G1 X80.569 Y252.119 F1000
G1 X71.719 Y259.125 F1000
G1 X71.719 Y259.125 F1000
G1 X80.569 Y252.119 F1000
G1 X80.569 Y252.119 F1000
G1 X71.719 Y259.125 F1000
G1 X71.719 Y259.125 F1000
G1 X80.569 Y252.119 F1000
G1 X80.569 Y252.119 F1000
G1 X71.719 Y259.125 F1000
G1 X71.719 Y259.125 F1000
G1 X80.569 Y252.119 F1000
G1 X80.569 Y252.119 F1000
G1 X71.719 Y259.125 F1000
G1 X71.719 Y259.125 F1000
G1 X80.569 Y252.119 F1000
G1 X80.569 Y252.119 F1000
G1 X71.719 Y259.125 F1000
G1 X71.719 Y259.125 F1000
G1 X80.569 Y252.119 F1000
G1 X80.569 Y252.119 F1000
G1 X71.719 Y259.125 F1000
G1 X71.719 Y259.125 F1000
G1 X80.569 Y252.119 F1000
G1 X80.569 Y252.119 F1000
G1 X71.719 Y259.125 F1000
G1 X71.719 Y259.125 F1000
G1 X80.569 Y252.119 F1000
G1 X80.569 Y252.119 F1000
G1 X71.719 Y259.125 F1000
G1 X71.719 Y259.125 F1000
G1 X80.569 Y252.119 F1000
G1 X80.569 Y252.119 F1000
G1 X71.719 Y259.125 F1000
G1 X71.719 Y259.125 F1000
G1 X80.569 Y252.119 F1000
G1 X80.569 Y252.119 F1000
G1 X71.719 Y259.125 F1000
G1 X71.719 Y259.125 F1000
G1 X80.569 Y252.119 F1000
G1 X80.569 Y252.119 F1000
G1 X71.719 Y259.125 F1000
G1 X71.719 Y259.125 F1000
G1 X80.569 Y252.119 F1000
G1 X80.569 Y252.119 F1000
G1 X71.719 Y259.125 F1000
G1 X71.719 Y259.125 F1000
G1 X80.569 Y252.119 F1000
G1 X80.569 Y252.119 F1000
G1 X71.719 Y259.125 F1000
G1 X71.719 Y259.125 F1000
G1 X80.569 Y252.119 F1000
G1 X80.569 Y252.119 F1000
G1 X71.719 Y259.125 F1000
G1 X71.719 Y259.125 F1000
G1 X80.569 Y252.119 F1000
G1 X80.569 Y252.119 F1000
G1 X71.719 Y259.125 F1000
G1 X71.719 Y259.125 F1000
G1 X80.569 Y252.119 F1000
G1 X80.569 Y252.119 F1000
G1 X71.719 Y259.125 F1000
G1 X71.719 Y259.125 F1000
G1 X80.569 Y252.119 F1000
G1 X80.569 Y252.119 F1000
G1 X71.719 Y259.125 F1000
G1 X71.719 Y259.125 F1000
G1 X80.569 Y252.119 F1000
G1 X80.569 Y252.119 F1000
G1 X71.719 Y259.125 F1000
G1 X71.719 Y259.125 F1000
G1 X80.569 Y252.119 F1000
G1 X80.569 Y252.119 F1000
G1 X71.719 Y259.125 F1000
G1 X71.719 Y259.125 F1000
G1 X80.569 Y252.119 F1000
G1 X80.569 Y252.119 F1000
G1 X71.719 Y259.125 F1000
G1 X71.719 Y259.125 F1000
G1 X80.569 Y252.119 F1000
G1 X80.569 Y252.119 F1000
G1 X71.719 Y259.125 F1000
G1 X71.719 Y259.125 F1000
G1 X80.569 Y252.119 F1000
G1 X80.569 Y252.119 F1000
G1 X71.719 Y259.125 F1000
G1 X71.719 Y259.125 F1000
G1 X80.569 Y252.119 F1000
G1 X80.569 Y252.119 F1000
G1 X71.719 Y259.125 F1000
G1 X71.719 Y259.125 F1000
G1 X80.569 Y252.119 F1000
G1 X80.569 Y252.119 F1000
G1 X71.719 Y259.125 F1000
G1 X71.719 Y259.125 F1000
G1 X80.569 Y252.119 F1000
G1 X80.569 Y252.119 F1000
G1 X71.719 Y259.125 F1000
G1 X71.719 Y259.125 F1000
G1 X80.569 Y252.119 F1000
G1 X80.569 Y252.119 F1000
G1 X71.719 Y259.125 F1000
G1 X71.719 Y259.125 F1000
G1 X80.569 Y252.119 F1000
G1 X80.569 Y252.119 F1000
G1 X71.719 Y259.125 F1000
G1 X71.719 Y259.125 F1000
G1 X80.569 Y252.119 F1000
G1 X80.569 Y252.119 F1000
G1 X71.719 Y259.125 F1000
G1 X71.719 Y259.125 F1000
G1 X80.569 Y252.119 F1000
G1 X80.569 Y252.119 F1000
G1 X71.719 Y259.125 F1000
G1 X71.719 Y259.125 F1000
G1 X80.569 Y252.119 F1000
G1 X80.569 Y252.119 F1000
G1 X71.719 Y259.125 F1000
G1 X71.719 Y259.125 F1000
G1 X80.569 Y252.119 F1000
G1 X80.569 Y252.119 F1000
G1 X71.719 Y259.125 F1000
G1 X71.719 Y259.125 F1000
G1 X80.569 Y252.119 F1000
G1 X80.569 Y252.119 F1000
G1 X71.719 Y259.125 F1000
G1 X71.719 Y259.125 F1000
G1 X80.569 Y252.119 F1000
G1 X80.569 Y252.119 F1000
G1 X71.719 Y259.125 F1000
G1 X71.719 Y259.125 F1000
G1 X80.569 Y252.119 F1000
G1 X80.569 Y252.119 F1000
G1 X71.719 Y259.125 F1000
G1 X71.719 Y259.125 F1000
G1 X80.569 Y252.119 F1000
G1 X80.569 Y252.119 F1000
G1 X71.719 Y259.125 F1000
G1 X71.719 Y259.125 F1000
G1 X80.569 Y252.119 F1000
G1 X80.569 Y252.119 F1000
G1 X71.719 Y259.125 F1000
G1 X71.719 Y259.125 F1000
G1 X80.569 Y252.119 F1000
G1 X80.569 Y252.119 F1000
G1 X71.719 Y259.125 F1000
G1 X71.719 Y259.125 F1000
G1 X80.569 Y252.119 F1000
G1 X80.569 Y252.119 F1000
G1 X71.719 Y259.125 F1000
G1 X71.719 Y259.125 F1000
G1 X80.569 Y252.119 F1000
G1 X80.569 Y252.119 F1000
G1 X71.719 Y259.125 F1000
G1 X71.719 Y259.125 F1000
G1 X80.569 Y252.119 F1000
G1 X80.569 Y252.119 F1000
G1 X71.719 Y259.125 F1000
G1 X71.719 Y259.125 F1000
G1 X80.569 Y252.119 F1000
G1 X80.569 Y252.119 F1000
G1 X71.719 Y259.125 F1000
G1 X71.719 Y259.125 F1000
G1 X80.569 Y252.119 F1000
G1 X80.569 Y252.119 F1000
G1 X71.719 Y259.125 F1000
G1 X71.719 Y259.125 F1000
G1 X80.569 Y252.119 F1000
G1 X80.569 Y252.119 F1000
G1 X71.719 Y259.125 F1000
G1 X71.719 Y259.125 F1000
G1 X80.569 Y252.119 F1000
G1 X80.569 Y252.119 F1000
G1 X71.719 Y259.125 F1000
G1 X71.719 Y259.125 F1000
G1 X80.569 Y252.119 F1000
G1 X80.569 Y252.119 F1000
G1 X71.719 Y259.125 F1000
G1 X71.719 Y259.125 F1000
G1 X80.569 Y252.119 F1000
G1 X80.569 Y252.119 F1000
G1 X71.719 Y259.125 F1000
G1 X71.719 Y259.125 F1000
G1 X80.569 Y252.119 F1000
G1 X80.569 Y252.119 F1000
G1 X71.719 Y259.125 F1000
G1 X71.719 Y259.125 F1000
G1 X80.569 Y252.119 F1000
G1 X80.569 Y252.119 F1000
G1 X71.719 Y259.125 F1000
G1 X71.719 Y259.125 F1000
G1 X80.569 Y252.119 F1000
G1 X80.569 Y252.119 F1000
G1 X71.719 Y259.125 F1000
G1 X71.719 Y259.125 F1000
G1 X80.569 Y252.119 F1000
G1 X80.569 Y252.119 F1000
G1 X71.719 Y259.125 F1000
G1 X71.719 Y259.125 F1000
G1 X80.569 Y252.119 F1000
G1 X80.569 Y252.119 F1000
G1 X71.719 Y259.125 F1000
G1 X71.719 Y259.125 F1000
G1 X80.569 Y252.119 F1000
G1 X80.569 Y252.119 F1000
G1 X71.719 Y259.125 F1000
G1 X71.719 Y259.125 F1000
G1 X80.569 Y252.119 F1000
G1 X80.569 Y252.119 F1000
G1 X71.719 Y259.125 F1000
G1 X71.719 Y259.125 F1000
G1 X80.569 Y252.119 F1000
G1 X80.569 Y252.119 F1000
G1 X71.719 Y259.125 F1000
G1 X71.719 Y259.125 F1000
G1 X80.569 Y252.119 F1000
G1 X80.569 Y252.119 F1000
G1 X71.719 Y259.125 F1000
G1 X71.719 Y259.125 F1000
G1 X80.569 Y252.119 F1000
G1 X80.569 Y252.119 F1000
G1 X71.719 Y259.125 F1000
G1 X71.719 Y259.125 F1000
G1 X80.569 Y252.119 F1000
G1 X80.569 Y252.119 F1000
G1 X71.719 Y259.125 F1000
G1 X71.719 Y259.125 F1000
G1 X80.569 Y252.119 F1000
G1 X80.569 Y252.119 F1000
G1 X71.719 Y259.125 F1000
G1 X71.719 Y259.125 F1000
G1 X80.569 Y252.119 F1000
G1 X80.569 Y252.119 F1000
G1 X71.719 Y259.125 F1000
G1 X71.719 Y259.125 F1000
G1 X80.569 Y252.119 F1000
G1 X80.569 Y252.119 F1000
G1 X71.719 Y259.125 F1000
G1 X71.719 Y259.125 F1000
G1 X80.569 Y252.119 F1000
G1 X80.569 Y252.119 F1000
G1 X71.719 Y259.125 F1000
G1 X71.719 Y259.125 F1000
G1 X80.569 Y252.119 F1000
G1 X80.569 Y252.119 F1000
G1 X71.719 Y259.125 F1000
G1 X71.719 Y259.125 F1000
G1 X80.569 Y252.119 F1000
G1 X80.569 Y252.119 F1000
G1 X71.719 Y259.125 F1000
G1 X71.719 Y259.125 F1000
G1 X80.569 Y252.119 F1000
G1 X80.569 Y252.119 F1000
G1 X71.719 Y259.125 F1000
G1 X71.719 Y259.125 F1000
G1 X80.569 Y252.119 F1000
G1 X80.569 Y252.119 F1000
G1 X71.719 Y259.125 F1000
G1 X71.719 Y259.125 F1000
G1 X80.569 Y252.119 F1000
G1 X80.569 Y252.119 F1000
G1 X71.719 Y259.125 F1000
G1 X71.719 Y259.125 F1000
G1 X80.569 Y252.119 F1000
G1 X80.569 Y252.119 F1000
G1 X71.719 Y259.125 F1000
G1 X71.719 Y259.125 F1000
G1 X80.569 Y252.119 F1000
G1 X80.569 Y252.119 F1000
G1 X71.719 Y259.125 F1000
G1 X71.719 Y259.125 F1000
G1 X80.569 Y252.119 F1000
G1 X80.569 Y252.119 F1000
G1 X71.719 Y259.125 F1000
G1 X71.719 Y259.125 F1000
G1 X80.569 Y252.119 F1000
G1 X80.569 Y252.119 F1000
G1 X71.719 Y259.125 F1000
G1 X71.719 Y259.125 F1000
G1 X80.569 Y252.119 F1000
G1 X80.569 Y252.119 F1000
G1 X71.719 Y259.125 F1000
G1 X71.719 Y259.125 F1000
G1 X80.569 Y252.119 F1000
G1 X80.569 Y252.119 F1000
G1 X71.719 Y259.125 F1000
G1 X71.719 Y259.125 F1000
G1 X80.569 Y252.119 F1000
G1 X80.569 Y252.119 F1000
G1 X71.719 Y259.125 F1000
G1 X71.719 Y259.125 F1000
G1 X80.569 Y252.119 F1000
G1 X80.569 Y252.119 F1000
G1 X71.719 Y259.125 F1000
G1 X71.719 Y259.125 F1000
G1 X80.569 Y252.119 F1000
G1 X80.569 Y252.119 F1000
G1 X71.719 Y259.125 F1000
G1 X71.719 Y259.125 F1000
G1 X80.569 Y252.119 F1000
G1 X80.569 Y252.119 F1000
G1 X71.719 Y259.125 F1000
G1 X71.719 Y259.125 F1000
G1 X80.569 Y252.119 F1000
G1 X80.569 Y252.119 F1000
G1 X71.719 Y259.125 F1000
G1 X71.719 Y259.125 F1000
G1 X80.569 Y252.119 F1000
G1 X80.569 Y252.119 F1000
G1 X71.719 Y259.125 F1000
G1 X71.719 Y259.125 F1000
G1 X80.569 Y252.119 F1000
G1 X80.569 Y252.119 F1000
G1 X71.719 Y259.125 F1000
G1 X71.719 Y259.125 F1000
G1 X80.569 Y252.119 F1000
G1 X80.569 Y252.119 F1000
G1 X71.719 Y259.125 F1000
G1 X71.719 Y259.125 F1000
G1 X80.569 Y252.119 F1000
G1 X80.569 Y252.119 F1000
G1 X71.719 Y259.125 F1000
G1 X71.719 Y259.125 F1000
G1 X80.569 Y252.119 F1000
G1 X80.569 Y252.119 F1000
G1 X71.719 Y259.125 F1000
G1 X71.719 Y259.125 F1000
G1 X80.569 Y252.119 F1000
G1 X80.569 Y252.119 F1000
G1 X71.719 Y259.125 F1000
G1 X71.719 Y259.125 F1000
G1 X80.569 Y252.119 F1000
G1 X80.569 Y252.119 F1000
G1 X71.719 Y259.125 F1000
G1 X71.719 Y259.125 F1000
G1 X80.569 Y252.119 F1000
G1 X80.569 Y252.119 F1000
G1 X71.719 Y259.125 F1000
G1 X71.719 Y259.125 F1000
G1 X80.569 Y252.119 F1000
G1 X80.569 Y252.119 F1000
G1 X71.719 Y259.125 F1000
G1 X71.719 Y259.125 F1000
G1 X80.569 Y252.119 F1000
G1 X80.569 Y252.119 F1000
G1 X71.719 Y259.125 F1000
G1 X71.719 Y259.125 F1000
G1 X80.569 Y252.119 F1000
G1 X80.569 Y252.119 F1000
G1 X71.719 Y259.125 F1000
G1 X71.719 Y259.125 F1000
G1 X80.569 Y252.119 F1000
G1 X80.569 Y252.119 F1000
G1 X71.719 Y259.125 F1000
G1 X71.719 Y259.125 F1000
G1 X80.569 Y252.119 F1000
G1 X80.569 Y252.119 F1000
G1 X71.719 Y259.125 F1000
G1 X71.719 Y259.125 F1000
G1 X80.569 Y252.119 F1000
G1 X80.569 Y252.119 F1000
G1 X71.719 Y259.125 F1000
G1 X71.719 Y259.125 F1000
G1 X80.569 Y252.119 F1000
G1 X80.569 Y252.119 F1000
G1 X71.719 Y259.125 F1000
G1 X71.719 Y259.125 F1000
G1 X80.569 Y252.119 F1000
G1 X80.569 Y252.119 F1000
G1 X71.719 Y259.125 F1000
G1 X71.719 Y259.125 F1000
G1 X80.569 Y252.119 F1000
G1 X80.569 Y252.119 F1000
G1 X71.719 Y259.125 F1000
G1 X71.719 Y259.125 F1000
G1 X80.569 Y252.119 F1000
G1 X80.569 Y252.119 F1000
G1 X71.719 Y259.125 F1000
G1 X71.719 Y259.125 F1000
G1 X80.569 Y252.119 F1000
G1 X80.569 Y252.119 F1000
G1 X71.719 Y259.125 F1000
G1 X71.719 Y259.125 F1000
G1 X80.569 Y252.119 F1000
G1 X80.569 Y252.119 F1000
G1 X71.719 Y259.125 F1000
G1 X71.719 Y259.125 F1000
G1 X80.569 Y252.119 F1000
G1 X80.569 Y252.119 F1000
G1 X71.719 Y259.125 F1000
G1 X71.719 Y259.125 F1000
G1 X80.569 Y252.119 F1000
G1 X80.569 Y252.119 F1000
G1 X71.719 Y259.125 F1000
G1 X71.719 Y259.125 F1000
G1 X80.569 Y252.119 F1000
G1 X80.569 Y252.119 F1000
G1 X71.719 Y259.125 F1000
G1 X71.719 Y259.125 F1000
G1 X80.569 Y252.119 F1000
G1 X80.569 Y252.119 F1000
G1 X71.719 Y259.125 F1000
G1 X71.719 Y259.125 F1000
G1 X80.569 Y252.119 F1000
G1 X80.569 Y252.119 F1000
G1 X71.719 Y259.125 F1000
G1 X71.719 Y259.125 F1000
G1 X80.569 Y252.119 F1000
G1 X80.569 Y252.119 F1000
G1 X71.719 Y259.125 F1000
G1 X71.719 Y259.125 F1000
G1 X80.569 Y252.119 F1000
G1 X80.569 Y252.119 F1000
G1 X71.719 Y259.125 F1000
G1 X71.719 Y259.125 F1000
G1 X80.569 Y252.119 F1000
G1 X80.569 Y252.119 F1000
G1 X71.719 Y259.125 F1000
G1 X71.719 Y259.125 F1000
G1 X80.569 Y252.119 F1000
G1 X80.569 Y252.119 F1000
G1 X71.719 Y259.125 F1000
G1 X71.719 Y259.125 F1000
G1 X80.569 Y252.119 F1000
G1 X80.569 Y252.119 F1000
G1 X71.719 Y259.125 F1000
G1 X71.719 Y259.125 F1000
G1 X80.569 Y252.119 F1000
G1 X80.569 Y252.119 F1000
G1 X71.719 Y259.125 F1000
G1 X71.719 Y259.125 F1000
G1 X80.569 Y252.119 F1000
G1 X80.569 Y252.119 F1000
G1 X71.719 Y259.125 F1000
G1 X71.719 Y259.125 F1000
G1 X80.569 Y252.119 F1000
G1 X80.569 Y252.119 F1000
G1 X71.719 Y259.125 F1000
G1 X71.719 Y259.125 F1000
G1 X80.569 Y252.119 F1000
G1 X80.569 Y252.119 F1000
G1 X71.719 Y259.125 F1000
G1 X71.719 Y259.125 F1000
G1 X80.569 Y252.119 F1000
G1 X80.569 Y252.119 F1000
G1 X71.719 Y259.125 F1000
G1 X71.719 Y259.125 F1000
G1 X80.569 Y252.119 F1000
G1 X80.569 Y252.119 F1000
G1 X71.719 Y259.125 F1000
G1 X71.719 Y259.125 F1000
G1 X80.569 Y252.119 F1000
G1 X80.569 Y252.119 F1000
G1 X71.719 Y259.125 F1000
G1 X71.719 Y259.125 F1000
G1 X80.569 Y252.119 F1000
G1 X80.569 Y252.119 F1000
G1 X71.719 Y259.125 F1000
G1 X71.719 Y259.125 F1000
G1 X80.569 Y252.119 F1000
G1 X80.569 Y252.119 F1000
G1 X71.719 Y259.125 F1000
G1 X71.719 Y259.125 F1000
G1 X80.569 Y252.119 F1000
G1 X80.569 Y252.119 F1000
G1 X71.719 Y259.125 F1000
G1 X71.719 Y259.125 F1000
G1 X80.569 Y252.119 F1000
G1 X80.569 Y252.119 F1000
G1 X71.719 Y259.125 F1000
G1 X71.719 Y259.125 F1000
G1 X80.569 Y252.119 F1000
G1 X80.569 Y252.119 F1000
G1 X71.719 Y259.125 F1000
G1 X71.719 Y259.125 F1000
G1 X80.569 Y252.119 F1000
G1 X80.569 Y252.119 F1000
G1 X71.719 Y259.125 F1000
G1 X71.719 Y259.125 F1000
G1 X80.569 Y252.119 F1000
G1 X80.569 Y252.119 F1000
G1 X71.719 Y259.125 F1000
G1 X71.719 Y259.125 F1000
G1 X80.569 Y252.119 F1000
G1 X80.569 Y252.119 F1000
G1 X71.719 Y259.125 F1000
G1 X71.719 Y259.125 F1000
G1 X80.569 Y252.119 F1000
G1 X80.569 Y252.119 F1000
G1 X71.719 Y259.125 F1000
G1 X71.719 Y259.125 F1000
G1 X80.569 Y252.119 F1000
G1 X80.569 Y252.119 F1000
G1 X71.719 Y259.125 F1000
G1 X71.719 Y259.125 F1000
G1 X80.569 Y252.119 F1000
G1 X80.569 Y252.119 F1000
G1 X71.719 Y259.125 F1000
G1 X71.719 Y259.125 F1000
G1 X80.569 Y252.119 F1000
G1 X80.569 Y252.119 F1000
G1 X71.719 Y259.125 F1000
G1 X71.719 Y259.125 F1000
G1 X80.569 Y252.119 F1000
G1 X80.569 Y252.119 F1000
G1 X71.719 Y259.125 F1000
G1 X71.719 Y259.125 F1000
G1 X80.569 Y252.119 F1000
G1 X80.569 Y252.119 F1000
G1 X71.719 Y259.125 F1000
G1 X71.719 Y259.125 F1000
G1 X80.569 Y252.119 F1000
G1 X80.569 Y252.119 F1000
G1 X71.719 Y259.125 F1000
G1 X71.719 Y259.125 F1000
G1 X80.569 Y252.119 F1000
G1 X80.569 Y252.119 F1000
G1 X71.719 Y259.125 F1000
G1 X71.719 Y259.125 F1000
G1 X80.569 Y252.119 F1000
G1 X80.569 Y252.119 F1000
G1 X71.719 Y259.125 F1000
G1 X71.719 Y259.125 F1000
G1 X80.569 Y252.119 F1000
G1 X80.569 Y252.119 F1000
G1 X71.719 Y259.125 F1000
G1 X71.719 Y259.125 F1000
G1 X80.569 Y252.119 F1000
G1 X80.569 Y252.119 F1000
G1 X71.719 Y259.125 F1000
G1 X71.719 Y259.125 F1000
G1 X80.569 Y252.119 F1000
G1 X80.569 Y252.119 F1000
G1 X71.719 Y259.125 F1000
G1 X71.719 Y259.125 F1000
G1 X80.569 Y252.119 F1000
G1 X80.569 Y252.119 F1000
G1 X71.719 Y259.125 F1000
G1 X71.719 Y259.125 F1000
G1 X80.569 Y252.119 F1000
G1 X80.569 Y252.119 F1000
G1 X71.719 Y259.125 F1000
G1 X71.719 Y259.125 F1000
G1 X80.569 Y252.119 F1000
G1 X80.569 Y252.119 F1000
G1 X71.719 Y259.125 F1000
G1 X71.719 Y259.125 F1000
G1 X80.569 Y252.119 F1000
G1 X80.569 Y252.119 F1000
G1 X71.719 Y259.125 F1000
G1 X71.719 Y259.125 F1000
G1 X80.569 Y252.119 F1000
G1 X80.569 Y252.119 F1000
G1 X71.719 Y259.125 F1000
G1 X71.719 Y259.125 F1000
G1 X80.569 Y252.119 F1000
G1 X80.569 Y252.119 F1000
G1 X71.719 Y259.125 F1000
G1 X71.719 Y259.125 F1000
G1 X80.569 Y252.119 F1000
G1 X80.569 Y252.119 F1000
G1 X71.719 Y259.125 F1000
G1 X71.719 Y259.125 F1000
G1 X80.569 Y252.119 F1000
G1 X80.569 Y252.119 F1000
G1 X71.719 Y259.125 F1000
G1 X71.719 Y259.125 F1000
G1 X80.569 Y252.119 F1000
G1 X80.569 Y252.119 F1000
G1 X71.719 Y259.125 F1000
G1 X71.719 Y259.125 F1000
G1 X80.569 Y252.119 F1000
G1 X80.569 Y252.119 F1000
G1 X71.719 Y259.125 F1000
G1 X71.719 Y259.125 F1000
G1 X80.569 Y252.119 F1000
G1 X80.569 Y252.119 F1000
G1 X71.719 Y259.125 F1000
G1 X71.719 Y259.125 F1000
G1 X80.569 Y252.119 F1000
G1 X80.569 Y252.119 F1000
G1 X71.719 Y259.125 F1000
G1 X71.719 Y259.125 F1000
G1 X80.569 Y252.119 F1000
G1 X80.569 Y252.119 F1000
G1 X71.719 Y259.125 F1000
G1 X71.719 Y259.125 F1000
G1 X80.569 Y252.119 F1000
G1 X80.569 Y252.119 F1000
G1 X71.719 Y259.125 F1000
G1 X71.719 Y259.125 F1000
G1 X80.569 Y252.119 F1000
G1 X80.569 Y252.119 F1000
G1 X71.719 Y259.125 F1000
G1 X71.719 Y259.125 F1000
G1 X80.569 Y252.119 F1000
G1 X80.569 Y252.119 F1000
G1 X71.719 Y259.125 F1000
G1 X71.719 Y259.125 F1000
G1 X80.569 Y252.119 F1000
G1 X80.569 Y252.119 F1000
G1 X71.719 Y259.125 F1000
G1 X71.719 Y259.125 F1000
G1 X80.569 Y252.119 F1000
G1 X80.569 Y252.119 F1000
G1 X71.719 Y259.125 F1000
G1 X71.719 Y259.125 F1000
G1 X80.569 Y252.119 F1000
G1 X80.569 Y252.119 F1000
G1 X71.719 Y259.125 F1000
G1 X71.719 Y259.125 F1000
G1 X80.569 Y252.119 F1000
G1 X80.569 Y252.119 F1000
G1 X71.719 Y259.125 F1000
G1 X71.719 Y259.125 F1000
G1 X80.569 Y252.119 F1000
G1 X80.569 Y252.119 F1000
G1 X71.719 Y259.125 F1000
G1 X71.719 Y259.125 F1000
G1 X80.569 Y252.119 F1000
G1 X80.569 Y252.119 F1000
G1 X71.719 Y259.125 F1000
G1 X71.719 Y259.125 F1000
G1 X80.569 Y252.119 F1000
G1 X80.569 Y252.119 F1000
G1 X71.719 Y259.125 F1000
G1 X71.719 Y259.125 F1000
G1 X80.569 Y252.119 F1000
G1 X80.569 Y252.119 F1000
G1 X71.719 Y259.125 F1000
G1 X71.719 Y259.125 F1000
G1 X80.569 Y252.119 F1000
G1 X80.569 Y252.119 F1000
G1 X71.719 Y259.125 F1000
G1 X71.719 Y259.125 F1000
G1 X80.569 Y252.119 F1000
G1 X80.569 Y252.119 F1000
G1 X71.719 Y259.125 F1000
G1 X71.719 Y259.125 F1000
G1 X80.569 Y252.119 F1000
G1 X80.569 Y252.119 F1000
G1 X71.719 Y259.125 F1000
G1 X71.719 Y259.125 F1000
G1 X80.569 Y252.119 F1000
G1 X80.569 Y252.119 F1000
G1 X71.719 Y259.125 F1000
G1 X71.719 Y259.125 F1000
G1 X80.569 Y252.119 F1000
G1 X80.569 Y252.119 F1000
G1 X71.719 Y259.125 F1000
G1 X71.719 Y259.125 F1000
G1 X80.569 Y252.119 F1000
G1 X80.569 Y252.119 F1000
G1 X71.719 Y259.125 F1000
G1 X71.719 Y259.125 F1000
G1 X80.569 Y252.119 F1000
G1 X80.569 Y252.119 F1000
G1 X71.719 Y259.125 F1000
G1 X71.719 Y259.125 F1000
G1 X80.569 Y252.119 F1000
G1 X80.569 Y252.119 F1000
G1 X71.719 Y259.125 F1000
G1 X71.719 Y259.125 F1000
G1 X80.569 Y252.119 F1000
G1 X80.569 Y252.119 F1000
G1 X71.719 Y259.125 F1000
G1 X71.719 Y259.125 F1000
G1 X80.569 Y252.119 F1000
G1 X80.569 Y252.119 F1000
G1 X71.719 Y259.125 F1000
G1 X71.719 Y259.125 F1000
G1 X80.569 Y252.119 F1000
G1 X80.569 Y252.119 F1000
G1 X71.719 Y259.125 F1000
G1 X71.719 Y259.125 F1000
G1 X80.569 Y252.119 F1000
G1 X80.569 Y252.119 F1000
G1 X71.719 Y259.125 F1000
G1 X71.719 Y259.125 F1000
G1 X80.569 Y252.119 F1000
G1 X80.569 Y252.119 F1000
G1 X71.719 Y259.125 F1000
G1 X71.719 Y259.125 F1000
G1 X80.569 Y252.119 F1000
G1 X80.569 Y252.119 F1000
G1 X71.719 Y259.125 F1000
G1 X71.719 Y259.125 F1000
G1 X80.569 Y252.119 F1000
G1 X80.569 Y252.119 F1000
G1 X71.719 Y259.125 F1000
G1 X71.719 Y259.125 F1000
G1 X80.569 Y252.119 F1000
G1 X80.569 Y252.119 F1000
G1 X71.719 Y259.125 F1000
G1 X71.719 Y259.125 F1000
G1 X80.569 Y252.119 F1000
G1 X80.569 Y252.119 F1000
G1 X71.719 Y259.125 F1000
G1 X71.719 Y259.125 F1000
G1 X80.569 Y252.119 F1000
G1 X80.569 Y252.119 F1000
G1 X71.719 Y259.125 F1000
G1 X71.719 Y259.125 F1000
G1 X80.569 Y252.119 F1000
G1 X80.569 Y252.119 F1000
G1 X71.719 Y259.125 F1000
G1 X71.719 Y259.125 F1000
G1 X80.569 Y252.119 F1000
G1 X80.569 Y252.119 F1000
G1 X71.719 Y259.125 F1000
G1 X71.719 Y259.125 F1000
G1 X80.569 Y252.119 F1000
G1 X80.569 Y252.119 F1000
G1 X71.719 Y259.125 F1000
G1 X71.719 Y259.125 F1000
G1 X80.569 Y252.119 F1000
G1 X80.569 Y252.119 F1000
G1 X71.719 Y259.125 F1000
G1 X71.719 Y259.125 F1000
G1 X80.569 Y252.119 F1000
G1 X80.569 Y252.119 F1000
G1 X71.719 Y259.125 F1000
G0 Z3.0 ; Pen up

G0 X72.088 Y259.125 F3000 ; Travel to line 361
G0 Z0.0 ; Pen down
G1 X80.938 Y252.119 F1000
G0 Z3.0 ; Pen up

G0 X81.306 Y252.119 F3000 ; Travel to line 362
G0 Z0.0 ; Pen down
G1 X72.825 Y259.125 F1000
G1 X72.825 Y259.125 F1000
G1 X81.675 Y252.119 F1000
G0 Z3.0 ; Pen up

G0 X82.044 Y252.119 F3000 ; Travel to line 363
G0 Z0.0 ; Pen down
G1 X73.194 Y259.125 F1000
G0 Z3.0 ; Pen up

G0 X73.562 Y259.125 F3000 ; Travel to line 364
G0 Z0.0 ; Pen down
G1 X82.412 Y252.119 F1000
G0 Z3.0 ; Pen up

G0 X82.781 Y252.119 F3000 ; Travel to line 365
G0 Z0.0 ; Pen down
G1 X73.931 Y259.125 F1000
G0 Z3.0 ; Pen up

G0 X74.300 Y259.125 F3000 ; Travel to line 366
G0 Z0.0 ; Pen down
G1 X83.150 Y252.119 F1000
G0 Z3.0 ; Pen up

G0 X83.888 Y252.119 F3000 ; Travel to line 367
G0 Z0.0 ; Pen down
G1 X75.406 Y259.125 F1000
G1 X75.406 Y259.125 F1000
G1 X84.256 Y252.119 F1000
G0 Z3.0 ; Pen up

G0 X84.625 Y252.119 F3000 ; Travel to line 368
G0 Z0.0 ; Pen down
G1 X75.775 Y259.125 F1000
G0 Z3.0 ; Pen up

G0 X76.144 Y259.125 F3000 ; Travel to line 369
G0 Z0.0 ; Pen down
G1 X84.994 Y252.119 F1000
G0 Z3.0 ; Pen up

G0 X85.363 Y252.119 F3000 ; Travel to line 370
G0 Z0.0 ; Pen down
G1 X76.513 Y259.125 F1000
G0 Z3.0 ; Pen up

G0 X76.881 Y259.125 F3000 ; Travel to line 371
G0 Z0.0 ; Pen down
G1 X85.731 Y252.119 F1000
G1 X85.731 Y252.119 F1000
G1 X77.250 Y259.125 F1000
G0 Z3.0 ; Pen up

G0 X77.619 Y259.125 F3000 ; Travel to line 372
G0 Z0.0 ; Pen down
G1 X86.100 Y252.119 F1000
G0 Z3.0 ; Pen up

G0 X86.838 Y252.119 F3000 ; Travel to line 373
G0 Z0.0 ; Pen down
G1 X77.988 Y259.125 F1000
G0 Z3.0 ; Pen up

G0 X78.356 Y259.125 F3000 ; Travel to line 374
G0 Z0.0 ; Pen down
G1 X87.206 Y252.119 F1000
G0 Z3.0 ; Pen up

G0 X87.944 Y252.119 F3000 ; Travel to line 375
G0 Z0.0 ; Pen down
G1 X79.463 Y259.125 F1000
G0 Z3.0 ; Pen up

G0 X79.831 Y259.125 F3000 ; Travel to line 376
G0 Z0.0 ; Pen down
G1 X88.312 Y252.119 F1000
G0 Z3.0 ; Pen up

G0 X88.681 Y252.119 F3000 ; Travel to line 377
G0 Z0.0 ; Pen down
G1 X80.200 Y259.125 F1000
G0 Z3.0 ; Pen up

G0 X80.938 Y259.125 F3000 ; Travel to line 378
G0 Z0.0 ; Pen down
G1 X89.788 Y252.119 F1000
G1 X89.788 Y252.119 F1000
G1 X81.306 Y259.125 F1000
G0 Z3.0 ; Pen up

G0 X81.675 Y259.125 F3000 ; Travel to line 379
G0 Z0.0 ; Pen down
G1 X90.156 Y252.119 F1000
G0 Z3.0 ; Pen up

G0 X90.525 Y252.119 F3000 ; Travel to line 380
G0 Z0.0 ; Pen down
G1 X82.044 Y259.125 F1000
G0 Z3.0 ; Pen up

G0 X82.412 Y259.125 F3000 ; Travel to line 381
G0 Z0.0 ; Pen down
G1 X90.894 Y252.119 F1000
G0 Z3.0 ; Pen up

G0 X91.263 Y252.119 F3000 ; Travel to line 382
G0 Z0.0 ; Pen down
G1 X82.781 Y259.125 F1000
G0 Z3.0 ; Pen up

G0 X83.888 Y259.125 F3000 ; Travel to line 383
G0 Z0.0 ; Pen down
G1 X92.369 Y252.119 F1000
G0 Z3.0 ; Pen up

G0 X92.737 Y252.119 F3000 ; Travel to line 384
G0 Z0.0 ; Pen down
G1 X84.256 Y259.125 F1000
G0 Z3.0 ; Pen up

G0 X84.625 Y259.125 F3000 ; Travel to line 385
G0 Z0.0 ; Pen down
G1 X93.106 Y252.119 F1000
G0 Z3.0 ; Pen up

G0 X93.475 Y252.119 F3000 ; Travel to line 386
G0 Z0.0 ; Pen down
G1 X84.994 Y259.125 F1000
G0 Z3.0 ; Pen up

G0 X85.363 Y259.125 F3000 ; Travel to line 387
G0 Z0.0 ; Pen down
G1 X93.844 Y252.119 F1000
G1 X93.844 Y252.119 F1000
G1 X85.731 Y259.125 F1000
G1 X85.731 Y259.125 F1000
G1 X94.213 Y252.119 F1000
G0 Z3.0 ; Pen up

G0 X94.581 Y252.119 F3000 ; Travel to line 388
G0 Z0.0 ; Pen down
G1 X86.100 Y259.125 F1000
G0 Z3.0 ; Pen up

G0 X86.469 Y259.125 F3000 ; Travel to line 389
G0 Z0.0 ; Pen down
G1 X94.950 Y252.119 F1000
G0 Z3.0 ; Pen up

G0 X95.319 Y252.119 F3000 ; Travel to line 390
G0 Z0.0 ; Pen down
G1 X86.838 Y259.125 F1000
G0 Z3.0 ; Pen up

G0 X87.206 Y259.125 F3000 ; Travel to line 391
G0 Z0.0 ; Pen down
G1 X95.688 Y252.119 F1000
G0 Z3.0 ; Pen up

G0 X96.425 Y252.119 F3000 ; Travel to line 392
G0 Z0.0 ; Pen down
G1 X88.312 Y259.125 F1000
G1 X88.312 Y259.125 F1000
G1 X96.794 Y252.119 F1000
G0 Z3.0 ; Pen up

G0 X97.163 Y252.119 F3000 ; Travel to line 393
G0 Z0.0 ; Pen down
G1 X88.681 Y259.125 F1000
G0 Z3.0 ; Pen up

G0 X89.419 Y259.125 F3000 ; Travel to line 394
G0 Z0.0 ; Pen down
G1 X97.900 Y252.119 F1000
G0 Z3.0 ; Pen up

G0 X98.638 Y252.119 F3000 ; Travel to line 395
G0 Z0.0 ; Pen down
G1 X90.525 Y259.125 F1000
G0 Z3.0 ; Pen up

G0 X90.156 Y259.125 F3000 ; Travel to line 396
G0 Z0.0 ; Pen down
G1 X98.269 Y252.119 F1000
G1 X98.269 Y252.119 F1000
G1 X89.788 Y259.125 F1000
G0 Z3.0 ; Pen up

G0 X91.263 Y259.125 F3000 ; Travel to line 397
G0 Z0.0 ; Pen down
G1 X99.744 Y252.119 F1000
G0 Z3.0 ; Pen up

G0 X99.375 Y252.119 F3000 ; Travel to line 398
G0 Z0.0 ; Pen down
G1 X90.894 Y259.125 F1000
G1 X90.894 Y259.125 F1000
G1 X99.006 Y252.119 F1000
G0 Z3.0 ; Pen up

G0 X100.481 Y252.119 F3000 ; Travel to line 399
G0 Z0.0 ; Pen down
G1 X92.369 Y259.125 F1000
G0 Z3.0 ; Pen up

G0 X92.737 Y259.125 F3000 ; Travel to line 400
G0 Z0.0 ; Pen down
G1 X100.850 Y252.119 F1000
G0 Z3.0 ; Pen up

G0 X101.219 Y252.119 F3000 ; Travel to line 401
G0 Z0.0 ; Pen down
G1 X93.106 Y259.125 F1000
G0 Z3.0 ; Pen up

G0 X93.844 Y259.125 F3000 ; Travel to line 402
G0 Z0.0 ; Pen down
G1 X102.325 Y252.119 F1000
G1 X102.325 Y252.119 F1000
G1 X94.213 Y259.125 F1000
G0 Z3.0 ; Pen up

G0 X94.581 Y259.125 F3000 ; Travel to line 403
G0 Z0.0 ; Pen down
G1 X102.694 Y252.119 F1000
G0 Z3.0 ; Pen up

G0 X103.431 Y252.119 F3000 ; Travel to line 404
G0 Z0.0 ; Pen down
G1 X95.319 Y259.125 F1000
G0 Z3.0 ; Pen up

G0 X95.688 Y259.125 F3000 ; Travel to line 405
G0 Z0.0 ; Pen down
G1 X103.800 Y252.119 F1000
G0 Z3.0 ; Pen up

G0 X104.169 Y252.119 F3000 ; Travel to line 406
G0 Z0.0 ; Pen down
G1 X96.056 Y259.125 F1000
G1 X96.056 Y259.125 F1000
G1 X104.538 Y252.119 F1000
G1 X104.538 Y252.119 F1000
G1 X96.425 Y259.125 F1000
G0 Z3.0 ; Pen up

G0 X96.794 Y259.125 F3000 ; Travel to line 407
G0 Z0.0 ; Pen down
G1 X104.906 Y252.119 F1000
G0 Z3.0 ; Pen up

G0 X105.275 Y252.119 F3000 ; Travel to line 408
G0 Z0.0 ; Pen down
G1 X97.163 Y259.125 F1000
G0 Z3.0 ; Pen up

G0 X97.531 Y259.125 F3000 ; Travel to line 409
G0 Z0.0 ; Pen down
G1 X105.644 Y252.119 F1000
G0 Z3.0 ; Pen up

G0 X106.013 Y252.119 F3000 ; Travel to line 410
G0 Z0.0 ; Pen down
G1 X97.900 Y259.125 F1000
G0 Z3.0 ; Pen up

G0 X98.269 Y259.125 F3000 ; Travel to line 411
G0 Z0.0 ; Pen down
G1 X106.381 Y252.119 F1000
G1 X106.381 Y252.119 F1000
G1 X98.638 Y259.125 F1000
G1 X98.638 Y259.125 F1000
G1 X106.750 Y252.119 F1000
G0 Z3.0 ; Pen up

G0 X107.119 Y252.119 F3000 ; Travel to line 412
G0 Z0.0 ; Pen down
G1 X99.006 Y259.125 F1000
G0 Z3.0 ; Pen up

G0 X99.375 Y259.125 F3000 ; Travel to line 413
G0 Z0.0 ; Pen down
G1 X107.488 Y252.119 F1000
G0 Z3.0 ; Pen up

G0 X107.856 Y252.119 F3000 ; Travel to line 414
G0 Z0.0 ; Pen down
G1 X99.744 Y259.125 F1000
G0 Z3.0 ; Pen up

G0 X100.113 Y259.125 F3000 ; Travel to line 415
G0 Z0.0 ; Pen down
G1 X108.225 Y252.119 F1000
G0 Z3.0 ; Pen up

G0 X108.594 Y252.119 F3000 ; Travel to line 416
G0 Z0.0 ; Pen down
G1 X100.850 Y259.125 F1000
G0 Z3.0 ; Pen up

G0 X101.588 Y259.125 F3000 ; Travel to line 417
G0 Z0.0 ; Pen down
G1 X109.700 Y252.119 F1000
G0 Z3.0 ; Pen up

G0 X109.331 Y252.119 F3000 ; Travel to line 418
G0 Z0.0 ; Pen down
G1 X101.219 Y259.125 F1000
G1 X101.219 Y259.125 F1000
G1 X108.963 Y252.119 F1000
G0 Z3.0 ; Pen up

G0 X110.069 Y252.119 F3000 ; Travel to line 419
G0 Z0.0 ; Pen down
G1 X101.956 Y259.125 F1000
G0 Z3.0 ; Pen up

G0 X102.325 Y259.125 F3000 ; Travel to line 420
G0 Z0.0 ; Pen down
G1 X110.438 Y252.119 F1000
G0 Z3.0 ; Pen up

G0 X111.175 Y252.119 F3000 ; Travel to line 421
G0 Z0.0 ; Pen down
G1 X103.431 Y259.125 F1000
G0 Z3.0 ; Pen up

G0 X103.062 Y259.125 F3000 ; Travel to line 422
G0 Z0.0 ; Pen down
G1 X110.806 Y252.119 F1000
G1 X110.806 Y252.119 F1000
G1 X102.694 Y259.125 F1000
G0 Z3.0 ; Pen up

G0 X104.169 Y259.125 F3000 ; Travel to line 423
G0 Z0.0 ; Pen down
G1 X112.281 Y252.119 F1000
G0 Z3.0 ; Pen up

G0 X111.913 Y252.119 F3000 ; Travel to line 424
G0 Z0.0 ; Pen down
G1 X103.800 Y259.125 F1000
G1 X103.800 Y259.125 F1000
G1 X111.544 Y252.119 F1000
G0 Z3.0 ; Pen up

G0 X112.650 Y252.119 F3000 ; Travel to line 425
G0 Z0.0 ; Pen down
G1 X104.538 Y259.125 F1000
G0 Z3.0 ; Pen up

G0 X104.906 Y259.125 F3000 ; Travel to line 426
G0 Z0.0 ; Pen down
G1 X113.019 Y252.119 F1000
G0 Z3.0 ; Pen up

G0 X113.388 Y252.119 F3000 ; Travel to line 427
G0 Z0.0 ; Pen down
G1 X105.275 Y259.125 F1000
G0 Z3.0 ; Pen up

G0 X105.644 Y259.125 F3000 ; Travel to line 428
G0 Z0.0 ; Pen down
G1 X113.756 Y252.119 F1000
G0 Z3.0 ; Pen up

G0 X114.125 Y252.119 F3000 ; Travel to line 429
G0 Z0.0 ; Pen down
G1 X106.013 Y259.125 F1000
G0 Z3.0 ; Pen up

G0 X106.750 Y259.125 F3000 ; Travel to line 430
G0 Z0.0 ; Pen down
G1 X114.863 Y252.119 F1000
G0 Z3.0 ; Pen up

G0 X115.231 Y252.119 F3000 ; Travel to line 431
G0 Z0.0 ; Pen down
G1 X107.119 Y259.125 F1000
G0 Z3.0 ; Pen up

G0 X107.488 Y259.125 F3000 ; Travel to line 432
G0 Z0.0 ; Pen down
G1 X115.600 Y252.119 F1000
G0 Z3.0 ; Pen up

G0 X115.969 Y252.119 F3000 ; Travel to line 433
G0 Z0.0 ; Pen down
G1 X107.856 Y259.125 F1000
G0 Z3.0 ; Pen up

G0 X108.594 Y259.125 F3000 ; Travel to line 434
G0 Z0.0 ; Pen down
G1 X116.338 Y252.119 F1000
G0 Z3.0 ; Pen up

G0 X116.706 Y252.119 F3000 ; Travel to line 435
G0 Z0.0 ; Pen down
G1 X108.963 Y259.125 F1000
G0 Z3.0 ; Pen up

G0 X109.331 Y259.125 F3000 ; Travel to line 436
G0 Z0.0 ; Pen down
G1 X117.075 Y252.119 F1000
G0 Z3.0 ; Pen up

G0 X117.444 Y252.119 F3000 ; Travel to line 437
G0 Z0.0 ; Pen down
G1 X109.700 Y259.125 F1000
G0 Z3.0 ; Pen up

G0 X110.069 Y259.125 F3000 ; Travel to line 438
G0 Z0.0 ; Pen down
G1 X117.812 Y252.119 F1000
G0 Z3.0 ; Pen up

G0 X118.181 Y252.119 F3000 ; Travel to line 439
G0 Z0.0 ; Pen down
G1 X110.438 Y259.125 F1000
G0 Z3.0 ; Pen up

G0 X110.806 Y259.125 F3000 ; Travel to line 440
G0 Z0.0 ; Pen down
G1 X118.550 Y252.119 F1000
G0 Z3.0 ; Pen up

G0 X118.919 Y252.119 F3000 ; Travel to line 441
G0 Z0.0 ; Pen down
G1 X111.175 Y259.125 F1000
G0 Z3.0 ; Pen up

G0 X111.544 Y259.125 F3000 ; Travel to line 442
G0 Z0.0 ; Pen down
G1 X119.288 Y252.119 F1000
G0 Z3.0 ; Pen up

G0 X119.656 Y252.119 F3000 ; Travel to line 443
G0 Z0.0 ; Pen down
G1 X111.913 Y259.125 F1000
G0 Z3.0 ; Pen up

G0 X112.281 Y259.125 F3000 ; Travel to line 444
G0 Z0.0 ; Pen down
G1 X120.025 Y252.119 F1000
G0 Z3.0 ; Pen up

G0 X120.394 Y252.119 F3000 ; Travel to line 445
G0 Z0.0 ; Pen down
G1 X112.650 Y259.125 F1000
G0 Z3.0 ; Pen up

G0 X113.388 Y259.125 F3000 ; Travel to line 446
G0 Z0.0 ; Pen down
G1 X121.131 Y252.119 F1000
G0 Z3.0 ; Pen up

G0 X121.500 Y252.119 F3000 ; Travel to line 447
G0 Z0.0 ; Pen down
G1 X113.756 Y259.125 F1000
G0 Z3.0 ; Pen up

G0 X114.125 Y259.125 F3000 ; Travel to line 448
G0 Z0.0 ; Pen down
G1 X121.869 Y252.119 F1000
G0 Z3.0 ; Pen up

G0 X122.238 Y252.119 F3000 ; Travel to line 449
G0 Z0.0 ; Pen down
G1 X114.494 Y259.125 F1000
G0 Z3.0 ; Pen up

G0 X114.863 Y259.125 F3000 ; Travel to line 450
G0 Z0.0 ; Pen down
G1 X122.606 Y252.119 F1000
G0 Z3.0 ; Pen up

G0 X122.975 Y252.119 F3000 ; Travel to line 451
G0 Z0.0 ; Pen down
G1 X115.231 Y259.125 F1000
G0 Z3.0 ; Pen up

G0 X115.600 Y259.125 F3000 ; Travel to line 452
G0 Z0.0 ; Pen down
G1 X123.344 Y252.119 F1000
G0 Z3.0 ; Pen up

G0 X123.713 Y252.119 F3000 ; Travel to line 453
G0 Z0.0 ; Pen down
G1 X115.969 Y259.125 F1000
G0 Z3.0 ; Pen up

G0 X116.338 Y259.125 F3000 ; Travel to line 454
G0 Z0.0 ; Pen down
G1 X124.081 Y252.119 F1000
G0 Z3.0 ; Pen up

G0 X124.450 Y252.119 F3000 ; Travel to line 455
G0 Z0.0 ; Pen down
G1 X116.706 Y259.125 F1000
G0 Z3.0 ; Pen up

G0 X117.075 Y259.125 F3000 ; Travel to line 456
G0 Z0.0 ; Pen down
G1 X124.819 Y252.119 F1000
G0 Z3.0 ; Pen up

G0 X125.188 Y252.119 F3000 ; Travel to line 457
G0 Z0.0 ; Pen down
G1 X117.444 Y259.125 F1000
G0 Z3.0 ; Pen up

G0 X117.812 Y259.125 F3000 ; Travel to line 458
G0 Z0.0 ; Pen down
G1 X125.925 Y252.119 F1000
G0 Z3.0 ; Pen up

G0 X126.294 Y252.119 F3000 ; Travel to line 459
G0 Z0.0 ; Pen down
G1 X118.181 Y259.125 F1000
G0 Z3.0 ; Pen up

G0 X118.550 Y259.125 F3000 ; Travel to line 460
G0 Z0.0 ; Pen down
G1 X126.663 Y252.119 F1000
G0 Z3.0 ; Pen up

G0 X127.031 Y252.119 F3000 ; Travel to line 461
G0 Z0.0 ; Pen down
G1 X118.919 Y259.125 F1000
G0 Z3.0 ; Pen up

G0 X119.288 Y259.125 F3000 ; Travel to line 462
G0 Z0.0 ; Pen down
G1 X127.400 Y252.119 F1000
G0 Z3.0 ; Pen up

G0 X128.137 Y252.119 F3000 ; Travel to line 463
G0 Z0.0 ; Pen down
G1 X120.025 Y259.125 F1000
G0 Z3.0 ; Pen up

G0 X120.394 Y259.125 F3000 ; Travel to line 464
G0 Z0.0 ; Pen down
G1 X128.506 Y252.119 F1000
G0 Z3.0 ; Pen up

G0 X128.875 Y252.119 F3000 ; Travel to line 465
G0 Z0.0 ; Pen down
G1 X120.763 Y259.125 F1000
G0 Z3.0 ; Pen up

G0 X121.131 Y259.125 F3000 ; Travel to line 466
G0 Z0.0 ; Pen down
G1 X129.244 Y252.119 F1000
G0 Z3.0 ; Pen up

G0 X129.613 Y252.119 F3000 ; Travel to line 467
G0 Z0.0 ; Pen down
G1 X121.500 Y259.125 F1000
G0 Z3.0 ; Pen up

G0 X121.869 Y259.125 F3000 ; Travel to line 468
G0 Z0.0 ; Pen down
G1 X129.981 Y252.119 F1000
G0 Z3.0 ; Pen up

G0 X130.350 Y252.119 F3000 ; Travel to line 469
G0 Z0.0 ; Pen down
G1 X122.238 Y259.125 F1000
G0 Z3.0 ; Pen up

G0 X122.606 Y259.125 F3000 ; Travel to line 470
G0 Z0.0 ; Pen down
G1 X130.719 Y252.119 F1000
G0 Z3.0 ; Pen up

G0 X131.088 Y252.119 F3000 ; Travel to line 471
G0 Z0.0 ; Pen down
G1 X122.975 Y259.125 F1000
G0 Z3.0 ; Pen up

G0 X123.344 Y259.125 F3000 ; Travel to line 472
G0 Z0.0 ; Pen down
G1 X131.456 Y252.119 F1000
G0 Z3.0 ; Pen up

G0 X131.825 Y252.119 F3000 ; Travel to line 473
G0 Z0.0 ; Pen down
G1 X123.713 Y259.125 F1000
G0 Z3.0 ; Pen up

G0 X124.081 Y259.125 F3000 ; Travel to line 474
G0 Z0.0 ; Pen down
G1 X139.569 Y245.481 F1000
G0 Z3.0 ; Pen up

G0 X139.569 Y245.850 F3000 ; Travel to line 475
G0 Z0.0 ; Pen down
G1 X124.450 Y259.125 F1000
G0 Z3.0 ; Pen up

G0 X124.819 Y259.125 F3000 ; Travel to line 476
G0 Z0.0 ; Pen down
G1 X139.569 Y246.219 F1000
G0 Z3.0 ; Pen up

G0 X139.569 Y246.588 F3000 ; Travel to line 477
G0 Z0.0 ; Pen down
G1 X125.188 Y259.125 F1000
G0 Z3.0 ; Pen up

G0 X125.556 Y259.125 F3000 ; Travel to line 478
G0 Z0.0 ; Pen down
G1 X139.569 Y246.956 F1000
G0 Z3.0 ; Pen up

G0 X139.569 Y248.063 F3000 ; Travel to line 479
G0 Z0.0 ; Pen down
G1 X127.031 Y259.125 F1000
G0 Z3.0 ; Pen up

G0 X126.663 Y259.125 F3000 ; Travel to line 480
G0 Z0.0 ; Pen down
G1 X139.569 Y247.694 F1000
G1 X139.569 Y247.694 F1000
G1 X126.294 Y259.125 F1000
G0 Z3.0 ; Pen up

G0 X127.400 Y259.125 F3000 ; Travel to line 481
G0 Z0.0 ; Pen down
G1 X139.569 Y248.431 F1000
G0 Z3.0 ; Pen up

G0 X139.569 Y248.800 F3000 ; Travel to line 482
G0 Z0.0 ; Pen down
G1 X127.769 Y259.125 F1000
G0 Z3.0 ; Pen up

G0 X128.137 Y259.125 F3000 ; Travel to line 483
G0 Z0.0 ; Pen down
G1 X139.569 Y249.169 F1000
G0 Z3.0 ; Pen up

G0 X139.569 Y249.538 F3000 ; Travel to line 484
G0 Z0.0 ; Pen down
G1 X128.506 Y259.125 F1000
G0 Z3.0 ; Pen up

G0 X128.875 Y259.125 F3000 ; Travel to line 485
G0 Z0.0 ; Pen down
G1 X139.569 Y249.906 F1000
G0 Z3.0 ; Pen up

G0 X139.569 Y250.275 F3000 ; Travel to line 486
G0 Z0.0 ; Pen down
G1 X129.244 Y259.125 F1000
G0 Z3.0 ; Pen up

G0 X129.613 Y259.125 F3000 ; Travel to line 487
G0 Z0.0 ; Pen down
G1 X139.569 Y250.644 F1000
G0 Z3.0 ; Pen up

G0 X139.569 Y251.013 F3000 ; Travel to line 488
G0 Z0.0 ; Pen down
G1 X129.981 Y259.125 F1000
G0 Z3.0 ; Pen up

G0 X130.719 Y259.125 F3000 ; Travel to line 489
G0 Z0.0 ; Pen down
G1 X139.569 Y251.381 F1000
G1 X139.569 Y251.381 F1000
G1 X131.088 Y259.125 F1000
G0 Z3.0 ; Pen up

G0 X131.456 Y259.125 F3000 ; Travel to line 490
G0 Z0.0 ; Pen down
G1 X139.569 Y251.750 F1000
G0 Z3.0 ; Pen up

G0 X139.938 Y251.750 F3000 ; Travel to line 491
G0 Z0.0 ; Pen down
G1 X131.825 Y259.125 F1000
G0 Z3.0 ; Pen up

G0 X132.194 Y259.125 F3000 ; Travel to line 492
G0 Z0.0 ; Pen down
G1 X139.938 Y252.119 F1000
G0 Z3.0 ; Pen up

G0 X140.306 Y252.119 F3000 ; Travel to line 493
G0 Z0.0 ; Pen down
G1 X132.562 Y259.125 F1000
G0 Z3.0 ; Pen up

G0 X133.300 Y259.125 F3000 ; Travel to line 494
G0 Z0.0 ; Pen down
G1 X141.044 Y252.119 F1000
G0 Z3.0 ; Pen up

G0 X141.413 Y252.119 F3000 ; Travel to line 495
G0 Z0.0 ; Pen down
G1 X133.669 Y259.125 F1000
G0 Z3.0 ; Pen up

G0 X134.038 Y259.125 F3000 ; Travel to line 496
G0 Z0.0 ; Pen down
G1 X141.781 Y252.119 F1000
G0 Z3.0 ; Pen up

G0 X142.150 Y252.119 F3000 ; Travel to line 497
G0 Z0.0 ; Pen down
G1 X134.406 Y259.125 F1000
G0 Z3.0 ; Pen up

G0 X134.775 Y259.125 F3000 ; Travel to line 498
G0 Z0.0 ; Pen down
G1 X142.519 Y252.119 F1000
G0 Z3.0 ; Pen up

G0 X143.256 Y252.119 F3000 ; Travel to line 499
G0 Z0.0 ; Pen down
G1 X135.144 Y259.125 F1000
G0 Z3.0 ; Pen up

G0 X135.512 Y259.125 F3000 ; Travel to line 500
G0 Z0.0 ; Pen down
G1 X143.625 Y252.119 F1000
G0 Z3.0 ; Pen up

G0 X143.994 Y252.119 F3000 ; Travel to line 501
G0 Z0.0 ; Pen down
G1 X135.881 Y259.125 F1000
G0 Z3.0 ; Pen up

G0 X136.250 Y259.125 F3000 ; Travel to line 502
G0 Z0.0 ; Pen down
G1 X144.363 Y252.119 F1000
G0 Z3.0 ; Pen up

G0 X144.731 Y252.119 F3000 ; Travel to line 503
G0 Z0.0 ; Pen down
G1 X136.619 Y259.125 F1000
G0 Z3.0 ; Pen up

G0 X136.988 Y259.125 F3000 ; Travel to line 504
G0 Z0.0 ; Pen down
G1 X145.100 Y252.119 F1000
G0 Z3.0 ; Pen up

G0 X145.469 Y252.119 F3000 ; Travel to line 505
G0 Z0.0 ; Pen down
G1 X137.356 Y259.125 F1000
G0 Z3.0 ; Pen up

G0 X137.725 Y259.125 F3000 ; Travel to line 506
G0 Z0.0 ; Pen down
G1 X145.838 Y252.119 F1000
G0 Z3.0 ; Pen up

G0 X146.206 Y252.119 F3000 ; Travel to line 507
G0 Z0.0 ; Pen down
G1 X138.094 Y259.125 F1000
G0 Z3.0 ; Pen up

G0 X138.463 Y259.125 F3000 ; Travel to line 508
G0 Z0.0 ; Pen down
G1 X146.575 Y252.119 F1000
G0 Z3.0 ; Pen up

G0 X146.944 Y252.119 F3000 ; Travel to line 509
G0 Z0.0 ; Pen down
G1 X138.831 Y259.125 F1000
G0 Z3.0 ; Pen up

G0 X139.569 Y259.125 F3000 ; Travel to line 510
G0 Z0.0 ; Pen down
G1 X147.681 Y252.119 F1000
G0 Z3.0 ; Pen up

G0 X148.050 Y252.119 F3000 ; Travel to line 511
G0 Z0.0 ; Pen down
G1 X139.938 Y259.125 F1000
G0 Z3.0 ; Pen up

G0 X140.306 Y259.125 F3000 ; Travel to line 512
G0 Z0.0 ; Pen down
G1 X148.419 Y252.119 F1000
G0 Z3.0 ; Pen up

G0 X148.788 Y252.119 F3000 ; Travel to line 513
G0 Z0.0 ; Pen down
G1 X140.675 Y259.125 F1000
G0 Z3.0 ; Pen up

G0 X141.044 Y259.125 F3000 ; Travel to line 514
G0 Z0.0 ; Pen down
G1 X149.156 Y252.119 F1000
G0 Z3.0 ; Pen up

G0 X149.525 Y252.119 F3000 ; Travel to line 515
G0 Z0.0 ; Pen down
G1 X141.413 Y259.125 F1000
G0 Z3.0 ; Pen up

G0 X141.781 Y259.125 F3000 ; Travel to line 516
G0 Z0.0 ; Pen down
G1 X149.894 Y252.119 F1000
G0 Z3.0 ; Pen up

G0 X150.262 Y252.119 F3000 ; Travel to line 517
G0 Z0.0 ; Pen down
G1 X142.150 Y259.125 F1000
G0 Z3.0 ; Pen up

G0 X142.519 Y259.125 F3000 ; Travel to line 518
G0 Z0.0 ; Pen down
G1 X150.631 Y252.119 F1000
G0 Z3.0 ; Pen up

G0 X151.000 Y252.119 F3000 ; Travel to line 519
G0 Z0.0 ; Pen down
G1 X142.887 Y259.125 F1000
G0 Z3.0 ; Pen up

G0 X143.256 Y259.125 F3000 ; Travel to line 520
G0 Z0.0 ; Pen down
G1 X151.369 Y252.119 F1000
G0 Z3.0 ; Pen up

G0 X151.738 Y252.119 F3000 ; Travel to line 521
G0 Z0.0 ; Pen down
G1 X143.625 Y259.125 F1000
G0 Z3.0 ; Pen up

G0 X143.994 Y259.125 F3000 ; Travel to line 522
G0 Z0.0 ; Pen down
G1 X152.106 Y252.119 F1000
G0 Z3.0 ; Pen up

G0 X152.475 Y252.119 F3000 ; Travel to line 523
G0 Z0.0 ; Pen down
G1 X144.363 Y259.125 F1000
G0 Z3.0 ; Pen up

G0 X144.731 Y259.125 F3000 ; Travel to line 524
G0 Z0.0 ; Pen down
G1 X152.844 Y252.119 F1000
G0 Z3.0 ; Pen up

G0 X153.213 Y252.119 F3000 ; Travel to line 525
G0 Z0.0 ; Pen down
G1 X145.100 Y259.125 F1000
G0 Z3.0 ; Pen up

G0 X145.838 Y259.125 F3000 ; Travel to line 526
G0 Z0.0 ; Pen down
G1 X153.950 Y252.119 F1000
G0 Z3.0 ; Pen up

G0 X154.319 Y252.119 F3000 ; Travel to line 527
G0 Z0.0 ; Pen down
G1 X146.206 Y259.125 F1000
G0 Z3.0 ; Pen up

G0 X146.575 Y259.125 F3000 ; Travel to line 528
G0 Z0.0 ; Pen down
G1 X154.688 Y252.119 F1000
G0 Z3.0 ; Pen up

G0 X155.056 Y252.119 F3000 ; Travel to line 529
G0 Z0.0 ; Pen down
G1 X146.944 Y259.125 F1000
G0 Z3.0 ; Pen up

G0 X147.312 Y259.125 F3000 ; Travel to line 530
G0 Z0.0 ; Pen down
G1 X155.425 Y252.119 F1000
G0 Z3.0 ; Pen up

G0 X155.794 Y252.119 F3000 ; Travel to line 531
G0 Z0.0 ; Pen down
G1 X147.681 Y259.125 F1000
G0 Z3.0 ; Pen up

G0 X148.050 Y259.125 F3000 ; Travel to line 532
G0 Z0.0 ; Pen down
G1 X156.162 Y252.119 F1000
G0 Z3.0 ; Pen up

G0 X156.531 Y252.119 F3000 ; Travel to line 533
G0 Z0.0 ; Pen down
G1 X148.419 Y259.125 F1000
G0 Z3.0 ; Pen up

G0 X148.788 Y259.125 F3000 ; Travel to line 534
G0 Z0.0 ; Pen down
G1 X156.900 Y252.119 F1000
G0 Z3.0 ; Pen up

G0 X157.269 Y252.119 F3000 ; Travel to line 535
G0 Z0.0 ; Pen down
G1 X149.525 Y259.125 F1000
G0 Z3.0 ; Pen up

G0 X149.894 Y259.125 F3000 ; Travel to line 536
G0 Z0.0 ; Pen down
G1 X157.638 Y252.119 F1000
G0 Z3.0 ; Pen up

G0 X158.006 Y252.119 F3000 ; Travel to line 537
G0 Z0.0 ; Pen down
G1 X150.262 Y259.125 F1000
G0 Z3.0 ; Pen up

G0 X150.631 Y259.125 F3000 ; Travel to line 538
G0 Z0.0 ; Pen down
G1 X158.744 Y252.119 F1000
G0 Z3.0 ; Pen up

G0 X159.113 Y252.119 F3000 ; Travel to line 539
G0 Z0.0 ; Pen down
G1 X151.000 Y259.125 F1000
G0 Z3.0 ; Pen up

G0 X151.369 Y259.125 F3000 ; Travel to line 540
G0 Z0.0 ; Pen down
G1 X159.481 Y252.119 F1000
G0 Z3.0 ; Pen up

G0 X159.850 Y252.119 F3000 ; Travel to line 541
G0 Z0.0 ; Pen down
G1 X151.738 Y259.125 F1000
G0 Z3.0 ; Pen up

G0 X152.106 Y259.125 F3000 ; Travel to line 542
G0 Z0.0 ; Pen down
G1 X160.219 Y252.119 F1000
G0 Z3.0 ; Pen up

G0 X160.956 Y252.119 F3000 ; Travel to line 543
G0 Z0.0 ; Pen down
G1 X152.844 Y259.125 F1000
G0 Z3.0 ; Pen up

G0 X153.213 Y259.125 F3000 ; Travel to line 544
G0 Z0.0 ; Pen down
G1 X161.325 Y252.119 F1000
G0 Z3.0 ; Pen up

G0 X161.694 Y252.119 F3000 ; Travel to line 545
G0 Z0.0 ; Pen down
G1 X153.581 Y259.125 F1000
G0 Z3.0 ; Pen up

G0 X153.950 Y259.125 F3000 ; Travel to line 546
G0 Z0.0 ; Pen down
G1 X162.062 Y252.119 F1000
G0 Z3.0 ; Pen up

G0 X162.431 Y252.119 F3000 ; Travel to line 547
G0 Z0.0 ; Pen down
G1 X154.319 Y259.125 F1000
G0 Z3.0 ; Pen up

G0 X154.688 Y259.125 F3000 ; Travel to line 548
G0 Z0.0 ; Pen down
G1 X162.800 Y252.119 F1000
G0 Z3.0 ; Pen up

G0 X163.169 Y252.119 F3000 ; Travel to line 549
G0 Z0.0 ; Pen down
G1 X155.056 Y259.125 F1000
G0 Z3.0 ; Pen up

G0 X155.425 Y259.125 F3000 ; Travel to line 550
G0 Z0.0 ; Pen down
G1 X163.537 Y252.119 F1000
G0 Z3.0 ; Pen up

G0 X163.906 Y252.119 F3000 ; Travel to line 551
G0 Z0.0 ; Pen down
G1 X155.794 Y259.125 F1000
G0 Z3.0 ; Pen up

G0 X156.162 Y259.125 F3000 ; Travel to line 552
G0 Z0.0 ; Pen down
G1 X164.275 Y252.119 F1000
G0 Z3.0 ; Pen up

G0 X164.644 Y252.119 F3000 ; Travel to line 553
G0 Z0.0 ; Pen down
G1 X156.531 Y259.125 F1000
G0 Z3.0 ; Pen up

G0 X156.900 Y259.125 F3000 ; Travel to line 554
G0 Z0.0 ; Pen down
G1 X165.013 Y252.119 F1000
G0 Z3.0 ; Pen up

G0 X165.381 Y252.119 F3000 ; Travel to line 555
G0 Z0.0 ; Pen down
G1 X157.269 Y259.125 F1000
G0 Z3.0 ; Pen up

G0 X157.638 Y259.125 F3000 ; Travel to line 556
G0 Z0.0 ; Pen down
G1 X165.750 Y252.119 F1000
G0 Z3.0 ; Pen up

G0 X166.119 Y252.119 F3000 ; Travel to line 557
G0 Z0.0 ; Pen down
G1 X158.006 Y259.125 F1000
G0 Z3.0 ; Pen up

G0 X158.375 Y259.125 F3000 ; Travel to line 558
G0 Z0.0 ; Pen down
G1 X166.488 Y252.119 F1000
G0 Z3.0 ; Pen up

G0 X167.225 Y252.119 F3000 ; Travel to line 559
G0 Z0.0 ; Pen down
G1 X159.113 Y259.125 F1000
G0 Z3.0 ; Pen up

G0 X159.481 Y259.125 F3000 ; Travel to line 560
G0 Z0.0 ; Pen down
G1 X167.594 Y252.119 F1000
G0 Z3.0 ; Pen up

G0 X167.963 Y252.119 F3000 ; Travel to line 561
G0 Z0.0 ; Pen down
G1 X159.850 Y259.125 F1000
G0 Z3.0 ; Pen up

G0 X160.219 Y259.125 F3000 ; Travel to line 562
G0 Z0.0 ; Pen down
G1 X168.331 Y252.119 F1000
G0 Z3.0 ; Pen up

G0 X168.700 Y252.119 F3000 ; Travel to line 563
G0 Z0.0 ; Pen down
G1 X160.588 Y259.125 F1000
G0 Z3.0 ; Pen up

G0 X160.956 Y259.125 F3000 ; Travel to line 564
G0 Z0.0 ; Pen down
G1 X169.069 Y252.119 F1000
G0 Z3.0 ; Pen up

G0 X169.438 Y252.119 F3000 ; Travel to line 565
G0 Z0.0 ; Pen down
G1 X161.325 Y259.125 F1000
G0 Z3.0 ; Pen up

G0 X161.694 Y259.125 F3000 ; Travel to line 566
G0 Z0.0 ; Pen down
G1 X169.806 Y252.119 F1000
G0 Z3.0 ; Pen up

G0 X170.175 Y252.119 F3000 ; Travel to line 567
G0 Z0.0 ; Pen down
G1 X162.062 Y259.125 F1000
G0 Z3.0 ; Pen up

G0 X162.431 Y259.125 F3000 ; Travel to line 568
G0 Z0.0 ; Pen down
G1 X170.544 Y252.119 F1000
G0 Z3.0 ; Pen up

G0 X170.913 Y252.119 F3000 ; Travel to line 569
G0 Z0.0 ; Pen down
G1 X162.800 Y259.125 F1000
G0 Z3.0 ; Pen up

G0 X163.169 Y259.125 F3000 ; Travel to line 570
G0 Z0.0 ; Pen down
G1 X171.281 Y252.119 F1000
G0 Z3.0 ; Pen up

G0 X171.650 Y252.119 F3000 ; Travel to line 571
G0 Z0.0 ; Pen down
G1 X163.537 Y259.125 F1000
G0 Z3.0 ; Pen up

G0 X163.906 Y259.125 F3000 ; Travel to line 572
G0 Z0.0 ; Pen down
G1 X172.019 Y252.119 F1000
G0 Z3.0 ; Pen up

G0 X172.756 Y252.119 F3000 ; Travel to line 573
G0 Z0.0 ; Pen down
G1 X164.275 Y259.125 F1000
G0 Z3.0 ; Pen up

G0 X164.644 Y259.125 F3000 ; Travel to line 574
G0 Z0.0 ; Pen down
G1 X173.125 Y252.119 F1000
G0 Z3.0 ; Pen up

G0 X173.494 Y252.119 F3000 ; Travel to line 575
G0 Z0.0 ; Pen down
G1 X165.013 Y259.125 F1000
G0 Z3.0 ; Pen up

G0 X166.119 Y259.125 F3000 ; Travel to line 576
G0 Z0.0 ; Pen down
G1 X174.231 Y252.119 F1000
G0 Z3.0 ; Pen up

G0 X174.600 Y252.119 F3000 ; Travel to line 577
G0 Z0.0 ; Pen down
G1 X166.488 Y259.125 F1000
G0 Z3.0 ; Pen up

G0 X166.856 Y259.125 F3000 ; Travel to line 578
G0 Z0.0 ; Pen down
G1 X174.969 Y252.119 F1000
G0 Z3.0 ; Pen up

G0 X175.338 Y252.119 F3000 ; Travel to line 579
G0 Z0.0 ; Pen down
G1 X167.225 Y259.125 F1000
G0 Z3.0 ; Pen up

G0 X167.594 Y259.125 F3000 ; Travel to line 580
G0 Z0.0 ; Pen down
G1 X175.706 Y252.119 F1000
G0 Z3.0 ; Pen up

G0 X176.075 Y252.119 F3000 ; Travel to line 581
G0 Z0.0 ; Pen down
G1 X167.963 Y259.125 F1000
G0 Z3.0 ; Pen up

G0 X168.331 Y259.125 F3000 ; Travel to line 582
G0 Z0.0 ; Pen down
G1 X176.444 Y252.119 F1000
G0 Z3.0 ; Pen up

G0 X176.812 Y252.119 F3000 ; Travel to line 583
G0 Z0.0 ; Pen down
G1 X168.700 Y259.125 F1000
G0 Z3.0 ; Pen up

G0 X169.069 Y259.125 F3000 ; Travel to line 584
G0 Z0.0 ; Pen down
G1 X177.181 Y252.119 F1000
G0 Z3.0 ; Pen up

G0 X177.550 Y252.119 F3000 ; Travel to line 585
G0 Z0.0 ; Pen down
G1 X169.438 Y259.125 F1000
G0 Z3.0 ; Pen up

G0 X169.806 Y259.125 F3000 ; Travel to line 586
G0 Z0.0 ; Pen down
G1 X177.919 Y252.119 F1000
G0 Z3.0 ; Pen up

G0 X178.288 Y252.119 F3000 ; Travel to line 587
G0 Z0.0 ; Pen down
G1 X170.175 Y259.125 F1000
G0 Z3.0 ; Pen up

G0 X170.544 Y259.125 F3000 ; Travel to line 588
G0 Z0.0 ; Pen down
G1 X178.656 Y252.119 F1000
G0 Z3.0 ; Pen up

G0 X179.025 Y252.119 F3000 ; Travel to line 589
G0 Z0.0 ; Pen down
G1 X170.913 Y259.125 F1000
G0 Z3.0 ; Pen up

G0 X171.281 Y259.125 F3000 ; Travel to line 590
G0 Z0.0 ; Pen down
G1 X179.394 Y252.119 F1000
G0 Z3.0 ; Pen up

G0 X179.763 Y252.119 F3000 ; Travel to line 591
G0 Z0.0 ; Pen down
G1 X171.650 Y259.125 F1000
G0 Z3.0 ; Pen up

G0 X172.388 Y259.125 F3000 ; Travel to line 592
G0 Z0.0 ; Pen down
G1 X180.500 Y252.119 F1000
G0 Z3.0 ; Pen up

G0 X180.869 Y252.119 F3000 ; Travel to line 593
G0 Z0.0 ; Pen down
G1 X172.756 Y259.125 F1000
G0 Z3.0 ; Pen up

G0 X173.125 Y259.125 F3000 ; Travel to line 594
G0 Z0.0 ; Pen down
G1 X181.238 Y252.119 F1000
G0 Z3.0 ; Pen up

G0 X181.606 Y252.119 F3000 ; Travel to line 595
G0 Z0.0 ; Pen down
G1 X173.494 Y259.125 F1000
G0 Z3.0 ; Pen up

G0 X173.863 Y259.125 F3000 ; Travel to line 596
G0 Z0.0 ; Pen down
G1 X181.975 Y252.119 F1000
G0 Z3.0 ; Pen up

G0 X182.344 Y252.119 F3000 ; Travel to line 597
G0 Z0.0 ; Pen down
G1 X174.231 Y259.125 F1000
G0 Z3.0 ; Pen up

G0 X174.600 Y259.125 F3000 ; Travel to line 598
G0 Z0.0 ; Pen down
G1 X182.713 Y252.119 F1000
G0 Z3.0 ; Pen up

G0 X183.081 Y252.119 F3000 ; Travel to line 599
G0 Z0.0 ; Pen down
G1 X174.969 Y259.125 F1000
G0 Z3.0 ; Pen up

G0 X175.338 Y259.125 F3000 ; Travel to line 600
G0 Z0.0 ; Pen down
G1 X183.450 Y252.119 F1000
G0 Z3.0 ; Pen up

G0 X183.819 Y252.119 F3000 ; Travel to line 601
G0 Z0.0 ; Pen down
G1 X175.706 Y259.125 F1000
G0 Z3.0 ; Pen up

G0 X176.075 Y259.125 F3000 ; Travel to line 602
G0 Z0.0 ; Pen down
G1 X184.188 Y252.119 F1000
G0 Z3.0 ; Pen up

G0 X184.556 Y252.119 F3000 ; Travel to line 603
G0 Z0.0 ; Pen down
G1 X176.444 Y259.125 F1000
G0 Z3.0 ; Pen up

G0 X176.812 Y259.125 F3000 ; Travel to line 604
G0 Z0.0 ; Pen down
G1 X185.294 Y252.119 F1000
G0 Z3.0 ; Pen up

G0 X185.663 Y252.119 F3000 ; Travel to line 605
G0 Z0.0 ; Pen down
G1 X177.181 Y259.125 F1000
G0 Z3.0 ; Pen up

G0 X177.550 Y259.125 F3000 ; Travel to line 606
G0 Z0.0 ; Pen down
G1 X186.031 Y252.119 F1000
G0 Z3.0 ; Pen up

G0 X186.400 Y252.119 F3000 ; Travel to line 607
G0 Z0.0 ; Pen down
G1 X177.919 Y259.125 F1000
G0 Z3.0 ; Pen up

G0 X178.288 Y259.125 F3000 ; Travel to line 608
G0 Z0.0 ; Pen down
G1 X186.769 Y252.119 F1000
G0 Z3.0 ; Pen up

G0 X187.506 Y252.119 F3000 ; Travel to line 609
G0 Z0.0 ; Pen down
G1 X179.025 Y259.125 F1000
G0 Z3.0 ; Pen up

G0 X179.394 Y259.125 F3000 ; Travel to line 610
G0 Z0.0 ; Pen down
G1 X187.875 Y252.119 F1000
G0 Z3.0 ; Pen up

G0 X188.244 Y252.119 F3000 ; Travel to line 611
G0 Z0.0 ; Pen down
G1 X179.763 Y259.125 F1000
G0 Z3.0 ; Pen up

G0 X180.500 Y259.125 F3000 ; Travel to line 612
G0 Z0.0 ; Pen down
G1 X188.613 Y252.119 F1000
G0 Z3.0 ; Pen up

G0 X188.981 Y252.119 F3000 ; Travel to line 613
G0 Z0.0 ; Pen down
G1 X180.869 Y259.125 F1000
G0 Z3.0 ; Pen up

G0 X181.238 Y259.125 F3000 ; Travel to line 614
G0 Z0.0 ; Pen down
G1 X189.350 Y252.119 F1000
G0 Z3.0 ; Pen up

G0 X189.719 Y252.119 F3000 ; Travel to line 615
G0 Z0.0 ; Pen down
G1 X181.606 Y259.125 F1000
G0 Z3.0 ; Pen up

G0 X181.975 Y259.125 F3000 ; Travel to line 616
G0 Z0.0 ; Pen down
G1 X190.088 Y252.119 F1000
G0 Z3.0 ; Pen up

G0 X190.456 Y252.119 F3000 ; Travel to line 617
G0 Z0.0 ; Pen down
G1 X182.344 Y259.125 F1000
G0 Z3.0 ; Pen up

G0 X182.713 Y259.125 F3000 ; Travel to line 618
G0 Z0.0 ; Pen down
G1 X190.825 Y252.119 F1000
G0 Z3.0 ; Pen up

G0 X191.194 Y252.119 F3000 ; Travel to line 619
G0 Z0.0 ; Pen down
G1 X183.081 Y259.125 F1000
G0 Z3.0 ; Pen up

G0 X183.450 Y259.125 F3000 ; Travel to line 620
G0 Z0.0 ; Pen down
G1 X191.562 Y252.119 F1000
G0 Z3.0 ; Pen up

G0 X191.931 Y252.119 F3000 ; Travel to line 621
G0 Z0.0 ; Pen down
G1 X183.819 Y259.125 F1000
G0 Z3.0 ; Pen up

G0 X184.188 Y259.125 F3000 ; Travel to line 622
G0 Z0.0 ; Pen down
G1 X192.300 Y252.119 F1000
G0 Z3.0 ; Pen up

G0 X192.669 Y252.119 F3000 ; Travel to line 623
G0 Z0.0 ; Pen down
G1 X184.556 Y259.125 F1000
G0 Z3.0 ; Pen up

G0 X184.925 Y259.125 F3000 ; Travel to line 624
G0 Z0.0 ; Pen down
G1 X193.038 Y252.119 F1000
G0 Z3.0 ; Pen up

G0 X193.775 Y252.119 F3000 ; Travel to line 625
G0 Z0.0 ; Pen down
G1 X185.663 Y259.125 F1000
G0 Z3.0 ; Pen up

G0 X186.031 Y259.125 F3000 ; Travel to line 626
G0 Z0.0 ; Pen down
G1 X194.144 Y252.119 F1000
G0 Z3.0 ; Pen up

G0 X194.513 Y252.119 F3000 ; Travel to line 627
G0 Z0.0 ; Pen down
G1 X186.400 Y259.125 F1000
G0 Z3.0 ; Pen up

G0 X186.769 Y259.125 F3000 ; Travel to line 628
G0 Z0.0 ; Pen down
G1 X194.881 Y252.119 F1000
G0 Z3.0 ; Pen up

G0 X195.250 Y252.119 F3000 ; Travel to line 629
G0 Z0.0 ; Pen down
G1 X187.138 Y259.125 F1000
G0 Z3.0 ; Pen up

G0 X187.506 Y259.125 F3000 ; Travel to line 630
G0 Z0.0 ; Pen down
G1 X195.619 Y252.119 F1000
G0 Z3.0 ; Pen up

G0 X196.356 Y252.119 F3000 ; Travel to line 631
G0 Z0.0 ; Pen down
G1 X187.875 Y259.125 F1000
G0 Z3.0 ; Pen up

G0 X188.244 Y259.125 F3000 ; Travel to line 632
G0 Z0.0 ; Pen down
G1 X196.725 Y252.119 F1000
G0 Z3.0 ; Pen up

G0 X197.094 Y252.119 F3000 ; Travel to line 633
G0 Z0.0 ; Pen down
G1 X188.613 Y259.125 F1000
G0 Z3.0 ; Pen up

G0 X188.981 Y259.125 F3000 ; Travel to line 634
G0 Z0.0 ; Pen down
G1 X197.463 Y252.119 F1000
G0 Z3.0 ; Pen up

G0 X197.831 Y252.119 F3000 ; Travel to line 635
G0 Z0.0 ; Pen down
G1 X189.350 Y259.125 F1000
G0 Z3.0 ; Pen up

G0 X189.719 Y259.125 F3000 ; Travel to line 636
G0 Z0.0 ; Pen down
G1 X198.200 Y252.119 F1000
G0 Z3.0 ; Pen up

G0 X198.569 Y252.119 F3000 ; Travel to line 637
G0 Z0.0 ; Pen down
G1 X190.088 Y259.125 F1000
G0 Z3.0 ; Pen up

G0 X190.456 Y259.125 F3000 ; Travel to line 638
G0 Z0.0 ; Pen down
G1 X198.938 Y252.119 F1000
G0 Z3.0 ; Pen up

G0 X199.306 Y252.119 F3000 ; Travel to line 639
G0 Z0.0 ; Pen down
G1 X190.825 Y259.125 F1000
G0 Z3.0 ; Pen up

G0 X191.194 Y259.125 F3000 ; Travel to line 640
G0 Z0.0 ; Pen down
G1 X199.675 Y252.119 F1000
G0 Z3.0 ; Pen up

G0 X200.044 Y252.119 F3000 ; Travel to line 641
G0 Z0.0 ; Pen down
G1 X191.562 Y259.125 F1000
G0 Z3.0 ; Pen up

G0 X191.931 Y259.494 F3000 ; Travel to line 642
G0 Z0.0 ; Pen down
G1 X200.781 Y252.119 F1000
G0 Z3.0 ; Pen up

G0 X201.150 Y252.119 F3000 ; Travel to line 643
G0 Z0.0 ; Pen down
G1 X192.300 Y259.494 F1000
G0 Z3.0 ; Pen up

G0 X192.669 Y259.494 F3000 ; Travel to line 644
G0 Z0.0 ; Pen down
G1 X201.519 Y252.119 F1000
G0 Z3.0 ; Pen up

G0 X201.888 Y252.119 F3000 ; Travel to line 645
G0 Z0.0 ; Pen down
G1 X193.038 Y259.494 F1000
G0 Z3.0 ; Pen up

G0 X193.406 Y259.494 F3000 ; Travel to line 646
G0 Z0.0 ; Pen down
G1 X202.256 Y252.119 F1000
G0 Z3.0 ; Pen up

G0 X202.625 Y252.119 F3000 ; Travel to line 647
G0 Z0.0 ; Pen down
G1 X193.775 Y259.494 F1000
G0 Z3.0 ; Pen up

G0 X194.144 Y259.494 F3000 ; Travel to line 648
G0 Z0.0 ; Pen down
G1 X202.994 Y252.119 F1000
G0 Z3.0 ; Pen up

G0 X203.363 Y252.119 F3000 ; Travel to line 649
G0 Z0.0 ; Pen down
G1 X194.513 Y259.494 F1000
G0 Z3.0 ; Pen up

G0 X195.250 Y259.494 F3000 ; Travel to line 650
G0 Z0.0 ; Pen down
G1 X203.731 Y252.119 F1000
G0 Z3.0 ; Pen up

G0 X204.100 Y252.119 F3000 ; Travel to line 651
G0 Z0.0 ; Pen down
G1 X195.619 Y259.494 F1000
G0 Z3.0 ; Pen up

G0 X195.988 Y259.494 F3000 ; Travel to line 652
G0 Z0.0 ; Pen down
G1 X204.469 Y252.119 F1000
G0 Z3.0 ; Pen up

G0 X204.838 Y252.119 F3000 ; Travel to line 653
G0 Z0.0 ; Pen down
G1 X196.356 Y259.494 F1000
G0 Z3.0 ; Pen up

G0 X196.725 Y259.494 F3000 ; Travel to line 654
G0 Z0.0 ; Pen down
G1 X205.206 Y252.119 F1000
G0 Z3.0 ; Pen up

G0 X205.575 Y252.119 F3000 ; Travel to line 655
G0 Z0.0 ; Pen down
G1 X197.094 Y259.494 F1000
G0 Z3.0 ; Pen up

G0 X197.463 Y259.494 F3000 ; Travel to line 656
G0 Z0.0 ; Pen down
