; Blueprint to G-code
; Input: test_images_solid/test7_circuit_with_pads.png
; Generated with blueprint2gcode.py

G21 ; Set units to millimeters
G90 ; Absolute positioning
G0 Z3.0 ; Pen up
G0 X0 Y0 ; Move to origin

G0 X45.280 Y65.740 F3000 ; Travel to line 1
G0 Z0.0 ; Pen down
G1 X45.540 Y65.740 F1000
G1 X45.800 Y65.480 F1000
G1 X46.320 Y65.480 F1000
G1 X46.580 Y65.220 F1000
G1 X46.840 Y65.220 F1000
G1 X47.100 Y64.960 F1000
G1 X47.620 Y64.960 F1000
G1 X47.880 Y64.700 F1000
G1 X48.140 Y64.700 F1000
G1 X48.400 Y64.440 F1000
G1 X48.920 Y64.440 F1000
G1 X49.180 Y64.180 F1000
G1 X49.440 Y64.180 F1000
G1 X49.700 Y63.920 F1000
G1 X50.220 Y63.920 F1000
G1 X50.480 Y63.660 F1000
G1 X50.740 Y63.660 F1000
G1 X51.000 Y63.400 F1000
G1 X51.520 Y63.400 F1000
G1 X51.780 Y63.140 F1000
G1 X52.040 Y63.140 F1000
G1 X52.300 Y62.880 F1000
G1 X52.560 Y63.140 F1000
G1 X52.820 Y63.140 F1000
G1 X53.080 Y63.400 F1000
G1 X53.600 Y63.400 F1000
G1 X53.860 Y63.660 F1000
G1 X54.120 Y63.660 F1000
G1 X54.380 Y63.920 F1000
G1 X54.900 Y63.920 F1000
G1 X55.160 Y64.180 F1000
G1 X55.420 Y64.180 F1000
G1 X55.680 Y64.440 F1000
G1 X56.200 Y64.440 F1000
G1 X56.460 Y64.700 F1000
G1 X56.720 Y64.700 F1000
G1 X56.980 Y64.960 F1000
G1 X57.500 Y64.960 F1000
G1 X57.760 Y65.220 F1000
G1 X58.020 Y65.220 F1000
G1 X58.280 Y65.480 F1000
G1 X58.800 Y65.480 F1000
G1 X59.060 Y65.740 F1000
G1 X59.320 Y65.740 F1000
G1 X59.580 Y66.000 F1000
G1 X59.320 Y65.740 F1000
G1 X59.060 Y65.740 F1000
G1 X58.800 Y65.480 F1000
G1 X58.280 Y65.480 F1000
G1 X58.020 Y65.220 F1000
G1 X57.760 Y65.220 F1000
G1 X57.500 Y64.960 F1000
G1 X56.980 Y64.960 F1000
G1 X56.720 Y64.700 F1000
G1 X56.460 Y64.700 F1000
G1 X56.200 Y64.440 F1000
G1 X55.680 Y64.440 F1000
G1 X55.420 Y64.180 F1000
G1 X55.160 Y64.180 F1000
G1 X54.900 Y63.920 F1000
G1 X54.380 Y63.920 F1000
G1 X54.120 Y63.660 F1000
G1 X53.860 Y63.660 F1000
G1 X53.600 Y63.400 F1000
G1 X53.080 Y63.400 F1000
G1 X52.820 Y63.140 F1000
G1 X52.560 Y63.140 F1000
G1 X52.300 Y62.880 F1000
G1 X52.300 Y56.120 F1000
G1 X52.300 Y62.880 F1000
G1 X52.040 Y63.140 F1000
G1 X51.780 Y63.140 F1000
G1 X51.520 Y63.400 F1000
G1 X51.000 Y63.400 F1000
G1 X50.740 Y63.660 F1000
G1 X50.480 Y63.660 F1000
G1 X50.220 Y63.920 F1000
G1 X49.700 Y63.920 F1000
G1 X49.440 Y64.180 F1000
G1 X49.180 Y64.180 F1000
G1 X48.920 Y64.440 F1000
G1 X48.400 Y64.440 F1000
G1 X48.140 Y64.700 F1000
G1 X47.880 Y64.700 F1000
G1 X47.620 Y64.960 F1000
G1 X47.100 Y64.960 F1000
G1 X46.840 Y65.220 F1000
G1 X46.580 Y65.220 F1000
G1 X46.320 Y65.480 F1000
G1 X45.800 Y65.480 F1000
G1 X45.540 Y65.740 F1000
G1 X45.280 Y65.740 F1000
G1 X45.020 Y66.000 F1000
G0 Z3.0 ; Pen up

G0 X70.760 Y59.760 F3000 ; Travel to line 2
G0 Z0.0 ; Pen down
G1 X85.060 Y59.760 F1000
G1 X85.320 Y59.500 F1000
G1 X89.220 Y59.500 F1000
G1 X85.320 Y59.500 F1000
G1 X85.060 Y59.760 F1000
G0 Z3.0 ; Pen up

G0 X85.060 Y72.760 F3000 ; Travel to line 3
G0 Z0.0 ; Pen down
G1 X85.320 Y72.500 F1000
G1 X89.220 Y72.500 F1000
G1 X85.320 Y72.500 F1000
G1 X85.060 Y72.760 F1000
G1 X70.760 Y72.760 F1000
G0 Z3.0 ; Pen up

G0 X70.760 Y85.760 F3000 ; Travel to line 4
G0 Z0.0 ; Pen down
G1 X85.060 Y85.760 F1000
G1 X85.320 Y85.500 F1000
G1 X89.220 Y85.500 F1000
G1 X85.320 Y85.500 F1000
G1 X85.060 Y85.760 F1000
G0 Z3.0 ; Pen up

G0 X85.060 Y98.760 F3000 ; Travel to line 5
G0 Z0.0 ; Pen down
G1 X85.320 Y98.500 F1000
G1 X89.220 Y98.500 F1000
G1 X85.320 Y98.500 F1000
G1 X85.060 Y98.760 F1000
G1 X70.760 Y98.760 F1000
G0 Z3.0 ; Pen up

G0 X70.760 Y111.760 F3000 ; Travel to line 6
G0 Z0.0 ; Pen down
G1 X85.060 Y111.760 F1000
G1 X85.320 Y111.500 F1000
G1 X89.220 Y111.500 F1000
G1 X85.320 Y111.500 F1000
G1 X85.060 Y111.760 F1000
G0 Z3.0 ; Pen up

G0 X85.060 Y124.760 F3000 ; Travel to line 7
G0 Z0.0 ; Pen down
G1 X85.320 Y124.500 F1000
G1 X89.220 Y124.500 F1000
G1 X85.320 Y124.500 F1000
G1 X85.060 Y124.760 F1000
G1 X70.760 Y124.760 F1000
G0 Z3.0 ; Pen up

G0 X65.040 Y125.800 F3000 ; Travel to line 8
G0 Z0.0 ; Pen down
G1 X65.040 Y120.860 F1000
G1 X54.900 Y120.860 F1000
G1 X54.900 Y125.540 F1000
G1 X55.160 Y125.800 F1000
G0 Z3.0 ; Pen up

G0 X55.420 Y125.800 F3000 ; Travel to line 9
G0 Z0.0 ; Pen down
G1 X64.780 Y125.800 F1000
G1 X65.040 Y125.540 F1000
G1 X65.040 Y121.120 F1000
G1 X64.780 Y120.860 F1000
G1 X55.160 Y120.860 F1000
G1 X54.900 Y121.120 F1000
G1 X54.900 Y125.280 F1000
G0 Z3.0 ; Pen up

G0 X70.760 Y137.760 F3000 ; Travel to line 10
G0 Z0.0 ; Pen down
G1 X85.060 Y137.760 F1000
G1 X85.320 Y137.500 F1000
G1 X89.220 Y137.500 F1000
G1 X85.320 Y137.500 F1000
G1 X85.060 Y137.760 F1000
G0 Z3.0 ; Pen up

G0 X85.060 Y150.760 F3000 ; Travel to line 11
G0 Z0.0 ; Pen down
G1 X85.320 Y150.500 F1000
G1 X89.220 Y150.500 F1000
G1 X85.320 Y150.500 F1000
G1 X85.060 Y150.760 F1000
G1 X70.760 Y150.760 F1000
G0 Z3.0 ; Pen up

G0 X65.040 Y151.800 F3000 ; Travel to line 12
G0 Z0.0 ; Pen down
G1 X65.040 Y146.860 F1000
G1 X54.900 Y146.860 F1000
G1 X54.900 Y151.540 F1000
G1 X55.160 Y151.800 F1000
G0 Z3.0 ; Pen up

G0 X55.420 Y151.800 F3000 ; Travel to line 13
G0 Z0.0 ; Pen down
G1 X64.780 Y151.800 F1000
G1 X65.040 Y151.540 F1000
G1 X65.040 Y147.120 F1000
G1 X64.780 Y146.860 F1000
G1 X55.160 Y146.860 F1000
G1 X54.900 Y147.120 F1000
G1 X54.900 Y151.280 F1000
G0 Z3.0 ; Pen up

G0 X96.760 Y156.480 F3000 ; Travel to line 14
G0 Z0.0 ; Pen down
G1 X97.020 Y156.740 F1000
G1 X199.980 Y156.740 F1000
G1 X200.240 Y156.480 F1000
G1 X200.240 Y53.780 F1000
G1 X199.720 Y53.260 F1000
G1 X97.020 Y53.260 F1000
G1 X96.760 Y53.520 F1000
G0 Z3.0 ; Pen up

G0 X57.500 Y95.120 F3000 ; Travel to line 15
G0 Z0.0 ; Pen down
G1 X57.500 Y99.540 F1000
G0 Z3.0 ; Pen up

G0 X54.900 Y99.540 F3000 ; Travel to line 16
G0 Z0.0 ; Pen down
G1 X54.900 Y95.120 F1000
G0 Z3.0 ; Pen up

G0 X96.760 Y156.740 F3000 ; Travel to line 17
G0 Z0.0 ; Pen down
G1 X96.760 Y53.260 F1000
G1 X199.980 Y53.260 F1000
G1 X200.240 Y53.520 F1000
G1 X200.240 Y156.740 F1000
G0 Z3.0 ; Pen up

G0 X207.520 Y150.500 F3000 ; Travel to line 18
G0 Z0.0 ; Pen down
G1 X226.240 Y150.500 F1000
G0 Z3.0 ; Pen up

G0 X226.240 Y137.500 F3000 ; Travel to line 19
G0 Z0.0 ; Pen down
G1 X207.520 Y137.500 F1000
G0 Z3.0 ; Pen up

G0 X207.520 Y124.500 F3000 ; Travel to line 20
G0 Z0.0 ; Pen down
G1 X226.240 Y124.500 F1000
G0 Z3.0 ; Pen up

G0 X226.240 Y111.500 F3000 ; Travel to line 21
G0 Z0.0 ; Pen down
G1 X207.520 Y111.500 F1000
G0 Z3.0 ; Pen up

G0 X207.520 Y98.500 F3000 ; Travel to line 22
G0 Z0.0 ; Pen down
G1 X226.240 Y98.500 F1000
G0 Z3.0 ; Pen up

G0 X226.240 Y85.500 F3000 ; Travel to line 23
G0 Z0.0 ; Pen down
G1 X207.520 Y85.500 F1000
G0 Z3.0 ; Pen up

G0 X207.520 Y72.500 F3000 ; Travel to line 24
G0 Z0.0 ; Pen down
G1 X226.240 Y72.500 F1000
G0 Z3.0 ; Pen up

G0 X226.240 Y59.500 F3000 ; Travel to line 25
G0 Z0.0 ; Pen down
G1 X207.520 Y59.500 F1000
G0 Z3.0 ; Pen up

; Return to origin
G0 X0 Y0
G0 Z3.0

; Total drawing distance: 1386.23 mm
; Total travel distance: 493.70 mm
; Total lines: 25
; Estimated time: 93.0 seconds (1.6 minutes)
M2 ; End program