; Blueprint to G-code
; Input: test_images/test6_text_labels.png
; Generated with blueprint2gcode.py

G21 ; Set units to millimeters
G90 ; Absolute positioning
G0 Z3.0 ; Pen up
G0 X0 Y0 ; Move to origin

G0 X7.566 Y16.191 F3000 ; Travel to line 1
G0 Z0.0 ; Pen down
G1 X20.184 Y16.191 F1000
G1 X20.184 Y131.680 F1000
G1 X20.055 Y131.809 F1000
G1 X7.566 Y131.809 F1000
G0 Z3.0 ; Pen up

G0 X11.043 Y100.136 F3000 ; Travel to line 2
G0 Z0.0 ; Pen down
G1 X11.043 Y100.651 F1000
G1 X11.300 Y100.909 F1000
G1 X11.429 Y100.909 F1000
G1 X11.558 Y101.038 F1000
G1 X11.686 Y101.038 F1000
G1 X11.815 Y101.166 F1000
G1 X12.845 Y101.166 F1000
G1 X12.974 Y101.038 F1000
G1 X13.103 Y101.038 F1000
G1 X13.231 Y100.909 F1000
G1 X13.360 Y100.909 F1000
G1 X13.489 Y100.780 F1000
G1 X13.489 Y100.651 F1000
G1 X13.746 Y100.394 F1000
G1 X13.746 Y100.265 F1000
G1 X13.103 Y99.621 F1000
G1 X12.845 Y99.621 F1000
G1 X12.716 Y99.493 F1000
G1 X11.944 Y99.493 F1000
G1 X11.815 Y99.621 F1000
G1 X11.558 Y99.621 F1000
G0 Z3.0 ; Pen up

G0 X15.678 Y99.235 F3000 ; Travel to line 3
G0 Z0.0 ; Pen down
G1 X15.935 Y99.493 F1000
G1 X16.321 Y99.493 F1000
G1 X16.450 Y99.364 F1000
G1 X16.579 Y99.364 F1000
G1 X16.707 Y99.493 F1000
G1 X17.223 Y99.493 F1000
G1 X17.351 Y99.364 F1000
G1 X17.351 Y98.720 F1000
G1 X17.223 Y98.591 F1000
G1 X16.836 Y98.591 F1000
G1 X16.707 Y98.720 F1000
G1 X16.321 Y98.720 F1000
G1 X16.193 Y98.591 F1000
G1 X15.935 Y98.591 F1000
G1 X15.806 Y98.720 F1000
G1 X15.806 Y98.849 F1000
G1 X15.678 Y98.978 F1000
G1 X15.678 Y98.978 F1000
G1 X15.678 Y99.235 F1000
G1 X15.935 Y99.493 F1000
G1 X16.193 Y99.493 F1000
G1 X16.450 Y99.235 F1000
G1 X16.450 Y98.849 F1000
G1 X16.193 Y98.591 F1000
G1 X16.064 Y98.591 F1000
G0 Z3.0 ; Pen up

G0 X16.579 Y98.720 F3000 ; Travel to line 4
G0 Z0.0 ; Pen down
G1 X16.450 Y98.849 F1000
G1 X16.450 Y99.235 F1000
G1 X16.707 Y99.493 F1000
G1 X17.223 Y99.493 F1000
G1 X17.351 Y99.364 F1000
G1 X17.351 Y98.720 F1000
G1 X17.223 Y98.591 F1000
G1 X16.836 Y98.591 F1000
G1 X16.707 Y98.720 F1000
G0 Z3.0 ; Pen up

G0 X15.678 Y97.433 F3000 ; Travel to line 5
G0 Z0.0 ; Pen down
G1 X15.806 Y97.561 F1000
G1 X15.806 Y97.690 F1000
G1 X15.935 Y97.690 F1000
G1 X16.064 Y97.819 F1000
G1 X16.321 Y97.819 F1000
G1 X16.450 Y97.690 F1000
G1 X16.579 Y97.690 F1000
G1 X17.223 Y97.046 F1000
G1 X17.351 Y97.175 F1000
G1 X17.351 Y97.819 F1000
G1 X17.351 Y97.046 F1000
G1 X17.094 Y97.046 F1000
G1 X16.321 Y97.819 F1000
G1 X16.064 Y97.819 F1000
G1 X15.678 Y97.433 F1000
G1 X15.678 Y97.175 F1000
G1 X15.806 Y97.046 F1000
G1 X15.806 Y96.918 F1000
G1 X15.806 Y97.046 F1000
G1 X15.678 Y97.175 F1000
G0 Z3.0 ; Pen up

G0 X16.707 Y96.274 F3000 ; Travel to line 6
G0 Z0.0 ; Pen down
G1 X16.707 Y96.016 F1000
G0 Z3.0 ; Pen up

G0 X15.678 Y94.858 F3000 ; Travel to line 7
G0 Z0.0 ; Pen down
G1 X15.806 Y94.986 F1000
G1 X15.806 Y95.115 F1000
G1 X15.935 Y95.115 F1000
G1 X16.064 Y95.244 F1000
G1 X16.321 Y95.244 F1000
G1 X16.450 Y95.115 F1000
G1 X16.579 Y95.115 F1000
G1 X17.223 Y94.471 F1000
G1 X17.351 Y94.600 F1000
G1 X17.351 Y95.244 F1000
G1 X17.351 Y94.471 F1000
G1 X17.094 Y94.471 F1000
G1 X16.321 Y95.244 F1000
G1 X16.064 Y95.244 F1000
G1 X15.678 Y94.858 F1000
G1 X15.678 Y94.600 F1000
G1 X15.806 Y94.471 F1000
G1 X15.806 Y94.343 F1000
G1 X15.806 Y94.471 F1000
G1 X15.678 Y94.600 F1000
G0 Z3.0 ; Pen up

G0 X15.678 Y93.184 F3000 ; Travel to line 8
G0 Z0.0 ; Pen down
G1 X17.223 Y93.184 F1000
G1 X17.351 Y93.312 F1000
G1 X17.351 Y93.570 F1000
G1 X17.351 Y93.055 F1000
G1 X17.223 Y93.184 F1000
G1 X15.806 Y93.184 F1000
G1 X15.678 Y93.055 F1000
G1 X15.806 Y92.926 F1000
G1 X15.806 Y92.797 F1000
G1 X15.806 Y92.926 F1000
G1 X15.678 Y93.055 F1000
G0 Z3.0 ; Pen up

G0 X16.707 Y92.025 F3000 ; Travel to line 9
G0 Z0.0 ; Pen down
G1 X16.707 Y91.767 F1000
G0 Z3.0 ; Pen up

G0 X15.678 Y90.866 F3000 ; Travel to line 10
G0 Z0.0 ; Pen down
G1 X15.678 Y90.351 F1000
G1 X15.935 Y90.094 F1000
G1 X16.193 Y90.094 F1000
G1 X16.321 Y90.222 F1000
G1 X16.321 Y90.609 F1000
G1 X16.450 Y90.737 F1000
G1 X16.450 Y90.866 F1000
G1 X16.579 Y90.995 F1000
G1 X17.223 Y90.995 F1000
G1 X17.223 Y90.866 F1000
G1 X17.351 Y90.737 F1000
G1 X17.351 Y90.094 F1000
G1 X17.351 Y90.737 F1000
G1 X17.094 Y90.995 F1000
G1 X16.579 Y90.995 F1000
G1 X16.450 Y90.866 F1000
G1 X16.450 Y90.737 F1000
G1 X16.321 Y90.609 F1000
G1 X16.321 Y90.094 F1000
G1 X15.806 Y90.094 F1000
G1 X15.678 Y90.222 F1000
G0 Z3.0 ; Pen up

G0 X15.678 Y89.064 F3000 ; Travel to line 11
G0 Z0.0 ; Pen down
G1 X15.806 Y89.192 F1000
G1 X15.806 Y89.321 F1000
G1 X15.935 Y89.321 F1000
G1 X16.064 Y89.450 F1000
G1 X16.321 Y89.450 F1000
G1 X16.450 Y89.321 F1000
G1 X16.579 Y89.321 F1000
G1 X17.223 Y88.678 F1000
G1 X17.351 Y88.806 F1000
G1 X17.351 Y89.450 F1000
G1 X17.351 Y88.678 F1000
G1 X17.094 Y88.678 F1000
G1 X16.321 Y89.450 F1000
G1 X16.064 Y89.450 F1000
G1 X15.678 Y89.064 F1000
G1 X15.678 Y88.806 F1000
G1 X15.806 Y88.678 F1000
G1 X15.806 Y88.549 F1000
G1 X15.806 Y88.678 F1000
G1 X15.678 Y88.806 F1000
G0 Z3.0 ; Pen up

G0 X15.678 Y87.390 F3000 ; Travel to line 12
G0 Z0.0 ; Pen down
G1 X15.806 Y87.519 F1000
G1 X15.806 Y87.648 F1000
G1 X15.935 Y87.776 F1000
G1 X17.223 Y87.776 F1000
G1 X17.351 Y87.648 F1000
G1 X17.351 Y87.133 F1000
G1 X17.094 Y86.875 F1000
G1 X16.836 Y86.875 F1000
G1 X16.707 Y86.746 F1000
G1 X16.450 Y86.746 F1000
G1 X16.321 Y86.875 F1000
G1 X16.064 Y86.875 F1000
G1 X15.678 Y87.261 F1000
G1 X15.678 Y87.261 F1000
G1 X15.678 Y87.390 F1000
G1 X15.806 Y87.519 F1000
G1 X15.806 Y87.648 F1000
G1 X15.935 Y87.776 F1000
G1 X17.223 Y87.776 F1000
G1 X17.351 Y87.648 F1000
G1 X17.351 Y87.133 F1000
G1 X17.094 Y86.875 F1000
G1 X16.836 Y86.875 F1000
G1 X16.707 Y86.746 F1000
G1 X16.450 Y86.746 F1000
G1 X16.321 Y86.875 F1000
G1 X16.064 Y86.875 F1000
G0 Z3.0 ; Pen up

G0 X15.678 Y85.716 F3000 ; Travel to line 13
G0 Z0.0 ; Pen down
G1 X15.806 Y85.845 F1000
G1 X15.806 Y85.974 F1000
G1 X15.935 Y85.974 F1000
G1 X16.064 Y86.103 F1000
G1 X16.321 Y86.103 F1000
G1 X16.450 Y85.974 F1000
G1 X16.579 Y85.974 F1000
G1 X17.223 Y85.330 F1000
G1 X17.351 Y85.459 F1000
G1 X17.351 Y86.103 F1000
G1 X17.351 Y85.330 F1000
G1 X17.094 Y85.330 F1000
G1 X16.321 Y86.103 F1000
G1 X16.064 Y86.103 F1000
G1 X15.678 Y85.716 F1000
G1 X15.678 Y85.459 F1000
G1 X15.806 Y85.330 F1000
G1 X15.806 Y85.201 F1000
G1 X15.806 Y85.330 F1000
G1 X15.678 Y85.459 F1000
G0 Z3.0 ; Pen up

G0 X15.678 Y82.755 F3000 ; Travel to line 14
G0 Z0.0 ; Pen down
G1 X15.678 Y82.111 F1000
G1 X15.935 Y81.854 F1000
G1 X16.321 Y81.854 F1000
G1 X16.450 Y81.983 F1000
G1 X16.450 Y82.755 F1000
G1 X16.450 Y81.983 F1000
G1 X16.579 Y81.854 F1000
G1 X17.223 Y81.854 F1000
G1 X17.351 Y81.983 F1000
G1 X17.351 Y82.755 F1000
G1 X17.351 Y81.854 F1000
G1 X15.806 Y81.854 F1000
G1 X15.678 Y81.983 F1000
G0 Z3.0 ; Pen up

G0 X15.678 Y81.339 F3000 ; Travel to line 15
G0 Z0.0 ; Pen down
G1 X15.678 Y80.824 F1000
G1 X15.806 Y80.695 F1000
G1 X17.351 Y80.695 F1000
G1 X15.806 Y80.695 F1000
G1 X15.678 Y80.566 F1000
G1 X15.678 Y80.180 F1000
G0 Z3.0 ; Pen up

G0 X15.935 Y79.407 F3000 ; Travel to line 16
G0 Z0.0 ; Pen down
G1 X16.064 Y79.536 F1000
G1 X16.321 Y79.536 F1000
G1 X16.450 Y79.665 F1000
G1 X16.836 Y79.665 F1000
G1 X16.965 Y79.794 F1000
G1 X17.094 Y79.794 F1000
G1 X17.223 Y79.922 F1000
G1 X17.351 Y79.922 F1000
G1 X17.223 Y79.922 F1000
G1 X16.965 Y79.665 F1000
G1 X16.965 Y78.892 F1000
G1 X17.223 Y78.635 F1000
G1 X17.480 Y78.635 F1000
G1 X17.223 Y78.635 F1000
G1 X17.094 Y78.764 F1000
G1 X16.965 Y78.764 F1000
G1 X16.836 Y78.892 F1000
G1 X16.579 Y78.892 F1000
G1 X16.450 Y79.021 F1000
G1 X16.193 Y79.021 F1000
G1 X16.064 Y79.150 F1000
G1 X15.935 Y79.150 F1000
G0 Z3.0 ; Pen up

G0 X15.935 Y79.279 F3000 ; Travel to line 17
G0 Z0.0 ; Pen down
G1 X15.935 Y79.407 F1000
G1 X16.064 Y79.536 F1000
G1 X16.321 Y79.536 F1000
G1 X16.450 Y79.665 F1000
G1 X16.836 Y79.665 F1000
G1 X16.965 Y79.536 F1000
G1 X16.965 Y79.021 F1000
G1 X16.836 Y78.892 F1000
G1 X16.579 Y78.892 F1000
G1 X16.450 Y79.021 F1000
G1 X16.193 Y79.021 F1000
G0 Z3.0 ; Pen up

G0 X15.678 Y77.605 F3000 ; Travel to line 18
G0 Z0.0 ; Pen down
G1 X15.806 Y77.734 F1000
G1 X15.806 Y77.862 F1000
G1 X16.064 Y78.120 F1000
G1 X17.094 Y78.120 F1000
G1 X17.223 Y77.991 F1000
G1 X17.223 Y77.862 F1000
G1 X17.351 Y77.734 F1000
G1 X17.351 Y76.832 F1000
G1 X15.806 Y76.832 F1000
G1 X15.678 Y76.961 F1000
G0 Z3.0 ; Pen up

G0 X15.678 Y77.090 F3000 ; Travel to line 19
G0 Z0.0 ; Pen down
G1 X15.678 Y77.605 F1000
G1 X15.806 Y77.734 F1000
G1 X15.806 Y77.862 F1000
G1 X16.064 Y78.120 F1000
G1 X17.094 Y78.120 F1000
G1 X17.223 Y77.991 F1000
G1 X17.223 Y77.862 F1000
G1 X17.351 Y77.734 F1000
G1 X17.351 Y76.961 F1000
G1 X17.223 Y76.832 F1000
G1 X15.935 Y76.832 F1000
G0 Z3.0 ; Pen up

G0 X13.746 Y77.605 F3000 ; Travel to line 20
G0 Z0.0 ; Pen down
G1 X13.875 Y77.605 F1000
G1 X13.875 Y77.476 F1000
G1 X14.004 Y77.347 F1000
G1 X14.004 Y77.219 F1000
G1 X13.875 Y77.090 F1000
G1 X13.875 Y74.901 F1000
G1 X14.261 Y74.515 F1000
G1 X14.261 Y74.386 F1000
G1 X14.648 Y74.000 F1000
G1 X20.055 Y74.000 F1000
G1 X20.184 Y74.129 F1000
G1 X20.184 Y131.551 F1000
G1 X19.926 Y131.809 F1000
G1 X14.004 Y131.809 F1000
G1 X13.875 Y131.680 F1000
G1 X13.875 Y100.651 F1000
G1 X13.746 Y100.523 F1000
G1 X13.746 Y100.265 F1000
G1 X13.875 Y100.136 F1000
G1 X13.875 Y98.463 F1000
G1 X13.746 Y98.334 F1000
G1 X13.746 Y97.304 F1000
G1 X13.875 Y97.175 F1000
G1 X13.875 Y94.471 F1000
G1 X13.746 Y94.343 F1000
G1 X13.746 Y93.312 F1000
G1 X13.875 Y93.184 F1000
G1 X13.875 Y90.866 F1000
G1 X14.004 Y90.737 F1000
G1 X14.261 Y90.737 F1000
G1 X14.390 Y90.609 F1000
G1 X14.519 Y90.609 F1000
G1 X14.776 Y90.351 F1000
G1 X14.776 Y88.806 F1000
G1 X14.648 Y88.678 F1000
G1 X14.648 Y88.549 F1000
G1 X14.390 Y88.291 F1000
G1 X14.261 Y88.291 F1000
G1 X14.133 Y88.163 F1000
G1 X14.004 Y88.163 F1000
G1 X13.875 Y88.034 F1000
G1 X13.875 Y87.776 F1000
G1 X13.617 Y87.776 F1000
G1 X13.489 Y87.648 F1000
G1 X13.617 Y87.519 F1000
G1 X13.617 Y87.390 F1000
G1 X13.746 Y87.261 F1000
G1 X13.746 Y85.716 F1000
G1 X13.875 Y85.588 F1000
G1 X14.004 Y85.588 F1000
G1 X14.133 Y85.459 F1000
G1 X14.133 Y85.201 F1000
G1 X14.004 Y85.073 F1000
G1 X14.004 Y84.944 F1000
G1 X13.875 Y84.815 F1000
G1 X13.875 Y84.686 F1000
G1 X13.746 Y84.558 F1000
G1 X13.746 Y84.429 F1000
G1 X13.875 Y84.300 F1000
G1 X13.875 Y82.755 F1000
G1 X14.004 Y82.626 F1000
G1 X14.390 Y82.626 F1000
G1 X14.004 Y82.626 F1000
G1 X13.875 Y82.498 F1000
G1 X13.875 Y81.210 F1000
G1 X13.746 Y81.081 F1000
G1 X13.746 Y80.438 F1000
G1 X13.875 Y80.309 F1000
G1 X14.390 Y80.309 F1000
G1 X14.004 Y80.309 F1000
G1 X13.875 Y80.180 F1000
G1 X13.875 Y78.249 F1000
G1 X13.489 Y77.862 F1000
G0 Z3.0 ; Pen up

G0 X12.072 Y76.704 F3000 ; Travel to line 21
G0 Z0.0 ; Pen down
G1 X11.944 Y76.832 F1000
G1 X11.944 Y76.961 F1000
G1 X12.072 Y77.090 F1000
G1 X12.072 Y77.219 F1000
G1 X12.201 Y77.347 F1000
G1 X12.201 Y77.605 F1000
G1 X12.588 Y77.991 F1000
G1 X13.103 Y77.991 F1000
G1 X13.231 Y77.862 F1000
G1 X13.360 Y77.862 F1000
G1 X13.489 Y77.734 F1000
G1 X13.617 Y77.734 F1000
G1 X13.875 Y77.476 F1000
G1 X13.875 Y77.347 F1000
G1 X14.004 Y77.219 F1000
G1 X13.875 Y77.090 F1000
G1 X13.875 Y76.832 F1000
G1 X13.617 Y76.575 F1000
G1 X12.974 Y76.575 F1000
G1 X12.845 Y76.446 F1000
G1 X12.459 Y76.446 F1000
G1 X12.330 Y76.317 F1000
G1 X12.201 Y76.317 F1000
G1 X12.072 Y76.446 F1000
G0 Z3.0 ; Pen up

G0 X11.558 Y76.961 F3000 ; Travel to line 22
G0 Z0.0 ; Pen down
G1 X11.815 Y76.961 F1000
G1 X12.201 Y77.347 F1000
G1 X12.201 Y77.605 F1000
G1 X12.588 Y77.991 F1000
G1 X12.459 Y78.120 F1000
G1 X11.944 Y78.120 F1000
G1 X11.815 Y78.249 F1000
G1 X11.171 Y78.249 F1000
G1 X11.043 Y78.120 F1000
G1 X11.043 Y77.476 F1000
G0 Z3.0 ; Pen up

G0 X11.429 Y75.674 F3000 ; Travel to line 23
G0 Z0.0 ; Pen down
G1 X11.300 Y75.802 F1000
G1 X11.429 Y75.931 F1000
G1 X11.429 Y76.060 F1000
G1 X11.558 Y76.189 F1000
G1 X11.815 Y76.189 F1000
G1 X11.944 Y76.317 F1000
G1 X12.330 Y76.317 F1000
G1 X12.459 Y76.446 F1000
G1 X12.974 Y76.446 F1000
G1 X13.103 Y76.575 F1000
G1 X13.617 Y76.575 F1000
G1 X13.746 Y76.704 F1000
G1 X13.875 Y76.575 F1000
G1 X13.875 Y75.030 F1000
G1 X13.746 Y74.901 F1000
G1 X13.617 Y74.901 F1000
G1 X13.489 Y75.030 F1000
G1 X12.974 Y75.030 F1000
G1 X12.845 Y75.159 F1000
G1 X12.459 Y75.159 F1000
G1 X12.330 Y75.288 F1000
G1 X11.944 Y75.288 F1000
G1 X11.815 Y75.416 F1000
G1 X11.558 Y75.416 F1000
G1 X11.429 Y75.545 F1000
G0 Z3.0 ; Pen up

G0 X11.558 Y74.000 F3000 ; Travel to line 24
G0 Z0.0 ; Pen down
G1 X11.944 Y73.614 F1000
G1 X12.716 Y73.614 F1000
G1 X12.845 Y73.743 F1000
G1 X13.746 Y73.743 F1000
G1 X14.004 Y74.000 F1000
G1 X14.133 Y74.000 F1000
G1 X14.390 Y74.258 F1000
G1 X14.004 Y74.644 F1000
G1 X14.004 Y74.773 F1000
G1 X13.875 Y74.901 F1000
G1 X13.617 Y74.901 F1000
G1 X13.489 Y75.030 F1000
G1 X12.974 Y75.030 F1000
G1 X12.845 Y75.159 F1000
G1 X12.459 Y75.159 F1000
G1 X12.330 Y75.288 F1000
G1 X11.815 Y75.288 F1000
G1 X11.686 Y75.416 F1000
G1 X11.429 Y75.416 F1000
G1 X11.429 Y75.545 F1000
G1 X11.300 Y75.674 F1000
G1 X11.300 Y75.802 F1000
G1 X11.429 Y75.931 F1000
G1 X11.429 Y76.060 F1000
G1 X11.558 Y76.189 F1000
G1 X11.815 Y76.189 F1000
G1 X12.072 Y76.446 F1000
G1 X12.072 Y76.704 F1000
G1 X11.815 Y76.961 F1000
G1 X11.429 Y76.961 F1000
G1 X11.171 Y77.219 F1000
G1 X11.171 Y77.347 F1000
G1 X11.043 Y77.476 F1000
G1 X11.043 Y78.120 F1000
G1 X11.171 Y78.249 F1000
G1 X11.815 Y78.249 F1000
G1 X11.944 Y78.120 F1000
G1 X12.588 Y78.120 F1000
G1 X12.716 Y77.991 F1000
G1 X13.103 Y77.991 F1000
G1 X13.231 Y77.862 F1000
G1 X13.489 Y77.862 F1000
G1 X13.875 Y78.249 F1000
G1 X13.875 Y80.180 F1000
G1 X13.746 Y80.309 F1000
G1 X12.845 Y80.309 F1000
G1 X12.716 Y80.180 F1000
G1 X11.944 Y80.180 F1000
G1 X11.815 Y80.309 F1000
G1 X11.043 Y80.309 F1000
G1 X11.043 Y81.339 F1000
G1 X11.171 Y81.468 F1000
G1 X11.171 Y81.596 F1000
G1 X11.300 Y81.725 F1000
G1 X11.171 Y81.596 F1000
G1 X11.171 Y81.468 F1000
G1 X11.043 Y81.339 F1000
G1 X11.043 Y80.438 F1000
G1 X11.171 Y80.309 F1000
G1 X11.815 Y80.309 F1000
G1 X11.944 Y80.180 F1000
G1 X12.716 Y80.180 F1000
G1 X12.845 Y80.309 F1000
G1 X13.617 Y80.309 F1000
G1 X13.746 Y80.438 F1000
G1 X13.746 Y80.953 F1000
G1 X13.489 Y81.210 F1000
G1 X13.489 Y81.468 F1000
G1 X13.360 Y81.596 F1000
G1 X13.489 Y81.468 F1000
G1 X13.489 Y81.339 F1000
G1 X13.746 Y81.081 F1000
G1 X13.875 Y81.210 F1000
G1 X13.875 Y82.498 F1000
G1 X13.746 Y82.626 F1000
G1 X11.558 Y82.626 F1000
G1 X11.429 Y82.755 F1000
G1 X11.300 Y82.755 F1000
G1 X11.429 Y82.755 F1000
G1 X11.558 Y82.884 F1000
G1 X11.558 Y83.013 F1000
G1 X11.686 Y83.141 F1000
G1 X11.686 Y83.270 F1000
G1 X11.815 Y83.399 F1000
G1 X11.815 Y83.528 F1000
G1 X12.072 Y83.785 F1000
G1 X12.459 Y83.785 F1000
G1 X12.845 Y84.171 F1000
G1 X12.974 Y84.171 F1000
G1 X13.103 Y84.300 F1000
G1 X13.231 Y84.300 F1000
G1 X13.360 Y84.429 F1000
G1 X13.617 Y84.429 F1000
G1 X13.875 Y84.686 F1000
G1 X13.875 Y84.815 F1000
G1 X14.004 Y84.944 F1000
G1 X14.004 Y85.073 F1000
G1 X14.133 Y85.201 F1000
G1 X14.133 Y85.459 F1000
G1 X14.004 Y85.588 F1000
G1 X11.171 Y85.588 F1000
G1 X13.617 Y85.588 F1000
G1 X13.746 Y85.716 F1000
G1 X13.746 Y87.261 F1000
G1 X13.360 Y87.648 F1000
G1 X12.201 Y87.648 F1000
G1 X12.072 Y87.776 F1000
G1 X11.944 Y87.776 F1000
G1 X11.815 Y87.905 F1000
G1 X11.429 Y87.905 F1000
G1 X11.171 Y88.163 F1000
G1 X11.171 Y88.420 F1000
G1 X11.043 Y88.549 F1000
G1 X11.043 Y88.678 F1000
G1 X10.914 Y88.806 F1000
G1 X10.914 Y89.192 F1000
G1 X10.785 Y89.321 F1000
G1 X10.785 Y89.836 F1000
G1 X10.914 Y89.965 F1000
G1 X10.914 Y90.480 F1000
G1 X11.043 Y90.609 F1000
G1 X11.043 Y90.866 F1000
G1 X11.043 Y90.480 F1000
G1 X10.914 Y90.351 F1000
G1 X10.914 Y89.965 F1000
G1 X10.785 Y89.836 F1000
G1 X10.785 Y89.321 F1000
G1 X10.914 Y89.192 F1000
G1 X10.914 Y88.806 F1000
G1 X11.043 Y88.678 F1000
G1 X11.043 Y88.549 F1000
G1 X11.171 Y88.420 F1000
G1 X11.171 Y88.163 F1000
G1 X11.429 Y87.905 F1000
G1 X11.815 Y87.905 F1000
G1 X12.201 Y88.291 F1000
G1 X12.201 Y88.935 F1000
G1 X12.201 Y88.291 F1000
G1 X11.815 Y87.905 F1000
G1 X11.944 Y87.776 F1000
G1 X12.072 Y87.776 F1000
G1 X12.201 Y87.648 F1000
G1 X13.489 Y87.648 F1000
G1 X13.617 Y87.776 F1000
G1 X13.746 Y87.776 F1000
G1 X13.875 Y87.905 F1000
G1 X13.875 Y88.163 F1000
G1 X13.746 Y88.291 F1000
G1 X13.746 Y89.064 F1000
G1 X13.875 Y89.192 F1000
G1 X13.875 Y90.609 F1000
G1 X13.746 Y90.737 F1000
G1 X13.231 Y90.737 F1000
G1 X12.974 Y90.480 F1000
G1 X12.974 Y89.965 F1000
G1 X12.974 Y90.480 F1000
G1 X13.231 Y90.737 F1000
G1 X13.746 Y90.737 F1000
G1 X13.875 Y90.866 F1000
G1 X13.875 Y93.055 F1000
G1 X13.746 Y93.184 F1000
G1 X13.746 Y93.699 F1000
G1 X13.617 Y93.828 F1000
G1 X11.171 Y93.828 F1000
G1 X11.043 Y93.699 F1000
G1 X11.043 Y93.184 F1000
G1 X11.043 Y93.828 F1000
G1 X13.617 Y93.828 F1000
G1 X13.746 Y93.956 F1000
G1 X13.746 Y94.343 F1000
G1 X13.875 Y94.471 F1000
G1 X13.875 Y95.630 F1000
G1 X13.746 Y95.759 F1000
G1 X13.489 Y95.759 F1000
G1 X13.746 Y95.759 F1000
G1 X13.875 Y95.888 F1000
G1 X13.875 Y97.046 F1000
G1 X13.746 Y97.175 F1000
G1 X13.746 Y97.690 F1000
G1 X13.617 Y97.819 F1000
G1 X11.171 Y97.819 F1000
G1 X11.043 Y97.690 F1000
G1 X11.043 Y97.175 F1000
G1 X11.043 Y97.819 F1000
G1 X13.617 Y97.819 F1000
G1 X13.746 Y97.948 F1000
G1 X13.746 Y98.334 F1000
G1 X13.875 Y98.463 F1000
G1 X13.875 Y100.008 F1000
G1 X13.746 Y100.136 F1000
G1 X13.617 Y100.136 F1000
G1 X13.489 Y100.008 F1000
G1 X13.489 Y99.879 F1000
G1 X13.231 Y99.621 F1000
G1 X12.845 Y99.621 F1000
G1 X12.716 Y99.493 F1000
G1 X11.944 Y99.493 F1000
G1 X11.815 Y99.621 F1000
G1 X11.429 Y99.621 F1000
G1 X11.043 Y100.008 F1000
G1 X11.043 Y100.651 F1000
G1 X11.300 Y100.909 F1000
G1 X11.429 Y100.909 F1000
G1 X11.558 Y101.038 F1000
G1 X11.686 Y101.038 F1000
G1 X11.815 Y101.166 F1000
G1 X12.845 Y101.166 F1000
G1 X12.974 Y101.038 F1000
G1 X13.103 Y101.038 F1000
G1 X13.231 Y100.909 F1000
G1 X13.360 Y100.909 F1000
G1 X13.746 Y100.523 F1000
G1 X13.875 Y100.651 F1000
G1 X13.875 Y131.680 F1000
G1 X13.746 Y131.809 F1000
G1 X7.695 Y131.809 F1000
G1 X7.566 Y131.680 F1000
G1 X7.566 Y74.129 F1000
G1 X7.695 Y74.000 F1000
G0 Z3.0 ; Pen up

G0 X11.300 Y70.138 F3000 ; Travel to line 25
G0 Z0.0 ; Pen down
G1 X11.171 Y70.266 F1000
G1 X11.300 Y70.395 F1000
G1 X11.300 Y70.524 F1000
G1 X11.558 Y70.781 F1000
G1 X11.815 Y70.781 F1000
G1 X11.944 Y70.910 F1000
G1 X12.201 Y70.910 F1000
G1 X12.330 Y71.039 F1000
G1 X12.459 Y71.039 F1000
G1 X12.588 Y71.168 F1000
G1 X12.845 Y71.168 F1000
G1 X12.974 Y71.296 F1000
G1 X13.617 Y71.296 F1000
G1 X13.746 Y71.168 F1000
G1 X13.746 Y69.236 F1000
G1 X13.617 Y69.108 F1000
G1 X13.489 Y69.108 F1000
G1 X13.360 Y69.236 F1000
G1 X12.845 Y69.236 F1000
G1 X12.716 Y69.365 F1000
G1 X12.459 Y69.365 F1000
G1 X12.330 Y69.494 F1000
G1 X12.072 Y69.494 F1000
G1 X11.944 Y69.623 F1000
G1 X11.815 Y69.623 F1000
G1 X11.686 Y69.751 F1000
G1 X11.558 Y69.751 F1000
G1 X11.300 Y70.009 F1000
G0 Z3.0 ; Pen up

G0 X10.914 Y64.472 F3000 ; Travel to line 26
G0 Z0.0 ; Pen down
G1 X10.914 Y65.760 F1000
G1 X11.043 Y65.889 F1000
G1 X11.043 Y66.146 F1000
G1 X11.171 Y66.275 F1000
G1 X11.300 Y66.275 F1000
G1 X11.429 Y66.404 F1000
G1 X11.686 Y66.404 F1000
G1 X11.815 Y66.532 F1000
G1 X11.944 Y66.532 F1000
G1 X12.072 Y66.404 F1000
G1 X12.330 Y66.404 F1000
G1 X12.459 Y66.275 F1000
G1 X12.588 Y66.275 F1000
G1 X12.716 Y66.146 F1000
G1 X12.845 Y66.146 F1000
G1 X13.103 Y65.889 F1000
G1 X12.974 Y65.760 F1000
G1 X12.974 Y64.344 F1000
G1 X12.845 Y64.215 F1000
G1 X11.171 Y64.215 F1000
G0 Z3.0 ; Pen up

G0 X13.103 Y64.215 F3000 ; Travel to line 27
G0 Z0.0 ; Pen down
G1 X12.974 Y64.344 F1000
G1 X12.974 Y65.760 F1000
G1 X13.360 Y66.146 F1000
G1 X13.617 Y66.146 F1000
G1 X13.875 Y65.889 F1000
G1 X13.875 Y64.344 F1000
G1 X13.746 Y64.215 F1000
G0 Z3.0 ; Pen up

G0 X14.004 Y59.065 F3000 ; Travel to line 28
G0 Z0.0 ; Pen down
G1 X13.875 Y59.194 F1000
G1 X13.875 Y60.996 F1000
G1 X14.261 Y61.383 F1000
G1 X14.648 Y60.996 F1000
G1 X14.648 Y59.194 F1000
G1 X14.519 Y59.065 F1000
G0 Z3.0 ; Pen up

G0 X11.171 Y59.065 F3000 ; Travel to line 29
G0 Z0.0 ; Pen down
G1 X13.746 Y59.065 F1000
G1 X13.875 Y59.194 F1000
G1 X13.875 Y60.996 F1000
G1 X14.261 Y61.383 F1000
G1 X14.261 Y61.511 F1000
G1 X13.746 Y62.026 F1000
G1 X13.103 Y62.026 F1000
G1 X12.974 Y62.155 F1000
G1 X12.716 Y62.155 F1000
G1 X12.588 Y62.026 F1000
G1 X11.944 Y62.026 F1000
G1 X11.558 Y61.640 F1000
G1 X11.429 Y61.640 F1000
G1 X11.300 Y61.511 F1000
G1 X11.300 Y61.383 F1000
G1 X11.171 Y61.254 F1000
G1 X11.171 Y61.125 F1000
G1 X11.043 Y60.996 F1000
G1 X11.043 Y60.610 F1000
G1 X10.914 Y60.481 F1000
G1 X10.914 Y59.322 F1000
G0 Z3.0 ; Pen up

G0 X10.914 Y45.031 F3000 ; Travel to line 30
G0 Z0.0 ; Pen down
G1 X10.914 Y46.319 F1000
G1 X11.043 Y46.447 F1000
G1 X11.043 Y46.705 F1000
G1 X11.429 Y47.091 F1000
G1 X12.072 Y47.091 F1000
G1 X12.201 Y46.962 F1000
G1 X12.588 Y46.962 F1000
G1 X12.716 Y46.834 F1000
G1 X12.716 Y44.903 F1000
G1 X12.588 Y44.774 F1000
G1 X11.171 Y44.774 F1000
G0 Z3.0 ; Pen up

G0 X12.845 Y44.774 F3000 ; Travel to line 31
G0 Z0.0 ; Pen down
G1 X12.716 Y44.903 F1000
G1 X12.716 Y46.834 F1000
G1 X12.845 Y46.962 F1000
G1 X12.974 Y46.962 F1000
G1 X13.103 Y47.091 F1000
G1 X13.231 Y47.091 F1000
G1 X13.360 Y47.220 F1000
G1 X13.746 Y47.220 F1000
G1 X13.875 Y47.091 F1000
G1 X13.875 Y44.903 F1000
G1 X13.746 Y44.774 F1000
G0 Z3.0 ; Pen up

G0 X14.004 Y44.774 F3000 ; Travel to line 32
G0 Z0.0 ; Pen down
G1 X13.875 Y44.903 F1000
G1 X13.875 Y47.091 F1000
G1 X14.004 Y47.220 F1000
G1 X14.133 Y47.091 F1000
G1 X14.261 Y47.091 F1000
G1 X14.390 Y46.962 F1000
G1 X14.519 Y46.962 F1000
G1 X14.648 Y46.834 F1000
G1 X14.648 Y44.903 F1000
G1 X14.519 Y44.774 F1000
G0 Z3.0 ; Pen up

G0 X11.558 Y42.070 F3000 ; Travel to line 33
G0 Z0.0 ; Pen down
G1 X11.429 Y42.199 F1000
G1 X11.429 Y42.328 F1000
G1 X11.558 Y42.456 F1000
G1 X13.746 Y42.456 F1000
G1 X13.875 Y42.328 F1000
G1 X13.875 Y41.040 F1000
G1 X13.489 Y40.654 F1000
G1 X13.103 Y41.040 F1000
G1 X12.845 Y41.040 F1000
G1 X12.716 Y41.169 F1000
G1 X12.588 Y41.169 F1000
G1 X12.459 Y41.297 F1000
G1 X12.330 Y41.297 F1000
G1 X12.201 Y41.426 F1000
G1 X11.944 Y41.426 F1000
G1 X11.686 Y41.684 F1000
G1 X11.686 Y41.812 F1000
G1 X11.558 Y41.941 F1000
G0 Z3.0 ; Pen up

G0 X13.617 Y40.525 F3000 ; Travel to line 34
G0 Z0.0 ; Pen down
G1 X13.489 Y40.654 F1000
G1 X13.875 Y41.040 F1000
G1 X13.875 Y42.328 F1000
G1 X14.004 Y42.456 F1000
G1 X14.519 Y42.456 F1000
G1 X14.004 Y42.456 F1000
G1 X13.875 Y42.585 F1000
G1 X13.875 Y44.645 F1000
G1 X14.004 Y44.774 F1000
G1 X14.519 Y44.774 F1000
G1 X14.648 Y44.903 F1000
G1 X14.648 Y46.834 F1000
G1 X14.390 Y47.091 F1000
G1 X14.133 Y47.091 F1000
G1 X13.875 Y47.349 F1000
G1 X13.875 Y49.280 F1000
G1 X14.004 Y49.409 F1000
G1 X14.519 Y49.409 F1000
G1 X14.648 Y49.538 F1000
G1 X14.648 Y51.598 F1000
G1 X14.648 Y49.538 F1000
G1 X14.519 Y49.409 F1000
G1 X14.004 Y49.409 F1000
G1 X13.875 Y49.538 F1000
G1 X13.875 Y53.400 F1000
G1 X14.004 Y53.529 F1000
G1 X14.390 Y53.529 F1000
G1 X14.004 Y53.529 F1000
G1 X13.875 Y53.657 F1000
G1 X13.875 Y58.936 F1000
G1 X14.004 Y59.065 F1000
G1 X14.519 Y59.065 F1000
G1 X14.648 Y59.194 F1000
G1 X14.648 Y60.996 F1000
G1 X14.261 Y61.383 F1000
G1 X14.261 Y61.511 F1000
G1 X14.133 Y61.640 F1000
G1 X14.133 Y61.769 F1000
G1 X14.004 Y61.769 F1000
G1 X13.746 Y62.026 F1000
G1 X13.746 Y62.155 F1000
G1 X13.875 Y62.284 F1000
G1 X13.875 Y64.086 F1000
G1 X14.004 Y64.215 F1000
G1 X14.390 Y64.215 F1000
G1 X14.004 Y64.215 F1000
G1 X13.875 Y64.344 F1000
G1 X13.875 Y66.017 F1000
G1 X13.617 Y66.275 F1000
G1 X13.746 Y66.404 F1000
G1 X13.875 Y66.404 F1000
G1 X14.390 Y66.919 F1000
G1 X14.648 Y66.919 F1000
G1 X14.776 Y67.047 F1000
G1 X14.776 Y67.176 F1000
G1 X14.905 Y67.305 F1000
G1 X14.905 Y67.434 F1000
G1 X15.034 Y67.562 F1000
G1 X14.905 Y67.434 F1000
G1 X14.905 Y67.305 F1000
G1 X14.776 Y67.176 F1000
G1 X14.776 Y67.047 F1000
G1 X14.648 Y66.919 F1000
G1 X14.261 Y66.919 F1000
G1 X13.875 Y67.305 F1000
G1 X13.875 Y68.464 F1000
G1 X14.133 Y68.721 F1000
G1 X14.519 Y68.721 F1000
G1 X14.776 Y68.464 F1000
G1 X14.776 Y68.335 F1000
G1 X14.905 Y68.206 F1000
G1 X14.905 Y68.078 F1000
G1 X14.905 Y68.335 F1000
G1 X14.519 Y68.721 F1000
G1 X14.261 Y68.721 F1000
G1 X14.133 Y68.850 F1000
G1 X13.875 Y68.850 F1000
G1 X13.746 Y68.979 F1000
G1 X13.746 Y71.296 F1000
G1 X13.617 Y71.425 F1000
G1 X13.746 Y71.554 F1000
G1 X13.875 Y71.554 F1000
G1 X14.004 Y71.683 F1000
G1 X14.133 Y71.683 F1000
G1 X14.261 Y71.811 F1000
G1 X14.390 Y71.811 F1000
G1 X14.519 Y71.940 F1000
G1 X14.648 Y71.940 F1000
G1 X14.776 Y72.069 F1000
G1 X14.776 Y72.198 F1000
G1 X15.034 Y72.455 F1000
G1 X14.776 Y72.198 F1000
G1 X14.776 Y72.069 F1000
G1 X14.648 Y71.940 F1000
G1 X14.519 Y71.940 F1000
G1 X14.390 Y71.811 F1000
G1 X13.875 Y72.326 F1000
G1 X13.875 Y73.743 F1000
G1 X14.261 Y74.129 F1000
G1 X14.390 Y74.129 F1000
G1 X14.519 Y74.000 F1000
G1 X20.055 Y74.000 F1000
G1 X20.184 Y73.871 F1000
G1 X20.184 Y16.320 F1000
G1 X20.055 Y16.191 F1000
G1 X14.004 Y16.191 F1000
G1 X13.875 Y16.320 F1000
G1 X13.875 Y20.440 F1000
G1 X14.133 Y20.697 F1000
G1 X14.519 Y20.697 F1000
G1 X14.776 Y20.440 F1000
G1 X14.776 Y20.311 F1000
G1 X14.905 Y20.183 F1000
G1 X14.905 Y20.054 F1000
G1 X14.905 Y20.311 F1000
G1 X14.519 Y20.697 F1000
G1 X14.261 Y20.697 F1000
G1 X14.133 Y20.826 F1000
G1 X13.875 Y20.826 F1000
G1 X13.746 Y20.955 F1000
G1 X13.746 Y23.273 F1000
G1 X13.617 Y23.401 F1000
G1 X13.746 Y23.530 F1000
G1 X13.875 Y23.530 F1000
G1 X14.004 Y23.659 F1000
G1 X14.133 Y23.659 F1000
G1 X14.261 Y23.788 F1000
G1 X14.390 Y23.788 F1000
G1 X14.519 Y23.916 F1000
G1 X14.648 Y23.916 F1000
G1 X14.776 Y24.045 F1000
G1 X14.776 Y24.174 F1000
G1 X15.034 Y24.431 F1000
G1 X14.776 Y24.174 F1000
G1 X14.776 Y24.045 F1000
G1 X14.648 Y23.916 F1000
G1 X14.519 Y23.916 F1000
G1 X14.390 Y23.788 F1000
G1 X13.875 Y24.303 F1000
G1 X13.875 Y25.204 F1000
G1 X14.004 Y25.332 F1000
G1 X14.390 Y25.332 F1000
G1 X14.519 Y25.461 F1000
G1 X14.648 Y25.461 F1000
G1 X14.648 Y25.719 F1000
G1 X14.776 Y25.848 F1000
G1 X14.776 Y27.521 F1000
G1 X14.519 Y27.779 F1000
G1 X14.390 Y27.779 F1000
G1 X14.261 Y27.907 F1000
G1 X14.004 Y27.907 F1000
G1 X13.875 Y28.036 F1000
G1 X13.875 Y29.453 F1000
G1 X14.004 Y29.581 F1000
G1 X14.390 Y29.581 F1000
G1 X14.519 Y29.710 F1000
G1 X14.648 Y29.710 F1000
G1 X14.648 Y29.968 F1000
G1 X14.776 Y30.096 F1000
G1 X14.776 Y31.770 F1000
G1 X14.519 Y32.028 F1000
G1 X14.390 Y32.028 F1000
G1 X14.261 Y32.156 F1000
G1 X14.004 Y32.156 F1000
G1 X13.875 Y32.285 F1000
G1 X13.875 Y34.216 F1000
G1 X14.004 Y34.345 F1000
G1 X14.519 Y34.345 F1000
G1 X14.648 Y34.474 F1000
G1 X14.648 Y36.534 F1000
G1 X14.648 Y34.474 F1000
G1 X14.519 Y34.345 F1000
G1 X14.004 Y34.345 F1000
G1 X13.875 Y34.474 F1000
G1 X13.875 Y38.465 F1000
G1 X14.004 Y38.594 F1000
G1 X14.390 Y38.594 F1000
G1 X14.004 Y38.594 F1000
G1 X13.875 Y38.722 F1000
G1 X13.875 Y40.396 F1000
G1 X13.746 Y40.525 F1000
G0 Z3.0 ; Pen up

G0 X13.746 Y38.594 F3000 ; Travel to line 35
G0 Z0.0 ; Pen down
G1 X13.875 Y38.722 F1000
G1 X13.875 Y40.267 F1000
G1 X13.617 Y40.525 F1000
G1 X13.360 Y40.525 F1000
G1 X13.231 Y40.396 F1000
G1 X13.231 Y40.267 F1000
G1 X13.103 Y40.139 F1000
G1 X12.974 Y40.139 F1000
G1 X12.845 Y40.010 F1000
G1 X12.716 Y40.010 F1000
G1 X12.588 Y39.881 F1000
G1 X12.330 Y39.881 F1000
G1 X12.201 Y39.752 F1000
G1 X12.072 Y39.752 F1000
G1 X11.944 Y39.624 F1000
G1 X11.815 Y39.624 F1000
G1 X11.686 Y39.495 F1000
G1 X11.686 Y39.366 F1000
G1 X11.558 Y39.237 F1000
G1 X11.558 Y39.109 F1000
G1 X11.429 Y38.980 F1000
G1 X11.429 Y38.722 F1000
G1 X11.558 Y38.594 F1000
G0 Z3.0 ; Pen up

G0 X13.875 Y29.839 F3000 ; Travel to line 36
G0 Z0.0 ; Pen down
G1 X13.875 Y32.028 F1000
G1 X14.004 Y32.156 F1000
G1 X14.261 Y32.156 F1000
G1 X14.390 Y32.028 F1000
G1 X14.519 Y32.028 F1000
G1 X14.648 Y31.899 F1000
G1 X14.648 Y31.770 F1000
G1 X14.776 Y31.641 F1000
G1 X14.776 Y30.096 F1000
G1 X14.648 Y29.968 F1000
G1 X14.648 Y29.839 F1000
G1 X14.390 Y29.581 F1000
G1 X14.133 Y29.581 F1000
G0 Z3.0 ; Pen up

G0 X13.875 Y25.590 F3000 ; Travel to line 37
G0 Z0.0 ; Pen down
G1 X13.875 Y27.779 F1000
G1 X14.004 Y27.907 F1000
G1 X14.261 Y27.907 F1000
G1 X14.390 Y27.779 F1000
G1 X14.519 Y27.779 F1000
G1 X14.648 Y27.650 F1000
G1 X14.648 Y27.521 F1000
G1 X14.776 Y27.393 F1000
G1 X14.776 Y25.848 F1000
G1 X14.648 Y25.719 F1000
G1 X14.648 Y25.590 F1000
G1 X14.390 Y25.332 F1000
G1 X14.133 Y25.332 F1000
G0 Z3.0 ; Pen up

G0 X11.300 Y22.114 F3000 ; Travel to line 38
G0 Z0.0 ; Pen down
G1 X11.171 Y22.242 F1000
G1 X11.300 Y22.371 F1000
G1 X11.300 Y22.500 F1000
G1 X11.558 Y22.758 F1000
G1 X11.815 Y22.758 F1000
G1 X11.944 Y22.886 F1000
G1 X12.201 Y22.886 F1000
G1 X12.330 Y23.015 F1000
G1 X12.459 Y23.015 F1000
G1 X12.588 Y23.144 F1000
G1 X12.845 Y23.144 F1000
G1 X12.974 Y23.273 F1000
G1 X13.617 Y23.273 F1000
G1 X13.746 Y23.144 F1000
G1 X13.746 Y21.212 F1000
G1 X13.617 Y21.084 F1000
G1 X13.489 Y21.084 F1000
G1 X13.360 Y21.212 F1000
G1 X12.845 Y21.212 F1000
G1 X12.716 Y21.341 F1000
G1 X12.459 Y21.341 F1000
G1 X12.330 Y21.470 F1000
G1 X12.072 Y21.470 F1000
G1 X11.944 Y21.599 F1000
G1 X11.815 Y21.599 F1000
G1 X11.686 Y21.727 F1000
G1 X11.558 Y21.727 F1000
G1 X11.300 Y21.985 F1000
G0 Z3.0 ; Pen up

G0 X13.746 Y16.191 F3000 ; Travel to line 39
G0 Z0.0 ; Pen down
G1 X13.875 Y16.320 F1000
G1 X13.875 Y20.440 F1000
G1 X14.133 Y20.697 F1000
G1 X14.004 Y20.826 F1000
G1 X13.875 Y20.826 F1000
G1 X13.617 Y21.084 F1000
G1 X13.489 Y21.084 F1000
G1 X13.360 Y21.212 F1000
G1 X12.845 Y21.212 F1000
G1 X12.716 Y21.341 F1000
G1 X12.459 Y21.341 F1000
G1 X12.330 Y21.470 F1000
G1 X12.072 Y21.470 F1000
G1 X11.944 Y21.599 F1000
G1 X11.686 Y21.599 F1000
G1 X11.300 Y21.985 F1000
G1 X11.300 Y22.114 F1000
G1 X11.171 Y22.242 F1000
G1 X11.300 Y22.371 F1000
G1 X11.300 Y22.500 F1000
G1 X11.558 Y22.758 F1000
G1 X11.815 Y22.758 F1000
G1 X11.944 Y22.886 F1000
G1 X12.201 Y22.886 F1000
G1 X12.330 Y23.015 F1000
G1 X12.459 Y23.015 F1000
G1 X12.588 Y23.144 F1000
G1 X12.845 Y23.144 F1000
G1 X12.974 Y23.273 F1000
G1 X13.489 Y23.273 F1000
G1 X13.746 Y23.530 F1000
G1 X13.875 Y23.530 F1000
G1 X14.004 Y23.659 F1000
G1 X14.133 Y23.659 F1000
G1 X14.261 Y23.788 F1000
G1 X13.875 Y24.174 F1000
G1 X13.875 Y25.204 F1000
G1 X14.004 Y25.332 F1000
G1 X13.875 Y25.461 F1000
G1 X13.875 Y27.907 F1000
G1 X13.746 Y28.036 F1000
G1 X13.617 Y27.907 F1000
G1 X13.231 Y27.907 F1000
G1 X13.103 Y27.779 F1000
G1 X13.103 Y27.650 F1000
G1 X12.974 Y27.521 F1000
G1 X12.974 Y27.264 F1000
G1 X12.845 Y27.135 F1000
G1 X12.845 Y26.749 F1000
G1 X12.716 Y26.620 F1000
G1 X12.716 Y26.363 F1000
G1 X12.588 Y26.234 F1000
G1 X12.588 Y26.105 F1000
G1 X12.459 Y25.976 F1000
G1 X12.459 Y25.848 F1000
G1 X12.330 Y25.719 F1000
G1 X12.072 Y25.719 F1000
G1 X11.944 Y25.590 F1000
G1 X11.815 Y25.590 F1000
G1 X11.686 Y25.719 F1000
G1 X11.300 Y25.719 F1000
G1 X10.914 Y26.105 F1000
G1 X10.914 Y26.491 F1000
G1 X10.785 Y26.620 F1000
G1 X10.785 Y27.135 F1000
G1 X10.914 Y27.264 F1000
G1 X10.914 Y27.779 F1000
G1 X11.043 Y27.907 F1000
G1 X11.043 Y28.036 F1000
G1 X11.171 Y28.036 F1000
G1 X11.429 Y28.294 F1000
G1 X10.914 Y27.779 F1000
G1 X10.914 Y27.264 F1000
G1 X10.785 Y27.135 F1000
G1 X10.785 Y26.620 F1000
G1 X10.914 Y26.491 F1000
G1 X10.914 Y26.234 F1000
G1 X11.043 Y26.105 F1000
G1 X11.043 Y25.976 F1000
G1 X11.300 Y25.719 F1000
G1 X11.686 Y25.719 F1000
G1 X11.815 Y25.590 F1000
G1 X11.944 Y25.590 F1000
G1 X12.072 Y25.719 F1000
G1 X12.201 Y25.719 F1000
G1 X12.588 Y26.105 F1000
G1 X12.588 Y26.234 F1000
G1 X12.716 Y26.363 F1000
G1 X12.716 Y26.749 F1000
G1 X12.845 Y26.878 F1000
G1 X12.845 Y27.135 F1000
G1 X12.974 Y27.264 F1000
G1 X12.974 Y27.521 F1000
G1 X13.103 Y27.650 F1000
G1 X13.103 Y27.779 F1000
G1 X13.231 Y27.907 F1000
G1 X13.617 Y27.907 F1000
G1 X13.875 Y28.165 F1000
G1 X13.875 Y29.453 F1000
G1 X14.004 Y29.581 F1000
G1 X13.875 Y29.710 F1000
G1 X13.875 Y32.156 F1000
G1 X13.746 Y32.285 F1000
G1 X13.617 Y32.156 F1000
G1 X13.231 Y32.156 F1000
G1 X13.103 Y32.028 F1000
G1 X13.103 Y31.899 F1000
G1 X12.974 Y31.770 F1000
G1 X12.974 Y31.512 F1000
G1 X12.845 Y31.384 F1000
G1 X12.845 Y30.998 F1000
G1 X12.716 Y30.869 F1000
G1 X12.716 Y30.611 F1000
G1 X12.588 Y30.483 F1000
G1 X12.588 Y30.354 F1000
G1 X12.459 Y30.225 F1000
G1 X12.459 Y30.096 F1000
G1 X12.330 Y29.968 F1000
G1 X12.072 Y29.968 F1000
G1 X11.944 Y29.839 F1000
G1 X11.815 Y29.839 F1000
G1 X11.686 Y29.968 F1000
G1 X11.300 Y29.968 F1000
G1 X10.914 Y30.354 F1000
G1 X10.914 Y30.740 F1000
G1 X10.785 Y30.869 F1000
G1 X10.785 Y31.384 F1000
G1 X10.914 Y31.512 F1000
G1 X10.914 Y32.028 F1000
G1 X11.043 Y32.156 F1000
G1 X11.043 Y32.285 F1000
G1 X11.171 Y32.285 F1000
G1 X11.429 Y32.543 F1000
G1 X10.914 Y32.028 F1000
G1 X10.914 Y31.512 F1000
G1 X10.785 Y31.384 F1000
G1 X10.785 Y30.869 F1000
G1 X10.914 Y30.740 F1000
G1 X10.914 Y30.483 F1000
G1 X11.043 Y30.354 F1000
G1 X11.043 Y30.225 F1000
G1 X11.300 Y29.968 F1000
G1 X11.686 Y29.968 F1000
G1 X11.815 Y29.839 F1000
G1 X11.944 Y29.839 F1000
G1 X12.072 Y29.968 F1000
G1 X12.201 Y29.968 F1000
G1 X12.588 Y30.354 F1000
G1 X12.588 Y30.483 F1000
G1 X12.716 Y30.611 F1000
G1 X12.716 Y30.998 F1000
G1 X12.845 Y31.126 F1000
G1 X12.845 Y31.384 F1000
G1 X12.974 Y31.512 F1000
G1 X12.974 Y31.770 F1000
G1 X13.103 Y31.899 F1000
G1 X13.103 Y32.028 F1000
G1 X13.231 Y32.156 F1000
G1 X13.617 Y32.156 F1000
G1 X13.875 Y32.414 F1000
G1 X13.875 Y34.216 F1000
G1 X13.746 Y34.345 F1000
G1 X11.043 Y34.345 F1000
G1 X11.043 Y34.474 F1000
G1 X10.914 Y34.602 F1000
G1 X10.914 Y36.534 F1000
G1 X10.914 Y34.602 F1000
G1 X11.171 Y34.345 F1000
G1 X12.588 Y34.345 F1000
G1 X12.716 Y34.474 F1000
G1 X12.716 Y36.405 F1000
G1 X12.716 Y34.474 F1000
G1 X12.845 Y34.345 F1000
G1 X13.746 Y34.345 F1000
G1 X13.875 Y34.474 F1000
G1 X13.875 Y38.465 F1000
G1 X13.746 Y38.594 F1000
G1 X11.429 Y38.594 F1000
G1 X11.429 Y38.980 F1000
G1 X11.558 Y39.109 F1000
G1 X11.558 Y39.237 F1000
G1 X11.686 Y39.366 F1000
G1 X11.686 Y39.495 F1000
G1 X11.944 Y39.752 F1000
G1 X12.201 Y39.752 F1000
G1 X12.330 Y39.881 F1000
G1 X12.459 Y39.881 F1000
G1 X12.588 Y40.010 F1000
G1 X12.716 Y40.010 F1000
G1 X12.845 Y40.139 F1000
G1 X13.103 Y40.139 F1000
G1 X13.231 Y40.267 F1000
G1 X13.231 Y40.396 F1000
G1 X13.360 Y40.525 F1000
G1 X13.360 Y40.654 F1000
G1 X12.974 Y41.040 F1000
G1 X12.845 Y41.040 F1000
G1 X12.716 Y41.169 F1000
G1 X12.459 Y41.169 F1000
G1 X12.330 Y41.297 F1000
G1 X12.201 Y41.297 F1000
G1 X12.072 Y41.426 F1000
G1 X11.944 Y41.426 F1000
G1 X11.815 Y41.555 F1000
G1 X11.686 Y41.555 F1000
G1 X11.686 Y41.684 F1000
G1 X11.558 Y41.812 F1000
G1 X11.558 Y41.941 F1000
G1 X11.429 Y42.070 F1000
G1 X11.429 Y42.328 F1000
G1 X11.558 Y42.456 F1000
G1 X13.746 Y42.456 F1000
G1 X13.875 Y42.585 F1000
G1 X13.875 Y44.645 F1000
G1 X13.746 Y44.774 F1000
G1 X11.043 Y44.774 F1000
G1 X11.043 Y44.903 F1000
G1 X10.914 Y45.031 F1000
G1 X10.914 Y46.319 F1000
G1 X11.043 Y46.447 F1000
G1 X11.043 Y46.705 F1000
G1 X11.171 Y46.834 F1000
G1 X11.171 Y46.962 F1000
G1 X11.300 Y46.962 F1000
G1 X11.429 Y47.091 F1000
G1 X12.072 Y47.091 F1000
G1 X12.201 Y46.962 F1000
G1 X12.974 Y46.962 F1000
G1 X13.103 Y47.091 F1000
G1 X13.231 Y47.091 F1000
G1 X13.360 Y47.220 F1000
G1 X13.746 Y47.220 F1000
G1 X13.875 Y47.349 F1000
G1 X13.875 Y49.280 F1000
G1 X13.746 Y49.409 F1000
G1 X11.171 Y49.409 F1000
G1 X13.746 Y49.409 F1000
G1 X13.875 Y49.538 F1000
G1 X13.875 Y53.400 F1000
G1 X13.746 Y53.529 F1000
G1 X12.716 Y53.529 F1000
G1 X12.588 Y53.400 F1000
G1 X12.588 Y53.271 F1000
G1 X12.459 Y53.142 F1000
G1 X12.459 Y53.014 F1000
G1 X12.330 Y52.885 F1000
G1 X12.201 Y52.885 F1000
G1 X11.944 Y52.627 F1000
G1 X11.815 Y52.627 F1000
G1 X11.558 Y52.370 F1000
G1 X11.429 Y52.370 F1000
G1 X11.171 Y52.113 F1000
G1 X10.914 Y52.113 F1000
G1 X11.043 Y52.113 F1000
G1 X11.300 Y52.370 F1000
G1 X11.429 Y52.370 F1000
G1 X11.686 Y52.627 F1000
G1 X11.815 Y52.627 F1000
G1 X11.944 Y52.756 F1000
G1 X12.072 Y52.756 F1000
G1 X12.588 Y53.271 F1000
G1 X12.588 Y53.786 F1000
G1 X12.330 Y54.044 F1000
G1 X12.201 Y54.044 F1000
G1 X11.944 Y54.301 F1000
G1 X11.815 Y54.301 F1000
G1 X11.686 Y54.430 F1000
G1 X11.558 Y54.430 F1000
G1 X11.300 Y54.688 F1000
G1 X11.171 Y54.688 F1000
G1 X10.914 Y54.945 F1000
G1 X10.914 Y55.074 F1000
G1 X10.785 Y55.203 F1000
G1 X10.785 Y55.460 F1000
G1 X10.785 Y55.203 F1000
G1 X11.300 Y54.688 F1000
G1 X11.429 Y54.688 F1000
G1 X11.686 Y54.430 F1000
G1 X11.815 Y54.430 F1000
G1 X12.072 Y54.172 F1000
G1 X12.201 Y54.172 F1000
G1 X12.588 Y53.786 F1000
G1 X12.588 Y53.657 F1000
G1 X12.716 Y53.529 F1000
G1 X13.746 Y53.529 F1000
G1 X13.875 Y53.657 F1000
G1 X13.875 Y58.936 F1000
G1 X13.746 Y59.065 F1000
G1 X11.043 Y59.065 F1000
G1 X11.043 Y59.194 F1000
G1 X10.914 Y59.322 F1000
G1 X10.914 Y60.481 F1000
G1 X11.043 Y60.610 F1000
G1 X11.043 Y60.996 F1000
G1 X11.171 Y61.125 F1000
G1 X11.171 Y61.254 F1000
G1 X11.300 Y61.383 F1000
G1 X11.300 Y61.511 F1000
G1 X11.558 Y61.769 F1000
G1 X11.686 Y61.769 F1000
G1 X11.944 Y62.026 F1000
G1 X12.588 Y62.026 F1000
G1 X12.716 Y62.155 F1000
G1 X12.974 Y62.155 F1000
G1 X13.103 Y62.026 F1000
G1 X13.617 Y62.026 F1000
G1 X13.875 Y62.284 F1000
G1 X13.875 Y64.086 F1000
G1 X13.746 Y64.215 F1000
G1 X11.043 Y64.215 F1000
G1 X11.043 Y64.344 F1000
G1 X10.914 Y64.472 F1000
G1 X10.914 Y65.760 F1000
G1 X11.043 Y65.889 F1000
G1 X11.043 Y66.146 F1000
G1 X11.171 Y66.275 F1000
G1 X11.300 Y66.275 F1000
G1 X11.429 Y66.404 F1000
G1 X11.686 Y66.404 F1000
G1 X11.815 Y66.532 F1000
G1 X11.944 Y66.532 F1000
G1 X12.072 Y66.404 F1000
G1 X12.330 Y66.404 F1000
G1 X12.459 Y66.275 F1000
G1 X12.588 Y66.275 F1000
G1 X12.716 Y66.146 F1000
G1 X12.845 Y66.146 F1000
G1 X12.974 Y66.017 F1000
G1 X13.231 Y66.017 F1000
G1 X13.360 Y66.146 F1000
G1 X13.489 Y66.146 F1000
G1 X13.617 Y66.275 F1000
G1 X13.617 Y66.404 F1000
G1 X13.746 Y66.404 F1000
G1 X13.875 Y66.532 F1000
G1 X14.004 Y66.532 F1000
G1 X14.261 Y66.790 F1000
G1 X13.875 Y67.176 F1000
G1 X13.875 Y68.464 F1000
G1 X14.133 Y68.721 F1000
G1 X14.004 Y68.850 F1000
G1 X13.875 Y68.850 F1000
G1 X13.617 Y69.108 F1000
G1 X13.489 Y69.108 F1000
G1 X13.360 Y69.236 F1000
G1 X12.845 Y69.236 F1000
G1 X12.716 Y69.365 F1000
G1 X12.459 Y69.365 F1000
G1 X12.330 Y69.494 F1000
G1 X12.072 Y69.494 F1000
G1 X11.944 Y69.623 F1000
G1 X11.686 Y69.623 F1000
G1 X11.300 Y70.009 F1000
G1 X11.300 Y70.138 F1000
G1 X11.171 Y70.266 F1000
G1 X11.300 Y70.395 F1000
G1 X11.300 Y70.524 F1000
G1 X11.558 Y70.781 F1000
G1 X11.815 Y70.781 F1000
G1 X11.944 Y70.910 F1000
G1 X12.201 Y70.910 F1000
G1 X12.330 Y71.039 F1000
G1 X12.459 Y71.039 F1000
G1 X12.588 Y71.168 F1000
G1 X12.845 Y71.168 F1000
G1 X12.974 Y71.296 F1000
G1 X13.489 Y71.296 F1000
G1 X13.746 Y71.554 F1000
G1 X13.875 Y71.554 F1000
G1 X14.004 Y71.683 F1000
G1 X14.133 Y71.683 F1000
G1 X14.261 Y71.811 F1000
G1 X13.875 Y72.198 F1000
G1 X13.875 Y73.614 F1000
G1 X13.746 Y73.743 F1000
G1 X12.845 Y73.743 F1000
G1 X12.716 Y73.614 F1000
G1 X11.944 Y73.614 F1000
G1 X11.815 Y73.485 F1000
G1 X11.815 Y73.356 F1000
G1 X11.429 Y73.356 F1000
G1 X11.300 Y73.227 F1000
G1 X11.043 Y73.227 F1000
G1 X11.171 Y73.227 F1000
G1 X11.300 Y73.356 F1000
G1 X11.686 Y73.356 F1000
G1 X11.815 Y73.485 F1000
G1 X11.815 Y73.614 F1000
G1 X11.429 Y74.000 F1000
G1 X7.695 Y74.000 F1000
G1 X7.566 Y73.871 F1000
G1 X7.566 Y16.320 F1000
G1 X7.695 Y16.191 F1000
G0 Z3.0 ; Pen up

G0 X30.741 Y35.375 F3000 ; Travel to line 40
G0 Z0.0 ; Pen down
G1 X31.385 Y35.375 F1000
G1 X31.514 Y35.504 F1000
G1 X31.643 Y35.504 F1000
G1 X31.771 Y35.633 F1000
G1 X31.900 Y35.633 F1000
G1 X32.029 Y35.504 F1000
G1 X32.286 Y35.504 F1000
G1 X32.415 Y35.375 F1000
G1 X33.059 Y35.375 F1000
G1 X32.415 Y35.375 F1000
G1 X32.286 Y35.504 F1000
G1 X32.157 Y35.504 F1000
G1 X31.900 Y35.761 F1000
G1 X31.900 Y112.368 F1000
G1 X32.029 Y112.496 F1000
G1 X32.157 Y112.496 F1000
G1 X32.286 Y112.625 F1000
G1 X33.059 Y112.625 F1000
G1 X32.286 Y112.625 F1000
G1 X32.157 Y112.496 F1000
G1 X32.029 Y112.496 F1000
G1 X31.900 Y112.368 F1000
G1 X31.771 Y112.496 F1000
G1 X31.643 Y112.496 F1000
G1 X31.514 Y112.625 F1000
G1 X30.741 Y112.625 F1000
G1 X31.514 Y112.625 F1000
G1 X31.643 Y112.496 F1000
G1 X31.771 Y112.496 F1000
G1 X31.900 Y112.368 F1000
G1 X31.900 Y35.761 F1000
G1 X31.643 Y35.504 F1000
G1 X31.514 Y35.504 F1000
G1 X31.385 Y35.375 F1000
G0 Z3.0 ; Pen up

G0 X39.754 Y35.633 F3000 ; Travel to line 41
G0 Z0.0 ; Pen down
G1 X39.883 Y35.504 F1000
G1 X55.075 Y35.504 F1000
G1 X55.204 Y35.375 F1000
G1 X55.204 Y34.989 F1000
G1 X55.075 Y34.860 F1000
G1 X54.946 Y34.860 F1000
G1 X54.818 Y34.731 F1000
G1 X54.818 Y34.088 F1000
G1 X54.946 Y33.959 F1000
G1 X54.946 Y33.830 F1000
G1 X55.075 Y33.701 F1000
G1 X54.946 Y33.573 F1000
G1 X54.818 Y33.573 F1000
G1 X56.620 Y33.573 F1000
G1 X55.204 Y33.573 F1000
G1 X54.946 Y33.830 F1000
G1 X54.946 Y33.959 F1000
G1 X54.818 Y34.088 F1000
G1 X54.818 Y34.602 F1000
G1 X55.204 Y34.989 F1000
G1 X56.620 Y34.989 F1000
G1 X55.333 Y34.989 F1000
G1 X55.204 Y35.117 F1000
G1 X55.204 Y35.375 F1000
G1 X55.333 Y35.504 F1000
G1 X71.555 Y35.504 F1000
G1 X71.555 Y112.368 F1000
G1 X59.839 Y112.368 F1000
G1 X59.710 Y112.496 F1000
G1 X59.710 Y112.754 F1000
G1 X59.581 Y112.883 F1000
G1 X59.581 Y113.140 F1000
G1 X59.710 Y113.269 F1000
G1 X60.483 Y113.269 F1000
G1 X59.710 Y113.269 F1000
G1 X59.581 Y113.140 F1000
G1 X59.581 Y112.883 F1000
G1 X59.710 Y112.754 F1000
G1 X59.710 Y112.496 F1000
G1 X59.581 Y112.368 F1000
G1 X58.680 Y112.368 F1000
G1 X58.551 Y112.496 F1000
G1 X58.551 Y113.269 F1000
G1 X58.551 Y112.496 F1000
G1 X58.422 Y112.368 F1000
G1 X45.676 Y112.368 F1000
G1 X45.547 Y112.496 F1000
G1 X45.547 Y112.754 F1000
G1 X45.419 Y112.883 F1000
G1 X45.419 Y113.140 F1000
G1 X45.547 Y113.269 F1000
G1 X46.320 Y113.269 F1000
G1 X45.547 Y113.269 F1000
G1 X45.419 Y113.140 F1000
G1 X45.419 Y112.883 F1000
G1 X45.547 Y112.754 F1000
G1 X45.547 Y112.496 F1000
G1 X45.419 Y112.368 F1000
G1 X44.517 Y112.368 F1000
G1 X44.389 Y112.496 F1000
G1 X44.389 Y113.269 F1000
G1 X44.389 Y112.496 F1000
G1 X44.260 Y112.368 F1000
G1 X39.754 Y112.368 F1000
G0 Z3.0 ; Pen up

G0 X42.715 Y111.209 F3000 ; Travel to line 42
G0 Z0.0 ; Pen down
G1 X43.101 Y111.595 F1000
G1 X43.359 Y111.595 F1000
G1 X43.488 Y111.724 F1000
G1 X43.745 Y111.724 F1000
G1 X43.874 Y111.595 F1000
G1 X44.131 Y111.595 F1000
G1 X44.389 Y111.338 F1000
G1 X44.389 Y110.694 F1000
G1 X44.002 Y110.308 F1000
G1 X43.874 Y110.308 F1000
G1 X43.745 Y110.179 F1000
G1 X43.488 Y110.179 F1000
G1 X43.359 Y110.308 F1000
G1 X43.230 Y110.308 F1000
G1 X42.715 Y110.823 F1000
G1 X42.715 Y110.823 F1000
G1 X42.715 Y111.209 F1000
G1 X43.101 Y111.595 F1000
G1 X43.359 Y111.595 F1000
G1 X43.488 Y111.724 F1000
G1 X43.745 Y111.724 F1000
G1 X43.874 Y111.595 F1000
G1 X44.131 Y111.595 F1000
G1 X44.389 Y111.338 F1000
G1 X44.389 Y110.694 F1000
G1 X44.002 Y110.308 F1000
G1 X43.874 Y110.308 F1000
G1 X43.745 Y110.179 F1000
G1 X43.488 Y110.179 F1000
G1 X43.359 Y110.308 F1000
G1 X43.230 Y110.308 F1000
G0 Z3.0 ; Pen up

G0 X45.161 Y110.179 F3000 ; Travel to line 43
G0 Z0.0 ; Pen down
G1 X45.290 Y110.308 F1000
G1 X45.676 Y110.308 F1000
G1 X46.191 Y109.793 F1000
G1 X46.320 Y109.921 F1000
G1 X46.320 Y110.436 F1000
G1 X46.320 Y109.793 F1000
G1 X46.062 Y109.793 F1000
G1 X45.547 Y110.308 F1000
G1 X45.419 Y110.308 F1000
G1 X45.161 Y110.050 F1000
G1 X45.161 Y109.793 F1000
G1 X45.290 Y109.664 F1000
G1 X45.161 Y109.793 F1000
G0 Z3.0 ; Pen up

G0 X45.547 Y108.891 F3000 ; Travel to line 44
G0 Z0.0 ; Pen down
G1 X45.419 Y109.020 F1000
G1 X45.419 Y109.149 F1000
G1 X45.547 Y109.278 F1000
G1 X45.934 Y109.278 F1000
G1 X46.320 Y108.891 F1000
G1 X46.320 Y108.634 F1000
G1 X46.191 Y108.505 F1000
G1 X46.062 Y108.505 F1000
G1 X45.676 Y108.891 F1000
G0 Z3.0 ; Pen up

G0 X45.161 Y108.634 F3000 ; Travel to line 45
G0 Z0.0 ; Pen down
G1 X45.161 Y108.891 F1000
G1 X45.290 Y109.020 F1000
G1 X45.419 Y109.020 F1000
G1 X45.805 Y108.634 F1000
G1 X45.934 Y108.634 F1000
G1 X46.062 Y108.505 F1000
G1 X46.062 Y108.248 F1000
G1 X45.934 Y108.119 F1000
G1 X45.805 Y108.119 F1000
G1 X45.676 Y108.248 F1000
G1 X45.547 Y108.248 F1000
G0 Z3.0 ; Pen up

G0 X44.646 Y107.861 F3000 ; Travel to line 46
G0 Z0.0 ; Pen down
G1 X44.646 Y107.346 F1000
G1 X44.904 Y107.089 F1000
G1 X45.161 Y107.089 F1000
G1 X45.290 Y107.218 F1000
G1 X45.290 Y107.604 F1000
G1 X45.419 Y107.733 F1000
G1 X45.419 Y107.861 F1000
G1 X45.676 Y108.119 F1000
G1 X45.547 Y108.248 F1000
G1 X45.419 Y108.248 F1000
G1 X45.161 Y108.505 F1000
G1 X45.161 Y109.020 F1000
G1 X45.290 Y109.149 F1000
G1 X45.161 Y109.278 F1000
G1 X45.290 Y109.149 F1000
G1 X45.419 Y109.278 F1000
G1 X46.062 Y109.278 F1000
G1 X46.320 Y109.020 F1000
G1 X46.320 Y108.505 F1000
G1 X46.191 Y108.376 F1000
G1 X46.320 Y108.248 F1000
G1 X46.191 Y108.376 F1000
G1 X45.934 Y108.119 F1000
G1 X46.062 Y107.990 F1000
G1 X46.191 Y107.990 F1000
G1 X46.191 Y107.861 F1000
G1 X46.320 Y107.733 F1000
G1 X46.320 Y107.089 F1000
G1 X46.320 Y107.733 F1000
G1 X46.062 Y107.990 F1000
G1 X45.934 Y107.990 F1000
G1 X45.805 Y108.119 F1000
G1 X45.676 Y107.990 F1000
G1 X45.547 Y107.990 F1000
G1 X45.419 Y107.861 F1000
G1 X45.419 Y107.733 F1000
G1 X45.290 Y107.604 F1000
G1 X45.290 Y107.089 F1000
G1 X44.775 Y107.089 F1000
G1 X44.646 Y107.218 F1000
G0 Z3.0 ; Pen up

G0 X44.904 Y106.316 F3000 ; Travel to line 47
G0 Z0.0 ; Pen down
G1 X46.320 Y106.316 F1000
G1 X46.062 Y106.316 F1000
G1 X45.934 Y106.188 F1000
G1 X45.934 Y105.544 F1000
G1 X45.676 Y105.544 F1000
G1 X45.547 Y105.672 F1000
G1 X45.419 Y105.672 F1000
G1 X45.290 Y105.801 F1000
G1 X45.161 Y105.801 F1000
G1 X44.904 Y106.059 F1000
G0 Z3.0 ; Pen up

G0 X45.032 Y105.930 F3000 ; Travel to line 48
G0 Z0.0 ; Pen down
G1 X44.904 Y106.059 F1000
G1 X44.904 Y106.188 F1000
G1 X45.032 Y106.316 F1000
G1 X45.805 Y106.316 F1000
G1 X45.934 Y106.188 F1000
G1 X45.934 Y105.672 F1000
G1 X45.805 Y105.544 F1000
G1 X45.676 Y105.544 F1000
G1 X45.419 Y105.801 F1000
G1 X45.290 Y105.801 F1000
G1 X45.161 Y105.930 F1000
G0 Z3.0 ; Pen up

G0 X45.032 Y103.999 F3000 ; Travel to line 49
G0 Z0.0 ; Pen down
G1 X44.904 Y104.127 F1000
G1 X44.775 Y103.999 F1000
G1 X44.904 Y103.870 F1000
G0 Z3.0 ; Pen up

G0 X44.646 Y101.038 F3000 ; Travel to line 50
G0 Z0.0 ; Pen down
G1 X46.320 Y101.038 F1000
G1 X46.449 Y101.166 F1000
G1 X46.449 Y101.295 F1000
G1 X46.578 Y101.295 F1000
G1 X46.964 Y101.681 F1000
G1 X47.093 Y101.681 F1000
G1 X47.350 Y101.939 F1000
G1 X47.479 Y101.939 F1000
G1 X47.608 Y102.067 F1000
G1 X47.865 Y102.067 F1000
G1 X47.994 Y102.196 F1000
G1 X48.509 Y102.196 F1000
G1 X48.638 Y102.325 F1000
G1 X48.638 Y102.969 F1000
G1 X48.638 Y102.325 F1000
G1 X48.766 Y102.196 F1000
G1 X49.281 Y102.196 F1000
G1 X49.410 Y102.067 F1000
G1 X49.668 Y102.067 F1000
G1 X49.796 Y101.939 F1000
G1 X49.925 Y101.939 F1000
G1 X50.183 Y101.681 F1000
G1 X50.311 Y101.681 F1000
G1 X50.569 Y101.424 F1000
G1 X50.569 Y101.295 F1000
G1 X50.826 Y101.038 F1000
G1 X50.826 Y100.909 F1000
G1 X50.955 Y100.780 F1000
G1 X50.955 Y100.523 F1000
G1 X51.084 Y100.394 F1000
G1 X51.084 Y99.879 F1000
G1 X51.212 Y99.750 F1000
G1 X51.856 Y99.750 F1000
G1 X51.212 Y99.750 F1000
G1 X51.084 Y99.621 F1000
G1 X51.084 Y99.106 F1000
G1 X50.955 Y98.978 F1000
G1 X50.955 Y98.720 F1000
G1 X50.826 Y98.591 F1000
G1 X50.826 Y98.463 F1000
G1 X50.569 Y98.205 F1000
G1 X50.569 Y98.076 F1000
G1 X50.311 Y97.819 F1000
G1 X50.183 Y97.819 F1000
G1 X49.925 Y97.561 F1000
G1 X49.796 Y97.561 F1000
G1 X49.668 Y97.433 F1000
G1 X49.539 Y97.433 F1000
G1 X49.410 Y97.304 F1000
G1 X49.153 Y97.304 F1000
G1 X49.024 Y97.175 F1000
G1 X48.766 Y97.175 F1000
G1 X48.638 Y97.046 F1000
G1 X48.638 Y96.531 F1000
G1 X48.638 Y97.046 F1000
G1 X48.509 Y97.175 F1000
G1 X48.251 Y97.175 F1000
G1 X48.123 Y97.304 F1000
G1 X47.865 Y97.304 F1000
G1 X47.736 Y97.433 F1000
G1 X47.608 Y97.433 F1000
G1 X47.479 Y97.561 F1000
G1 X47.350 Y97.561 F1000
G1 X47.093 Y97.819 F1000
G1 X46.964 Y97.819 F1000
G1 X46.706 Y98.076 F1000
G1 X46.706 Y98.205 F1000
G1 X46.449 Y98.463 F1000
G1 X46.449 Y98.591 F1000
G1 X46.062 Y98.978 F1000
G1 X45.934 Y98.849 F1000
G1 X45.934 Y98.076 F1000
G1 X46.191 Y97.819 F1000
G1 X46.449 Y97.819 F1000
G1 X46.191 Y97.819 F1000
G1 X46.062 Y97.948 F1000
G1 X45.934 Y97.948 F1000
G1 X45.805 Y98.076 F1000
G1 X45.547 Y98.076 F1000
G1 X45.419 Y98.205 F1000
G1 X45.161 Y98.205 F1000
G1 X45.032 Y98.334 F1000
G1 X44.904 Y98.334 F1000
G1 X44.904 Y98.591 F1000
G1 X45.032 Y98.720 F1000
G1 X45.290 Y98.720 F1000
G1 X45.419 Y98.849 F1000
G1 X45.934 Y98.849 F1000
G1 X46.191 Y99.106 F1000
G1 X46.062 Y99.235 F1000
G1 X46.062 Y99.621 F1000
G1 X45.934 Y99.750 F1000
G1 X45.419 Y99.750 F1000
G1 X45.934 Y99.750 F1000
G1 X46.062 Y99.879 F1000
G1 X46.062 Y100.136 F1000
G1 X46.191 Y100.265 F1000
G1 X46.191 Y100.523 F1000
G1 X46.320 Y100.651 F1000
G1 X46.320 Y100.909 F1000
G1 X46.191 Y101.038 F1000
G1 X44.775 Y101.038 F1000
G1 X44.646 Y100.909 F1000
G1 X44.775 Y100.780 F1000
G1 X44.775 Y100.651 F1000
G1 X44.775 Y100.780 F1000
G1 X44.646 Y100.909 F1000
G0 Z3.0 ; Pen up

G0 X46.191 Y99.750 F3000 ; Travel to line 51
G0 Z0.0 ; Pen down
G1 X46.062 Y99.879 F1000
G1 X46.062 Y100.136 F1000
G1 X46.191 Y100.265 F1000
G1 X46.191 Y100.394 F1000
G1 X46.320 Y100.523 F1000
G1 X46.320 Y101.038 F1000
G1 X46.578 Y101.295 F1000
G1 X46.706 Y101.295 F1000
G1 X47.350 Y101.939 F1000
G1 X47.479 Y101.939 F1000
G1 X47.608 Y102.067 F1000
G1 X47.865 Y102.067 F1000
G1 X47.994 Y102.196 F1000
G1 X48.509 Y102.196 F1000
G1 X48.638 Y102.067 F1000
G1 X48.638 Y99.879 F1000
G1 X48.509 Y99.750 F1000
G0 Z3.0 ; Pen up

G0 X48.766 Y99.750 F3000 ; Travel to line 52
G0 Z0.0 ; Pen down
G1 X48.638 Y99.879 F1000
G1 X48.638 Y102.067 F1000
G1 X48.766 Y102.196 F1000
G1 X49.281 Y102.196 F1000
G1 X49.410 Y102.067 F1000
G1 X49.668 Y102.067 F1000
G1 X49.796 Y101.939 F1000
G1 X49.925 Y101.939 F1000
G1 X50.826 Y101.038 F1000
G1 X50.826 Y100.909 F1000
G1 X50.955 Y100.780 F1000
G1 X50.955 Y100.523 F1000
G1 X51.084 Y100.394 F1000
G1 X51.084 Y99.879 F1000
G1 X50.955 Y99.750 F1000
G0 Z3.0 ; Pen up

G0 X49.024 Y97.175 F3000 ; Travel to line 53
G0 Z0.0 ; Pen down
G1 X49.153 Y97.304 F1000
G1 X49.410 Y97.304 F1000
G1 X49.539 Y97.433 F1000
G1 X49.668 Y97.433 F1000
G1 X49.796 Y97.561 F1000
G1 X49.925 Y97.561 F1000
G1 X50.826 Y98.463 F1000
G1 X50.826 Y98.591 F1000
G1 X50.955 Y98.720 F1000
G1 X50.955 Y98.978 F1000
G1 X51.084 Y99.106 F1000
G1 X51.084 Y99.621 F1000
G1 X50.955 Y99.750 F1000
G1 X48.766 Y99.750 F1000
G1 X48.638 Y99.621 F1000
G1 X48.638 Y97.304 F1000
G1 X48.766 Y97.175 F1000
G0 Z3.0 ; Pen up

G0 X46.191 Y98.978 F3000 ; Travel to line 54
G0 Z0.0 ; Pen down
G1 X46.320 Y98.849 F1000
G1 X46.320 Y98.720 F1000
G1 X46.449 Y98.591 F1000
G1 X46.449 Y98.463 F1000
G1 X47.350 Y97.561 F1000
G1 X47.479 Y97.561 F1000
G1 X47.608 Y97.433 F1000
G1 X47.736 Y97.433 F1000
G1 X47.865 Y97.304 F1000
G1 X48.123 Y97.304 F1000
G1 X48.251 Y97.175 F1000
G1 X48.509 Y97.175 F1000
G1 X48.638 Y97.304 F1000
G1 X48.638 Y99.621 F1000
G1 X48.509 Y99.750 F1000
G1 X46.191 Y99.750 F1000
G1 X46.062 Y99.621 F1000
G1 X46.062 Y99.235 F1000
G1 X46.191 Y99.106 F1000
G0 Z3.0 ; Pen up

G0 X45.161 Y98.205 F3000 ; Travel to line 55
G0 Z0.0 ; Pen down
G1 X45.419 Y98.205 F1000
G1 X45.547 Y98.076 F1000
G1 X45.805 Y98.076 F1000
G1 X45.934 Y98.205 F1000
G1 X45.934 Y98.720 F1000
G1 X45.805 Y98.849 F1000
G1 X45.419 Y98.849 F1000
G1 X45.290 Y98.720 F1000
G1 X45.032 Y98.720 F1000
G1 X44.904 Y98.591 F1000
G1 X44.904 Y98.463 F1000
G0 Z3.0 ; Pen up

G0 X44.646 Y95.115 F3000 ; Travel to line 56
G0 Z0.0 ; Pen down
G1 X45.032 Y95.501 F1000
G1 X45.290 Y95.501 F1000
G1 X45.419 Y95.630 F1000
G1 X45.676 Y95.630 F1000
G1 X45.805 Y95.501 F1000
G1 X46.062 Y95.501 F1000
G1 X46.320 Y95.244 F1000
G1 X46.320 Y94.600 F1000
G1 X45.934 Y94.214 F1000
G1 X45.805 Y94.214 F1000
G1 X45.676 Y94.085 F1000
G1 X45.419 Y94.085 F1000
G1 X45.290 Y94.214 F1000
G1 X45.161 Y94.214 F1000
G1 X44.646 Y94.729 F1000
G1 X44.646 Y94.729 F1000
G1 X44.646 Y95.115 F1000
G1 X45.032 Y95.501 F1000
G1 X45.290 Y95.501 F1000
G1 X45.419 Y95.630 F1000
G1 X45.676 Y95.630 F1000
G1 X45.805 Y95.501 F1000
G1 X46.062 Y95.501 F1000
G1 X46.320 Y95.244 F1000
G1 X46.320 Y94.600 F1000
G1 X45.934 Y94.214 F1000
G1 X45.805 Y94.214 F1000
G1 X45.676 Y94.085 F1000
G1 X45.419 Y94.085 F1000
G1 X45.290 Y94.214 F1000
G1 X45.161 Y94.214 F1000
G0 Z3.0 ; Pen up

G0 X44.904 Y92.411 F3000 ; Travel to line 57
G0 Z0.0 ; Pen down
G1 X45.032 Y92.540 F1000
G1 X45.032 Y92.669 F1000
G1 X45.161 Y92.669 F1000
G1 X45.290 Y92.797 F1000
G1 X45.419 Y92.797 F1000
G1 X45.547 Y92.926 F1000
G1 X45.676 Y92.926 F1000
G1 X46.062 Y93.312 F1000
G1 X45.934 Y93.441 F1000
G1 X44.775 Y93.441 F1000
G1 X46.062 Y93.441 F1000
G1 X46.062 Y93.184 F1000
G1 X45.934 Y93.184 F1000
G1 X45.676 Y92.926 F1000
G1 X45.547 Y92.926 F1000
G1 X45.419 Y92.797 F1000
G1 X45.290 Y92.797 F1000
G1 X45.032 Y92.540 F1000
G1 X45.032 Y92.411 F1000
G1 X45.161 Y92.282 F1000
G1 X46.320 Y92.282 F1000
G1 X45.032 Y92.282 F1000
G1 X44.904 Y92.411 F1000
G1 X44.775 Y92.411 F1000
G0 Z3.0 ; Pen up

G0 X44.646 Y90.995 F3000 ; Travel to line 58
G0 Z0.0 ; Pen down
G1 X44.646 Y90.480 F1000
G1 X44.775 Y90.351 F1000
G1 X46.320 Y90.351 F1000
G1 X44.775 Y90.351 F1000
G1 X44.646 Y90.222 F1000
G1 X44.646 Y89.836 F1000
G0 Z3.0 ; Pen up

G0 X44.646 Y88.935 F3000 ; Travel to line 59
G0 Z0.0 ; Pen down
G1 X44.775 Y89.064 F1000
G1 X44.775 Y89.192 F1000
G1 X45.290 Y89.192 F1000
G1 X45.419 Y89.064 F1000
G1 X45.547 Y89.064 F1000
G1 X45.676 Y89.192 F1000
G1 X45.805 Y89.192 F1000
G1 X45.934 Y89.321 F1000
G1 X46.062 Y89.321 F1000
G1 X46.191 Y89.450 F1000
G1 X46.320 Y89.450 F1000
G1 X46.191 Y89.450 F1000
G1 X46.062 Y89.321 F1000
G1 X45.934 Y89.321 F1000
G1 X45.676 Y89.064 F1000
G1 X45.547 Y89.064 F1000
G1 X45.419 Y88.935 F1000
G1 X45.419 Y88.420 F1000
G1 X45.547 Y88.291 F1000
G1 X46.320 Y88.291 F1000
G1 X44.775 Y88.291 F1000
G1 X44.646 Y88.420 F1000
G0 Z3.0 ; Pen up

G0 X44.646 Y88.549 F3000 ; Travel to line 60
G0 Z0.0 ; Pen down
G1 X44.646 Y88.935 F1000
G1 X44.904 Y89.192 F1000
G1 X45.290 Y89.192 F1000
G1 X45.419 Y89.064 F1000
G1 X45.419 Y88.420 F1000
G1 X45.290 Y88.291 F1000
G1 X44.904 Y88.291 F1000
G0 Z3.0 ; Pen up

G0 X44.904 Y87.261 F3000 ; Travel to line 61
G0 Z0.0 ; Pen down
G1 X45.032 Y87.390 F1000
G1 X45.290 Y87.390 F1000
G1 X45.419 Y87.519 F1000
G1 X45.805 Y87.519 F1000
G1 X45.934 Y87.648 F1000
G1 X46.062 Y87.648 F1000
G1 X46.191 Y87.776 F1000
G1 X46.320 Y87.776 F1000
G1 X46.191 Y87.776 F1000
G1 X45.934 Y87.519 F1000
G1 X45.934 Y86.746 F1000
G1 X46.191 Y86.489 F1000
G1 X46.449 Y86.489 F1000
G1 X46.191 Y86.489 F1000
G1 X46.062 Y86.618 F1000
G1 X45.934 Y86.618 F1000
G1 X45.805 Y86.746 F1000
G1 X45.547 Y86.746 F1000
G1 X45.419 Y86.875 F1000
G1 X45.161 Y86.875 F1000
G1 X45.032 Y87.004 F1000
G1 X44.904 Y87.004 F1000
G0 Z3.0 ; Pen up

G0 X44.904 Y87.133 F3000 ; Travel to line 62
G0 Z0.0 ; Pen down
G1 X44.904 Y87.261 F1000
G1 X45.032 Y87.390 F1000
G1 X45.290 Y87.390 F1000
G1 X45.419 Y87.519 F1000
G1 X45.805 Y87.519 F1000
G1 X45.934 Y87.390 F1000
G1 X45.934 Y86.875 F1000
G1 X45.805 Y86.746 F1000
G1 X45.547 Y86.746 F1000
G1 X45.419 Y86.875 F1000
G1 X45.161 Y86.875 F1000
G0 Z3.0 ; Pen up

G0 X44.646 Y85.845 F3000 ; Travel to line 63
G0 Z0.0 ; Pen down
G1 X44.904 Y86.103 F1000
G1 X45.419 Y86.103 F1000
G1 X45.547 Y85.974 F1000
G1 X45.547 Y85.330 F1000
G1 X45.676 Y85.201 F1000
G1 X46.320 Y85.201 F1000
G1 X44.775 Y85.201 F1000
G1 X44.646 Y85.330 F1000
G0 Z3.0 ; Pen up

G0 X44.646 Y85.459 F3000 ; Travel to line 64
G0 Z0.0 ; Pen down
G1 X44.646 Y85.845 F1000
G1 X44.904 Y86.103 F1000
G1 X45.419 Y86.103 F1000
G1 X45.547 Y85.974 F1000
G1 X45.547 Y85.330 F1000
G1 X45.419 Y85.201 F1000
G1 X44.904 Y85.201 F1000
G0 Z3.0 ; Pen up

G0 X46.062 Y84.300 F3000 ; Travel to line 65
G0 Z0.0 ; Pen down
G1 X46.320 Y84.043 F1000
G1 X46.320 Y83.914 F1000
G1 X46.964 Y83.270 F1000
G1 X46.964 Y83.141 F1000
G1 X47.608 Y82.498 F1000
G1 X47.608 Y82.369 F1000
G1 X48.251 Y81.725 F1000
G1 X48.251 Y81.596 F1000
G1 X48.895 Y80.953 F1000
G1 X48.895 Y80.824 F1000
G1 X49.539 Y80.180 F1000
G1 X49.539 Y80.051 F1000
G1 X50.183 Y79.407 F1000
G1 X50.183 Y79.279 F1000
G1 X50.826 Y78.635 F1000
G1 X50.826 Y78.506 F1000
G1 X51.470 Y77.862 F1000
G1 X51.470 Y77.734 F1000
G1 X52.114 Y77.090 F1000
G1 X52.114 Y76.961 F1000
G1 X52.371 Y76.704 F1000
G1 X52.371 Y76.575 F1000
G1 X52.242 Y76.446 F1000
G1 X51.856 Y76.446 F1000
G1 X51.727 Y76.317 F1000
G1 X51.470 Y76.317 F1000
G1 X51.341 Y76.189 F1000
G1 X51.212 Y76.189 F1000
G1 X50.955 Y75.931 F1000
G1 X50.826 Y75.931 F1000
G1 X50.569 Y75.674 F1000
G1 X50.569 Y75.545 F1000
G1 X50.311 Y75.288 F1000
G1 X50.311 Y75.159 F1000
G1 X50.183 Y75.030 F1000
G1 X50.183 Y74.901 F1000
G1 X50.054 Y74.773 F1000
G1 X50.054 Y74.515 F1000
G1 X49.925 Y74.386 F1000
G1 X49.925 Y73.614 F1000
G1 X50.054 Y73.485 F1000
G1 X50.054 Y73.227 F1000
G1 X50.183 Y73.099 F1000
G1 X50.183 Y72.970 F1000
G1 X50.311 Y72.841 F1000
G1 X50.311 Y72.713 F1000
G1 X50.569 Y72.455 F1000
G1 X50.569 Y72.326 F1000
G1 X50.826 Y72.069 F1000
G1 X50.955 Y72.069 F1000
G1 X51.212 Y71.811 F1000
G1 X51.341 Y71.811 F1000
G1 X51.470 Y71.683 F1000
G1 X51.599 Y71.683 F1000
G1 X51.727 Y71.554 F1000
G1 X51.985 Y71.554 F1000
G1 X52.114 Y71.425 F1000
G1 X52.886 Y71.425 F1000
G1 X53.015 Y71.554 F1000
G1 X53.273 Y71.554 F1000
G1 X53.401 Y71.683 F1000
G1 X53.530 Y71.683 F1000
G1 X53.659 Y71.811 F1000
G1 X53.788 Y71.811 F1000
G1 X54.045 Y72.069 F1000
G1 X54.174 Y72.069 F1000
G1 X54.431 Y72.326 F1000
G1 X54.431 Y72.455 F1000
G1 X54.689 Y72.713 F1000
G1 X54.689 Y72.970 F1000
G1 X54.818 Y73.099 F1000
G1 X54.818 Y75.030 F1000
G1 X54.689 Y75.159 F1000
G1 X54.689 Y75.288 F1000
G1 X54.431 Y75.545 F1000
G1 X54.431 Y75.674 F1000
G1 X54.174 Y75.931 F1000
G1 X54.045 Y75.931 F1000
G1 X53.788 Y76.189 F1000
G1 X53.659 Y76.189 F1000
G1 X53.530 Y76.317 F1000
G1 X53.273 Y76.317 F1000
G1 X53.144 Y76.446 F1000
G1 X52.500 Y76.446 F1000
G1 X52.371 Y76.575 F1000
G1 X52.371 Y76.704 F1000
G1 X52.114 Y76.961 F1000
G1 X52.114 Y77.090 F1000
G1 X51.470 Y77.734 F1000
G1 X51.470 Y77.862 F1000
G1 X50.826 Y78.506 F1000
G1 X50.826 Y78.635 F1000
G1 X50.183 Y79.279 F1000
G1 X50.183 Y79.407 F1000
G1 X49.539 Y80.051 F1000
G1 X49.539 Y80.180 F1000
G1 X48.895 Y80.824 F1000
G1 X48.895 Y80.953 F1000
G1 X48.251 Y81.596 F1000
G1 X48.251 Y81.725 F1000
G1 X47.608 Y82.369 F1000
G1 X47.608 Y82.498 F1000
G1 X46.964 Y83.141 F1000
G1 X46.964 Y83.270 F1000
G1 X46.320 Y83.914 F1000
G1 X46.320 Y84.043 F1000
G0 Z3.0 ; Pen up

G0 X50.054 Y73.485 F3000 ; Travel to line 66
G0 Z0.0 ; Pen down
G1 X49.925 Y73.614 F1000
G1 X49.925 Y74.386 F1000
G1 X50.054 Y74.515 F1000
G1 X50.054 Y74.773 F1000
G1 X50.183 Y74.901 F1000
G1 X50.183 Y75.030 F1000
G1 X50.311 Y75.159 F1000
G1 X50.311 Y75.288 F1000
G1 X51.212 Y76.189 F1000
G1 X51.341 Y76.189 F1000
G1 X51.470 Y76.317 F1000
G1 X51.727 Y76.317 F1000
G1 X51.856 Y76.446 F1000
G1 X53.144 Y76.446 F1000
G1 X53.273 Y76.317 F1000
G1 X53.530 Y76.317 F1000
G1 X53.659 Y76.189 F1000
G1 X53.788 Y76.189 F1000
G1 X54.689 Y75.288 F1000
G1 X54.689 Y75.159 F1000
G1 X54.818 Y75.030 F1000
G1 X54.818 Y73.871 F1000
G1 X54.689 Y73.743 F1000
G1 X52.242 Y73.743 F1000
G1 X52.242 Y73.099 F1000
G1 X52.242 Y73.614 F1000
G1 X52.371 Y73.743 F1000
G1 X54.689 Y73.743 F1000
G1 X54.818 Y73.614 F1000
G1 X54.818 Y73.099 F1000
G1 X54.689 Y72.970 F1000
G1 X54.689 Y72.713 F1000
G1 X53.788 Y71.811 F1000
G1 X53.659 Y71.811 F1000
G1 X53.530 Y71.683 F1000
G1 X53.401 Y71.683 F1000
G1 X53.273 Y71.554 F1000
G1 X53.015 Y71.554 F1000
G1 X52.886 Y71.425 F1000
G1 X52.114 Y71.425 F1000
G1 X51.985 Y71.554 F1000
G1 X51.727 Y71.554 F1000
G1 X51.599 Y71.683 F1000
G1 X51.470 Y71.683 F1000
G1 X51.341 Y71.811 F1000
G1 X51.212 Y71.811 F1000
G1 X50.311 Y72.713 F1000
G1 X50.311 Y72.841 F1000
G1 X50.183 Y72.970 F1000
G1 X50.183 Y73.099 F1000
G1 X50.054 Y73.227 F1000
G0 Z3.0 ; Pen up

G0 X56.878 Y65.631 F3000 ; Travel to line 67
G0 Z0.0 ; Pen down
G1 X57.006 Y65.760 F1000
G1 X57.006 Y65.889 F1000
G1 X57.006 Y65.760 F1000
G1 X56.878 Y65.631 F1000
G1 X56.878 Y65.245 F1000
G1 X57.392 Y64.730 F1000
G1 X57.521 Y64.730 F1000
G1 X57.650 Y64.601 F1000
G1 X57.907 Y64.601 F1000
G1 X58.036 Y64.730 F1000
G1 X58.165 Y64.730 F1000
G1 X58.551 Y65.116 F1000
G1 X58.551 Y65.889 F1000
G1 X58.551 Y65.116 F1000
G1 X58.165 Y64.730 F1000
G1 X58.036 Y64.730 F1000
G1 X57.907 Y64.601 F1000
G1 X57.650 Y64.601 F1000
G1 X57.521 Y64.730 F1000
G1 X57.392 Y64.730 F1000
G1 X56.878 Y65.245 F1000
G0 Z3.0 ; Pen up

G0 X56.878 Y63.185 F3000 ; Travel to line 68
G0 Z0.0 ; Pen down
G1 X56.878 Y62.541 F1000
G1 X57.135 Y62.284 F1000
G1 X57.521 Y62.284 F1000
G1 X57.650 Y62.413 F1000
G1 X57.650 Y63.185 F1000
G1 X57.650 Y62.413 F1000
G1 X57.779 Y62.284 F1000
G1 X58.422 Y62.284 F1000
G1 X58.551 Y62.413 F1000
G1 X58.551 Y63.185 F1000
G1 X58.551 Y62.284 F1000
G1 X57.006 Y62.284 F1000
G1 X56.878 Y62.413 F1000
G0 Z3.0 ; Pen up

G0 X57.006 Y60.867 F3000 ; Travel to line 69
G0 Z0.0 ; Pen down
G1 X58.551 Y60.867 F1000
G1 X58.551 Y61.769 F1000
G1 X58.551 Y60.996 F1000
G1 X58.422 Y60.867 F1000
G0 Z3.0 ; Pen up

G0 X59.581 Y60.610 F3000 ; Travel to line 70
G0 Z0.0 ; Pen down
G1 X59.710 Y60.481 F1000
G1 X60.354 Y60.481 F1000
G1 X59.710 Y60.481 F1000
G1 X59.581 Y60.610 F1000
G1 X59.581 Y60.996 F1000
G1 X59.710 Y61.125 F1000
G1 X60.354 Y61.125 F1000
G1 X59.839 Y61.125 F1000
G1 X59.581 Y61.383 F1000
G1 X59.581 Y61.640 F1000
G1 X59.710 Y61.769 F1000
G1 X60.483 Y61.769 F1000
G1 X59.710 Y61.769 F1000
G1 X59.581 Y61.640 F1000
G1 X59.581 Y61.383 F1000
G1 X59.710 Y61.254 F1000
G1 X59.581 Y61.125 F1000
G0 Z3.0 ; Pen up

G0 X59.581 Y62.284 F3000 ; Travel to line 71
G0 Z0.0 ; Pen down
G1 X59.710 Y62.155 F1000
G1 X60.354 Y62.155 F1000
G1 X59.710 Y62.155 F1000
G1 X59.581 Y62.284 F1000
G1 X59.581 Y62.670 F1000
G1 X59.710 Y62.799 F1000
G1 X60.354 Y62.799 F1000
G1 X59.839 Y62.799 F1000
G1 X59.581 Y63.056 F1000
G1 X59.581 Y63.314 F1000
G1 X59.710 Y63.443 F1000
G1 X60.483 Y63.443 F1000
G1 X59.710 Y63.443 F1000
G1 X59.581 Y63.314 F1000
G1 X59.581 Y63.056 F1000
G1 X59.710 Y62.928 F1000
G1 X59.581 Y62.799 F1000
G0 Z3.0 ; Pen up

G0 X59.324 Y59.837 F3000 ; Travel to line 72
G0 Z0.0 ; Pen down
G1 X59.453 Y59.966 F1000
G1 X59.581 Y59.966 F1000
G1 X59.710 Y60.095 F1000
G1 X60.096 Y60.095 F1000
G1 X60.225 Y59.966 F1000
G1 X60.354 Y59.966 F1000
G1 X60.483 Y59.837 F1000
G1 X60.483 Y59.580 F1000
G1 X60.225 Y59.322 F1000
G1 X59.581 Y59.322 F1000
G1 X59.324 Y59.580 F1000
G0 Z3.0 ; Pen up

G0 X59.453 Y59.451 F3000 ; Travel to line 73
G0 Z0.0 ; Pen down
G1 X59.324 Y59.580 F1000
G1 X59.324 Y59.837 F1000
G1 X59.453 Y59.966 F1000
G1 X59.581 Y59.966 F1000
G1 X59.710 Y60.095 F1000
G1 X60.096 Y60.095 F1000
G1 X60.225 Y59.966 F1000
G1 X60.354 Y59.966 F1000
G1 X60.483 Y59.837 F1000
G1 X60.483 Y59.580 F1000
G1 X60.354 Y59.451 F1000
G1 X60.225 Y59.451 F1000
G1 X60.096 Y59.322 F1000
G1 X59.710 Y59.322 F1000
G1 X59.581 Y59.451 F1000
G0 Z3.0 ; Pen up

G0 X59.324 Y58.679 F3000 ; Travel to line 74
G0 Z0.0 ; Pen down
G1 X59.453 Y58.808 F1000
G1 X59.839 Y58.808 F1000
G1 X60.354 Y58.293 F1000
G1 X60.483 Y58.421 F1000
G1 X60.483 Y58.936 F1000
G1 X60.483 Y58.293 F1000
G1 X60.225 Y58.293 F1000
G1 X59.710 Y58.808 F1000
G1 X59.581 Y58.808 F1000
G1 X59.324 Y58.550 F1000
G1 X59.324 Y58.293 F1000
G1 X59.453 Y58.164 F1000
G1 X59.324 Y58.293 F1000
G0 Z3.0 ; Pen up

G0 X59.324 Y57.520 F3000 ; Travel to line 75
G0 Z0.0 ; Pen down
G1 X59.453 Y57.649 F1000
G1 X59.324 Y57.778 F1000
G1 X59.453 Y57.649 F1000
G1 X59.581 Y57.778 F1000
G1 X60.225 Y57.778 F1000
G1 X60.483 Y57.520 F1000
G1 X60.483 Y57.005 F1000
G1 X60.354 Y56.876 F1000
G1 X60.483 Y56.748 F1000
G1 X60.354 Y56.876 F1000
G1 X60.225 Y56.748 F1000
G1 X59.581 Y56.748 F1000
G1 X59.324 Y57.005 F1000
G0 Z3.0 ; Pen up

G0 X59.324 Y57.134 F3000 ; Travel to line 76
G0 Z0.0 ; Pen down
G1 X59.324 Y57.391 F1000
G1 X59.453 Y57.520 F1000
G1 X59.581 Y57.520 F1000
G1 X59.968 Y57.134 F1000
G1 X60.096 Y57.134 F1000
G1 X60.225 Y57.005 F1000
G1 X60.225 Y56.876 F1000
G1 X60.096 Y56.748 F1000
G1 X59.710 Y56.748 F1000
G0 Z3.0 ; Pen up

G0 X59.710 Y57.391 F3000 ; Travel to line 77
G0 Z0.0 ; Pen down
G1 X59.581 Y57.520 F1000
G1 X59.581 Y57.649 F1000
G1 X59.710 Y57.778 F1000
G1 X60.096 Y57.778 F1000
G1 X60.483 Y57.391 F1000
G1 X60.483 Y57.134 F1000
G1 X60.354 Y57.005 F1000
G1 X60.225 Y57.005 F1000
G1 X59.839 Y57.391 F1000
G0 Z3.0 ; Pen up

G0 X57.521 Y56.876 F3000 ; Travel to line 78
G0 Z0.0 ; Pen down
G1 X57.650 Y57.005 F1000
G1 X57.650 Y57.906 F1000
G1 X57.521 Y58.035 F1000
G1 X57.006 Y58.035 F1000
G1 X58.551 Y58.035 F1000
G1 X57.779 Y58.035 F1000
G1 X57.650 Y57.906 F1000
G1 X57.650 Y57.005 F1000
G1 X57.779 Y56.876 F1000
G1 X58.551 Y56.876 F1000
G1 X57.006 Y56.876 F1000
G0 Z3.0 ; Pen up

G0 X57.650 Y55.975 F3000 ; Travel to line 79
G0 Z0.0 ; Pen down
G1 X57.650 Y55.846 F1000
G1 X57.779 Y55.718 F1000
G1 X57.779 Y55.589 F1000
G1 X57.907 Y55.460 F1000
G1 X57.907 Y55.331 F1000
G1 X58.036 Y55.203 F1000
G1 X58.036 Y54.945 F1000
G1 X58.165 Y54.816 F1000
G1 X58.165 Y54.688 F1000
G1 X58.294 Y54.559 F1000
G1 X58.294 Y54.430 F1000
G1 X58.422 Y54.301 F1000
G1 X58.422 Y54.044 F1000
G1 X58.551 Y53.915 F1000
G1 X58.551 Y53.786 F1000
G1 X58.680 Y53.657 F1000
G1 X58.680 Y53.529 F1000
G1 X58.809 Y53.400 F1000
G1 X58.809 Y53.142 F1000
G1 X58.938 Y53.014 F1000
G1 X58.938 Y52.885 F1000
G1 X59.066 Y52.756 F1000
G1 X59.066 Y52.627 F1000
G1 X59.195 Y52.499 F1000
G1 X59.195 Y52.241 F1000
G1 X59.324 Y52.113 F1000
G1 X59.324 Y51.984 F1000
G1 X59.453 Y51.855 F1000
G1 X59.453 Y51.726 F1000
G1 X59.581 Y51.598 F1000
G1 X59.581 Y51.469 F1000
G1 X59.581 Y51.598 F1000
G1 X59.453 Y51.726 F1000
G1 X59.453 Y51.855 F1000
G1 X59.324 Y51.984 F1000
G1 X59.324 Y52.113 F1000
G1 X59.195 Y52.241 F1000
G1 X59.195 Y52.499 F1000
G1 X59.066 Y52.627 F1000
G1 X59.066 Y52.756 F1000
G1 X58.938 Y52.885 F1000
G1 X58.938 Y53.014 F1000
G1 X58.809 Y53.142 F1000
G1 X58.809 Y53.400 F1000
G1 X58.680 Y53.529 F1000
G1 X58.680 Y53.657 F1000
G1 X58.551 Y53.786 F1000
G1 X58.551 Y53.915 F1000
G1 X58.422 Y54.044 F1000
G1 X58.422 Y54.301 F1000
G1 X58.294 Y54.430 F1000
G1 X58.294 Y54.559 F1000
G1 X58.165 Y54.688 F1000
G1 X58.165 Y54.816 F1000
G1 X58.036 Y54.945 F1000
G1 X58.036 Y55.203 F1000
G1 X57.907 Y55.331 F1000
G1 X57.907 Y55.460 F1000
G1 X57.779 Y55.589 F1000
G1 X57.779 Y55.718 F1000
G1 X57.650 Y55.846 F1000
G0 Z3.0 ; Pen up

G0 X57.392 Y58.808 F3000 ; Travel to line 80
G0 Z0.0 ; Pen down
G1 X57.521 Y58.808 F1000
G1 X57.650 Y58.679 F1000
G1 X57.907 Y58.679 F1000
G1 X58.036 Y58.808 F1000
G1 X58.165 Y58.808 F1000
G1 X58.551 Y59.194 F1000
G1 X58.551 Y59.837 F1000
G1 X58.294 Y60.095 F1000
G1 X58.036 Y60.095 F1000
G1 X57.907 Y60.224 F1000
G1 X57.650 Y60.224 F1000
G1 X57.521 Y60.095 F1000
G1 X57.264 Y60.095 F1000
G1 X56.878 Y59.709 F1000
G1 X56.878 Y59.322 F1000
G1 X56.878 Y59.322 F1000
G1 X57.392 Y58.808 F1000
G1 X57.521 Y58.808 F1000
G1 X57.650 Y58.679 F1000
G1 X57.907 Y58.679 F1000
G1 X58.036 Y58.808 F1000
G1 X58.165 Y58.808 F1000
G1 X58.551 Y59.194 F1000
G1 X58.551 Y59.837 F1000
G1 X58.294 Y60.095 F1000
G1 X58.036 Y60.095 F1000
G1 X57.907 Y60.224 F1000
G1 X57.650 Y60.224 F1000
G1 X57.521 Y60.095 F1000
G1 X57.264 Y60.095 F1000
G1 X56.878 Y59.709 F1000
G0 Z3.0 ; Pen up

G0 X45.676 Y57.391 F3000 ; Travel to line 81
G0 Z0.0 ; Pen down
G1 X46.062 Y57.005 F1000
G1 X46.191 Y57.005 F1000
G1 X46.320 Y57.134 F1000
G1 X46.320 Y57.391 F1000
G1 X45.934 Y57.778 F1000
G1 X45.547 Y57.778 F1000
G1 X45.419 Y57.649 F1000
G1 X45.419 Y57.520 F1000
G1 X45.547 Y57.391 F1000
G0 Z3.0 ; Pen up

G0 X45.161 Y57.520 F3000 ; Travel to line 82
G0 Z0.0 ; Pen down
G1 X45.290 Y57.649 F1000
G1 X45.161 Y57.778 F1000
G1 X45.290 Y57.649 F1000
G1 X45.419 Y57.778 F1000
G1 X46.062 Y57.778 F1000
G1 X46.320 Y57.520 F1000
G1 X46.320 Y57.005 F1000
G1 X46.191 Y56.876 F1000
G1 X46.320 Y56.748 F1000
G1 X46.191 Y56.876 F1000
G1 X46.062 Y56.748 F1000
G1 X45.419 Y56.748 F1000
G1 X45.161 Y57.005 F1000
G0 Z3.0 ; Pen up

G0 X45.161 Y57.134 F3000 ; Travel to line 83
G0 Z0.0 ; Pen down
G1 X45.161 Y57.391 F1000
G1 X45.290 Y57.520 F1000
G1 X45.419 Y57.520 F1000
G1 X45.805 Y57.134 F1000
G1 X45.934 Y57.134 F1000
G1 X46.062 Y57.005 F1000
G1 X46.062 Y56.876 F1000
G1 X45.934 Y56.748 F1000
G1 X45.547 Y56.748 F1000
G0 Z3.0 ; Pen up

G0 X45.161 Y58.293 F3000 ; Travel to line 84
G0 Z0.0 ; Pen down
G1 X45.290 Y58.164 F1000
G1 X45.161 Y58.293 F1000
G1 X45.161 Y58.550 F1000
G1 X45.419 Y58.808 F1000
G1 X45.547 Y58.808 F1000
G1 X46.062 Y58.293 F1000
G1 X46.320 Y58.293 F1000
G1 X46.320 Y58.936 F1000
G1 X46.320 Y58.421 F1000
G1 X46.191 Y58.293 F1000
G1 X45.676 Y58.808 F1000
G1 X45.290 Y58.808 F1000
G1 X45.161 Y58.679 F1000
G0 Z3.0 ; Pen up

G0 X45.290 Y59.451 F3000 ; Travel to line 85
G0 Z0.0 ; Pen down
G1 X45.161 Y59.580 F1000
G1 X45.161 Y59.837 F1000
G1 X45.290 Y59.966 F1000
G1 X45.419 Y59.966 F1000
G1 X45.547 Y60.095 F1000
G1 X45.934 Y60.095 F1000
G1 X46.062 Y59.966 F1000
G1 X46.191 Y59.966 F1000
G1 X46.320 Y59.837 F1000
G1 X46.320 Y59.580 F1000
G1 X46.191 Y59.451 F1000
G1 X46.062 Y59.451 F1000
G1 X45.934 Y59.322 F1000
G1 X45.547 Y59.322 F1000
G1 X45.419 Y59.451 F1000
G0 Z3.0 ; Pen up

G0 X45.161 Y59.580 F3000 ; Travel to line 86
G0 Z0.0 ; Pen down
G1 X45.419 Y59.322 F1000
G1 X46.062 Y59.322 F1000
G1 X46.320 Y59.580 F1000
G1 X46.320 Y59.837 F1000
G1 X46.191 Y59.966 F1000
G1 X46.062 Y59.966 F1000
G1 X45.934 Y60.095 F1000
G1 X45.547 Y60.095 F1000
G1 X45.419 Y59.966 F1000
G1 X45.290 Y59.966 F1000
G1 X45.161 Y59.837 F1000
G0 Z3.0 ; Pen up

G0 X45.419 Y60.610 F3000 ; Travel to line 87
G0 Z0.0 ; Pen down
G1 X45.547 Y60.481 F1000
G1 X46.191 Y60.481 F1000
G1 X45.547 Y60.481 F1000
G1 X45.419 Y60.610 F1000
G1 X45.419 Y60.996 F1000
G1 X45.547 Y61.125 F1000
G1 X46.191 Y61.125 F1000
G1 X45.676 Y61.125 F1000
G1 X45.419 Y61.383 F1000
G1 X45.419 Y61.640 F1000
G1 X45.547 Y61.769 F1000
G1 X46.320 Y61.769 F1000
G1 X45.547 Y61.769 F1000
G1 X45.419 Y61.640 F1000
G1 X45.419 Y61.383 F1000
G1 X45.547 Y61.254 F1000
G1 X45.419 Y61.125 F1000
G0 Z3.0 ; Pen up

G0 X45.419 Y62.284 F3000 ; Travel to line 88
G0 Z0.0 ; Pen down
G1 X45.547 Y62.155 F1000
G1 X46.191 Y62.155 F1000
G1 X45.547 Y62.155 F1000
G1 X45.419 Y62.284 F1000
G1 X45.419 Y62.670 F1000
G1 X45.547 Y62.799 F1000
G1 X46.191 Y62.799 F1000
G1 X45.676 Y62.799 F1000
G1 X45.419 Y63.056 F1000
G1 X45.419 Y63.314 F1000
G1 X45.547 Y63.443 F1000
G1 X46.320 Y63.443 F1000
G1 X45.547 Y63.443 F1000
G1 X45.419 Y63.314 F1000
G1 X45.419 Y63.056 F1000
G1 X45.547 Y62.928 F1000
G1 X45.419 Y62.799 F1000
G0 Z3.0 ; Pen up

G0 X44.260 Y60.867 F3000 ; Travel to line 89
G0 Z0.0 ; Pen down
G1 X44.389 Y60.996 F1000
G1 X44.389 Y61.769 F1000
G1 X44.389 Y60.867 F1000
G1 X42.844 Y60.867 F1000
G0 Z3.0 ; Pen up

G0 X42.715 Y59.709 F3000 ; Travel to line 90
G0 Z0.0 ; Pen down
G1 X43.101 Y60.095 F1000
G1 X43.359 Y60.095 F1000
G1 X43.488 Y60.224 F1000
G1 X43.745 Y60.224 F1000
G1 X43.874 Y60.095 F1000
G1 X44.131 Y60.095 F1000
G1 X44.389 Y59.837 F1000
G1 X44.389 Y59.194 F1000
G1 X44.002 Y58.808 F1000
G1 X43.874 Y58.808 F1000
G1 X43.745 Y58.679 F1000
G1 X43.488 Y58.679 F1000
G1 X43.359 Y58.808 F1000
G1 X43.230 Y58.808 F1000
G1 X42.715 Y59.322 F1000
G1 X42.715 Y59.322 F1000
G1 X42.715 Y59.709 F1000
G1 X43.101 Y60.095 F1000
G1 X43.359 Y60.095 F1000
G1 X43.488 Y60.224 F1000
G1 X43.745 Y60.224 F1000
G1 X43.874 Y60.095 F1000
G1 X44.131 Y60.095 F1000
G1 X44.389 Y59.837 F1000
G1 X44.389 Y59.194 F1000
G1 X44.002 Y58.808 F1000
G1 X43.874 Y58.808 F1000
G1 X43.745 Y58.679 F1000
G1 X43.488 Y58.679 F1000
G1 X43.359 Y58.808 F1000
G1 X43.230 Y58.808 F1000
G0 Z3.0 ; Pen up

G0 X43.359 Y56.876 F3000 ; Travel to line 91
G0 Z0.0 ; Pen down
G1 X43.488 Y57.005 F1000
G1 X43.488 Y57.906 F1000
G1 X43.359 Y58.035 F1000
G1 X42.844 Y58.035 F1000
G1 X44.389 Y58.035 F1000
G1 X43.616 Y58.035 F1000
G1 X43.488 Y57.906 F1000
G1 X43.488 Y57.005 F1000
G1 X43.616 Y56.876 F1000
G1 X44.389 Y56.876 F1000
G1 X42.844 Y56.876 F1000
G0 Z3.0 ; Pen up

G0 X43.488 Y55.975 F3000 ; Travel to line 92
G0 Z0.0 ; Pen down
G1 X43.488 Y55.846 F1000
G1 X43.616 Y55.718 F1000
G1 X43.616 Y55.589 F1000
G1 X43.745 Y55.460 F1000
G1 X43.745 Y55.331 F1000
G1 X43.874 Y55.203 F1000
G1 X43.874 Y54.945 F1000
G1 X44.002 Y54.816 F1000
G1 X44.002 Y54.688 F1000
G1 X44.131 Y54.559 F1000
G1 X44.131 Y54.430 F1000
G1 X44.260 Y54.301 F1000
G1 X44.260 Y54.044 F1000
G1 X44.389 Y53.915 F1000
G1 X44.389 Y53.786 F1000
G1 X44.517 Y53.657 F1000
G1 X44.517 Y53.529 F1000
G1 X44.646 Y53.400 F1000
G1 X44.646 Y53.142 F1000
G1 X44.775 Y53.014 F1000
G1 X44.775 Y52.885 F1000
G1 X44.904 Y52.756 F1000
G1 X44.904 Y52.627 F1000
G1 X45.032 Y52.499 F1000
G1 X45.032 Y52.241 F1000
G1 X45.161 Y52.113 F1000
G1 X45.161 Y51.984 F1000
G1 X45.290 Y51.855 F1000
G1 X45.290 Y51.726 F1000
G1 X45.419 Y51.598 F1000
G1 X45.419 Y51.469 F1000
G1 X45.419 Y51.598 F1000
G1 X45.290 Y51.726 F1000
G1 X45.290 Y51.855 F1000
G1 X45.161 Y51.984 F1000
G1 X45.161 Y52.113 F1000
G1 X45.032 Y52.241 F1000
G1 X45.032 Y52.499 F1000
G1 X44.904 Y52.627 F1000
G1 X44.904 Y52.756 F1000
G1 X44.775 Y52.885 F1000
G1 X44.775 Y53.014 F1000
G1 X44.646 Y53.142 F1000
G1 X44.646 Y53.400 F1000
G1 X44.517 Y53.529 F1000
G1 X44.517 Y53.657 F1000
G1 X44.389 Y53.786 F1000
G1 X44.389 Y53.915 F1000
G1 X44.260 Y54.044 F1000
G1 X44.260 Y54.301 F1000
G1 X44.131 Y54.430 F1000
G1 X44.131 Y54.559 F1000
G1 X44.002 Y54.688 F1000
G1 X44.002 Y54.816 F1000
G1 X43.874 Y54.945 F1000
G1 X43.874 Y55.203 F1000
G1 X43.745 Y55.331 F1000
G1 X43.745 Y55.460 F1000
G1 X43.616 Y55.589 F1000
G1 X43.616 Y55.718 F1000
G1 X43.488 Y55.846 F1000
G0 Z3.0 ; Pen up

G0 X42.715 Y62.413 F3000 ; Travel to line 93
G0 Z0.0 ; Pen down
G1 X42.844 Y62.284 F1000
G1 X44.389 Y62.284 F1000
G1 X44.389 Y63.185 F1000
G1 X44.389 Y62.413 F1000
G1 X44.260 Y62.284 F1000
G1 X43.616 Y62.284 F1000
G1 X43.488 Y62.413 F1000
G1 X43.488 Y63.185 F1000
G1 X43.488 Y62.413 F1000
G1 X43.359 Y62.284 F1000
G1 X42.973 Y62.284 F1000
G1 X42.715 Y62.541 F1000
G1 X42.715 Y63.185 F1000
G0 Z3.0 ; Pen up

G0 X43.230 Y64.988 F3000 ; Travel to line 94
G0 Z0.0 ; Pen down
G1 X43.488 Y64.988 F1000
G1 X43.616 Y64.859 F1000
G1 X43.874 Y64.859 F1000
G1 X44.002 Y64.988 F1000
G1 X44.002 Y65.502 F1000
G1 X43.874 Y65.631 F1000
G1 X43.488 Y65.631 F1000
G1 X43.359 Y65.502 F1000
G1 X43.101 Y65.502 F1000
G1 X42.973 Y65.374 F1000
G1 X42.973 Y65.245 F1000
G0 Z3.0 ; Pen up

G0 X42.973 Y65.116 F3000 ; Travel to line 95
G0 Z0.0 ; Pen down
G1 X43.101 Y65.116 F1000
G1 X43.230 Y64.988 F1000
G1 X43.488 Y64.988 F1000
G1 X43.616 Y64.859 F1000
G1 X43.874 Y64.859 F1000
G1 X44.002 Y64.730 F1000
G1 X44.131 Y64.730 F1000
G1 X44.260 Y64.601 F1000
G1 X44.517 Y64.601 F1000
G1 X44.260 Y64.601 F1000
G1 X44.002 Y64.859 F1000
G1 X44.002 Y65.631 F1000
G1 X44.260 Y65.889 F1000
G1 X44.389 Y65.889 F1000
G1 X44.260 Y65.889 F1000
G1 X44.131 Y65.760 F1000
G1 X44.002 Y65.760 F1000
G1 X43.874 Y65.631 F1000
G1 X43.488 Y65.631 F1000
G1 X43.359 Y65.502 F1000
G1 X43.101 Y65.502 F1000
G1 X42.973 Y65.374 F1000
G0 Z3.0 ; Pen up

G0 X29.711 Y69.623 F3000 ; Travel to line 96
G0 Z0.0 ; Pen down
G1 X29.969 Y69.365 F1000
G1 X30.484 Y69.365 F1000
G1 X30.870 Y69.751 F1000
G1 X30.870 Y69.880 F1000
G1 X30.999 Y70.009 F1000
G1 X30.999 Y70.395 F1000
G1 X30.870 Y70.524 F1000
G1 X30.870 Y70.653 F1000
G1 X30.741 Y70.781 F1000
G1 X30.613 Y70.781 F1000
G1 X30.484 Y70.910 F1000
G1 X29.969 Y70.910 F1000
G1 X29.582 Y70.524 F1000
G1 X29.582 Y69.880 F1000
G1 X29.711 Y69.751 F1000
G0 Z3.0 ; Pen up

G0 X28.424 Y70.009 F3000 ; Travel to line 97
G0 Z0.0 ; Pen down
G1 X28.553 Y69.880 F1000
G1 X28.553 Y69.751 F1000
G1 X28.810 Y69.494 F1000
G1 X28.939 Y69.494 F1000
G1 X29.067 Y69.365 F1000
G1 X29.454 Y69.365 F1000
G1 X29.582 Y69.236 F1000
G1 X29.840 Y69.236 F1000
G1 X29.969 Y69.365 F1000
G1 X30.613 Y69.365 F1000
G1 X30.870 Y69.623 F1000
G1 X30.870 Y69.880 F1000
G1 X30.999 Y70.009 F1000
G1 X30.999 Y70.395 F1000
G1 X30.870 Y70.524 F1000
G1 X30.870 Y70.653 F1000
G1 X30.741 Y70.781 F1000
G1 X30.613 Y70.781 F1000
G1 X30.484 Y70.910 F1000
G1 X29.969 Y70.910 F1000
G1 X29.582 Y70.524 F1000
G1 X29.582 Y69.880 F1000
G1 X29.711 Y69.751 F1000
G1 X29.711 Y69.623 F1000
G1 X29.840 Y69.494 F1000
G1 X29.840 Y69.365 F1000
G1 X29.711 Y69.236 F1000
G1 X29.582 Y69.236 F1000
G1 X29.454 Y69.365 F1000
G1 X29.067 Y69.365 F1000
G1 X28.939 Y69.494 F1000
G1 X28.810 Y69.494 F1000
G1 X28.553 Y69.751 F1000
G1 X28.553 Y69.880 F1000
G1 X28.424 Y70.009 F1000
G1 X28.424 Y70.781 F1000
G0 Z3.0 ; Pen up

G0 X28.939 Y71.940 F3000 ; Travel to line 98
G0 Z0.0 ; Pen down
G1 X29.196 Y71.940 F1000
G1 X29.325 Y71.811 F1000
G1 X30.098 Y71.811 F1000
G1 X30.226 Y71.940 F1000
G1 X30.484 Y71.940 F1000
G1 X30.999 Y72.455 F1000
G1 X30.999 Y72.841 F1000
G1 X30.870 Y72.970 F1000
G1 X30.870 Y73.099 F1000
G1 X30.741 Y73.227 F1000
G1 X30.613 Y73.227 F1000
G1 X30.484 Y73.356 F1000
G1 X30.355 Y73.356 F1000
G1 X30.226 Y73.485 F1000
G1 X29.196 Y73.485 F1000
G1 X29.067 Y73.356 F1000
G1 X28.939 Y73.356 F1000
G1 X28.810 Y73.227 F1000
G1 X28.681 Y73.227 F1000
G1 X28.424 Y72.970 F1000
G1 X28.424 Y72.455 F1000
G0 Z3.0 ; Pen up

G0 X28.424 Y72.326 F3000 ; Travel to line 99
G0 Z0.0 ; Pen down
G1 X28.810 Y71.940 F1000
G1 X29.196 Y71.940 F1000
G1 X29.325 Y71.811 F1000
G1 X30.098 Y71.811 F1000
G1 X30.226 Y71.940 F1000
G1 X30.613 Y71.940 F1000
G1 X30.870 Y72.198 F1000
G1 X30.870 Y72.326 F1000
G1 X30.999 Y72.455 F1000
G1 X30.999 Y72.841 F1000
G1 X30.870 Y72.970 F1000
G1 X30.870 Y73.099 F1000
G1 X30.741 Y73.227 F1000
G1 X30.613 Y73.227 F1000
G1 X30.484 Y73.356 F1000
G1 X30.355 Y73.356 F1000
G1 X30.226 Y73.485 F1000
G1 X29.196 Y73.485 F1000
G1 X29.067 Y73.356 F1000
G1 X28.939 Y73.356 F1000
G1 X28.810 Y73.227 F1000
G1 X28.681 Y73.227 F1000
G1 X28.424 Y72.970 F1000
G0 Z3.0 ; Pen up

G0 X28.939 Y74.644 F3000 ; Travel to line 100
G0 Z0.0 ; Pen down
G1 X29.196 Y74.644 F1000
G1 X29.325 Y74.515 F1000
G1 X30.098 Y74.515 F1000
G1 X30.226 Y74.644 F1000
G1 X30.484 Y74.644 F1000
G1 X30.999 Y75.159 F1000
G1 X30.999 Y75.545 F1000
G1 X30.870 Y75.674 F1000
G1 X30.870 Y75.802 F1000
G1 X30.741 Y75.931 F1000
G1 X30.613 Y75.931 F1000
G1 X30.484 Y76.060 F1000
G1 X30.355 Y76.060 F1000
G1 X30.226 Y76.189 F1000
G1 X29.196 Y76.189 F1000
G1 X29.067 Y76.060 F1000
G1 X28.939 Y76.060 F1000
G1 X28.810 Y75.931 F1000
G1 X28.681 Y75.931 F1000
G1 X28.424 Y75.674 F1000
G1 X28.424 Y75.159 F1000
G0 Z3.0 ; Pen up

G0 X28.424 Y75.030 F3000 ; Travel to line 101
G0 Z0.0 ; Pen down
G1 X28.810 Y74.644 F1000
G1 X29.196 Y74.644 F1000
G1 X29.325 Y74.515 F1000
G1 X30.098 Y74.515 F1000
G1 X30.226 Y74.644 F1000
G1 X30.613 Y74.644 F1000
G1 X30.870 Y74.901 F1000
G1 X30.870 Y75.030 F1000
G1 X30.999 Y75.159 F1000
G1 X30.999 Y75.545 F1000
G1 X30.870 Y75.674 F1000
G1 X30.870 Y75.802 F1000
G1 X30.741 Y75.931 F1000
G1 X30.613 Y75.931 F1000
G1 X30.484 Y76.060 F1000
G1 X30.355 Y76.060 F1000
G1 X30.226 Y76.189 F1000
G1 X29.196 Y76.189 F1000
G1 X29.067 Y76.060 F1000
G1 X28.939 Y76.060 F1000
G1 X28.810 Y75.931 F1000
G1 X28.681 Y75.931 F1000
G1 X28.424 Y75.674 F1000
G0 Z3.0 ; Pen up

G0 X29.067 Y77.219 F3000 ; Travel to line 102
G0 Z0.0 ; Pen down
G1 X30.870 Y77.219 F1000
G1 X29.454 Y77.219 F1000
G1 X29.196 Y77.476 F1000
G1 X29.196 Y77.605 F1000
G1 X29.067 Y77.734 F1000
G1 X29.067 Y78.249 F1000
G1 X29.454 Y78.635 F1000
G1 X30.870 Y78.635 F1000
G1 X29.582 Y78.635 F1000
G1 X29.196 Y79.021 F1000
G1 X29.196 Y79.150 F1000
G1 X29.067 Y79.279 F1000
G1 X29.067 Y79.794 F1000
G1 X29.196 Y79.922 F1000
G1 X29.325 Y79.922 F1000
G1 X29.454 Y80.051 F1000
G1 X30.999 Y80.051 F1000
G1 X29.454 Y80.051 F1000
G1 X29.325 Y79.922 F1000
G1 X29.196 Y79.922 F1000
G1 X29.067 Y79.794 F1000
G1 X29.067 Y79.150 F1000
G1 X29.325 Y78.892 F1000
G1 X29.325 Y78.764 F1000
G1 X29.454 Y78.635 F1000
G1 X29.325 Y78.506 F1000
G1 X29.196 Y78.506 F1000
G1 X29.067 Y78.377 F1000
G1 X29.067 Y77.734 F1000
G1 X29.196 Y77.605 F1000
G1 X29.196 Y77.476 F1000
G1 X29.325 Y77.347 F1000
G1 X29.196 Y77.219 F1000
G0 Z3.0 ; Pen up

G0 X29.196 Y81.210 F3000 ; Travel to line 103
G0 Z0.0 ; Pen down
G1 X29.325 Y81.339 F1000
G1 X29.196 Y81.468 F1000
G1 X29.196 Y81.596 F1000
G1 X29.067 Y81.725 F1000
G1 X29.067 Y82.369 F1000
G1 X29.196 Y82.498 F1000
G1 X29.325 Y82.498 F1000
G1 X29.454 Y82.626 F1000
G1 X29.325 Y82.755 F1000
G1 X29.325 Y82.884 F1000
G1 X29.067 Y83.141 F1000
G1 X29.067 Y83.785 F1000
G1 X29.196 Y83.914 F1000
G1 X29.325 Y83.914 F1000
G1 X29.454 Y84.043 F1000
G1 X30.999 Y84.043 F1000
G1 X29.454 Y84.043 F1000
G1 X29.325 Y83.914 F1000
G1 X29.196 Y83.914 F1000
G1 X29.067 Y83.785 F1000
G1 X29.067 Y83.270 F1000
G1 X29.196 Y83.141 F1000
G1 X29.196 Y83.013 F1000
G1 X29.582 Y82.626 F1000
G1 X30.870 Y82.626 F1000
G1 X29.454 Y82.626 F1000
G1 X29.067 Y82.240 F1000
G1 X29.067 Y81.725 F1000
G1 X29.196 Y81.596 F1000
G1 X29.196 Y81.468 F1000
G1 X29.454 Y81.210 F1000
G1 X30.870 Y81.210 F1000
G1 X29.067 Y81.210 F1000
G0 Z3.0 ; Pen up

G0 X12.716 Y82.626 F3000 ; Travel to line 104
G0 Z0.0 ; Pen down
G1 X12.845 Y82.755 F1000
G1 X12.845 Y83.528 F1000
G1 X12.588 Y83.785 F1000
G1 X12.201 Y83.785 F1000
G1 X12.072 Y83.656 F1000
G1 X11.944 Y83.656 F1000
G1 X11.815 Y83.528 F1000
G1 X11.815 Y83.399 F1000
G1 X11.686 Y83.270 F1000
G1 X11.686 Y83.141 F1000
G1 X11.558 Y83.013 F1000
G1 X11.558 Y82.755 F1000
G1 X11.686 Y82.626 F1000
G0 Z3.0 ; Pen up

G0 X12.716 Y83.656 F3000 ; Travel to line 105
G0 Z0.0 ; Pen down
G1 X12.845 Y83.528 F1000
G1 X12.845 Y82.755 F1000
G1 X12.974 Y82.626 F1000
G1 X13.746 Y82.626 F1000
G1 X13.875 Y82.755 F1000
G1 X13.875 Y84.171 F1000
G1 X13.617 Y84.429 F1000
G1 X13.360 Y84.429 F1000
G1 X13.231 Y84.300 F1000
G1 X13.103 Y84.300 F1000
G1 X12.845 Y84.043 F1000
G1 X12.716 Y84.043 F1000
G1 X12.588 Y83.914 F1000
G1 X12.716 Y83.785 F1000
G0 Z3.0 ; Pen up

G0 X14.004 Y88.163 F3000 ; Travel to line 106
G0 Z0.0 ; Pen down
G1 X14.133 Y88.163 F1000
G1 X14.261 Y88.291 F1000
G1 X14.390 Y88.291 F1000
G1 X14.648 Y88.549 F1000
G1 X14.648 Y88.678 F1000
G1 X14.776 Y88.806 F1000
G1 X14.776 Y90.351 F1000
G1 X14.648 Y90.480 F1000
G1 X14.519 Y90.480 F1000
G1 X14.261 Y90.737 F1000
G1 X14.004 Y90.737 F1000
G1 X13.875 Y90.609 F1000
G1 X13.875 Y89.192 F1000
G1 X13.746 Y89.064 F1000
G1 X13.746 Y88.420 F1000
G0 Z3.0 ; Pen up

G0 X43.488 Y107.346 F3000 ; Travel to line 107
G0 Z0.0 ; Pen down
G1 X43.616 Y107.218 F1000
G1 X43.616 Y107.089 F1000
G1 X43.745 Y106.960 F1000
G1 X43.745 Y106.831 F1000
G1 X43.874 Y106.703 F1000
G1 X43.874 Y106.445 F1000
G1 X44.002 Y106.316 F1000
G1 X44.002 Y106.188 F1000
G1 X44.131 Y106.059 F1000
G1 X44.131 Y105.930 F1000
G1 X44.260 Y105.801 F1000
G1 X44.260 Y105.544 F1000
G1 X44.389 Y105.415 F1000
G1 X44.389 Y105.286 F1000
G1 X44.517 Y105.157 F1000
G1 X44.517 Y105.029 F1000
G1 X44.646 Y104.900 F1000
G1 X44.646 Y104.256 F1000
G1 X44.775 Y104.127 F1000
G1 X44.775 Y103.870 F1000
G1 X44.904 Y103.870 F1000
G1 X45.161 Y103.612 F1000
G1 X45.161 Y103.484 F1000
G1 X45.290 Y103.355 F1000
G1 X45.290 Y103.226 F1000
G1 X45.161 Y103.097 F1000
G1 X45.032 Y103.097 F1000
G1 X44.904 Y102.969 F1000
G1 X44.775 Y102.969 F1000
G1 X44.775 Y102.840 F1000
G1 X44.646 Y102.711 F1000
G1 X44.646 Y102.454 F1000
G1 X44.775 Y102.325 F1000
G1 X44.775 Y102.196 F1000
G1 X44.775 Y102.325 F1000
G1 X44.646 Y102.454 F1000
G1 X44.646 Y102.711 F1000
G1 X45.032 Y103.097 F1000
G1 X45.290 Y103.097 F1000
G1 X46.062 Y102.325 F1000
G1 X46.320 Y102.325 F1000
G1 X46.320 Y103.097 F1000
G1 X46.320 Y102.454 F1000
G1 X46.191 Y102.325 F1000
G1 X45.547 Y102.969 F1000
G1 X45.419 Y102.969 F1000
G1 X45.290 Y103.097 F1000
G1 X45.290 Y103.355 F1000
G1 X45.161 Y103.484 F1000
G1 X45.161 Y103.612 F1000
G1 X45.032 Y103.741 F1000
G1 X45.032 Y103.999 F1000
G1 X44.904 Y104.127 F1000
G1 X44.775 Y104.127 F1000
G1 X44.646 Y104.256 F1000
G1 X44.646 Y104.642 F1000
G1 X44.775 Y104.771 F1000
G1 X45.161 Y104.771 F1000
G1 X45.419 Y104.514 F1000
G1 X45.419 Y104.256 F1000
G1 X45.419 Y104.514 F1000
G1 X45.547 Y104.642 F1000
G1 X45.676 Y104.642 F1000
G1 X45.805 Y104.771 F1000
G1 X46.191 Y104.771 F1000
G1 X46.320 Y104.642 F1000
G1 X46.320 Y103.870 F1000
G1 X46.320 Y104.642 F1000
G1 X46.191 Y104.771 F1000
G1 X45.676 Y104.771 F1000
G1 X45.547 Y104.642 F1000
G1 X45.419 Y104.642 F1000
G1 X45.290 Y104.771 F1000
G1 X44.775 Y104.771 F1000
G1 X44.517 Y105.029 F1000
G1 X44.517 Y105.157 F1000
G1 X44.389 Y105.286 F1000
G1 X44.389 Y105.415 F1000
G1 X44.260 Y105.544 F1000
G1 X44.260 Y105.801 F1000
G1 X44.131 Y105.930 F1000
G1 X44.131 Y106.059 F1000
G1 X44.002 Y106.188 F1000
G1 X44.002 Y106.316 F1000
G1 X43.874 Y106.445 F1000
G1 X43.874 Y106.703 F1000
G1 X43.745 Y106.831 F1000
G1 X43.745 Y106.960 F1000
G1 X43.616 Y107.089 F1000
G1 X43.616 Y107.218 F1000
G1 X43.488 Y107.346 F1000
G1 X43.488 Y107.475 F1000
G0 Z3.0 ; Pen up

G0 X43.359 Y108.376 F3000 ; Travel to line 108
G0 Z0.0 ; Pen down
G1 X43.488 Y108.505 F1000
G1 X43.488 Y109.406 F1000
G1 X43.359 Y109.535 F1000
G1 X42.844 Y109.535 F1000
G1 X44.389 Y109.535 F1000
G1 X43.616 Y109.535 F1000
G1 X43.488 Y109.406 F1000
G1 X43.488 Y108.505 F1000
G1 X43.616 Y108.376 F1000
G1 X44.389 Y108.376 F1000
G1 X42.844 Y108.376 F1000
G0 Z3.0 ; Pen up

G0 X45.290 Y110.951 F3000 ; Travel to line 109
G0 Z0.0 ; Pen down
G1 X45.161 Y111.080 F1000
G1 X45.161 Y111.338 F1000
G1 X45.290 Y111.466 F1000
G1 X45.419 Y111.466 F1000
G1 X45.547 Y111.595 F1000
G1 X45.934 Y111.595 F1000
G1 X46.062 Y111.466 F1000
G1 X46.191 Y111.466 F1000
G1 X46.320 Y111.338 F1000
G1 X46.320 Y111.080 F1000
G1 X46.191 Y110.951 F1000
G1 X46.062 Y110.951 F1000
G1 X45.934 Y110.823 F1000
G1 X45.547 Y110.823 F1000
G1 X45.419 Y110.951 F1000
G0 Z3.0 ; Pen up

G0 X45.161 Y111.080 F3000 ; Travel to line 110
G0 Z0.0 ; Pen down
G1 X45.419 Y110.823 F1000
G1 X46.062 Y110.823 F1000
G1 X46.320 Y111.080 F1000
G1 X46.320 Y111.338 F1000
G1 X46.191 Y111.466 F1000
G1 X46.062 Y111.466 F1000
G1 X45.934 Y111.595 F1000
G1 X45.547 Y111.595 F1000
G1 X45.419 Y111.466 F1000
G1 X45.290 Y111.466 F1000
G1 X45.161 Y111.338 F1000
G0 Z3.0 ; Pen up

G0 X45.419 Y113.784 F3000 ; Travel to line 111
G0 Z0.0 ; Pen down
G1 X45.547 Y113.655 F1000
G1 X46.191 Y113.655 F1000
G1 X45.547 Y113.655 F1000
G1 X45.419 Y113.784 F1000
G1 X45.419 Y114.170 F1000
G1 X45.547 Y114.299 F1000
G1 X46.191 Y114.299 F1000
G1 X45.676 Y114.299 F1000
G1 X45.419 Y114.556 F1000
G1 X45.419 Y114.814 F1000
G1 X45.547 Y114.943 F1000
G1 X46.320 Y114.943 F1000
G1 X45.547 Y114.943 F1000
G1 X45.419 Y114.814 F1000
G1 X45.419 Y114.556 F1000
G1 X45.547 Y114.428 F1000
G1 X45.419 Y114.299 F1000
G0 Z3.0 ; Pen up

G0 X44.260 Y116.230 F3000 ; Travel to line 112
G0 Z0.0 ; Pen down
G1 X44.389 Y116.359 F1000
G1 X44.389 Y117.131 F1000
G1 X44.260 Y117.260 F1000
G1 X43.745 Y117.260 F1000
G1 X43.488 Y117.002 F1000
G1 X43.488 Y116.359 F1000
G1 X43.616 Y116.230 F1000
G0 Z3.0 ; Pen up

G0 X42.973 Y116.230 F3000 ; Travel to line 113
G0 Z0.0 ; Pen down
G1 X43.359 Y116.230 F1000
G1 X43.488 Y116.359 F1000
G1 X43.488 Y117.002 F1000
G1 X43.230 Y117.260 F1000
G1 X42.973 Y117.260 F1000
G1 X42.715 Y117.002 F1000
G1 X42.715 Y116.487 F1000
G0 Z3.0 ; Pen up

G0 X42.715 Y116.359 F3000 ; Travel to line 114
G0 Z0.0 ; Pen down
G1 X42.844 Y116.230 F1000
G1 X44.389 Y116.230 F1000
G1 X44.389 Y117.131 F1000
G1 X44.260 Y117.260 F1000
G1 X43.745 Y117.260 F1000
G1 X43.616 Y117.131 F1000
G1 X43.488 Y117.131 F1000
G1 X43.359 Y117.260 F1000
G1 X42.973 Y117.260 F1000
G1 X42.715 Y117.002 F1000
G0 Z3.0 ; Pen up

G0 X42.715 Y114.685 F3000 ; Travel to line 115
G0 Z0.0 ; Pen down
G1 X42.715 Y114.041 F1000
G1 X42.973 Y113.784 F1000
G1 X43.359 Y113.784 F1000
G1 X43.488 Y113.913 F1000
G1 X43.488 Y114.685 F1000
G1 X43.488 Y113.913 F1000
G1 X43.616 Y113.784 F1000
G1 X44.260 Y113.784 F1000
G1 X44.389 Y113.913 F1000
G1 X44.389 Y114.685 F1000
G1 X44.389 Y113.784 F1000
G1 X42.844 Y113.784 F1000
G1 X42.715 Y113.913 F1000
G0 Z3.0 ; Pen up

G0 X56.878 Y113.913 F3000 ; Travel to line 116
G0 Z0.0 ; Pen down
G1 X57.006 Y113.784 F1000
G1 X58.551 Y113.784 F1000
G1 X58.551 Y114.685 F1000
G1 X58.551 Y113.913 F1000
G1 X58.422 Y113.784 F1000
G1 X57.779 Y113.784 F1000
G1 X57.650 Y113.913 F1000
G1 X57.650 Y114.685 F1000
G1 X57.650 Y113.913 F1000
G1 X57.521 Y113.784 F1000
G1 X57.135 Y113.784 F1000
G1 X56.878 Y114.041 F1000
G1 X56.878 Y114.685 F1000
G0 Z3.0 ; Pen up

G0 X57.135 Y116.230 F3000 ; Travel to line 117
G0 Z0.0 ; Pen down
G1 X58.422 Y116.230 F1000
G1 X58.551 Y116.359 F1000
G1 X58.551 Y117.131 F1000
G1 X58.422 Y117.260 F1000
G1 X58.422 Y117.389 F1000
G1 X58.294 Y117.517 F1000
G1 X57.264 Y117.517 F1000
G1 X57.006 Y117.260 F1000
G1 X57.006 Y117.131 F1000
G1 X56.878 Y117.002 F1000
G1 X56.878 Y116.487 F1000
G0 Z3.0 ; Pen up

G0 X56.878 Y116.359 F3000 ; Travel to line 118
G0 Z0.0 ; Pen down
G1 X57.006 Y116.230 F1000
G1 X58.551 Y116.230 F1000
G1 X58.551 Y117.131 F1000
G1 X58.422 Y117.260 F1000
G1 X58.422 Y117.389 F1000
G1 X58.294 Y117.517 F1000
G1 X57.264 Y117.517 F1000
G1 X57.006 Y117.260 F1000
G1 X57.006 Y117.131 F1000
G1 X56.878 Y117.002 F1000
G0 Z3.0 ; Pen up

G0 X59.581 Y114.299 F3000 ; Travel to line 119
G0 Z0.0 ; Pen down
G1 X59.710 Y114.428 F1000
G1 X59.581 Y114.556 F1000
G1 X59.581 Y114.814 F1000
G1 X59.710 Y114.943 F1000
G1 X60.483 Y114.943 F1000
G1 X59.710 Y114.943 F1000
G1 X59.581 Y114.814 F1000
G1 X59.581 Y114.556 F1000
G1 X59.839 Y114.299 F1000
G1 X60.354 Y114.299 F1000
G1 X59.710 Y114.299 F1000
G1 X59.581 Y114.170 F1000
G1 X59.581 Y113.784 F1000
G1 X59.710 Y113.655 F1000
G1 X60.354 Y113.655 F1000
G1 X59.710 Y113.655 F1000
G1 X59.581 Y113.784 F1000
G0 Z3.0 ; Pen up

G0 X59.324 Y111.338 F3000 ; Travel to line 120
G0 Z0.0 ; Pen down
G1 X59.453 Y111.466 F1000
G1 X59.581 Y111.466 F1000
G1 X59.710 Y111.595 F1000
G1 X60.096 Y111.595 F1000
G1 X60.225 Y111.466 F1000
G1 X60.354 Y111.466 F1000
G1 X60.483 Y111.338 F1000
G1 X60.483 Y111.080 F1000
G1 X60.225 Y110.823 F1000
G1 X59.581 Y110.823 F1000
G1 X59.324 Y111.080 F1000
G0 Z3.0 ; Pen up

G0 X59.453 Y110.951 F3000 ; Travel to line 121
G0 Z0.0 ; Pen down
G1 X59.324 Y111.080 F1000
G1 X59.324 Y111.338 F1000
G1 X59.453 Y111.466 F1000
G1 X59.581 Y111.466 F1000
G1 X59.710 Y111.595 F1000
G1 X60.096 Y111.595 F1000
G1 X60.225 Y111.466 F1000
G1 X60.354 Y111.466 F1000
G1 X60.483 Y111.338 F1000
G1 X60.483 Y111.080 F1000
G1 X60.354 Y110.951 F1000
G1 X60.225 Y110.951 F1000
G1 X60.096 Y110.823 F1000
G1 X59.710 Y110.823 F1000
G1 X59.581 Y110.951 F1000
G0 Z3.0 ; Pen up

G0 X59.324 Y110.179 F3000 ; Travel to line 122
G0 Z0.0 ; Pen down
G1 X59.453 Y110.308 F1000
G1 X59.839 Y110.308 F1000
G1 X60.354 Y109.793 F1000
G1 X60.483 Y109.921 F1000
G1 X60.483 Y110.436 F1000
G1 X60.483 Y109.793 F1000
G1 X60.225 Y109.793 F1000
G1 X59.710 Y110.308 F1000
G1 X59.581 Y110.308 F1000
G1 X59.324 Y110.050 F1000
G1 X59.324 Y109.793 F1000
G1 X59.453 Y109.664 F1000
G1 X59.324 Y109.793 F1000
G0 Z3.0 ; Pen up

G0 X59.324 Y109.020 F3000 ; Travel to line 123
G0 Z0.0 ; Pen down
G1 X59.453 Y109.149 F1000
G1 X59.324 Y109.278 F1000
G1 X59.453 Y109.149 F1000
G1 X59.581 Y109.278 F1000
G1 X60.225 Y109.278 F1000
G1 X60.483 Y109.020 F1000
G1 X60.483 Y108.505 F1000
G1 X60.354 Y108.376 F1000
G1 X60.483 Y108.248 F1000
G1 X60.354 Y108.376 F1000
G1 X60.225 Y108.248 F1000
G1 X59.581 Y108.248 F1000
G1 X59.324 Y108.505 F1000
G0 Z3.0 ; Pen up

G0 X59.324 Y108.634 F3000 ; Travel to line 124
G0 Z0.0 ; Pen down
G1 X59.324 Y108.891 F1000
G1 X59.453 Y109.020 F1000
G1 X59.581 Y109.020 F1000
G1 X59.968 Y108.634 F1000
G1 X60.096 Y108.634 F1000
G1 X60.225 Y108.505 F1000
G1 X60.225 Y108.376 F1000
G1 X60.096 Y108.248 F1000
G1 X59.710 Y108.248 F1000
G0 Z3.0 ; Pen up

G0 X59.710 Y108.891 F3000 ; Travel to line 125
G0 Z0.0 ; Pen down
G1 X59.581 Y109.020 F1000
G1 X59.581 Y109.149 F1000
G1 X59.710 Y109.278 F1000
G1 X60.096 Y109.278 F1000
G1 X60.483 Y108.891 F1000
G1 X60.483 Y108.634 F1000
G1 X60.354 Y108.505 F1000
G1 X60.225 Y108.505 F1000
G1 X59.839 Y108.891 F1000
G0 Z3.0 ; Pen up

G0 X57.521 Y108.376 F3000 ; Travel to line 126
G0 Z0.0 ; Pen down
G1 X57.650 Y108.505 F1000
G1 X57.650 Y109.406 F1000
G1 X57.521 Y109.535 F1000
G1 X57.006 Y109.535 F1000
G1 X58.551 Y109.535 F1000
G1 X57.779 Y109.535 F1000
G1 X57.650 Y109.406 F1000
G1 X57.650 Y108.505 F1000
G1 X57.779 Y108.376 F1000
G1 X58.551 Y108.376 F1000
G1 X57.006 Y108.376 F1000
G0 Z3.0 ; Pen up

G0 X57.650 Y107.475 F3000 ; Travel to line 127
G0 Z0.0 ; Pen down
G1 X57.650 Y107.346 F1000
G1 X57.779 Y107.218 F1000
G1 X57.779 Y107.089 F1000
G1 X57.907 Y106.960 F1000
G1 X57.907 Y106.831 F1000
G1 X58.036 Y106.703 F1000
G1 X58.036 Y106.445 F1000
G1 X58.165 Y106.316 F1000
G1 X58.165 Y106.188 F1000
G1 X58.294 Y106.059 F1000
G1 X58.294 Y105.930 F1000
G1 X58.422 Y105.801 F1000
G1 X58.422 Y105.544 F1000
G1 X58.551 Y105.415 F1000
G1 X58.551 Y105.286 F1000
G1 X58.680 Y105.157 F1000
G1 X58.680 Y105.029 F1000
G1 X58.809 Y104.900 F1000
G1 X58.809 Y104.642 F1000
G1 X58.938 Y104.514 F1000
G1 X58.938 Y104.385 F1000
G1 X59.066 Y104.256 F1000
G1 X59.066 Y104.127 F1000
G1 X59.195 Y103.999 F1000
G1 X59.195 Y103.741 F1000
G1 X59.324 Y103.612 F1000
G1 X59.324 Y103.484 F1000
G1 X59.453 Y103.355 F1000
G1 X59.453 Y103.226 F1000
G1 X59.581 Y103.097 F1000
G1 X59.581 Y102.969 F1000
G1 X59.581 Y103.097 F1000
G1 X59.453 Y103.226 F1000
G1 X59.453 Y103.355 F1000
G1 X59.324 Y103.484 F1000
G1 X59.324 Y103.612 F1000
G1 X59.195 Y103.741 F1000
G1 X59.195 Y103.999 F1000
G1 X59.066 Y104.127 F1000
G1 X59.066 Y104.256 F1000
G1 X58.938 Y104.385 F1000
G1 X58.938 Y104.514 F1000
G1 X58.809 Y104.642 F1000
G1 X58.809 Y104.900 F1000
G1 X58.680 Y105.029 F1000
G1 X58.680 Y105.157 F1000
G1 X58.551 Y105.286 F1000
G1 X58.551 Y105.415 F1000
G1 X58.422 Y105.544 F1000
G1 X58.422 Y105.801 F1000
G1 X58.294 Y105.930 F1000
G1 X58.294 Y106.059 F1000
G1 X58.165 Y106.188 F1000
G1 X58.165 Y106.316 F1000
G1 X58.036 Y106.445 F1000
G1 X58.036 Y106.703 F1000
G1 X57.907 Y106.831 F1000
G1 X57.907 Y106.960 F1000
G1 X57.779 Y107.089 F1000
G1 X57.779 Y107.218 F1000
G1 X57.650 Y107.346 F1000
G0 Z3.0 ; Pen up

G0 X57.392 Y110.308 F3000 ; Travel to line 128
G0 Z0.0 ; Pen down
G1 X57.521 Y110.308 F1000
G1 X57.650 Y110.179 F1000
G1 X57.907 Y110.179 F1000
G1 X58.036 Y110.308 F1000
G1 X58.165 Y110.308 F1000
G1 X58.551 Y110.694 F1000
G1 X58.551 Y111.338 F1000
G1 X58.294 Y111.595 F1000
G1 X58.036 Y111.595 F1000
G1 X57.907 Y111.724 F1000
G1 X57.650 Y111.724 F1000
G1 X57.521 Y111.595 F1000
G1 X57.264 Y111.595 F1000
G1 X56.878 Y111.209 F1000
G1 X56.878 Y110.823 F1000
G1 X56.878 Y110.823 F1000
G1 X57.392 Y110.308 F1000
G1 X57.521 Y110.308 F1000
G1 X57.650 Y110.179 F1000
G1 X57.907 Y110.179 F1000
G1 X58.036 Y110.308 F1000
G1 X58.165 Y110.308 F1000
G1 X58.551 Y110.694 F1000
G1 X58.551 Y111.338 F1000
G1 X58.294 Y111.595 F1000
G1 X58.036 Y111.595 F1000
G1 X57.907 Y111.724 F1000
G1 X57.650 Y111.724 F1000
G1 X57.521 Y111.595 F1000
G1 X57.264 Y111.595 F1000
G1 X56.878 Y111.209 F1000
G0 Z3.0 ; Pen up

G0 X59.581 Y99.750 F3000 ; Travel to line 129
G0 Z0.0 ; Pen down
G1 X60.096 Y99.750 F1000
G1 X60.225 Y99.621 F1000
G1 X60.225 Y99.364 F1000
G1 X60.354 Y99.235 F1000
G1 X60.354 Y98.978 F1000
G1 X60.483 Y98.849 F1000
G1 X60.483 Y98.720 F1000
G1 X60.611 Y98.591 F1000
G1 X60.611 Y98.463 F1000
G1 X60.869 Y98.205 F1000
G1 X60.869 Y98.076 F1000
G1 X61.126 Y97.819 F1000
G1 X61.255 Y97.819 F1000
G1 X61.513 Y97.561 F1000
G1 X61.641 Y97.561 F1000
G1 X61.770 Y97.433 F1000
G1 X61.899 Y97.433 F1000
G1 X62.028 Y97.304 F1000
G1 X62.285 Y97.304 F1000
G1 X62.414 Y97.175 F1000
G1 X62.671 Y97.175 F1000
G1 X62.800 Y97.046 F1000
G1 X62.800 Y96.531 F1000
G1 X62.800 Y97.046 F1000
G1 X62.929 Y97.175 F1000
G1 X63.186 Y97.175 F1000
G1 X63.315 Y97.304 F1000
G1 X63.573 Y97.304 F1000
G1 X63.701 Y97.433 F1000
G1 X63.830 Y97.433 F1000
G1 X63.959 Y97.561 F1000
G1 X64.088 Y97.561 F1000
G1 X64.345 Y97.819 F1000
G1 X64.474 Y97.819 F1000
G1 X64.731 Y98.076 F1000
G1 X64.731 Y98.205 F1000
G1 X64.989 Y98.463 F1000
G1 X64.989 Y98.591 F1000
G1 X65.118 Y98.720 F1000
G1 X65.118 Y98.978 F1000
G1 X65.246 Y99.106 F1000
G1 X65.246 Y99.621 F1000
G1 X65.375 Y99.750 F1000
G1 X66.019 Y99.750 F1000
G1 X65.375 Y99.750 F1000
G1 X65.246 Y99.879 F1000
G1 X65.246 Y100.394 F1000
G1 X65.118 Y100.523 F1000
G1 X65.118 Y100.780 F1000
G1 X64.989 Y100.909 F1000
G1 X64.989 Y101.038 F1000
G1 X64.731 Y101.295 F1000
G1 X64.731 Y101.424 F1000
G1 X64.474 Y101.681 F1000
G1 X64.345 Y101.681 F1000
G1 X64.088 Y101.939 F1000
G1 X63.959 Y101.939 F1000
G1 X63.830 Y102.067 F1000
G1 X63.573 Y102.067 F1000
G1 X63.444 Y102.196 F1000
G1 X62.929 Y102.196 F1000
G1 X62.800 Y102.325 F1000
G1 X62.800 Y102.969 F1000
G1 X62.800 Y102.325 F1000
G1 X62.671 Y102.196 F1000
G1 X62.156 Y102.196 F1000
G1 X62.028 Y102.067 F1000
G1 X61.770 Y102.067 F1000
G1 X61.641 Y101.939 F1000
G1 X61.513 Y101.939 F1000
G1 X61.255 Y101.681 F1000
G1 X61.126 Y101.681 F1000
G1 X60.869 Y101.424 F1000
G1 X60.869 Y101.295 F1000
G1 X60.611 Y101.038 F1000
G1 X60.611 Y100.909 F1000
G1 X60.483 Y100.780 F1000
G1 X60.483 Y100.651 F1000
G1 X60.354 Y100.523 F1000
G1 X60.354 Y100.265 F1000
G1 X60.225 Y100.136 F1000
G1 X60.225 Y99.879 F1000
G1 X60.096 Y99.750 F1000
G0 Z3.0 ; Pen up

G0 X60.354 Y99.750 F3000 ; Travel to line 130
G0 Z0.0 ; Pen down
G1 X60.225 Y99.879 F1000
G1 X60.225 Y100.136 F1000
G1 X60.354 Y100.265 F1000
G1 X60.354 Y100.523 F1000
G1 X60.483 Y100.651 F1000
G1 X60.483 Y100.780 F1000
G1 X60.611 Y100.909 F1000
G1 X60.611 Y101.038 F1000
G1 X61.513 Y101.939 F1000
G1 X61.641 Y101.939 F1000
G1 X61.770 Y102.067 F1000
G1 X62.028 Y102.067 F1000
G1 X62.156 Y102.196 F1000
G1 X62.671 Y102.196 F1000
G1 X62.800 Y102.067 F1000
G1 X62.800 Y99.879 F1000
G1 X62.671 Y99.750 F1000
G0 Z3.0 ; Pen up

G0 X62.929 Y99.750 F3000 ; Travel to line 131
G0 Z0.0 ; Pen down
G1 X62.800 Y99.879 F1000
G1 X62.800 Y102.067 F1000
G1 X62.929 Y102.196 F1000
G1 X63.444 Y102.196 F1000
G1 X63.573 Y102.067 F1000
G1 X63.830 Y102.067 F1000
G1 X63.959 Y101.939 F1000
G1 X64.088 Y101.939 F1000
G1 X64.989 Y101.038 F1000
G1 X64.989 Y100.909 F1000
G1 X65.118 Y100.780 F1000
G1 X65.118 Y100.523 F1000
G1 X65.246 Y100.394 F1000
G1 X65.246 Y99.879 F1000
G1 X65.118 Y99.750 F1000
G0 Z3.0 ; Pen up

G0 X63.186 Y97.175 F3000 ; Travel to line 132
G0 Z0.0 ; Pen down
G1 X63.315 Y97.304 F1000
G1 X63.573 Y97.304 F1000
G1 X63.701 Y97.433 F1000
G1 X63.830 Y97.433 F1000
G1 X63.959 Y97.561 F1000
G1 X64.088 Y97.561 F1000
G1 X64.989 Y98.463 F1000
G1 X64.989 Y98.591 F1000
G1 X65.118 Y98.720 F1000
G1 X65.118 Y98.978 F1000
G1 X65.246 Y99.106 F1000
G1 X65.246 Y99.621 F1000
G1 X65.118 Y99.750 F1000
G1 X62.929 Y99.750 F1000
G1 X62.800 Y99.621 F1000
G1 X62.800 Y97.304 F1000
G1 X62.929 Y97.175 F1000
G0 Z3.0 ; Pen up

G0 X60.354 Y98.978 F3000 ; Travel to line 133
G0 Z0.0 ; Pen down
G1 X60.483 Y98.849 F1000
G1 X60.483 Y98.720 F1000
G1 X60.611 Y98.591 F1000
G1 X60.611 Y98.463 F1000
G1 X61.513 Y97.561 F1000
G1 X61.641 Y97.561 F1000
G1 X61.770 Y97.433 F1000
G1 X61.899 Y97.433 F1000
G1 X62.028 Y97.304 F1000
G1 X62.285 Y97.304 F1000
G1 X62.414 Y97.175 F1000
G1 X62.671 Y97.175 F1000
G1 X62.800 Y97.304 F1000
G1 X62.800 Y99.621 F1000
G1 X62.671 Y99.750 F1000
G1 X60.354 Y99.750 F1000
G1 X60.225 Y99.621 F1000
G1 X60.225 Y99.364 F1000
G1 X60.354 Y99.235 F1000
G0 Z3.0 ; Pen up

G0 X80.825 Y131.809 F3000 ; Travel to line 134
G0 Z0.0 ; Pen down
G1 X80.825 Y16.191 F1000
G0 Z3.0 ; Pen up

G0 X83.142 Y19.796 F3000 ; Travel to line 135
G0 Z0.0 ; Pen down
G1 X85.331 Y19.796 F1000
G1 X85.460 Y19.668 F1000
G1 X85.460 Y19.410 F1000
G1 X85.331 Y19.281 F1000
G1 X85.203 Y19.281 F1000
G1 X85.074 Y19.152 F1000
G1 X84.945 Y19.152 F1000
G1 X84.688 Y18.895 F1000
G1 X84.559 Y18.895 F1000
G1 X84.430 Y18.766 F1000
G1 X84.301 Y18.766 F1000
G1 X84.172 Y18.638 F1000
G1 X84.044 Y18.638 F1000
G1 X83.915 Y18.509 F1000
G1 X83.786 Y18.509 F1000
G1 X83.657 Y18.380 F1000
G1 X83.529 Y18.380 F1000
G1 X83.529 Y18.251 F1000
G1 X83.400 Y18.123 F1000
G1 X83.400 Y17.865 F1000
G1 X85.589 Y17.865 F1000
G1 X83.529 Y17.865 F1000
G1 X83.400 Y17.994 F1000
G1 X83.400 Y18.123 F1000
G1 X83.657 Y18.380 F1000
G1 X83.786 Y18.380 F1000
G1 X83.915 Y18.509 F1000
G1 X84.044 Y18.509 F1000
G1 X84.301 Y18.766 F1000
G1 X84.430 Y18.766 F1000
G1 X84.559 Y18.895 F1000
G1 X84.688 Y18.895 F1000
G1 X84.816 Y19.024 F1000
G1 X84.945 Y19.024 F1000
G1 X85.074 Y19.152 F1000
G1 X85.203 Y19.152 F1000
G1 X85.460 Y19.410 F1000
G1 X85.460 Y19.668 F1000
G1 X85.331 Y19.796 F1000
G0 Z3.0 ; Pen up

G0 X83.271 Y21.341 F3000 ; Travel to line 136
G0 Z0.0 ; Pen down
G1 X83.657 Y20.955 F1000
G1 X83.915 Y20.955 F1000
G1 X84.044 Y20.826 F1000
G1 X84.816 Y20.826 F1000
G1 X84.945 Y20.955 F1000
G1 X85.203 Y20.955 F1000
G1 X85.460 Y21.212 F1000
G1 X85.460 Y21.341 F1000
G1 X85.589 Y21.470 F1000
G1 X85.589 Y21.599 F1000
G1 X85.718 Y21.727 F1000
G1 X85.718 Y22.242 F1000
G1 X85.589 Y22.371 F1000
G1 X85.589 Y22.500 F1000
G1 X85.460 Y22.629 F1000
G1 X85.460 Y22.758 F1000
G1 X85.203 Y23.015 F1000
G1 X85.074 Y23.015 F1000
G1 X84.945 Y23.144 F1000
G1 X83.915 Y23.144 F1000
G1 X83.786 Y23.015 F1000
G1 X83.657 Y23.015 F1000
G1 X83.271 Y22.629 F1000
G1 X83.271 Y22.500 F1000
G1 X83.142 Y22.371 F1000
G1 X83.142 Y21.599 F1000
G1 X83.271 Y21.470 F1000
G0 Z3.0 ; Pen up

G0 X83.142 Y21.599 F3000 ; Travel to line 137
G0 Z0.0 ; Pen down
G1 X83.271 Y21.470 F1000
G1 X83.271 Y21.341 F1000
G1 X83.657 Y20.955 F1000
G1 X83.915 Y20.955 F1000
G1 X84.044 Y20.826 F1000
G1 X84.816 Y20.826 F1000
G1 X84.945 Y20.955 F1000
G1 X85.203 Y20.955 F1000
G1 X85.460 Y21.212 F1000
G1 X85.460 Y21.341 F1000
G1 X85.589 Y21.470 F1000
G1 X85.589 Y21.599 F1000
G1 X85.718 Y21.727 F1000
G1 X85.718 Y22.242 F1000
G1 X85.589 Y22.371 F1000
G1 X85.589 Y22.500 F1000
G1 X85.460 Y22.629 F1000
G1 X85.460 Y22.758 F1000
G1 X85.203 Y23.015 F1000
G1 X85.074 Y23.015 F1000
G1 X84.945 Y23.144 F1000
G1 X83.915 Y23.144 F1000
