; Blueprint to G-code
; Input: test_images/test3_geometric.png
; Generated with blueprint2gcode.py

G21 ; Set units to millimeters
G90 ; Absolute positioning
G0 Z3.0 ; Pen up
G0 X0 Y0 ; Move to origin

G0 X7.695 Y39.495 F3000 ; Travel to line 1
G0 Z0.0 ; Pen down
G1 X7.824 Y39.366 F1000
G1 X7.824 Y38.980 F1000
G1 X7.953 Y38.851 F1000
G1 X7.953 Y38.465 F1000
G1 X8.081 Y38.336 F1000
G1 X8.081 Y37.950 F1000
G1 X8.210 Y37.821 F1000
G1 X8.210 Y37.564 F1000
G1 X8.339 Y37.435 F1000
G1 X8.339 Y37.306 F1000
G1 X8.468 Y37.178 F1000
G1 X8.468 Y36.920 F1000
G1 X8.596 Y36.791 F1000
G1 X8.596 Y36.663 F1000
G1 X8.725 Y36.534 F1000
G1 X8.725 Y36.405 F1000
G1 X8.854 Y36.276 F1000
G1 X8.854 Y36.148 F1000
G1 X8.982 Y36.019 F1000
G1 X8.982 Y35.890 F1000
G1 X9.111 Y35.761 F1000
G1 X9.111 Y35.633 F1000
G1 X9.369 Y35.375 F1000
G1 X9.369 Y35.246 F1000
G1 X9.498 Y35.117 F1000
G1 X9.498 Y34.989 F1000
G1 X9.884 Y34.602 F1000
G1 X9.884 Y34.474 F1000
G1 X10.270 Y34.087 F1000
G1 X10.270 Y33.959 F1000
G1 X10.914 Y33.315 F1000
G1 X10.914 Y33.186 F1000
G1 X11.686 Y32.414 F1000
G1 X11.815 Y32.414 F1000
G1 X12.459 Y31.770 F1000
G1 X12.588 Y31.770 F1000
G1 X12.974 Y31.384 F1000
G1 X13.103 Y31.384 F1000
G1 X13.489 Y30.998 F1000
G1 X13.617 Y30.998 F1000
G1 X13.746 Y30.869 F1000
G1 X13.875 Y30.869 F1000
G1 X14.133 Y30.611 F1000
G1 X14.261 Y30.611 F1000
G1 X14.390 Y30.483 F1000
G1 X14.519 Y30.483 F1000
G1 X14.648 Y30.354 F1000
G1 X14.776 Y30.354 F1000
G1 X14.905 Y30.225 F1000
G1 X15.034 Y30.225 F1000
G1 X15.162 Y30.096 F1000
G1 X15.291 Y30.096 F1000
G1 X15.420 Y29.968 F1000
G1 X15.678 Y29.968 F1000
G1 X15.806 Y29.839 F1000
G1 X15.935 Y29.839 F1000
G1 X16.064 Y29.710 F1000
G1 X16.321 Y29.710 F1000
G1 X16.450 Y29.581 F1000
G1 X16.836 Y29.581 F1000
G1 X16.965 Y29.453 F1000
G1 X17.351 Y29.453 F1000
G1 X17.480 Y29.324 F1000
G1 X17.866 Y29.324 F1000
G1 X17.995 Y29.195 F1000
G1 X18.896 Y29.195 F1000
G1 X19.025 Y29.066 F1000
G1 X21.600 Y29.066 F1000
G1 X21.729 Y29.195 F1000
G1 X22.630 Y29.195 F1000
G1 X22.759 Y29.324 F1000
G1 X23.145 Y29.324 F1000
G1 X23.274 Y29.453 F1000
G1 X23.660 Y29.453 F1000
G1 X23.789 Y29.581 F1000
G1 X24.175 Y29.581 F1000
G1 X24.304 Y29.710 F1000
G1 X24.561 Y29.710 F1000
G1 X24.690 Y29.839 F1000
G1 X24.819 Y29.839 F1000
G1 X24.948 Y29.968 F1000
G1 X25.205 Y29.968 F1000
G1 X25.334 Y30.096 F1000
G1 X25.463 Y30.096 F1000
G1 X25.591 Y30.225 F1000
G1 X25.720 Y30.225 F1000
G1 X25.849 Y30.354 F1000
G1 X25.977 Y30.354 F1000
G1 X26.106 Y30.483 F1000
G1 X26.235 Y30.483 F1000
G1 X26.364 Y30.611 F1000
G1 X26.492 Y30.611 F1000
G1 X26.750 Y30.869 F1000
G1 X26.879 Y30.869 F1000
G1 X27.008 Y30.998 F1000
G1 X27.136 Y30.998 F1000
G1 X27.523 Y31.384 F1000
G1 X27.651 Y31.384 F1000
G1 X28.038 Y31.770 F1000
G1 X28.166 Y31.770 F1000
G1 X28.810 Y32.414 F1000
G1 X28.939 Y32.414 F1000
G1 X29.582 Y33.058 F1000
G1 X29.582 Y33.186 F1000
G1 X30.226 Y33.830 F1000
G1 X30.226 Y33.959 F1000
G1 X30.613 Y34.345 F1000
G1 X30.613 Y34.474 F1000
G1 X30.999 Y34.860 F1000
G1 X30.999 Y34.989 F1000
G1 X31.128 Y35.117 F1000
G1 X31.128 Y35.246 F1000
G1 X31.385 Y35.504 F1000
G1 X31.385 Y35.633 F1000
G1 X31.514 Y35.761 F1000
G1 X31.514 Y35.890 F1000
G1 X31.643 Y36.019 F1000
G1 X31.643 Y36.148 F1000
G1 X31.771 Y36.276 F1000
G1 X31.771 Y36.405 F1000
G1 X31.900 Y36.534 F1000
G1 X31.900 Y36.663 F1000
G1 X32.029 Y36.791 F1000
G1 X32.029 Y37.049 F1000
G1 X32.157 Y37.178 F1000
G1 X32.157 Y37.306 F1000
G1 X32.286 Y37.435 F1000
G1 X32.286 Y37.693 F1000
G1 X32.415 Y37.821 F1000
G1 X32.415 Y38.079 F1000
G1 X32.544 Y38.207 F1000
G1 X32.544 Y38.465 F1000
G1 X32.672 Y38.594 F1000
G1 X32.672 Y38.980 F1000
G1 X32.801 Y39.109 F1000
G1 X32.801 Y39.624 F1000
G1 X32.930 Y39.752 F1000
G1 X32.930 Y40.654 F1000
G1 X33.059 Y40.782 F1000
G1 X33.059 Y42.843 F1000
G1 X32.930 Y42.971 F1000
G1 X32.930 Y43.873 F1000
G1 X32.801 Y44.001 F1000
G1 X32.801 Y44.516 F1000
G1 X32.672 Y44.645 F1000
G1 X32.672 Y45.031 F1000
G1 X32.544 Y45.160 F1000
G1 X32.544 Y45.418 F1000
G1 X32.415 Y45.546 F1000
G1 X32.415 Y45.804 F1000
G1 X32.286 Y45.933 F1000
G1 X32.286 Y46.190 F1000
G1 X32.157 Y46.319 F1000
G1 X32.157 Y46.448 F1000
G1 X32.029 Y46.576 F1000
G1 X32.029 Y46.834 F1000
G1 X31.900 Y46.963 F1000
G1 X31.900 Y47.091 F1000
G1 X31.771 Y47.220 F1000
G1 X31.771 Y47.349 F1000
G1 X31.643 Y47.477 F1000
G1 X31.643 Y47.606 F1000
G1 X31.514 Y47.735 F1000
G1 X31.514 Y47.864 F1000
G1 X31.385 Y47.992 F1000
G1 X31.385 Y48.121 F1000
G1 X31.128 Y48.379 F1000
G1 X31.128 Y48.508 F1000
G1 X30.999 Y48.636 F1000
G1 X30.999 Y48.765 F1000
G1 X30.613 Y49.151 F1000
G1 X30.613 Y49.280 F1000
G1 X30.226 Y49.666 F1000
G1 X30.226 Y49.795 F1000
G1 X29.582 Y50.439 F1000
G1 X29.582 Y50.567 F1000
G1 X29.067 Y51.082 F1000
G1 X28.939 Y51.082 F1000
G1 X28.295 Y51.726 F1000
G1 X28.166 Y51.726 F1000
G1 X27.780 Y52.112 F1000
G1 X27.651 Y52.112 F1000
G1 X27.265 Y52.499 F1000
G1 X27.136 Y52.499 F1000
G1 X27.008 Y52.627 F1000
G1 X26.879 Y52.627 F1000
G1 X26.621 Y52.885 F1000
G1 X26.492 Y52.885 F1000
G1 X26.364 Y53.014 F1000
G1 X26.235 Y53.014 F1000
G1 X26.106 Y53.142 F1000
G1 X25.977 Y53.142 F1000
G1 X25.849 Y53.271 F1000
G1 X25.720 Y53.271 F1000
G1 X25.591 Y53.400 F1000
G1 X25.463 Y53.400 F1000
G1 X25.334 Y53.529 F1000
G1 X25.076 Y53.529 F1000
G1 X24.948 Y53.657 F1000
G1 X24.819 Y53.657 F1000
G1 X24.690 Y53.786 F1000
G1 X24.433 Y53.786 F1000
G1 X24.304 Y53.915 F1000
G1 X24.046 Y53.915 F1000
G1 X23.918 Y54.044 F1000
G1 X23.660 Y54.044 F1000
G1 X23.531 Y54.172 F1000
G1 X23.145 Y54.172 F1000
G1 X23.016 Y54.301 F1000
G1 X22.501 Y54.301 F1000
G1 X22.373 Y54.430 F1000
G1 X21.471 Y54.430 F1000
G1 X21.343 Y54.559 F1000
G1 X19.282 Y54.559 F1000
G1 X19.154 Y54.430 F1000
G1 X18.253 Y54.430 F1000
G1 X18.124 Y54.301 F1000
G1 X17.609 Y54.301 F1000
G1 X17.480 Y54.172 F1000
G1 X17.094 Y54.172 F1000
G1 X16.965 Y54.044 F1000
G1 X16.707 Y54.044 F1000
G1 X16.579 Y53.915 F1000
G1 X16.321 Y53.915 F1000
G1 X16.193 Y53.786 F1000
G1 X15.935 Y53.786 F1000
G1 X15.806 Y53.657 F1000
G1 X15.678 Y53.657 F1000
G1 X15.549 Y53.529 F1000
G1 X15.291 Y53.529 F1000
G1 X15.162 Y53.400 F1000
G1 X15.034 Y53.400 F1000
G1 X14.905 Y53.271 F1000
G1 X14.776 Y53.271 F1000
G1 X14.648 Y53.142 F1000
G1 X14.519 Y53.142 F1000
G1 X14.390 Y53.014 F1000
G1 X14.261 Y53.014 F1000
G1 X14.133 Y52.885 F1000
G1 X14.004 Y52.885 F1000
G1 X13.746 Y52.627 F1000
G1 X13.617 Y52.627 F1000
G1 X13.489 Y52.499 F1000
G1 X13.360 Y52.499 F1000
G1 X12.974 Y52.112 F1000
G1 X12.845 Y52.112 F1000
G1 X12.459 Y51.726 F1000
G1 X12.330 Y51.726 F1000
G1 X11.686 Y51.082 F1000
G1 X11.558 Y51.082 F1000
G1 X10.914 Y50.439 F1000
G1 X10.914 Y50.310 F1000
G1 X10.270 Y49.666 F1000
G1 X10.270 Y49.538 F1000
G1 X9.884 Y49.151 F1000
G1 X9.884 Y49.023 F1000
G1 X9.498 Y48.636 F1000
G1 X9.498 Y48.508 F1000
G1 X9.369 Y48.379 F1000
G1 X9.369 Y48.250 F1000
G1 X9.111 Y47.992 F1000
G1 X9.111 Y47.864 F1000
G1 X8.982 Y47.735 F1000
G1 X8.982 Y47.606 F1000
G1 X8.854 Y47.477 F1000
G1 X8.854 Y47.349 F1000
G1 X8.725 Y47.220 F1000
G1 X8.725 Y47.091 F1000
G1 X8.596 Y46.963 F1000
G1 X8.596 Y46.834 F1000
G1 X8.468 Y46.705 F1000
G1 X8.468 Y46.448 F1000
G1 X8.339 Y46.319 F1000
G1 X8.339 Y46.190 F1000
G1 X8.210 Y46.061 F1000
G1 X8.210 Y45.804 F1000
G1 X8.081 Y45.675 F1000
G1 X8.081 Y45.289 F1000
G1 X7.953 Y45.160 F1000
G1 X7.953 Y44.774 F1000
G1 X7.824 Y44.645 F1000
G1 X7.824 Y44.259 F1000
G1 X7.695 Y44.130 F1000
G1 X7.695 Y43.229 F1000
G1 X7.566 Y43.100 F1000
G1 X7.566 Y40.525 F1000
G1 X7.695 Y40.396 F1000
G0 Z3.0 ; Pen up

G0 X7.566 Y40.525 F3000 ; Travel to line 2
G0 Z0.0 ; Pen down
G1 X7.695 Y40.396 F1000
G1 X7.695 Y39.495 F1000
G1 X7.824 Y39.366 F1000
G1 X7.824 Y38.980 F1000
G1 X7.953 Y38.851 F1000
G1 X7.953 Y38.465 F1000
G1 X8.081 Y38.336 F1000
G1 X8.081 Y37.950 F1000
G1 X8.210 Y37.821 F1000
G1 X8.210 Y37.564 F1000
G1 X8.339 Y37.435 F1000
G1 X8.339 Y37.178 F1000
G1 X8.468 Y37.049 F1000
G1 X8.468 Y36.920 F1000
G1 X8.596 Y36.791 F1000
G1 X8.596 Y36.663 F1000
G1 X8.725 Y36.534 F1000
G1 X8.725 Y36.276 F1000
G1 X8.854 Y36.148 F1000
G1 X8.854 Y36.019 F1000
G1 X8.982 Y35.890 F1000
G1 X8.982 Y35.761 F1000
G1 X9.240 Y35.504 F1000
G1 X9.240 Y35.375 F1000
G1 X9.369 Y35.246 F1000
G1 X9.369 Y35.117 F1000
G1 X9.626 Y34.860 F1000
G1 X9.626 Y34.731 F1000
G1 X9.884 Y34.474 F1000
G1 X9.884 Y34.345 F1000
G1 X10.270 Y33.959 F1000
G1 X10.270 Y33.830 F1000
G1 X12.330 Y31.770 F1000
G1 X12.459 Y31.770 F1000
G1 X12.845 Y31.384 F1000
G1 X12.974 Y31.384 F1000
G1 X13.231 Y31.126 F1000
G1 X13.360 Y31.126 F1000
G1 X13.617 Y30.869 F1000
G1 X13.746 Y30.869 F1000
G1 X13.875 Y30.740 F1000
G1 X14.004 Y30.740 F1000
G1 X14.261 Y30.483 F1000
G1 X14.390 Y30.483 F1000
G1 X14.519 Y30.354 F1000
G1 X14.648 Y30.354 F1000
G1 X14.776 Y30.225 F1000
G1 X15.034 Y30.225 F1000
G1 X15.162 Y30.096 F1000
G1 X15.291 Y30.096 F1000
G1 X15.420 Y29.968 F1000
G1 X15.549 Y29.968 F1000
G1 X15.678 Y29.839 F1000
G1 X15.935 Y29.839 F1000
G1 X16.064 Y29.710 F1000
G1 X16.321 Y29.710 F1000
G1 X16.450 Y29.581 F1000
G1 X16.836 Y29.581 F1000
G1 X16.965 Y29.453 F1000
G1 X17.351 Y29.453 F1000
G1 X17.480 Y29.324 F1000
G1 X17.866 Y29.324 F1000
G1 X17.995 Y29.195 F1000
G1 X18.896 Y29.195 F1000
G1 X19.025 Y29.066 F1000
G1 X21.600 Y29.066 F1000
G1 X21.729 Y29.195 F1000
G1 X22.630 Y29.195 F1000
G1 X22.759 Y29.324 F1000
G1 X23.145 Y29.324 F1000
G1 X23.274 Y29.453 F1000
G1 X23.660 Y29.453 F1000
G1 X23.789 Y29.581 F1000
G1 X24.175 Y29.581 F1000
G1 X24.304 Y29.710 F1000
G1 X24.561 Y29.710 F1000
G1 X24.690 Y29.839 F1000
G1 X24.948 Y29.839 F1000
G1 X25.076 Y29.968 F1000
G1 X25.205 Y29.968 F1000
G1 X25.334 Y30.096 F1000
G1 X25.463 Y30.096 F1000
G1 X25.591 Y30.225 F1000
G1 X25.849 Y30.225 F1000
G1 X25.977 Y30.354 F1000
G1 X26.106 Y30.354 F1000
G1 X26.235 Y30.483 F1000
G1 X26.364 Y30.483 F1000
G1 X26.621 Y30.740 F1000
G1 X26.750 Y30.740 F1000
G1 X26.879 Y30.869 F1000
G1 X27.008 Y30.869 F1000
G1 X27.265 Y31.126 F1000
G1 X27.394 Y31.126 F1000
G1 X27.651 Y31.384 F1000
G1 X27.780 Y31.384 F1000
G1 X28.166 Y31.770 F1000
G1 X28.295 Y31.770 F1000
G1 X30.226 Y33.701 F1000
G1 X30.226 Y33.830 F1000
G1 X30.613 Y34.216 F1000
G1 X30.613 Y34.345 F1000
G1 X30.870 Y34.602 F1000
G1 X30.870 Y34.731 F1000
G1 X31.128 Y34.989 F1000
G1 X31.128 Y35.117 F1000
G1 X31.256 Y35.246 F1000
G1 X31.256 Y35.375 F1000
G1 X31.514 Y35.633 F1000
G1 X31.514 Y35.761 F1000
G1 X31.643 Y35.890 F1000
G1 X31.643 Y36.019 F1000
G1 X31.771 Y36.148 F1000
G1 X31.771 Y36.405 F1000
G1 X31.900 Y36.534 F1000
G1 X31.900 Y36.663 F1000
G1 X32.029 Y36.791 F1000
G1 X32.029 Y36.920 F1000
G1 X32.157 Y37.049 F1000
G1 X32.157 Y37.306 F1000
G1 X32.286 Y37.435 F1000
G1 X32.286 Y37.693 F1000
G1 X32.415 Y37.821 F1000
G1 X32.415 Y38.079 F1000
G1 X32.544 Y38.207 F1000
G1 X32.544 Y38.465 F1000
G1 X32.672 Y38.594 F1000
G1 X32.672 Y38.980 F1000
G1 X32.801 Y39.109 F1000
G1 X32.801 Y39.624 F1000
G1 X32.930 Y39.752 F1000
G1 X32.930 Y40.654 F1000
G1 X33.059 Y40.782 F1000
G1 X33.059 Y42.843 F1000
G1 X32.930 Y42.971 F1000
G1 X32.930 Y43.873 F1000
G1 X32.801 Y44.001 F1000
G1 X32.801 Y44.516 F1000
G1 X32.672 Y44.645 F1000
G1 X32.672 Y45.031 F1000
G1 X32.544 Y45.160 F1000
G1 X32.544 Y45.418 F1000
G1 X32.415 Y45.546 F1000
G1 X32.415 Y45.804 F1000
G1 X32.286 Y45.933 F1000
G1 X32.286 Y46.190 F1000
G1 X32.157 Y46.319 F1000
G1 X32.157 Y46.576 F1000
G1 X32.029 Y46.705 F1000
G1 X32.029 Y46.834 F1000
G1 X31.900 Y46.963 F1000
G1 X31.900 Y47.091 F1000
G1 X31.771 Y47.220 F1000
G1 X31.771 Y47.477 F1000
G1 X31.643 Y47.606 F1000
G1 X31.643 Y47.735 F1000
G1 X31.514 Y47.864 F1000
G1 X31.514 Y47.992 F1000
G1 X31.256 Y48.250 F1000
G1 X31.256 Y48.379 F1000
G1 X31.128 Y48.508 F1000
G1 X31.128 Y48.636 F1000
G1 X30.870 Y48.894 F1000
G1 X30.870 Y49.023 F1000
G1 X30.613 Y49.280 F1000
G1 X30.613 Y49.409 F1000
G1 X30.226 Y49.795 F1000
G1 X30.226 Y49.924 F1000
G1 X28.424 Y51.726 F1000
G1 X28.295 Y51.726 F1000
G1 X27.909 Y52.112 F1000
G1 X27.780 Y52.112 F1000
G1 X27.523 Y52.370 F1000
G1 X27.394 Y52.370 F1000
G1 X27.136 Y52.627 F1000
G1 X27.008 Y52.627 F1000
G1 X26.879 Y52.756 F1000
G1 X26.750 Y52.756 F1000
G1 X26.492 Y53.014 F1000
G1 X26.364 Y53.014 F1000
G1 X26.235 Y53.142 F1000
G1 X26.106 Y53.142 F1000
G1 X25.977 Y53.271 F1000
G1 X25.720 Y53.271 F1000
G1 X25.591 Y53.400 F1000
G1 X25.463 Y53.400 F1000
G1 X25.334 Y53.529 F1000
G1 X25.205 Y53.529 F1000
G1 X25.076 Y53.657 F1000
G1 X24.819 Y53.657 F1000
G1 X24.690 Y53.786 F1000
G1 X24.433 Y53.786 F1000
G1 X24.304 Y53.915 F1000
G1 X24.046 Y53.915 F1000
G1 X23.918 Y54.044 F1000
G1 X23.660 Y54.044 F1000
G1 X23.531 Y54.172 F1000
G1 X23.145 Y54.172 F1000
G1 X23.016 Y54.301 F1000
G1 X22.501 Y54.301 F1000
G1 X22.373 Y54.430 F1000
G1 X21.471 Y54.430 F1000
G1 X21.343 Y54.559 F1000
G1 X19.282 Y54.559 F1000
G1 X19.154 Y54.430 F1000
G1 X18.253 Y54.430 F1000
G1 X18.124 Y54.301 F1000
G1 X17.609 Y54.301 F1000
G1 X17.480 Y54.172 F1000
G1 X17.094 Y54.172 F1000
G1 X16.965 Y54.044 F1000
G1 X16.707 Y54.044 F1000
G1 X16.579 Y53.915 F1000
G1 X16.321 Y53.915 F1000
G1 X16.193 Y53.786 F1000
G1 X15.935 Y53.786 F1000
G1 X15.806 Y53.657 F1000
G1 X15.549 Y53.657 F1000
G1 X15.420 Y53.529 F1000
G1 X15.291 Y53.529 F1000
G1 X15.162 Y53.400 F1000
G1 X15.034 Y53.400 F1000
G1 X14.905 Y53.271 F1000
G1 X14.648 Y53.271 F1000
G1 X14.519 Y53.142 F1000
G1 X14.390 Y53.142 F1000
G1 X14.261 Y53.014 F1000
G1 X14.133 Y53.014 F1000
G1 X13.875 Y52.756 F1000
G1 X13.746 Y52.756 F1000
G1 X13.617 Y52.627 F1000
G1 X13.489 Y52.627 F1000
G1 X13.231 Y52.370 F1000
G1 X13.103 Y52.370 F1000
G1 X12.845 Y52.112 F1000
G1 X12.716 Y52.112 F1000
G1 X12.330 Y51.726 F1000
G1 X12.201 Y51.726 F1000
G1 X10.270 Y49.795 F1000
G1 X10.270 Y49.666 F1000
G1 X9.884 Y49.280 F1000
G1 X9.884 Y49.151 F1000
G1 X9.626 Y48.894 F1000
G1 X9.626 Y48.765 F1000
G1 X9.369 Y48.508 F1000
G1 X9.369 Y48.379 F1000
G1 X9.240 Y48.250 F1000
G1 X9.240 Y48.121 F1000
G1 X8.982 Y47.864 F1000
G1 X8.982 Y47.735 F1000
G1 X8.854 Y47.606 F1000
G1 X8.854 Y47.477 F1000
G1 X8.725 Y47.349 F1000
G1 X8.725 Y47.091 F1000
G1 X8.596 Y46.963 F1000
G1 X8.596 Y46.834 F1000
G1 X8.468 Y46.705 F1000
G1 X8.468 Y46.576 F1000
G1 X8.339 Y46.448 F1000
G1 X8.339 Y46.190 F1000
G1 X8.210 Y46.061 F1000
G1 X8.210 Y45.804 F1000
G1 X8.081 Y45.675 F1000
G1 X8.081 Y45.289 F1000
G1 X7.953 Y45.160 F1000
G1 X7.953 Y44.774 F1000
G1 X7.824 Y44.645 F1000
G1 X7.824 Y44.259 F1000
G1 X7.695 Y44.130 F1000
G1 X7.695 Y43.229 F1000
G1 X7.566 Y43.100 F1000
G0 Z3.0 ; Pen up

G0 X49.024 Y64.086 F3000 ; Travel to line 3
G0 Z0.0 ; Pen down
G1 X49.153 Y64.086 F1000
G1 X49.281 Y63.958 F1000
G1 X49.410 Y63.958 F1000
G1 X49.539 Y63.829 F1000
G1 X49.668 Y63.829 F1000
G1 X49.925 Y63.571 F1000
G1 X50.054 Y63.571 F1000
G1 X50.183 Y63.443 F1000
G1 X50.311 Y63.443 F1000
G1 X50.440 Y63.314 F1000
G1 X50.569 Y63.314 F1000
G1 X50.826 Y63.056 F1000
G1 X50.955 Y63.056 F1000
G1 X51.084 Y62.928 F1000
G1 X51.212 Y62.928 F1000
G1 X51.341 Y62.799 F1000
G1 X51.470 Y62.799 F1000
G1 X51.727 Y62.541 F1000
G1 X51.856 Y62.541 F1000
G1 X51.985 Y62.413 F1000
G1 X52.114 Y62.413 F1000
G1 X52.242 Y62.284 F1000
G1 X52.371 Y62.284 F1000
G1 X52.629 Y62.026 F1000
G1 X52.758 Y62.026 F1000
G1 X52.886 Y61.898 F1000
G1 X53.015 Y61.898 F1000
G1 X53.144 Y61.769 F1000
G1 X53.273 Y61.769 F1000
G1 X53.401 Y61.640 F1000
G1 X53.530 Y61.640 F1000
G1 X53.788 Y61.383 F1000
G1 X53.916 Y61.383 F1000
G1 X54.045 Y61.254 F1000
G1 X54.174 Y61.254 F1000
G1 X54.303 Y61.125 F1000
G1 X54.431 Y61.125 F1000
G1 X54.689 Y60.867 F1000
G1 X54.818 Y60.867 F1000
G1 X54.946 Y60.739 F1000
G1 X55.075 Y60.739 F1000
G1 X55.204 Y60.610 F1000
G1 X55.333 Y60.610 F1000
G1 X55.590 Y60.352 F1000
G1 X55.719 Y60.352 F1000
G1 X55.848 Y60.224 F1000
G1 X55.976 Y60.224 F1000
G1 X56.105 Y60.095 F1000
G1 X56.234 Y60.095 F1000
G1 X56.491 Y59.837 F1000
G1 X56.620 Y59.837 F1000
G1 X56.749 Y59.709 F1000
G1 X56.878 Y59.709 F1000
G1 X57.006 Y59.580 F1000
G1 X57.135 Y59.580 F1000
G1 X57.392 Y59.322 F1000
G1 X57.521 Y59.322 F1000
G1 X57.650 Y59.194 F1000
G1 X57.779 Y59.194 F1000
G1 X57.907 Y59.065 F1000
G1 X58.036 Y59.065 F1000
G1 X58.294 Y58.807 F1000
G1 X58.422 Y58.807 F1000
G1 X58.551 Y58.679 F1000
G1 X58.680 Y58.679 F1000
G1 X58.809 Y58.550 F1000
G1 X58.938 Y58.550 F1000
G1 X59.195 Y58.293 F1000
G1 X59.324 Y58.293 F1000
G1 X59.453 Y58.164 F1000
G1 X59.581 Y58.164 F1000
G1 X59.710 Y58.035 F1000
G1 X59.839 Y58.035 F1000
G1 X60.096 Y57.778 F1000
G1 X60.225 Y57.778 F1000
G1 X60.354 Y57.649 F1000
G1 X60.483 Y57.649 F1000
G1 X60.611 Y57.520 F1000
G1 X60.740 Y57.520 F1000
G1 X60.998 Y57.263 F1000
G1 X61.126 Y57.263 F1000
G1 X61.255 Y57.134 F1000
G1 X61.384 Y57.134 F1000
G1 X61.513 Y57.005 F1000
G1 X61.641 Y57.005 F1000
G1 X61.770 Y56.876 F1000
G1 X61.899 Y56.876 F1000
G1 X62.156 Y56.619 F1000
G1 X62.285 Y56.619 F1000
G1 X62.414 Y56.490 F1000
G1 X62.543 Y56.490 F1000
G1 X62.671 Y56.361 F1000
G1 X62.800 Y56.361 F1000
G1 X63.058 Y56.104 F1000
G1 X63.186 Y56.104 F1000
G1 X63.315 Y55.975 F1000
G1 X63.444 Y55.975 F1000
G1 X63.573 Y55.846 F1000
G1 X63.701 Y55.846 F1000
G1 X63.959 Y55.589 F1000
G1 X64.088 Y55.589 F1000
G1 X64.216 Y55.460 F1000
G1 X64.345 Y55.460 F1000
G1 X64.474 Y55.331 F1000
G1 X64.602 Y55.331 F1000
G1 X64.860 Y55.074 F1000
G1 X64.989 Y55.074 F1000
G1 X65.118 Y54.945 F1000
G1 X65.633 Y54.945 F1000
G1 X65.761 Y55.074 F1000
G1 X65.890 Y55.074 F1000
G1 X66.148 Y55.331 F1000
G1 X66.276 Y55.331 F1000
G1 X66.405 Y55.460 F1000
G1 X66.534 Y55.460 F1000
G1 X66.791 Y55.718 F1000
G1 X66.920 Y55.718 F1000
G1 X67.049 Y55.846 F1000
G1 X67.177 Y55.846 F1000
G1 X67.306 Y55.975 F1000
G1 X67.435 Y55.975 F1000
G1 X67.692 Y56.233 F1000
G1 X67.821 Y56.233 F1000
G1 X67.950 Y56.361 F1000
G1 X68.079 Y56.361 F1000
G1 X68.336 Y56.619 F1000
G1 X68.465 Y56.619 F1000
G1 X68.594 Y56.748 F1000
G1 X68.722 Y56.748 F1000
G1 X68.851 Y56.876 F1000
G1 X68.980 Y56.876 F1000
G1 X69.237 Y57.134 F1000
G1 X69.366 Y57.134 F1000
G1 X69.495 Y57.263 F1000
G1 X69.624 Y57.263 F1000
G1 X69.881 Y57.520 F1000
G1 X70.010 Y57.520 F1000
G1 X70.139 Y57.649 F1000
G1 X70.267 Y57.649 F1000
G1 X70.396 Y57.778 F1000
G1 X70.525 Y57.778 F1000
G1 X70.782 Y58.035 F1000
G1 X70.911 Y58.035 F1000
G1 X71.040 Y58.164 F1000
G1 X71.169 Y58.164 F1000
G1 X71.297 Y58.293 F1000
G1 X71.426 Y58.293 F1000
G1 X71.684 Y58.550 F1000
G1 X71.812 Y58.550 F1000
G1 X71.941 Y58.679 F1000
G1 X72.070 Y58.679 F1000
G1 X72.328 Y58.936 F1000
G1 X72.456 Y58.936 F1000
G1 X72.585 Y59.065 F1000
G1 X72.714 Y59.065 F1000
G1 X72.843 Y59.194 F1000
G1 X72.971 Y59.194 F1000
G1 X73.229 Y59.451 F1000
G1 X73.358 Y59.451 F1000
G1 X73.486 Y59.580 F1000
G1 X73.615 Y59.580 F1000
G1 X73.873 Y59.837 F1000
G1 X74.001 Y59.837 F1000
G1 X74.130 Y59.966 F1000
G1 X74.259 Y59.966 F1000
G1 X74.388 Y60.095 F1000
G1 X74.516 Y60.095 F1000
G1 X74.774 Y60.352 F1000
G1 X74.903 Y60.352 F1000
G1 X75.031 Y60.481 F1000
G1 X75.160 Y60.481 F1000
G1 X75.418 Y60.739 F1000
G1 X75.546 Y60.739 F1000
G1 X75.675 Y60.867 F1000
G1 X75.804 Y60.867 F1000
G1 X75.933 Y60.996 F1000
G1 X76.061 Y60.996 F1000
G1 X76.319 Y61.254 F1000
G1 X76.448 Y61.254 F1000
G1 X76.576 Y61.383 F1000
G1 X76.705 Y61.383 F1000
G1 X76.834 Y61.511 F1000
G1 X76.963 Y61.511 F1000
G1 X77.220 Y61.769 F1000
G1 X77.349 Y61.769 F1000
G1 X77.478 Y61.898 F1000
G1 X77.606 Y61.898 F1000
G1 X77.864 Y62.155 F1000
G1 X77.993 Y62.155 F1000
G1 X78.121 Y62.284 F1000
G1 X78.250 Y62.284 F1000
G1 X78.379 Y62.413 F1000
G1 X78.508 Y62.413 F1000
G1 X78.765 Y62.670 F1000
G1 X78.894 Y62.670 F1000
G1 X79.023 Y62.799 F1000
G1 X79.151 Y62.799 F1000
G1 X79.409 Y63.056 F1000
G1 X79.538 Y63.056 F1000
G1 X79.666 Y63.185 F1000
G1 X79.795 Y63.185 F1000
G1 X79.924 Y63.314 F1000
G1 X80.053 Y63.314 F1000
G1 X80.310 Y63.571 F1000
G1 X80.439 Y63.571 F1000
G1 X80.567 Y63.700 F1000
G1 X80.696 Y63.700 F1000
G1 X80.954 Y63.958 F1000
G1 X81.082 Y63.958 F1000
G1 X81.211 Y64.086 F1000
G1 X81.340 Y64.086 F1000
G1 X81.469 Y64.215 F1000
G1 X81.597 Y64.215 F1000
G1 X81.855 Y64.472 F1000
G1 X81.855 Y83.528 F1000
G1 X81.726 Y83.656 F1000
G1 X81.597 Y83.656 F1000
G1 X81.469 Y83.785 F1000
G1 X81.340 Y83.785 F1000
G1 X81.211 Y83.914 F1000
G1 X81.082 Y83.914 F1000
G1 X80.825 Y84.171 F1000
G1 X80.696 Y84.171 F1000
G1 X80.567 Y84.300 F1000
G1 X80.439 Y84.300 F1000
G1 X80.181 Y84.558 F1000
G1 X80.053 Y84.558 F1000
G1 X79.924 Y84.686 F1000
G1 X79.795 Y84.686 F1000
G1 X79.666 Y84.815 F1000
G1 X79.538 Y84.815 F1000
G1 X79.280 Y85.073 F1000
G1 X79.151 Y85.073 F1000
G1 X79.023 Y85.201 F1000
G1 X78.894 Y85.201 F1000
G1 X78.636 Y85.459 F1000
G1 X78.508 Y85.459 F1000
G1 X78.379 Y85.588 F1000
G1 X78.250 Y85.588 F1000
G1 X78.121 Y85.716 F1000
G1 X77.993 Y85.716 F1000
G1 X77.735 Y85.974 F1000
G1 X77.606 Y85.974 F1000
G1 X77.478 Y86.102 F1000
G1 X77.349 Y86.102 F1000
G1 X77.091 Y86.360 F1000
G1 X76.963 Y86.360 F1000
G1 X76.834 Y86.489 F1000
G1 X76.705 Y86.489 F1000
G1 X76.576 Y86.618 F1000
G1 X76.448 Y86.618 F1000
G1 X76.190 Y86.875 F1000
G1 X76.061 Y86.875 F1000
G1 X75.933 Y87.004 F1000
G1 X75.804 Y87.004 F1000
G1 X75.675 Y87.133 F1000
G1 X75.546 Y87.133 F1000
G1 X75.289 Y87.390 F1000
G1 X75.160 Y87.390 F1000
G1 X75.031 Y87.519 F1000
G1 X74.903 Y87.519 F1000
G1 X74.645 Y87.776 F1000
G1 X74.516 Y87.776 F1000
G1 X74.388 Y87.905 F1000
G1 X74.259 Y87.905 F1000
G1 X74.130 Y88.034 F1000
G1 X74.001 Y88.034 F1000
G1 X73.744 Y88.291 F1000
G1 X73.615 Y88.291 F1000
G1 X73.486 Y88.420 F1000
G1 X73.358 Y88.420 F1000
G1 X73.100 Y88.677 F1000
G1 X72.971 Y88.677 F1000
G1 X72.843 Y88.806 F1000
G1 X72.714 Y88.806 F1000
G1 X72.585 Y88.935 F1000
G1 X72.456 Y88.935 F1000
G1 X72.199 Y89.192 F1000
G1 X72.070 Y89.192 F1000
G1 X71.941 Y89.321 F1000
G1 X71.812 Y89.321 F1000
G1 X71.555 Y89.579 F1000
G1 X71.426 Y89.579 F1000
G1 X71.297 Y89.707 F1000
G1 X71.169 Y89.707 F1000
G1 X71.040 Y89.836 F1000
G1 X70.911 Y89.836 F1000
G1 X70.654 Y90.094 F1000
G1 X70.525 Y90.094 F1000
G1 X70.396 Y90.222 F1000
G1 X70.267 Y90.222 F1000
G1 X70.139 Y90.351 F1000
G1 X70.010 Y90.351 F1000
G1 X69.752 Y90.609 F1000
G1 X69.624 Y90.609 F1000
G1 X69.495 Y90.737 F1000
G1 X69.366 Y90.737 F1000
G1 X69.109 Y90.995 F1000
G1 X68.980 Y90.995 F1000
G1 X68.851 Y91.124 F1000
G1 X68.722 Y91.124 F1000
G1 X68.594 Y91.252 F1000
G1 X68.465 Y91.252 F1000
G1 X68.207 Y91.510 F1000
G1 X68.079 Y91.510 F1000
G1 X67.950 Y91.639 F1000
G1 X67.821 Y91.639 F1000
G1 X67.564 Y91.896 F1000
G1 X67.435 Y91.896 F1000
G1 X67.306 Y92.025 F1000
G1 X67.177 Y92.025 F1000
G1 X67.049 Y92.154 F1000
G1 X66.920 Y92.154 F1000
G1 X66.663 Y92.411 F1000
G1 X66.534 Y92.411 F1000
G1 X66.405 Y92.540 F1000
G1 X66.276 Y92.540 F1000
G1 X66.019 Y92.797 F1000
G1 X65.890 Y92.797 F1000
G1 X65.761 Y92.926 F1000
G1 X65.633 Y92.926 F1000
G1 X65.504 Y93.055 F1000
G1 X65.246 Y93.055 F1000
G1 X65.118 Y92.926 F1000
G1 X64.989 Y92.926 F1000
G1 X64.731 Y92.669 F1000
G1 X64.602 Y92.669 F1000
G1 X64.474 Y92.540 F1000
G1 X64.345 Y92.540 F1000
G1 X64.216 Y92.411 F1000
G1 X64.088 Y92.411 F1000
G1 X63.830 Y92.154 F1000
G1 X63.701 Y92.154 F1000
G1 X63.573 Y92.025 F1000
G1 X63.444 Y92.025 F1000
G1 X63.186 Y91.767 F1000
G1 X63.058 Y91.767 F1000
G1 X62.929 Y91.639 F1000
G1 X62.800 Y91.639 F1000
G1 X62.671 Y91.510 F1000
G1 X62.543 Y91.510 F1000
G1 X62.285 Y91.252 F1000
G1 X62.156 Y91.252 F1000
G1 X62.028 Y91.124 F1000
G1 X61.899 Y91.124 F1000
G1 X61.641 Y90.866 F1000
G1 X61.513 Y90.866 F1000
G1 X61.384 Y90.737 F1000
G1 X61.255 Y90.737 F1000
G1 X61.126 Y90.609 F1000
G1 X60.998 Y90.609 F1000
G1 X60.740 Y90.351 F1000
G1 X60.611 Y90.351 F1000
G1 X60.483 Y90.222 F1000
G1 X60.354 Y90.222 F1000
G1 X60.096 Y89.965 F1000
G1 X59.968 Y89.965 F1000
G1 X59.839 Y89.836 F1000
G1 X59.710 Y89.836 F1000
G1 X59.581 Y89.707 F1000
G1 X59.453 Y89.707 F1000
G1 X59.195 Y89.450 F1000
G1 X59.066 Y89.450 F1000
G1 X58.938 Y89.321 F1000
G1 X58.809 Y89.321 F1000
G1 X58.551 Y89.064 F1000
G1 X58.422 Y89.064 F1000
G1 X58.294 Y88.935 F1000
G1 X58.165 Y88.935 F1000
G1 X58.036 Y88.806 F1000
G1 X57.907 Y88.806 F1000
G1 X57.650 Y88.549 F1000
G1 X57.521 Y88.549 F1000
G1 X57.392 Y88.420 F1000
G1 X57.264 Y88.420 F1000
G1 X57.006 Y88.163 F1000
G1 X56.878 Y88.163 F1000
G1 X56.749 Y88.034 F1000
G1 X56.620 Y88.034 F1000
G1 X56.363 Y87.776 F1000
G1 X56.234 Y87.776 F1000
G1 X56.105 Y87.648 F1000
G1 X55.976 Y87.648 F1000
G1 X55.848 Y87.519 F1000
G1 X55.719 Y87.519 F1000
G1 X55.461 Y87.261 F1000
G1 X55.333 Y87.261 F1000
G1 X55.204 Y87.133 F1000
G1 X55.075 Y87.133 F1000
G1 X54.818 Y86.875 F1000
G1 X54.689 Y86.875 F1000
G1 X54.560 Y86.746 F1000
G1 X54.431 Y86.746 F1000
G1 X54.303 Y86.618 F1000
G1 X54.174 Y86.618 F1000
G1 X53.916 Y86.360 F1000
G1 X53.788 Y86.360 F1000
G1 X53.659 Y86.231 F1000
G1 X53.530 Y86.231 F1000
G1 X53.273 Y85.974 F1000
G1 X53.144 Y85.974 F1000
G1 X53.015 Y85.845 F1000
G1 X52.886 Y85.845 F1000
G1 X52.758 Y85.716 F1000
G1 X52.629 Y85.716 F1000
G1 X52.371 Y85.459 F1000
G1 X52.242 Y85.459 F1000
G1 X52.114 Y85.330 F1000
G1 X51.985 Y85.330 F1000
G1 X51.727 Y85.073 F1000
G1 X51.599 Y85.073 F1000
G1 X51.470 Y84.944 F1000
G1 X51.341 Y84.944 F1000
G1 X51.212 Y84.815 F1000
G1 X51.084 Y84.815 F1000
G1 X50.826 Y84.558 F1000
G1 X50.697 Y84.558 F1000
G1 X50.569 Y84.429 F1000
G1 X50.440 Y84.429 F1000
G1 X50.183 Y84.171 F1000
G1 X50.054 Y84.171 F1000
G1 X49.925 Y84.043 F1000
G1 X49.796 Y84.043 F1000
G1 X49.668 Y83.914 F1000
G1 X49.539 Y83.914 F1000
G1 X49.281 Y83.656 F1000
G1 X49.153 Y83.656 F1000
G1 X49.024 Y83.528 F1000
G1 X48.895 Y83.528 F1000
G1 X48.766 Y83.399 F1000
G1 X48.766 Y64.344 F1000
G1 X48.766 Y64.344 F1000
G1 X49.024 Y64.086 F1000
G1 X49.153 Y64.086 F1000
G1 X49.281 Y63.958 F1000
G1 X49.410 Y63.958 F1000
G1 X49.668 Y63.700 F1000
G1 X49.796 Y63.700 F1000
G1 X49.925 Y63.571 F1000
G1 X50.054 Y63.571 F1000
G1 X50.183 Y63.443 F1000
G1 X50.311 Y63.443 F1000
G1 X50.569 Y63.185 F1000
G1 X50.697 Y63.185 F1000
G1 X50.826 Y63.056 F1000
G1 X50.955 Y63.056 F1000
G1 X51.084 Y62.928 F1000
G1 X51.212 Y62.928 F1000
G1 X51.470 Y62.670 F1000
G1 X51.599 Y62.670 F1000
G1 X51.727 Y62.541 F1000
G1 X51.856 Y62.541 F1000
G1 X51.985 Y62.413 F1000
G1 X52.114 Y62.413 F1000
G1 X52.371 Y62.155 F1000
G1 X52.500 Y62.155 F1000
G1 X52.629 Y62.026 F1000
G1 X52.758 Y62.026 F1000
G1 X52.886 Y61.898 F1000
G1 X53.015 Y61.898 F1000
G1 X53.144 Y61.769 F1000
G1 X53.273 Y61.769 F1000
G1 X53.530 Y61.511 F1000
G1 X53.659 Y61.511 F1000
G1 X53.788 Y61.383 F1000
G1 X53.916 Y61.383 F1000
G1 X54.045 Y61.254 F1000
G1 X54.174 Y61.254 F1000
G1 X54.431 Y60.996 F1000
G1 X54.560 Y60.996 F1000
G1 X54.689 Y60.867 F1000
G1 X54.818 Y60.867 F1000
G1 X54.946 Y60.739 F1000
G1 X55.075 Y60.739 F1000
G1 X55.333 Y60.481 F1000
G1 X55.461 Y60.481 F1000
G1 X55.590 Y60.352 F1000
G1 X55.719 Y60.352 F1000
G1 X55.848 Y60.224 F1000
G1 X55.976 Y60.224 F1000
G1 X56.234 Y59.966 F1000
G1 X56.363 Y59.966 F1000
G1 X56.491 Y59.837 F1000
G1 X56.620 Y59.837 F1000
G1 X56.749 Y59.709 F1000
G1 X56.878 Y59.709 F1000
G1 X57.135 Y59.451 F1000
G1 X57.264 Y59.451 F1000
G1 X57.392 Y59.322 F1000
G1 X57.521 Y59.322 F1000
G1 X57.650 Y59.194 F1000
G1 X57.779 Y59.194 F1000
G1 X58.036 Y58.936 F1000
G1 X58.165 Y58.936 F1000
G1 X58.294 Y58.807 F1000
G1 X58.422 Y58.807 F1000
G1 X58.551 Y58.679 F1000
G1 X58.680 Y58.679 F1000
G1 X58.938 Y58.421 F1000
G1 X59.066 Y58.421 F1000
G1 X59.195 Y58.293 F1000
G1 X59.324 Y58.293 F1000
G1 X59.453 Y58.164 F1000
G1 X59.581 Y58.164 F1000
G1 X59.839 Y57.906 F1000
G1 X59.968 Y57.906 F1000
G1 X60.096 Y57.778 F1000
G1 X60.225 Y57.778 F1000
G1 X60.354 Y57.649 F1000
G1 X60.483 Y57.649 F1000
G1 X60.740 Y57.391 F1000
G1 X60.869 Y57.391 F1000
G1 X60.998 Y57.263 F1000
G1 X61.126 Y57.263 F1000
G1 X61.255 Y57.134 F1000
G1 X61.384 Y57.134 F1000
G1 X61.513 Y57.005 F1000
G1 X61.641 Y57.005 F1000
G1 X61.899 Y56.748 F1000
G1 X62.028 Y56.748 F1000
G1 X62.156 Y56.619 F1000
G1 X62.285 Y56.619 F1000
G1 X62.414 Y56.490 F1000
G1 X62.543 Y56.490 F1000
G1 X62.800 Y56.233 F1000
G1 X62.929 Y56.233 F1000
G1 X63.058 Y56.104 F1000
G1 X63.186 Y56.104 F1000
G1 X63.315 Y55.975 F1000
G1 X63.444 Y55.975 F1000
G1 X63.701 Y55.718 F1000
G1 X63.830 Y55.718 F1000
G1 X63.959 Y55.589 F1000
G1 X64.088 Y55.589 F1000
G1 X64.216 Y55.460 F1000
G1 X64.345 Y55.460 F1000
G1 X64.602 Y55.203 F1000
G1 X64.731 Y55.203 F1000
G1 X64.860 Y55.074 F1000
G1 X64.989 Y55.074 F1000
G1 X65.118 Y54.945 F1000
G1 X65.633 Y54.945 F1000
G1 X65.761 Y55.074 F1000
G1 X65.890 Y55.074 F1000
G1 X66.019 Y55.203 F1000
G1 X66.148 Y55.203 F1000
G1 X66.405 Y55.460 F1000
G1 X66.534 Y55.460 F1000
G1 X66.663 Y55.589 F1000
G1 X66.791 Y55.589 F1000
G1 X67.049 Y55.846 F1000
G1 X67.177 Y55.846 F1000
G1 X67.306 Y55.975 F1000
G1 X67.435 Y55.975 F1000
G1 X67.564 Y56.104 F1000
G1 X67.692 Y56.104 F1000
G1 X67.950 Y56.361 F1000
G1 X68.079 Y56.361 F1000
G1 X68.207 Y56.490 F1000
G1 X68.336 Y56.490 F1000
G1 X68.594 Y56.748 F1000
G1 X68.722 Y56.748 F1000
G1 X68.851 Y56.876 F1000
G1 X68.980 Y56.876 F1000
G1 X69.109 Y57.005 F1000
G1 X69.237 Y57.005 F1000
G1 X69.495 Y57.263 F1000
G1 X69.624 Y57.263 F1000
G1 X69.752 Y57.391 F1000
G1 X69.881 Y57.391 F1000
G1 X70.139 Y57.649 F1000
G1 X70.267 Y57.649 F1000
G1 X70.396 Y57.778 F1000
G1 X70.525 Y57.778 F1000
G1 X70.654 Y57.906 F1000
G1 X70.782 Y57.906 F1000
G1 X71.040 Y58.164 F1000
G1 X71.169 Y58.164 F1000
G1 X71.297 Y58.293 F1000
G1 X71.426 Y58.293 F1000
G1 X71.555 Y58.421 F1000
G1 X71.684 Y58.421 F1000
G1 X71.941 Y58.679 F1000
G1 X72.070 Y58.679 F1000
G1 X72.199 Y58.807 F1000
G1 X72.328 Y58.807 F1000
G1 X72.585 Y59.065 F1000
G1 X72.714 Y59.065 F1000
G1 X72.843 Y59.194 F1000
G1 X72.971 Y59.194 F1000
G1 X73.100 Y59.322 F1000
G1 X73.229 Y59.322 F1000
G1 X73.486 Y59.580 F1000
G1 X73.615 Y59.580 F1000
G1 X73.744 Y59.709 F1000
G1 X73.873 Y59.709 F1000
G1 X74.130 Y59.966 F1000
G1 X74.259 Y59.966 F1000
G1 X74.388 Y60.095 F1000
G1 X74.516 Y60.095 F1000
G1 X74.645 Y60.224 F1000
G1 X74.774 Y60.224 F1000
G1 X75.031 Y60.481 F1000
G1 X75.160 Y60.481 F1000
G1 X75.289 Y60.610 F1000
G1 X75.418 Y60.610 F1000
G1 X75.675 Y60.867 F1000
G1 X75.804 Y60.867 F1000
G1 X75.933 Y60.996 F1000
G1 X76.061 Y60.996 F1000
G1 X76.190 Y61.125 F1000
G1 X76.319 Y61.125 F1000
G1 X76.576 Y61.383 F1000
G1 X76.705 Y61.383 F1000
G1 X76.834 Y61.511 F1000
G1 X76.963 Y61.511 F1000
G1 X77.091 Y61.640 F1000
G1 X77.220 Y61.640 F1000
G1 X77.478 Y61.898 F1000
G1 X77.606 Y61.898 F1000
G1 X77.735 Y62.026 F1000
G1 X77.864 Y62.026 F1000
G1 X78.121 Y62.284 F1000
G1 X78.250 Y62.284 F1000
G1 X78.379 Y62.413 F1000
G1 X78.508 Y62.413 F1000
G1 X78.636 Y62.541 F1000
G1 X78.765 Y62.541 F1000
G1 X79.023 Y62.799 F1000
G1 X79.151 Y62.799 F1000
G1 X79.280 Y62.928 F1000
G1 X79.409 Y62.928 F1000
G1 X79.666 Y63.185 F1000
G1 X79.795 Y63.185 F1000
G1 X79.924 Y63.314 F1000
G1 X80.053 Y63.314 F1000
G1 X80.181 Y63.443 F1000
G1 X80.310 Y63.443 F1000
G1 X80.567 Y63.700 F1000
G1 X80.696 Y63.700 F1000
G1 X80.825 Y63.829 F1000
G1 X80.954 Y63.829 F1000
G1 X81.211 Y64.086 F1000
G1 X81.340 Y64.086 F1000
G1 X81.469 Y64.215 F1000
G1 X81.597 Y64.215 F1000
G1 X81.855 Y64.472 F1000
G1 X81.855 Y83.528 F1000
G1 X81.726 Y83.656 F1000
G1 X81.597 Y83.656 F1000
G1 X81.469 Y83.785 F1000
G1 X81.340 Y83.785 F1000
G1 X81.082 Y84.043 F1000
G1 X80.954 Y84.043 F1000
G1 X80.825 Y84.171 F1000
G1 X80.696 Y84.171 F1000
G1 X80.439 Y84.429 F1000
G1 X80.310 Y84.429 F1000
G1 X80.181 Y84.558 F1000
G1 X80.053 Y84.558 F1000
G1 X79.924 Y84.686 F1000
G1 X79.795 Y84.686 F1000
G1 X79.538 Y84.944 F1000
G1 X79.409 Y84.944 F1000
G1 X79.280 Y85.073 F1000
G1 X79.151 Y85.073 F1000
G1 X78.894 Y85.330 F1000
G1 X78.765 Y85.330 F1000
G1 X78.636 Y85.459 F1000
G1 X78.508 Y85.459 F1000
G1 X78.379 Y85.588 F1000
G1 X78.250 Y85.588 F1000
G1 X77.993 Y85.845 F1000
G1 X77.864 Y85.845 F1000
G1 X77.735 Y85.974 F1000
G1 X77.606 Y85.974 F1000
G1 X77.349 Y86.231 F1000
G1 X77.220 Y86.231 F1000
G1 X77.091 Y86.360 F1000
G1 X76.963 Y86.360 F1000
G1 X76.834 Y86.489 F1000
G1 X76.705 Y86.489 F1000
G1 X76.448 Y86.746 F1000
G1 X76.319 Y86.746 F1000
G1 X76.190 Y86.875 F1000
G1 X76.061 Y86.875 F1000
G1 X75.933 Y87.004 F1000
G1 X75.804 Y87.004 F1000
G1 X75.546 Y87.261 F1000
G1 X75.418 Y87.261 F1000
G1 X75.289 Y87.390 F1000
G1 X75.160 Y87.390 F1000
G1 X74.903 Y87.648 F1000
G1 X74.774 Y87.648 F1000
G1 X74.645 Y87.776 F1000
G1 X74.516 Y87.776 F1000
G1 X74.388 Y87.905 F1000
G1 X74.259 Y87.905 F1000
G1 X74.001 Y88.163 F1000
G1 X73.873 Y88.163 F1000
G1 X73.744 Y88.291 F1000
G1 X73.615 Y88.291 F1000
G1 X73.358 Y88.549 F1000
G1 X73.229 Y88.549 F1000
G1 X73.100 Y88.677 F1000
G1 X72.971 Y88.677 F1000
G1 X72.843 Y88.806 F1000
G1 X72.714 Y88.806 F1000
G1 X72.456 Y89.064 F1000
G1 X72.328 Y89.064 F1000
G1 X72.199 Y89.192 F1000
G1 X72.070 Y89.192 F1000
G1 X71.812 Y89.450 F1000
G1 X71.684 Y89.450 F1000
G1 X71.555 Y89.579 F1000
G1 X71.426 Y89.579 F1000
G1 X71.297 Y89.707 F1000
G1 X71.169 Y89.707 F1000
G1 X70.911 Y89.965 F1000
G1 X70.782 Y89.965 F1000
G1 X70.654 Y90.094 F1000
G1 X70.525 Y90.094 F1000
G1 X70.396 Y90.222 F1000
G1 X70.267 Y90.222 F1000
G1 X70.010 Y90.480 F1000
G1 X69.881 Y90.480 F1000
G1 X69.752 Y90.609 F1000
G1 X69.624 Y90.609 F1000
G1 X69.366 Y90.866 F1000
G1 X69.237 Y90.866 F1000
G1 X69.109 Y90.995 F1000
G1 X68.980 Y90.995 F1000
G1 X68.851 Y91.124 F1000
G1 X68.722 Y91.124 F1000
G1 X68.465 Y91.381 F1000
G1 X68.336 Y91.381 F1000
G1 X68.207 Y91.510 F1000
G1 X68.079 Y91.510 F1000
G1 X67.821 Y91.767 F1000
G1 X67.692 Y91.767 F1000
G1 X67.564 Y91.896 F1000
G1 X67.435 Y91.896 F1000
G1 X67.306 Y92.025 F1000
G1 X67.177 Y92.025 F1000
G1 X66.920 Y92.282 F1000
G1 X66.791 Y92.282 F1000
G1 X66.663 Y92.411 F1000
G1 X66.534 Y92.411 F1000
G1 X66.276 Y92.669 F1000
G1 X66.148 Y92.669 F1000
G1 X66.019 Y92.797 F1000
G1 X65.890 Y92.797 F1000
G1 X65.761 Y92.926 F1000
G1 X65.633 Y92.926 F1000
G1 X65.504 Y93.055 F1000
G1 X65.246 Y93.055 F1000
G1 X65.118 Y92.926 F1000
G1 X64.989 Y92.926 F1000
G1 X64.860 Y92.797 F1000
G1 X64.731 Y92.797 F1000
G1 X64.474 Y92.540 F1000
G1 X64.345 Y92.540 F1000
G1 X64.216 Y92.411 F1000
G1 X64.088 Y92.411 F1000
G1 X63.959 Y92.282 F1000
G1 X63.830 Y92.282 F1000
G1 X63.573 Y92.025 F1000
G1 X63.444 Y92.025 F1000
G1 X63.315 Y91.896 F1000
G1 X63.186 Y91.896 F1000
G1 X62.929 Y91.639 F1000
G1 X62.800 Y91.639 F1000
G1 X62.671 Y91.510 F1000
G1 X62.543 Y91.510 F1000
G1 X62.414 Y91.381 F1000
G1 X62.285 Y91.381 F1000
G1 X62.028 Y91.124 F1000
G1 X61.899 Y91.124 F1000
G1 X61.770 Y90.995 F1000
G1 X61.641 Y90.995 F1000
G1 X61.384 Y90.737 F1000
G1 X61.255 Y90.737 F1000
G1 X61.126 Y90.609 F1000
G1 X60.998 Y90.609 F1000
G1 X60.869 Y90.480 F1000
G1 X60.740 Y90.480 F1000
G1 X60.483 Y90.222 F1000
G1 X60.354 Y90.222 F1000
G1 X60.225 Y90.094 F1000
G1 X60.096 Y90.094 F1000
G1 X59.839 Y89.836 F1000
G1 X59.710 Y89.836 F1000
G1 X59.581 Y89.707 F1000
G1 X59.453 Y89.707 F1000
G1 X59.324 Y89.579 F1000
G1 X59.195 Y89.579 F1000
G1 X58.938 Y89.321 F1000
G1 X58.809 Y89.321 F1000
G1 X58.680 Y89.192 F1000
G1 X58.551 Y89.192 F1000
G1 X58.294 Y88.935 F1000
G1 X58.165 Y88.935 F1000
G1 X58.036 Y88.806 F1000
G1 X57.907 Y88.806 F1000
G1 X57.779 Y88.677 F1000
G1 X57.650 Y88.677 F1000
G1 X57.392 Y88.420 F1000
G1 X57.264 Y88.420 F1000
G1 X57.135 Y88.291 F1000
G1 X57.006 Y88.291 F1000
G1 X56.749 Y88.034 F1000
G1 X56.620 Y88.034 F1000
G1 X56.491 Y87.905 F1000
G1 X56.363 Y87.905 F1000
G1 X56.105 Y87.648 F1000
G1 X55.976 Y87.648 F1000
G1 X55.848 Y87.519 F1000
G1 X55.719 Y87.519 F1000
G1 X55.590 Y87.390 F1000
G1 X55.461 Y87.390 F1000
G1 X55.204 Y87.133 F1000
G1 X55.075 Y87.133 F1000
G1 X54.946 Y87.004 F1000
G1 X54.818 Y87.004 F1000
G1 X54.560 Y86.746 F1000
G1 X54.431 Y86.746 F1000
G1 X54.303 Y86.618 F1000
G1 X54.174 Y86.618 F1000
G1 X54.045 Y86.489 F1000
G1 X53.916 Y86.489 F1000
G1 X53.659 Y86.231 F1000
G1 X53.530 Y86.231 F1000
G1 X53.401 Y86.102 F1000
G1 X53.273 Y86.102 F1000
G1 X53.015 Y85.845 F1000
G1 X52.886 Y85.845 F1000
G1 X52.758 Y85.716 F1000
G1 X52.629 Y85.716 F1000
G1 X52.500 Y85.588 F1000
G1 X52.371 Y85.588 F1000
G1 X52.114 Y85.330 F1000
G1 X51.985 Y85.330 F1000
G1 X51.856 Y85.201 F1000
G1 X51.727 Y85.201 F1000
G1 X51.470 Y84.944 F1000
G1 X51.341 Y84.944 F1000
G1 X51.212 Y84.815 F1000
G1 X51.084 Y84.815 F1000
G1 X50.955 Y84.686 F1000
G1 X50.826 Y84.686 F1000
G1 X50.569 Y84.429 F1000
G1 X50.440 Y84.429 F1000
G1 X50.311 Y84.300 F1000
G1 X50.183 Y84.300 F1000
G1 X49.925 Y84.043 F1000
G1 X49.796 Y84.043 F1000
G1 X49.668 Y83.914 F1000
G1 X49.539 Y83.914 F1000
G1 X49.410 Y83.785 F1000
G1 X49.281 Y83.785 F1000
G1 X49.024 Y83.528 F1000
G1 X48.895 Y83.528 F1000
G1 X48.766 Y83.399 F1000
G0 Z3.0 ; Pen up

G0 X61.126 Y104.127 F3000 ; Travel to line 4
G0 Z0.0 ; Pen down
G1 X61.255 Y103.999 F1000
G1 X61.255 Y103.741 F1000
G1 X61.384 Y103.612 F1000
G1 X61.384 Y103.355 F1000
G1 X61.513 Y103.226 F1000
G1 X61.513 Y103.097 F1000
G1 X61.641 Y102.969 F1000
G1 X61.641 Y102.711 F1000
G1 X61.770 Y102.582 F1000
G1 X61.770 Y102.325 F1000
G1 X61.899 Y102.196 F1000
G1 X61.899 Y101.939 F1000
G1 X62.028 Y101.810 F1000
G1 X62.028 Y101.553 F1000
G1 X62.285 Y101.295 F1000
G1 X62.285 Y101.166 F1000
G1 X62.543 Y100.909 F1000
G1 X62.543 Y100.780 F1000
G1 X62.929 Y100.394 F1000
G1 X62.929 Y100.265 F1000
G1 X63.186 Y100.008 F1000
G1 X63.186 Y99.879 F1000
G1 X63.573 Y99.493 F1000
G1 X63.573 Y99.364 F1000
G1 X63.830 Y99.106 F1000
G1 X63.830 Y98.978 F1000
G1 X64.216 Y98.591 F1000
G1 X64.345 Y98.591 F1000
G1 X64.731 Y98.205 F1000
G1 X64.860 Y98.205 F1000
G1 X65.246 Y97.819 F1000
G1 X65.375 Y97.819 F1000
G1 X65.761 Y97.433 F1000
G1 X65.890 Y97.433 F1000
G1 X66.276 Y97.046 F1000
G1 X66.405 Y97.046 F1000
G1 X66.534 Y96.918 F1000
G1 X66.663 Y96.918 F1000
G1 X66.791 Y96.789 F1000
G1 X67.049 Y96.789 F1000
G1 X67.177 Y96.660 F1000
G1 X67.435 Y96.660 F1000
G1 X67.564 Y96.531 F1000
G1 X67.821 Y96.531 F1000
G1 X67.950 Y96.403 F1000
G1 X68.079 Y96.403 F1000
G1 X68.207 Y96.274 F1000
G1 X68.465 Y96.274 F1000
G1 X68.594 Y96.145 F1000
G1 X68.851 Y96.145 F1000
G1 X68.980 Y96.016 F1000
G1 X69.237 Y96.016 F1000
G1 X69.366 Y95.888 F1000
G1 X71.040 Y95.888 F1000
G1 X71.169 Y95.759 F1000
G1 X72.456 Y95.759 F1000
G1 X72.585 Y95.888 F1000
G1 X72.971 Y95.888 F1000
G1 X73.100 Y96.016 F1000
G1 X73.486 Y96.016 F1000
G1 X73.615 Y96.145 F1000
G1 X74.001 Y96.145 F1000
G1 X74.130 Y96.274 F1000
G1 X74.516 Y96.274 F1000
G1 X74.645 Y96.403 F1000
G1 X75.031 Y96.403 F1000
G1 X75.160 Y96.531 F1000
G1 X75.418 Y96.531 F1000
G1 X75.546 Y96.660 F1000
G1 X75.675 Y96.660 F1000
G1 X75.804 Y96.789 F1000
G1 X75.933 Y96.789 F1000
G1 X76.190 Y97.046 F1000
G1 X76.319 Y97.046 F1000
G1 X76.448 Y97.175 F1000
G1 X76.576 Y97.175 F1000
G1 X76.834 Y97.433 F1000
G1 X76.963 Y97.433 F1000
G1 X77.091 Y97.561 F1000
G1 X77.220 Y97.561 F1000
G1 X77.478 Y97.819 F1000
G1 X77.606 Y97.819 F1000
G1 X77.735 Y97.948 F1000
G1 X77.864 Y97.948 F1000
G1 X78.379 Y98.463 F1000
G1 X78.379 Y98.591 F1000
G1 X79.023 Y99.235 F1000
G1 X79.023 Y99.364 F1000
G1 X79.666 Y100.008 F1000
G1 X79.666 Y100.136 F1000
G1 X80.053 Y100.523 F1000
G1 X80.053 Y100.651 F1000
G1 X80.181 Y100.780 F1000
G1 X80.181 Y101.038 F1000
G1 X80.310 Y101.166 F1000
G1 X80.310 Y101.295 F1000
G1 X80.439 Y101.424 F1000
G1 X80.439 Y101.553 F1000
G1 X80.567 Y101.681 F1000
G1 X80.567 Y101.939 F1000
G1 X80.696 Y102.067 F1000
G1 X80.696 Y102.196 F1000
G1 X80.825 Y102.325 F1000
G1 X80.825 Y102.454 F1000
G1 X80.954 Y102.582 F1000
G1 X80.954 Y102.840 F1000
G1 X81.082 Y102.969 F1000
G1 X81.082 Y103.097 F1000
G1 X81.211 Y103.226 F1000
G1 X81.211 Y104.127 F1000
G1 X81.340 Y104.256 F1000
G1 X81.340 Y105.029 F1000
G1 X81.469 Y105.157 F1000
G1 X81.469 Y106.703 F1000
G1 X81.340 Y106.831 F1000
G1 X81.340 Y107.346 F1000
G1 X81.211 Y107.475 F1000
G1 X81.211 Y107.861 F1000
G1 X81.082 Y107.990 F1000
G1 X81.082 Y108.505 F1000
G1 X80.954 Y108.634 F1000
G1 X80.954 Y109.020 F1000
G1 X80.825 Y109.149 F1000
G1 X80.825 Y109.278 F1000
G1 X80.696 Y109.406 F1000
G1 X80.696 Y109.535 F1000
G1 X80.567 Y109.664 F1000
G1 X80.567 Y109.793 F1000
G1 X80.439 Y109.921 F1000
G1 X80.439 Y110.050 F1000
G1 X80.310 Y110.179 F1000
G1 X80.310 Y110.308 F1000
G1 X80.181 Y110.436 F1000
G1 X80.181 Y110.565 F1000
G1 X80.053 Y110.694 F1000
G1 X80.053 Y110.823 F1000
G1 X79.924 Y110.951 F1000
G1 X79.924 Y111.080 F1000
G1 X79.795 Y111.209 F1000
G1 X79.795 Y111.338 F1000
G1 X79.666 Y111.466 F1000
G1 X79.666 Y111.595 F1000
G1 X78.636 Y112.625 F1000
G1 X78.508 Y112.625 F1000
G1 X77.478 Y113.655 F1000
G1 X77.349 Y113.655 F1000
G1 X77.220 Y113.784 F1000
G1 X77.091 Y113.784 F1000
G1 X76.963 Y113.913 F1000
G1 X76.834 Y113.913 F1000
G1 X76.576 Y114.170 F1000
G1 X76.448 Y114.170 F1000
G1 X76.319 Y114.299 F1000
G1 X76.190 Y114.299 F1000
G1 X75.933 Y114.556 F1000
G1 X75.804 Y114.556 F1000
G1 X75.675 Y114.685 F1000
G1 X75.546 Y114.685 F1000
G1 X75.418 Y114.814 F1000
G1 X75.289 Y114.814 F1000
G1 X75.160 Y114.942 F1000
G1 X75.031 Y114.942 F1000
G1 X74.903 Y115.071 F1000
G1 X74.259 Y115.071 F1000
G1 X74.130 Y115.200 F1000
G1 X73.615 Y115.200 F1000
G1 X73.486 Y115.329 F1000
G1 X72.843 Y115.329 F1000
G1 X72.714 Y115.457 F1000
G1 X71.812 Y115.457 F1000
G1 X71.684 Y115.329 F1000
G1 X70.911 Y115.329 F1000
G1 X70.782 Y115.200 F1000
G1 X70.010 Y115.200 F1000
G1 X69.881 Y115.071 F1000
G1 X69.366 Y115.071 F1000
G1 X69.237 Y114.942 F1000
G1 X69.109 Y114.942 F1000
G1 X68.980 Y114.814 F1000
G1 X68.851 Y114.814 F1000
G1 X68.722 Y114.685 F1000
G1 X68.594 Y114.685 F1000
G1 X68.465 Y114.556 F1000
G1 X68.336 Y114.556 F1000
G1 X68.207 Y114.428 F1000
G1 X68.079 Y114.428 F1000
G1 X67.950 Y114.299 F1000
G1 X67.821 Y114.299 F1000
G1 X67.692 Y114.170 F1000
G1 X67.564 Y114.170 F1000
G1 X67.435 Y114.041 F1000
G1 X67.306 Y114.041 F1000
G1 X66.791 Y113.526 F1000
G1 X66.663 Y113.526 F1000
G1 X65.761 Y112.625 F1000
G1 X65.633 Y112.625 F1000
G1 X65.118 Y112.110 F1000
G1 X65.118 Y111.981 F1000
G1 X64.860 Y111.724 F1000
G1 X64.860 Y111.595 F1000
G1 X64.602 Y111.338 F1000
G1 X64.602 Y111.209 F1000
G1 X64.345 Y110.951 F1000
G1 X64.345 Y110.823 F1000
G1 X64.088 Y110.565 F1000
G1 X64.088 Y110.436 F1000
G1 X63.830 Y110.179 F1000
G1 X63.830 Y110.050 F1000
G1 X63.701 Y109.921 F1000
G1 X63.701 Y109.535 F1000
G1 X63.573 Y109.406 F1000
G1 X63.573 Y109.020 F1000
G1 X63.444 Y108.891 F1000
G1 X63.444 Y108.505 F1000
G1 X63.315 Y108.376 F1000
G1 X63.315 Y107.990 F1000
G1 X63.186 Y107.861 F1000
G1 X63.186 Y104.771 F1000
G1 X63.315 Y104.642 F1000
G1 X63.315 Y104.385 F1000
G1 X63.444 Y104.256 F1000
G1 X63.444 Y104.127 F1000
G1 X63.573 Y103.999 F1000
G1 X63.573 Y103.741 F1000
G1 X63.701 Y103.612 F1000
G1 X63.701 Y103.355 F1000
G1 X63.830 Y103.226 F1000
G1 X63.830 Y102.969 F1000
G1 X63.959 Y102.840 F1000
G1 X63.959 Y102.711 F1000
G1 X64.088 Y102.582 F1000
G1 X64.088 Y102.325 F1000
G1 X64.345 Y102.067 F1000
G1 X64.345 Y101.939 F1000
G1 X64.731 Y101.553 F1000
G1 X64.731 Y101.424 F1000
G1 X65.118 Y101.038 F1000
G1 X65.118 Y100.909 F1000
G1 X65.504 Y100.523 F1000
G1 X65.504 Y100.394 F1000
G1 X65.890 Y100.008 F1000
G1 X66.019 Y100.008 F1000
G1 X66.276 Y99.750 F1000
G1 X66.405 Y99.750 F1000
G1 X66.663 Y99.493 F1000
G1 X66.791 Y99.493 F1000
G1 X67.177 Y99.106 F1000
G1 X67.306 Y99.106 F1000
G1 X67.564 Y98.849 F1000
G1 X67.692 Y98.849 F1000
G1 X67.821 Y98.720 F1000
G1 X67.950 Y98.720 F1000
G1 X68.079 Y98.591 F1000
G1 X68.336 Y98.591 F1000
G1 X68.465 Y98.463 F1000
G1 X68.722 Y98.463 F1000
G1 X68.851 Y98.334 F1000
G1 X69.109 Y98.334 F1000
G1 X69.237 Y98.205 F1000
G1 X69.495 Y98.205 F1000
G1 X69.624 Y98.076 F1000
G1 X69.881 Y98.076 F1000
G1 X70.010 Y97.948 F1000
G1 X71.297 Y97.948 F1000
G1 X71.426 Y97.819 F1000
G1 X72.456 Y97.819 F1000
G1 X72.585 Y97.948 F1000
G1 X72.843 Y97.948 F1000
G1 X72.971 Y98.076 F1000
G1 X73.229 Y98.076 F1000
G1 X73.358 Y98.205 F1000
G1 X73.615 Y98.205 F1000
G1 X73.744 Y98.334 F1000
G1 X74.001 Y98.334 F1000
G1 X74.130 Y98.463 F1000
G1 X74.388 Y98.463 F1000
G1 X74.516 Y98.591 F1000
G1 X74.645 Y98.591 F1000
G1 X74.774 Y98.720 F1000
G1 X74.903 Y98.720 F1000
G1 X75.160 Y98.978 F1000
G1 X75.289 Y98.978 F1000
G1 X75.418 Y99.106 F1000
G1 X75.546 Y99.106 F1000
G1 X75.804 Y99.364 F1000
G1 X75.933 Y99.364 F1000
G1 X76.190 Y99.621 F1000
G1 X76.319 Y99.621 F1000
G1 X76.448 Y99.750 F1000
G1 X76.576 Y99.750 F1000
G1 X77.220 Y100.394 F1000
G1 X77.220 Y100.523 F1000
G1 X77.993 Y101.295 F1000
G1 X77.993 Y101.424 F1000
G1 X78.379 Y101.810 F1000
G1 X78.379 Y102.067 F1000
G1 X78.508 Y102.196 F1000
G1 X78.508 Y102.454 F1000
G1 X78.636 Y102.582 F1000
G1 X78.636 Y102.840 F1000
G1 X78.765 Y102.969 F1000
G1 X78.765 Y103.097 F1000
G1 X78.894 Y103.226 F1000
G1 X78.894 Y103.484 F1000
G1 X79.023 Y103.612 F1000
G1 X79.023 Y103.870 F1000
G1 X79.151 Y103.999 F1000
G1 X79.151 Y105.029 F1000
G1 X79.280 Y105.157 F1000
G1 X79.280 Y106.831 F1000
G1 X79.151 Y106.960 F1000
G1 X79.151 Y107.346 F1000
G1 X79.023 Y107.475 F1000
G1 X79.023 Y107.990 F1000
G1 X78.894 Y108.119 F1000
G1 X78.894 Y108.505 F1000
G1 X78.765 Y108.634 F1000
G1 X78.765 Y108.763 F1000
G1 X78.636 Y108.891 F1000
G1 X78.636 Y109.020 F1000
G1 X78.508 Y109.149 F1000
G1 X78.508 Y109.278 F1000
G1 X78.250 Y109.535 F1000
G1 X78.250 Y109.664 F1000
G1 X78.121 Y109.793 F1000
G1 X78.121 Y109.921 F1000
G1 X77.993 Y110.050 F1000
G1 X77.993 Y110.179 F1000
G1 X77.864 Y110.308 F1000
G1 X77.864 Y110.436 F1000
G1 X77.091 Y111.209 F1000
G1 X76.963 Y111.209 F1000
G1 X76.061 Y112.110 F1000
G1 X75.933 Y112.110 F1000
G1 X75.804 Y112.239 F1000
G1 X75.675 Y112.239 F1000
G1 X75.546 Y112.368 F1000
G1 X75.418 Y112.368 F1000
G1 X75.289 Y112.496 F1000
G1 X75.160 Y112.496 F1000
G1 X75.031 Y112.625 F1000
G1 X74.903 Y112.625 F1000
G1 X74.774 Y112.754 F1000
G1 X74.645 Y112.754 F1000
G1 X74.516 Y112.883 F1000
G1 X74.130 Y112.883 F1000
G1 X74.001 Y113.011 F1000
G1 X73.358 Y113.011 F1000
G1 X73.229 Y113.140 F1000
G1 X72.585 Y113.140 F1000
G1 X72.456 Y113.269 F1000
G1 X71.684 Y113.269 F1000
G1 X71.555 Y113.140 F1000
G1 X70.911 Y113.140 F1000
G1 X70.782 Y113.011 F1000
G1 X70.267 Y113.011 F1000
G1 X70.139 Y112.883 F1000
G1 X69.752 Y112.883 F1000
G1 X69.624 Y112.754 F1000
G1 X69.495 Y112.754 F1000
G1 X69.366 Y112.625 F1000
G1 X69.237 Y112.625 F1000
G1 X69.109 Y112.496 F1000
G1 X68.980 Y112.496 F1000
G1 X68.851 Y112.368 F1000
G1 X68.722 Y112.368 F1000
G1 X68.594 Y112.239 F1000
G1 X68.465 Y112.239 F1000
G1 X68.336 Y112.110 F1000
G1 X68.207 Y112.110 F1000
G1 X66.663 Y110.565 F1000
G1 X66.663 Y110.436 F1000
G1 X66.405 Y110.179 F1000
G1 X66.405 Y110.050 F1000
G1 X66.148 Y109.793 F1000
G1 X66.148 Y109.664 F1000
G1 X66.019 Y109.535 F1000
G1 X66.019 Y109.406 F1000
G1 X65.761 Y109.149 F1000
G1 X65.761 Y109.020 F1000
G1 X65.633 Y108.891 F1000
G1 X65.633 Y108.505 F1000
G1 X65.504 Y108.376 F1000
G1 X65.504 Y107.990 F1000
G1 X65.375 Y107.861 F1000
G1 X65.375 Y107.604 F1000
G1 X65.246 Y107.475 F1000
G1 X65.246 Y106.059 F1000
G1 X65.375 Y105.930 F1000
G1 X65.375 Y105.029 F1000
G1 X65.504 Y104.900 F1000
G1 X65.504 Y104.642 F1000
G1 X65.633 Y104.514 F1000
G1 X65.633 Y104.256 F1000
G1 X65.761 Y104.127 F1000
G1 X65.761 Y103.999 F1000
G1 X65.890 Y103.870 F1000
G1 X65.890 Y103.612 F1000
G1 X66.019 Y103.484 F1000
G1 X66.019 Y103.226 F1000
G1 X66.405 Y102.840 F1000
G1 X66.405 Y102.711 F1000
G1 X67.049 Y102.067 F1000
G1 X67.049 Y101.939 F1000
G1 X67.564 Y101.424 F1000
G1 X67.692 Y101.424 F1000
G1 X67.950 Y101.166 F1000
G1 X68.079 Y101.166 F1000
G1 X68.336 Y100.909 F1000
G1 X68.465 Y100.909 F1000
G1 X68.722 Y100.651 F1000
G1 X68.851 Y100.651 F1000
G1 X68.980 Y100.523 F1000
G1 X69.109 Y100.523 F1000
G1 X69.237 Y100.394 F1000
G1 X69.495 Y100.394 F1000
G1 X69.624 Y100.265 F1000
G1 X70.010 Y100.265 F1000
G1 X70.139 Y100.136 F1000
G1 X70.396 Y100.136 F1000
G1 X70.525 Y100.008 F1000
G1 X72.456 Y100.008 F1000
G1 X72.585 Y100.136 F1000
G1 X72.843 Y100.136 F1000
G1 X72.971 Y100.265 F1000
G1 X73.358 Y100.265 F1000
G1 X73.486 Y100.394 F1000
G1 X73.744 Y100.394 F1000
G1 X73.873 Y100.523 F1000
G1 X74.001 Y100.523 F1000
G1 X74.130 Y100.651 F1000
G1 X74.259 Y100.651 F1000
G1 X74.645 Y101.038 F1000
G1 X74.774 Y101.038 F1000
G1 X75.160 Y101.424 F1000
G1 X75.289 Y101.424 F1000
G1 X75.675 Y101.810 F1000
G1 X75.675 Y101.939 F1000
G1 X76.061 Y102.325 F1000
G1 X76.061 Y102.454 F1000
G1 X76.319 Y102.711 F1000
G1 X76.319 Y102.840 F1000
G1 X76.576 Y103.097 F1000
G1 X76.576 Y103.355 F1000
G1 X76.705 Y103.484 F1000
G1 X76.705 Y103.741 F1000
G1 X76.834 Y103.870 F1000
G1 X76.834 Y104.127 F1000
G1 X76.963 Y104.256 F1000
G1 X76.963 Y104.514 F1000
G1 X77.091 Y104.642 F1000
G1 X77.091 Y106.831 F1000
G1 X76.963 Y106.960 F1000
G1 X76.963 Y107.346 F1000
G1 X76.834 Y107.475 F1000
G1 X76.834 Y107.861 F1000
G1 X76.705 Y107.990 F1000
G1 X76.705 Y108.119 F1000
G1 X76.448 Y108.376 F1000
G1 X76.448 Y108.505 F1000
G1 X76.190 Y108.763 F1000
G1 X76.190 Y108.891 F1000
G1 X75.933 Y109.149 F1000
G1 X75.933 Y109.278 F1000
G1 X75.418 Y109.793 F1000
G1 X75.289 Y109.793 F1000
G1 X74.645 Y110.436 F1000
G1 X74.516 Y110.436 F1000
G1 X74.388 Y110.565 F1000
G1 X74.259 Y110.565 F1000
G1 X74.130 Y110.694 F1000
G1 X74.001 Y110.694 F1000
G1 X73.873 Y110.823 F1000
G1 X73.744 Y110.823 F1000
G1 X73.615 Y110.951 F1000
G1 X72.843 Y110.951 F1000
G1 X72.714 Y111.080 F1000
G1 X71.555 Y111.080 F1000
G1 X71.426 Y110.951 F1000
G1 X70.782 Y110.951 F1000
G1 X70.654 Y110.823 F1000
G1 X70.267 Y110.823 F1000
G1 X70.139 Y110.694 F1000
G1 X70.010 Y110.694 F1000
G1 X69.881 Y110.565 F1000
G1 X69.752 Y110.565 F1000
G1 X69.624 Y110.436 F1000
G1 X69.495 Y110.436 F1000
G1 X68.207 Y109.149 F1000
G1 X68.207 Y109.020 F1000
G1 X68.079 Y108.891 F1000
G1 X68.079 Y108.763 F1000
G1 X67.950 Y108.634 F1000
G1 X67.950 Y108.505 F1000
G1 X67.821 Y108.376 F1000
G1 X67.821 Y108.248 F1000
G1 X67.692 Y108.119 F1000
G1 X67.692 Y107.990 F1000
G1 X67.564 Y107.861 F1000
G1 X67.564 Y107.346 F1000
G1 X67.435 Y107.218 F1000
G1 X67.435 Y105.286 F1000
G1 X67.564 Y105.157 F1000
G1 X67.564 Y105.029 F1000
G1 X67.692 Y104.900 F1000
G1 X67.692 Y104.771 F1000
G1 X67.821 Y104.642 F1000
G1 X67.821 Y104.385 F1000
G1 X67.950 Y104.256 F1000
G1 X67.950 Y104.127 F1000
G1 X69.109 Y102.969 F1000
G1 X69.237 Y102.969 F1000
G1 X69.366 Y102.840 F1000
G1 X69.495 Y102.840 F1000
G1 X69.752 Y102.582 F1000
G1 X69.881 Y102.582 F1000
G1 X70.010 Y102.454 F1000
G1 X70.139 Y102.454 F1000
G1 X70.267 Y102.325 F1000
G1 X70.525 Y102.325 F1000
G1 X70.654 Y102.196 F1000
G1 X70.911 Y102.196 F1000
G1 X71.040 Y102.067 F1000
G1 X71.426 Y102.067 F1000
G1 X71.555 Y102.196 F1000
G1 X72.199 Y102.196 F1000
G1 X72.328 Y102.325 F1000
G1 X72.456 Y102.325 F1000
G1 X72.585 Y102.454 F1000
G1 X72.843 Y102.454 F1000
G1 X72.971 Y102.582 F1000
G1 X73.100 Y102.582 F1000
G1 X73.229 Y102.711 F1000
G1 X73.358 Y102.711 F1000
G1 X73.744 Y103.097 F1000
G1 X73.873 Y103.097 F1000
G1 X74.259 Y103.484 F1000
G1 X74.259 Y103.612 F1000
G1 X74.516 Y103.870 F1000
G1 X74.516 Y103.999 F1000
G1 X74.774 Y104.256 F1000
G1 X74.774 Y104.642 F1000
G1 X74.903 Y104.771 F1000
G1 X74.903 Y106.703 F1000
G1 X74.774 Y106.831 F1000
G1 X74.774 Y107.218 F1000
G1 X74.645 Y107.346 F1000
G1 X74.645 Y107.475 F1000
G1 X74.388 Y107.733 F1000
G1 X74.388 Y107.861 F1000
G1 X73.873 Y108.376 F1000
G1 X73.744 Y108.376 F1000
G1 X73.358 Y108.763 F1000
G1 X73.100 Y108.763 F1000
G1 X72.971 Y108.891 F1000
G1 X71.297 Y108.891 F1000
G1 X71.169 Y108.763 F1000
G1 X71.040 Y108.763 F1000
G1 X70.911 Y108.634 F1000
G1 X70.782 Y108.634 F1000
G1 X70.525 Y108.376 F1000
G1 X70.396 Y108.376 F1000
G1 X70.139 Y108.119 F1000
G1 X70.139 Y107.990 F1000
G1 X69.881 Y107.733 F1000
G1 X69.881 Y107.604 F1000
G1 X69.624 Y107.346 F1000
G1 X69.624 Y107.218 F1000
G1 X69.495 Y107.089 F1000
G1 X69.495 Y106.445 F1000
G1 X69.624 Y106.316 F1000
G1 X69.624 Y105.672 F1000
G1 X69.752 Y105.544 F1000
G1 X69.752 Y105.415 F1000
G1 X69.881 Y105.286 F1000
G1 X69.881 Y105.157 F1000
G1 X70.654 Y104.385 F1000
G1 X70.911 Y104.385 F1000
G1 X71.040 Y104.256 F1000
G1 X71.426 Y104.256 F1000
G1 X71.555 Y104.385 F1000
G1 X71.941 Y104.385 F1000
G1 X72.070 Y104.514 F1000
G1 X72.328 Y104.514 F1000
G1 X72.585 Y104.771 F1000
G1 X72.585 Y104.900 F1000
G1 X72.843 Y105.157 F1000
G1 X72.843 Y106.188 F1000
G1 X72.714 Y106.316 F1000
G1 X72.714 Y106.445 F1000
G1 X72.328 Y106.831 F1000
G1 X71.941 Y106.831 F1000
G1 X72.328 Y106.831 F1000
G1 X72.714 Y106.445 F1000
G1 X72.714 Y106.188 F1000
G1 X72.843 Y106.059 F1000
G1 X72.843 Y105.286 F1000
G1 X72.714 Y105.157 F1000
G1 X72.714 Y105.029 F1000
G1 X72.456 Y104.771 F1000
G1 X72.456 Y104.642 F1000
G1 X72.328 Y104.514 F1000
G1 X72.070 Y104.514 F1000
G1 X71.941 Y104.385 F1000
G1 X71.555 Y104.385 F1000
G1 X71.426 Y104.256 F1000
G1 X71.040 Y104.256 F1000
G1 X70.911 Y104.385 F1000
G1 X70.782 Y104.385 F1000
G1 X70.654 Y104.514 F1000
G1 X70.525 Y104.514 F1000
G1 X69.881 Y105.157 F1000
G1 X69.881 Y105.415 F1000
G1 X69.752 Y105.544 F1000
G1 X69.752 Y105.672 F1000
G1 X69.624 Y105.801 F1000
G1 X69.624 Y106.316 F1000
G1 X69.495 Y106.445 F1000
G1 X69.495 Y107.089 F1000
G1 X69.624 Y107.218 F1000
G1 X69.624 Y107.346 F1000
G1 X69.881 Y107.604 F1000
G1 X69.881 Y107.733 F1000
G1 X70.139 Y107.990 F1000
G1 X70.139 Y108.119 F1000
G1 X70.396 Y108.376 F1000
G1 X70.525 Y108.376 F1000
G1 X70.782 Y108.634 F1000
G1 X70.911 Y108.634 F1000
G1 X71.040 Y108.763 F1000
G1 X71.169 Y108.763 F1000
G1 X71.297 Y108.891 F1000
G1 X72.971 Y108.891 F1000
G1 X73.100 Y108.763 F1000
G1 X73.358 Y108.763 F1000
G1 X73.744 Y108.376 F1000
G1 X73.873 Y108.376 F1000
G1 X74.259 Y107.990 F1000
G1 X74.259 Y107.861 F1000
G1 X74.516 Y107.604 F1000
G1 X74.516 Y107.475 F1000
G1 X74.774 Y107.218 F1000
G1 X74.774 Y106.831 F1000
G1 X74.903 Y106.703 F1000
G1 X74.903 Y104.900 F1000
G1 X74.774 Y104.771 F1000
G1 X74.774 Y104.256 F1000
G1 X74.516 Y103.999 F1000
G1 X74.516 Y103.870 F1000
G1 X74.259 Y103.612 F1000
G1 X74.259 Y103.484 F1000
G1 X73.873 Y103.097 F1000
G1 X73.744 Y103.097 F1000
G1 X73.358 Y102.711 F1000
G1 X73.229 Y102.711 F1000
G1 X73.100 Y102.582 F1000
G1 X72.971 Y102.582 F1000
G1 X72.843 Y102.454 F1000
G1 X72.585 Y102.454 F1000
G1 X72.456 Y102.325 F1000
G1 X72.328 Y102.325 F1000
G1 X72.199 Y102.196 F1000
G1 X71.555 Y102.196 F1000
G1 X71.426 Y102.067 F1000
G1 X71.040 Y102.067 F1000
G1 X70.911 Y102.196 F1000
G1 X70.654 Y102.196 F1000
G1 X70.525 Y102.325 F1000
G1 X70.267 Y102.325 F1000
G1 X70.139 Y102.454 F1000
G1 X70.010 Y102.454 F1000
G1 X69.881 Y102.582 F1000
G1 X69.752 Y102.582 F1000
G1 X69.495 Y102.840 F1000
G1 X69.366 Y102.840 F1000
G1 X69.237 Y102.969 F1000
G1 X69.109 Y102.969 F1000
G1 X67.950 Y104.127 F1000
G1 X67.950 Y104.385 F1000
G1 X67.821 Y104.514 F1000
G1 X67.821 Y104.642 F1000
G1 X67.692 Y104.771 F1000
G1 X67.692 Y105.029 F1000
G1 X67.564 Y105.157 F1000
G1 X67.564 Y105.286 F1000
G1 X67.435 Y105.415 F1000
G1 X67.435 Y107.089 F1000
G1 X67.564 Y107.218 F1000
G1 X67.564 Y107.733 F1000
G1 X67.692 Y107.861 F1000
G1 X67.692 Y107.990 F1000
G1 X67.821 Y108.119 F1000
G1 X67.821 Y108.248 F1000
G1 X67.950 Y108.376 F1000
G1 X67.950 Y108.505 F1000
G1 X68.079 Y108.634 F1000
G1 X68.079 Y108.763 F1000
G1 X68.207 Y108.891 F1000
G1 X68.207 Y109.149 F1000
G1 X69.366 Y110.308 F1000
G1 X69.495 Y110.308 F1000
G1 X69.624 Y110.436 F1000
G1 X69.752 Y110.436 F1000
G1 X69.881 Y110.565 F1000
G1 X70.010 Y110.565 F1000
G1 X70.139 Y110.694 F1000
G1 X70.267 Y110.694 F1000
G1 X70.396 Y110.823 F1000
G1 X70.654 Y110.823 F1000
G1 X70.782 Y110.951 F1000
G1 X71.426 Y110.951 F1000
G1 X71.555 Y111.080 F1000
G1 X72.714 Y111.080 F1000
G1 X72.843 Y110.951 F1000
G1 X73.615 Y110.951 F1000
G1 X73.744 Y110.823 F1000
G1 X73.873 Y110.823 F1000
G1 X74.001 Y110.694 F1000
G1 X74.130 Y110.694 F1000
G1 X74.259 Y110.565 F1000
G1 X74.388 Y110.565 F1000
G1 X74.516 Y110.436 F1000
G1 X74.645 Y110.436 F1000
G1 X75.289 Y109.793 F1000
G1 X75.418 Y109.793 F1000
G1 X75.933 Y109.278 F1000
G1 X75.933 Y109.149 F1000
G1 X76.190 Y108.891 F1000
G1 X76.190 Y108.763 F1000
G1 X76.448 Y108.505 F1000
G1 X76.448 Y108.376 F1000
G1 X76.705 Y108.119 F1000
G1 X76.705 Y107.990 F1000
G1 X76.834 Y107.861 F1000
G1 X76.834 Y107.346 F1000
G1 X76.963 Y107.218 F1000
G1 X76.963 Y106.831 F1000
G1 X77.091 Y106.703 F1000
G1 X77.091 Y104.771 F1000
G1 X76.963 Y104.642 F1000
G1 X76.963 Y104.385 F1000
G1 X76.834 Y104.256 F1000
G1 X76.834 Y103.999 F1000
G1 X76.705 Y103.870 F1000
G1 X76.705 Y103.612 F1000
G1 X76.576 Y103.484 F1000
G1 X76.576 Y103.097 F1000
G1 X76.319 Y102.840 F1000
G1 X76.319 Y102.711 F1000
G1 X75.933 Y102.325 F1000
G1 X75.933 Y102.196 F1000
G1 X75.675 Y101.939 F1000
G1 X75.675 Y101.810 F1000
G1 X75.289 Y101.424 F1000
G1 X75.160 Y101.424 F1000
G1 X74.774 Y101.038 F1000
G1 X74.645 Y101.038 F1000
G1 X74.259 Y100.651 F1000
G1 X74.130 Y100.651 F1000
G1 X74.001 Y100.523 F1000
G1 X73.873 Y100.523 F1000
G1 X73.744 Y100.394 F1000
G1 X73.486 Y100.394 F1000
G1 X73.358 Y100.265 F1000
G1 X72.971 Y100.265 F1000
G1 X72.843 Y100.136 F1000
G1 X72.585 Y100.136 F1000
G1 X72.456 Y100.008 F1000
G1 X70.525 Y100.008 F1000
G1 X70.396 Y100.136 F1000
G1 X70.139 Y100.136 F1000
G1 X70.010 Y100.265 F1000
G1 X69.624 Y100.265 F1000
G1 X69.495 Y100.394 F1000
G1 X69.237 Y100.394 F1000
G1 X69.109 Y100.523 F1000
G1 X68.980 Y100.523 F1000
G1 X68.851 Y100.651 F1000
G1 X68.722 Y100.651 F1000
G1 X68.465 Y100.909 F1000
G1 X68.336 Y100.909 F1000
G1 X68.079 Y101.166 F1000
G1 X67.950 Y101.166 F1000
G1 X67.692 Y101.424 F1000
G1 X67.564 Y101.424 F1000
G1 X67.049 Y101.939 F1000
G1 X67.049 Y102.067 F1000
G1 X66.405 Y102.711 F1000
G1 X66.405 Y102.840 F1000
G1 X66.019 Y103.226 F1000
G1 X66.019 Y103.612 F1000
G1 X65.890 Y103.741 F1000
G1 X65.890 Y103.999 F1000
G1 X65.761 Y104.127 F1000
G1 X65.761 Y104.256 F1000
G1 X65.633 Y104.385 F1000
G1 X65.633 Y104.642 F1000
G1 X65.504 Y104.771 F1000
G1 X65.504 Y105.029 F1000
G1 X65.375 Y105.157 F1000
G1 X65.375 Y105.930 F1000
G1 X65.246 Y106.059 F1000
G1 X65.246 Y107.346 F1000
G1 X65.375 Y107.475 F1000
G1 X65.375 Y107.861 F1000
G1 X65.504 Y107.990 F1000
G1 X65.504 Y108.248 F1000
G1 X65.633 Y108.376 F1000
G1 X65.633 Y108.891 F1000
G1 X65.761 Y109.020 F1000
G1 X65.761 Y109.149 F1000
G1 X66.019 Y109.406 F1000
G1 X66.019 Y109.535 F1000
G1 X66.276 Y109.793 F1000
G1 X66.276 Y109.921 F1000
G1 X66.405 Y110.050 F1000
G1 X66.405 Y110.179 F1000
G1 X66.663 Y110.436 F1000
G1 X66.663 Y110.565 F1000
G1 X68.207 Y112.110 F1000
G1 X68.336 Y112.110 F1000
G1 X68.465 Y112.239 F1000
G1 X68.594 Y112.239 F1000
G1 X68.722 Y112.368 F1000
G1 X68.851 Y112.368 F1000
G1 X68.980 Y112.496 F1000
G1 X69.109 Y112.496 F1000
G1 X69.237 Y112.625 F1000
G1 X69.366 Y112.625 F1000
G1 X69.495 Y112.754 F1000
G1 X69.624 Y112.754 F1000
G1 X69.752 Y112.883 F1000
G1 X70.139 Y112.883 F1000
G1 X70.267 Y113.011 F1000
G1 X70.782 Y113.011 F1000
G1 X70.911 Y113.140 F1000
G1 X71.555 Y113.140 F1000
G1 X71.684 Y113.269 F1000
G1 X72.456 Y113.269 F1000
G1 X72.585 Y113.140 F1000
G1 X73.229 Y113.140 F1000
G1 X73.358 Y113.011 F1000
G1 X74.001 Y113.011 F1000
G1 X74.130 Y112.883 F1000
G1 X74.516 Y112.883 F1000
G1 X74.645 Y112.754 F1000
G1 X74.774 Y112.754 F1000
G1 X74.903 Y112.625 F1000
G1 X75.031 Y112.625 F1000
G1 X75.160 Y112.496 F1000
G1 X75.289 Y112.496 F1000
G1 X75.418 Y112.368 F1000
G1 X75.546 Y112.368 F1000
G1 X75.675 Y112.239 F1000
G1 X75.804 Y112.239 F1000
G1 X75.933 Y112.110 F1000
G1 X76.061 Y112.110 F1000
G1 X76.963 Y111.209 F1000
G1 X77.091 Y111.209 F1000
G1 X77.864 Y110.436 F1000
G1 X77.864 Y110.179 F1000
G1 X77.993 Y110.050 F1000
G1 X77.993 Y109.921 F1000
G1 X78.121 Y109.793 F1000
G1 X78.121 Y109.664 F1000
G1 X78.379 Y109.406 F1000
G1 X78.379 Y109.278 F1000
G1 X78.508 Y109.149 F1000
G1 X78.508 Y109.020 F1000
G1 X78.636 Y108.891 F1000
G1 X78.636 Y108.763 F1000
G1 X78.765 Y108.634 F1000
G1 X78.765 Y108.505 F1000
G1 X78.894 Y108.376 F1000
G1 X78.894 Y107.990 F1000
G1 X79.023 Y107.861 F1000
G1 X79.023 Y107.475 F1000
G1 X79.151 Y107.346 F1000
G1 X79.151 Y106.831 F1000
G1 X79.280 Y106.703 F1000
G1 X79.280 Y105.286 F1000
G1 X79.151 Y105.157 F1000
G1 X79.151 Y104.127 F1000
G1 X79.023 Y103.999 F1000
G1 X79.023 Y103.741 F1000
G1 X78.894 Y103.612 F1000
G1 X78.894 Y103.355 F1000
G1 X78.765 Y103.226 F1000
G1 X78.765 Y102.969 F1000
G1 X78.636 Y102.840 F1000
G1 X78.636 Y102.711 F1000
G1 X78.508 Y102.582 F1000
G1 X78.508 Y102.325 F1000
G1 X78.379 Y102.196 F1000
G1 X78.379 Y101.810 F1000
G1 X77.864 Y101.295 F1000
G1 X77.864 Y101.166 F1000
G1 X77.091 Y100.394 F1000
G1 X77.091 Y100.265 F1000
G1 X76.576 Y99.750 F1000
G1 X76.448 Y99.750 F1000
G1 X76.319 Y99.621 F1000
G1 X76.190 Y99.621 F1000
G1 X75.933 Y99.364 F1000
G1 X75.804 Y99.364 F1000
G1 X75.546 Y99.106 F1000
G1 X75.418 Y99.106 F1000
G1 X75.289 Y98.978 F1000
G1 X75.160 Y98.978 F1000
G1 X74.903 Y98.720 F1000
G1 X74.774 Y98.720 F1000
G1 X74.645 Y98.591 F1000
G1 X74.516 Y98.591 F1000
G1 X74.388 Y98.463 F1000
G1 X74.130 Y98.463 F1000
G1 X74.001 Y98.334 F1000
G1 X73.744 Y98.334 F1000
G1 X73.615 Y98.205 F1000
G1 X73.358 Y98.205 F1000
G1 X73.229 Y98.076 F1000
G1 X72.971 Y98.076 F1000
G1 X72.843 Y97.948 F1000
G1 X72.585 Y97.948 F1000
G1 X72.456 Y97.819 F1000
G1 X71.426 Y97.819 F1000
G1 X71.297 Y97.948 F1000
G1 X70.010 Y97.948 F1000
G1 X69.881 Y98.076 F1000
G1 X69.624 Y98.076 F1000
G1 X69.495 Y98.205 F1000
G1 X69.237 Y98.205 F1000
G1 X69.109 Y98.334 F1000
G1 X68.851 Y98.334 F1000
G1 X68.722 Y98.463 F1000
G1 X68.465 Y98.463 F1000
G1 X68.336 Y98.591 F1000
G1 X68.079 Y98.591 F1000
G1 X67.950 Y98.720 F1000
G1 X67.821 Y98.720 F1000
G1 X67.692 Y98.849 F1000
G1 X67.564 Y98.849 F1000
G1 X67.306 Y99.106 F1000
G1 X67.177 Y99.106 F1000
G1 X66.791 Y99.493 F1000
G1 X66.663 Y99.493 F1000
G1 X66.405 Y99.750 F1000
G1 X66.276 Y99.750 F1000
G1 X66.019 Y100.008 F1000
G1 X65.890 Y100.008 F1000
G1 X65.504 Y100.394 F1000
G1 X65.504 Y100.523 F1000
G1 X65.118 Y100.909 F1000
G1 X65.118 Y101.038 F1000
G1 X64.731 Y101.424 F1000
G1 X64.731 Y101.553 F1000
G1 X64.345 Y101.939 F1000
G1 X64.345 Y102.067 F1000
G1 X64.088 Y102.325 F1000
G1 X64.088 Y102.711 F1000
G1 X63.959 Y102.840 F1000
G1 X63.959 Y102.969 F1000
G1 X63.830 Y103.097 F1000
G1 X63.830 Y103.355 F1000
G1 X63.701 Y103.484 F1000
G1 X63.701 Y103.741 F1000
G1 X63.573 Y103.870 F1000
G1 X63.573 Y104.127 F1000
G1 X63.444 Y104.256 F1000
G1 X63.444 Y104.385 F1000
G1 X63.315 Y104.514 F1000
G1 X63.315 Y104.771 F1000
G1 X63.186 Y104.900 F1000
G1 X63.186 Y107.733 F1000
G1 X63.315 Y107.861 F1000
G1 X63.315 Y108.248 F1000
G1 X63.444 Y108.376 F1000
G1 X63.444 Y108.763 F1000
G1 X63.573 Y108.891 F1000
G1 X63.573 Y109.278 F1000
G1 X63.701 Y109.406 F1000
G1 X63.701 Y109.921 F1000
G1 X63.830 Y110.050 F1000
G1 X63.830 Y110.179 F1000
G1 X64.088 Y110.436 F1000
G1 X64.088 Y110.565 F1000
G1 X64.345 Y110.823 F1000
G1 X64.345 Y110.951 F1000
G1 X64.602 Y111.209 F1000
G1 X64.602 Y111.338 F1000
G1 X64.860 Y111.595 F1000
G1 X64.860 Y111.724 F1000
G1 X65.118 Y111.981 F1000
G1 X65.118 Y112.110 F1000
G1 X65.633 Y112.625 F1000
G1 X65.761 Y112.625 F1000
G1 X66.663 Y113.526 F1000
G1 X66.791 Y113.526 F1000
G1 X67.306 Y114.041 F1000
G1 X67.435 Y114.041 F1000
G1 X67.564 Y114.170 F1000
G1 X67.692 Y114.170 F1000
G1 X67.821 Y114.299 F1000
G1 X67.950 Y114.299 F1000
G1 X68.079 Y114.428 F1000
G1 X68.207 Y114.428 F1000
G1 X68.336 Y114.556 F1000
G1 X68.465 Y114.556 F1000
G1 X68.594 Y114.685 F1000
G1 X68.722 Y114.685 F1000
G1 X68.851 Y114.814 F1000
G1 X68.980 Y114.814 F1000
G1 X69.109 Y114.942 F1000
G1 X69.237 Y114.942 F1000
G1 X69.366 Y115.071 F1000
G1 X69.881 Y115.071 F1000
G1 X70.010 Y115.200 F1000
G1 X70.782 Y115.200 F1000
G1 X70.911 Y115.329 F1000
G1 X71.684 Y115.329 F1000
G1 X71.812 Y115.457 F1000
G1 X72.714 Y115.457 F1000
G1 X72.843 Y115.329 F1000
G1 X73.486 Y115.329 F1000
G1 X73.615 Y115.200 F1000
G1 X74.130 Y115.200 F1000
G1 X74.259 Y115.071 F1000
G1 X74.903 Y115.071 F1000
G1 X75.031 Y114.942 F1000
G1 X75.160 Y114.942 F1000
G1 X75.289 Y114.814 F1000
G1 X75.418 Y114.814 F1000
G1 X75.546 Y114.685 F1000
G1 X75.675 Y114.685 F1000
G1 X75.804 Y114.556 F1000
G1 X75.933 Y114.556 F1000
G1 X76.190 Y114.299 F1000
G1 X76.319 Y114.299 F1000
G1 X76.448 Y114.170 F1000
G1 X76.576 Y114.170 F1000
G1 X76.834 Y113.913 F1000
G1 X76.963 Y113.913 F1000
G1 X77.091 Y113.784 F1000
G1 X77.220 Y113.784 F1000
G1 X77.349 Y113.655 F1000
G1 X77.478 Y113.655 F1000
G1 X78.508 Y112.625 F1000
G1 X78.636 Y112.625 F1000
G1 X79.666 Y111.595 F1000
G1 X79.666 Y111.338 F1000
G1 X79.795 Y111.209 F1000
G1 X79.795 Y111.080 F1000
G1 X79.924 Y110.951 F1000
G1 X79.924 Y110.823 F1000
G1 X80.053 Y110.694 F1000
G1 X80.053 Y110.565 F1000
G1 X80.181 Y110.436 F1000
G1 X80.181 Y110.308 F1000
G1 X80.310 Y110.179 F1000
G1 X80.310 Y110.050 F1000
G1 X80.439 Y109.921 F1000
G1 X80.439 Y109.793 F1000
G1 X80.567 Y109.664 F1000
G1 X80.567 Y109.535 F1000
G1 X80.696 Y109.406 F1000
G1 X80.696 Y109.278 F1000
G1 X80.825 Y109.149 F1000
G1 X80.825 Y109.020 F1000
G1 X80.954 Y108.891 F1000
G1 X80.954 Y108.505 F1000
G1 X81.082 Y108.376 F1000
G1 X81.082 Y107.861 F1000
G1 X81.211 Y107.733 F1000
G1 X81.211 Y107.346 F1000
G1 X81.340 Y107.218 F1000
G1 X81.340 Y106.703 F1000
G1 X81.469 Y106.574 F1000
G1 X81.469 Y105.286 F1000
G1 X81.340 Y105.157 F1000
G1 X81.340 Y104.385 F1000
G1 X81.211 Y104.256 F1000
G1 X81.211 Y103.355 F1000
G1 X81.082 Y103.226 F1000
G1 X81.082 Y103.097 F1000
G1 X80.954 Y102.969 F1000
G1 X80.954 Y102.711 F1000
G1 X80.825 Y102.582 F1000
G1 X80.825 Y102.454 F1000
G1 X80.696 Y102.325 F1000
G1 X80.696 Y102.196 F1000
G1 X80.567 Y102.067 F1000
G1 X80.567 Y101.810 F1000
G1 X80.439 Y101.681 F1000
G1 X80.439 Y101.553 F1000
G1 X80.310 Y101.424 F1000
G1 X80.310 Y101.295 F1000
G1 X80.181 Y101.166 F1000
G1 X80.181 Y100.909 F1000
G1 X80.053 Y100.780 F1000
G1 X80.053 Y100.523 F1000
G1 X79.666 Y100.136 F1000
G1 X79.666 Y100.008 F1000
G1 X79.023 Y99.364 F1000
G1 X79.023 Y99.235 F1000
G1 X78.379 Y98.591 F1000
G1 X78.379 Y98.463 F1000
G1 X77.864 Y97.948 F1000
G1 X77.735 Y97.948 F1000
G1 X77.606 Y97.819 F1000
G1 X77.478 Y97.819 F1000
G1 X77.220 Y97.561 F1000
G1 X77.091 Y97.561 F1000
G1 X76.963 Y97.433 F1000
G1 X76.834 Y97.433 F1000
G1 X76.576 Y97.175 F1000
G1 X76.448 Y97.175 F1000
G1 X76.319 Y97.046 F1000
G1 X76.190 Y97.046 F1000
G1 X75.933 Y96.789 F1000
G1 X75.804 Y96.789 F1000
G1 X75.675 Y96.660 F1000
G1 X75.546 Y96.660 F1000
G1 X75.418 Y96.531 F1000
G1 X75.160 Y96.531 F1000
G1 X75.031 Y96.403 F1000
G1 X74.645 Y96.403 F1000
G1 X74.516 Y96.274 F1000
G1 X74.130 Y96.274 F1000
G1 X74.001 Y96.145 F1000
G1 X73.615 Y96.145 F1000
G1 X73.486 Y96.016 F1000
G1 X73.100 Y96.016 F1000
G1 X72.971 Y95.888 F1000
G1 X72.585 Y95.888 F1000
G1 X72.456 Y95.759 F1000
G1 X71.169 Y95.759 F1000
G1 X71.040 Y95.888 F1000
G1 X69.366 Y95.888 F1000
G1 X69.237 Y96.016 F1000
G1 X68.980 Y96.016 F1000
G1 X68.851 Y96.145 F1000
G1 X68.594 Y96.145 F1000
G1 X68.465 Y96.274 F1000
G1 X68.207 Y96.274 F1000
G1 X68.079 Y96.403 F1000
G1 X67.950 Y96.403 F1000
G1 X67.821 Y96.531 F1000
G1 X67.564 Y96.531 F1000
G1 X67.435 Y96.660 F1000
G1 X67.177 Y96.660 F1000
G1 X67.049 Y96.789 F1000
G1 X66.791 Y96.789 F1000
G1 X66.663 Y96.918 F1000
G1 X66.534 Y96.918 F1000
G1 X66.405 Y97.046 F1000
G1 X66.276 Y97.046 F1000
G1 X65.890 Y97.433 F1000
G1 X65.761 Y97.433 F1000
G1 X65.375 Y97.819 F1000
G1 X65.246 Y97.819 F1000
G1 X64.860 Y98.205 F1000
G1 X64.731 Y98.205 F1000
G1 X64.345 Y98.591 F1000
G1 X64.216 Y98.591 F1000
G1 X63.830 Y98.978 F1000
G1 X63.830 Y99.106 F1000
G1 X63.573 Y99.364 F1000
G1 X63.573 Y99.493 F1000
G1 X63.186 Y99.879 F1000
G1 X63.186 Y100.008 F1000
G1 X62.929 Y100.265 F1000
G1 X62.929 Y100.394 F1000
G1 X62.543 Y100.780 F1000
G1 X62.543 Y100.909 F1000
G1 X62.285 Y101.166 F1000
G1 X62.285 Y101.295 F1000
G1 X62.028 Y101.553 F1000
G1 X62.028 Y101.939 F1000
G1 X61.899 Y102.067 F1000
G1 X61.899 Y102.325 F1000
G1 X61.770 Y102.454 F1000
G1 X61.770 Y102.711 F1000
G1 X61.641 Y102.840 F1000
G1 X61.641 Y102.969 F1000
G1 X61.513 Y103.097 F1000
G1 X61.513 Y103.355 F1000
G1 X61.384 Y103.484 F1000
G1 X61.384 Y103.741 F1000
G1 X61.255 Y103.870 F1000
G1 X61.255 Y104.127 F1000
G1 X61.126 Y104.256 F1000
G1 X61.126 Y104.514 F1000
G0 Z3.0 ; Pen up

G0 X8.339 Y99.235 F3000 ; Travel to line 5
G0 Z0.0 ; Pen down
G1 X8.468 Y99.235 F1000
G1 X8.854 Y98.849 F1000
G1 X8.982 Y98.849 F1000
G1 X9.369 Y98.463 F1000
G1 X9.498 Y98.463 F1000
G1 X9.884 Y98.076 F1000
G1 X10.013 Y98.076 F1000
G1 X10.399 Y97.690 F1000
G1 X10.527 Y97.690 F1000
G1 X10.914 Y97.304 F1000
G1 X11.043 Y97.304 F1000
G1 X11.429 Y96.918 F1000
G1 X11.558 Y96.918 F1000
G1 X11.944 Y96.531 F1000
G1 X12.072 Y96.531 F1000
G1 X12.459 Y96.145 F1000
G1 X12.588 Y96.145 F1000
G1 X12.974 Y95.759 F1000
G1 X13.103 Y95.759 F1000
G1 X13.489 Y95.373 F1000
G1 X13.617 Y95.373 F1000
G1 X14.004 Y94.986 F1000
G1 X14.133 Y94.986 F1000
G1 X14.519 Y94.600 F1000
G1 X14.648 Y94.600 F1000
G1 X15.034 Y94.214 F1000
G1 X15.162 Y94.214 F1000
G1 X15.549 Y93.828 F1000
G1 X15.678 Y93.828 F1000
G1 X16.064 Y93.441 F1000
G1 X16.193 Y93.441 F1000
G1 X16.579 Y93.055 F1000
G1 X16.707 Y93.055 F1000
G1 X17.094 Y92.669 F1000
G1 X17.223 Y92.669 F1000
G1 X17.609 Y92.282 F1000
G1 X17.738 Y92.282 F1000
G1 X18.124 Y91.896 F1000
G1 X18.253 Y91.896 F1000
G1 X18.639 Y91.510 F1000
G1 X18.768 Y91.510 F1000
G1 X19.154 Y91.124 F1000
G1 X19.282 Y91.124 F1000
G1 X19.669 Y90.737 F1000
G1 X19.797 Y90.737 F1000
G1 X20.184 Y90.351 F1000
G1 X20.312 Y90.351 F1000
G1 X20.699 Y89.965 F1000
G1 X20.828 Y89.965 F1000
G1 X21.214 Y89.579 F1000
G1 X21.343 Y89.579 F1000
G1 X21.729 Y89.192 F1000
G1 X21.858 Y89.192 F1000
G1 X22.244 Y88.806 F1000
G1 X22.373 Y88.806 F1000
G1 X22.759 Y88.420 F1000
G1 X22.887 Y88.420 F1000
G1 X23.274 Y88.034 F1000
G1 X23.402 Y88.034 F1000
G1 X23.789 Y87.648 F1000
G1 X23.918 Y87.648 F1000
G1 X24.304 Y87.261 F1000
G1 X24.433 Y87.261 F1000
G1 X24.819 Y86.875 F1000
G1 X24.948 Y86.875 F1000
G1 X25.334 Y86.489 F1000
G1 X25.463 Y86.489 F1000
G1 X25.849 Y86.102 F1000
G1 X25.977 Y86.102 F1000
G1 X26.364 Y85.716 F1000
G1 X26.492 Y85.716 F1000
G1 X26.879 Y85.330 F1000
G1 X27.008 Y85.330 F1000
G1 X27.394 Y84.944 F1000
G1 X27.523 Y84.944 F1000
G1 X27.909 Y84.558 F1000
G1 X28.038 Y84.558 F1000
G1 X28.424 Y84.171 F1000
G1 X28.553 Y84.171 F1000
G1 X28.939 Y83.785 F1000
G1 X29.067 Y83.785 F1000
G1 X29.454 Y83.399 F1000
G1 X29.582 Y83.399 F1000
G1 X29.969 Y83.013 F1000
G1 X30.098 Y83.013 F1000
G1 X30.484 Y82.626 F1000
G1 X30.613 Y82.626 F1000
G1 X30.999 Y82.240 F1000
G1 X31.128 Y82.240 F1000
G1 X31.514 Y81.854 F1000
G1 X31.643 Y81.854 F1000
G1 X32.029 Y81.468 F1000
G1 X32.157 Y81.468 F1000
G1 X32.544 Y81.081 F1000
G1 X32.801 Y81.081 F1000
G1 X32.930 Y80.953 F1000
G1 X33.059 Y81.081 F1000
G1 X33.059 Y118.419 F1000
G1 X32.930 Y118.547 F1000
G1 X32.801 Y118.547 F1000
G1 X32.544 Y118.290 F1000
G1 X32.415 Y118.290 F1000
G1 X32.029 Y117.904 F1000
G1 X31.900 Y117.904 F1000
G1 X31.514 Y117.517 F1000
G1 X31.385 Y117.517 F1000
G1 X30.999 Y117.131 F1000
G1 X30.870 Y117.131 F1000
G1 X30.484 Y116.745 F1000
G1 X30.355 Y116.745 F1000
G1 X29.969 Y116.359 F1000
G1 X29.840 Y116.359 F1000
G1 X29.454 Y115.972 F1000
G1 X29.325 Y115.972 F1000
G1 X28.939 Y115.586 F1000
G1 X28.810 Y115.586 F1000
G1 X28.424 Y115.200 F1000
G1 X28.295 Y115.200 F1000
G1 X27.909 Y114.814 F1000
G1 X27.780 Y114.814 F1000
G1 X27.394 Y114.428 F1000
G1 X27.265 Y114.428 F1000
G1 X26.879 Y114.041 F1000
G1 X26.750 Y114.041 F1000
G1 X26.364 Y113.655 F1000
G1 X26.235 Y113.655 F1000
G1 X25.849 Y113.269 F1000
G1 X25.720 Y113.269 F1000
G1 X25.334 Y112.883 F1000
G1 X25.205 Y112.883 F1000
G1 X24.819 Y112.496 F1000
G1 X24.690 Y112.496 F1000
G1 X24.304 Y112.110 F1000
G1 X24.175 Y112.110 F1000
G1 X23.789 Y111.724 F1000
G1 X23.660 Y111.724 F1000
G1 X23.274 Y111.338 F1000
G1 X23.145 Y111.338 F1000
G1 X22.759 Y110.951 F1000
G1 X22.630 Y110.951 F1000
G1 X22.244 Y110.565 F1000
G1 X22.115 Y110.565 F1000
G1 X21.729 Y110.179 F1000
G1 X21.600 Y110.179 F1000
G1 X21.214 Y109.793 F1000
G1 X21.085 Y109.793 F1000
G1 X20.699 Y109.406 F1000
G1 X20.570 Y109.406 F1000
G1 X20.184 Y109.020 F1000
G1 X20.055 Y109.020 F1000
G1 X19.669 Y108.634 F1000
G1 X19.540 Y108.634 F1000
G1 X19.154 Y108.248 F1000
G1 X19.025 Y108.248 F1000
G1 X18.639 Y107.861 F1000
G1 X18.510 Y107.861 F1000
G1 X18.124 Y107.475 F1000
G1 X17.995 Y107.475 F1000
G1 X17.609 Y107.089 F1000
G1 X17.480 Y107.089 F1000
G1 X17.094 Y106.703 F1000
G1 X16.965 Y106.703 F1000
G1 X16.579 Y106.316 F1000
G1 X16.450 Y106.316 F1000
G1 X16.064 Y105.930 F1000
G1 X15.935 Y105.930 F1000
G1 X15.549 Y105.544 F1000
G1 X15.420 Y105.544 F1000
G1 X15.034 Y105.157 F1000
G1 X14.905 Y105.157 F1000
G1 X14.519 Y104.771 F1000
G1 X14.390 Y104.771 F1000
G1 X14.004 Y104.385 F1000
G1 X13.875 Y104.385 F1000
G1 X13.489 Y103.999 F1000
G1 X13.360 Y103.999 F1000
G1 X12.974 Y103.612 F1000
G1 X12.845 Y103.612 F1000
G1 X12.459 Y103.226 F1000
G1 X12.330 Y103.226 F1000
G1 X11.944 Y102.840 F1000
G1 X11.815 Y102.840 F1000
G1 X11.429 Y102.454 F1000
G1 X11.300 Y102.454 F1000
G1 X10.914 Y102.067 F1000
G1 X10.785 Y102.067 F1000
G1 X10.399 Y101.681 F1000
G1 X10.270 Y101.681 F1000
G1 X9.884 Y101.295 F1000
G1 X9.755 Y101.295 F1000
G1 X9.369 Y100.909 F1000
G1 X9.240 Y100.909 F1000
G1 X8.854 Y100.523 F1000
G1 X8.725 Y100.523 F1000
G1 X8.339 Y100.136 F1000
G1 X8.210 Y100.136 F1000
G1 X7.953 Y99.879 F1000
G1 X7.953 Y99.621 F1000
G0 Z3.0 ; Pen up

G0 X7.824 Y99.750 F3000 ; Travel to line 6
G0 Z0.0 ; Pen down
G1 X7.953 Y99.879 F1000
G1 X7.953 Y100.008 F1000
G1 X8.081 Y100.136 F1000
G1 X8.210 Y100.136 F1000
G1 X8.596 Y100.523 F1000
G1 X8.725 Y100.523 F1000
G1 X9.111 Y100.909 F1000
G1 X9.240 Y100.909 F1000
G1 X9.626 Y101.295 F1000
G1 X9.755 Y101.295 F1000
G1 X10.141 Y101.681 F1000
G1 X10.270 Y101.681 F1000
G1 X10.656 Y102.067 F1000
G1 X10.785 Y102.067 F1000
G1 X11.171 Y102.454 F1000
G1 X11.300 Y102.454 F1000
G1 X11.686 Y102.840 F1000
G1 X11.815 Y102.840 F1000
G1 X12.201 Y103.226 F1000
G1 X12.330 Y103.226 F1000
G1 X12.716 Y103.612 F1000
G1 X12.845 Y103.612 F1000
G1 X13.231 Y103.999 F1000
G1 X13.360 Y103.999 F1000
G1 X13.746 Y104.385 F1000
G1 X13.875 Y104.385 F1000
G1 X14.261 Y104.771 F1000
G1 X14.390 Y104.771 F1000
G1 X14.776 Y105.157 F1000
G1 X14.905 Y105.157 F1000
G1 X15.291 Y105.544 F1000
G1 X15.420 Y105.544 F1000
G1 X15.806 Y105.930 F1000
G1 X15.935 Y105.930 F1000
G1 X16.321 Y106.316 F1000
G1 X16.450 Y106.316 F1000
G1 X16.836 Y106.703 F1000
G1 X16.965 Y106.703 F1000
G1 X17.351 Y107.089 F1000
G1 X17.480 Y107.089 F1000
G1 X17.866 Y107.475 F1000
G1 X17.995 Y107.475 F1000
G1 X18.381 Y107.861 F1000
G1 X18.510 Y107.861 F1000
G1 X18.896 Y108.248 F1000
G1 X19.025 Y108.248 F1000
G1 X19.411 Y108.634 F1000
G1 X19.540 Y108.634 F1000
G1 X19.926 Y109.020 F1000
G1 X20.055 Y109.020 F1000
G1 X20.441 Y109.406 F1000
G1 X20.570 Y109.406 F1000
G1 X20.956 Y109.793 F1000
G1 X21.085 Y109.793 F1000
G1 X21.471 Y110.179 F1000
G1 X21.600 Y110.179 F1000
G1 X21.986 Y110.565 F1000
G1 X22.115 Y110.565 F1000
G1 X22.501 Y110.951 F1000
G1 X22.630 Y110.951 F1000
G1 X23.016 Y111.338 F1000
G1 X23.145 Y111.338 F1000
G1 X23.531 Y111.724 F1000
G1 X23.660 Y111.724 F1000
G1 X24.046 Y112.110 F1000
G1 X24.175 Y112.110 F1000
G1 X24.561 Y112.496 F1000
G1 X24.690 Y112.496 F1000
G1 X25.076 Y112.883 F1000
G1 X25.205 Y112.883 F1000
G1 X25.591 Y113.269 F1000
G1 X25.720 Y113.269 F1000
G1 X26.106 Y113.655 F1000
G1 X26.235 Y113.655 F1000
G1 X26.621 Y114.041 F1000
G1 X26.750 Y114.041 F1000
G1 X27.136 Y114.428 F1000
G1 X27.265 Y114.428 F1000
G1 X27.651 Y114.814 F1000
G1 X27.780 Y114.814 F1000
G1 X28.166 Y115.200 F1000
G1 X28.295 Y115.200 F1000
G1 X28.681 Y115.586 F1000
G1 X28.810 Y115.586 F1000
G1 X29.196 Y115.972 F1000
G1 X29.325 Y115.972 F1000
G1 X29.711 Y116.359 F1000
G1 X29.840 Y116.359 F1000
G1 X30.226 Y116.745 F1000
G1 X30.355 Y116.745 F1000
G1 X30.741 Y117.131 F1000
G1 X30.870 Y117.131 F1000
G1 X31.256 Y117.517 F1000
G1 X31.385 Y117.517 F1000
G1 X31.771 Y117.904 F1000
G1 X31.900 Y117.904 F1000
G1 X32.286 Y118.290 F1000
G1 X32.415 Y118.290 F1000
G1 X32.544 Y118.419 F1000
G1 X32.672 Y118.419 F1000
G1 X32.801 Y118.547 F1000
G1 X32.930 Y118.547 F1000
G1 X33.059 Y118.676 F1000
G1 X33.059 Y118.805 F1000
G1 X33.188 Y118.934 F1000
G1 X33.059 Y118.805 F1000
G1 X33.059 Y118.676 F1000
G1 X32.930 Y118.547 F1000
G1 X33.059 Y118.419 F1000
G1 X33.059 Y81.081 F1000
G1 X32.930 Y80.953 F1000
G1 X33.059 Y80.824 F1000
G1 X33.059 Y80.695 F1000
G1 X33.188 Y80.566 F1000
G1 X33.059 Y80.695 F1000
G1 X33.059 Y80.824 F1000
G1 X32.801 Y81.081 F1000
G1 X32.415 Y81.081 F1000
G1 X32.029 Y81.468 F1000
G1 X31.900 Y81.468 F1000
G1 X31.514 Y81.854 F1000
G1 X31.385 Y81.854 F1000
G1 X30.999 Y82.240 F1000
G1 X30.870 Y82.240 F1000
G1 X30.484 Y82.626 F1000
G1 X30.355 Y82.626 F1000
G1 X29.969 Y83.013 F1000
G1 X29.840 Y83.013 F1000
G1 X29.454 Y83.399 F1000
G1 X29.325 Y83.399 F1000
G1 X28.939 Y83.785 F1000
G1 X28.810 Y83.785 F1000
G1 X28.424 Y84.171 F1000
G1 X28.295 Y84.171 F1000
G1 X27.909 Y84.558 F1000
G1 X27.780 Y84.558 F1000
G1 X27.394 Y84.944 F1000
G1 X27.265 Y84.944 F1000
G1 X26.879 Y85.330 F1000
G1 X26.750 Y85.330 F1000
G1 X26.364 Y85.716 F1000
G1 X26.235 Y85.716 F1000
G1 X25.849 Y86.102 F1000
G1 X25.720 Y86.102 F1000
G1 X25.334 Y86.489 F1000
G1 X25.205 Y86.489 F1000
G1 X24.819 Y86.875 F1000
G1 X24.690 Y86.875 F1000
G1 X24.304 Y87.261 F1000
G1 X24.175 Y87.261 F1000
G1 X23.789 Y87.648 F1000
G1 X23.660 Y87.648 F1000
G1 X23.274 Y88.034 F1000
G1 X23.145 Y88.034 F1000
G1 X22.759 Y88.420 F1000
G1 X22.630 Y88.420 F1000
G1 X22.244 Y88.806 F1000
G1 X22.115 Y88.806 F1000
G1 X21.729 Y89.192 F1000
G1 X21.600 Y89.192 F1000
G1 X21.214 Y89.579 F1000
G1 X21.085 Y89.579 F1000
G1 X20.699 Y89.965 F1000
G1 X20.570 Y89.965 F1000
G1 X20.184 Y90.351 F1000
G1 X20.055 Y90.351 F1000
G1 X19.669 Y90.737 F1000
G1 X19.540 Y90.737 F1000
G1 X19.154 Y91.124 F1000
G1 X19.025 Y91.124 F1000
G1 X18.639 Y91.510 F1000
G1 X18.510 Y91.510 F1000
G1 X18.124 Y91.896 F1000
G1 X17.995 Y91.896 F1000
G1 X17.609 Y92.282 F1000
G1 X17.480 Y92.282 F1000
G1 X17.094 Y92.669 F1000
G1 X16.965 Y92.669 F1000
G1 X16.579 Y93.055 F1000
G1 X16.450 Y93.055 F1000
G1 X16.064 Y93.441 F1000
G1 X15.935 Y93.441 F1000
G1 X15.549 Y93.828 F1000
G1 X15.420 Y93.828 F1000
G1 X15.034 Y94.214 F1000
G1 X14.905 Y94.214 F1000
G1 X14.519 Y94.600 F1000
G1 X14.390 Y94.600 F1000
G1 X14.004 Y94.986 F1000
G1 X13.875 Y94.986 F1000
G1 X13.489 Y95.373 F1000
G1 X13.360 Y95.373 F1000
G1 X12.974 Y95.759 F1000
G1 X12.845 Y95.759 F1000
G1 X12.459 Y96.145 F1000
G1 X12.330 Y96.145 F1000
G1 X11.944 Y96.531 F1000
G1 X11.815 Y96.531 F1000
G1 X11.429 Y96.918 F1000
G1 X11.300 Y96.918 F1000
G1 X10.914 Y97.304 F1000
G1 X10.785 Y97.304 F1000
G1 X10.399 Y97.690 F1000
G1 X10.270 Y97.690 F1000
G1 X9.884 Y98.076 F1000
G1 X9.755 Y98.076 F1000
G1 X9.369 Y98.463 F1000
G1 X9.240 Y98.463 F1000
G1 X8.854 Y98.849 F1000
G1 X8.725 Y98.849 F1000
G1 X8.339 Y99.235 F1000
G1 X8.210 Y99.235 F1000
G1 X7.953 Y99.493 F1000
G1 X7.953 Y99.621 F1000
G1 X7.824 Y99.750 F1000
G1 X7.695 Y99.750 F1000
G0 Z3.0 ; Pen up

G0 X61.770 Y41.812 F3000 ; Travel to line 7
G0 Z0.0 ; Pen down
G1 X62.028 Y41.812 F1000
G1 X62.414 Y41.426 F1000
G1 X62.543 Y41.426 F1000
G1 X62.671 Y41.297 F1000
G1 X62.800 Y41.297 F1000
G1 X62.929 Y41.169 F1000
G1 X63.058 Y41.169 F1000
G1 X63.186 Y41.040 F1000
G1 X63.315 Y41.040 F1000
G1 X63.444 Y40.911 F1000
G1 X63.573 Y40.911 F1000
G1 X63.701 Y40.782 F1000
G1 X63.830 Y40.782 F1000
G1 X63.959 Y40.654 F1000
G1 X64.088 Y40.654 F1000
G1 X64.216 Y40.525 F1000
G1 X64.345 Y40.525 F1000
G1 X64.474 Y40.396 F1000
G1 X64.602 Y40.396 F1000
G1 X64.731 Y40.267 F1000
G1 X64.860 Y40.267 F1000
G1 X64.989 Y40.139 F1000
G1 X65.118 Y40.139 F1000
G1 X65.246 Y40.010 F1000
G1 X65.375 Y40.010 F1000
G1 X65.504 Y39.881 F1000
G1 X65.633 Y39.881 F1000
G1 X65.761 Y39.752 F1000
G1 X65.890 Y39.752 F1000
G1 X66.019 Y39.624 F1000
G1 X66.148 Y39.624 F1000
G1 X66.276 Y39.495 F1000
G1 X66.405 Y39.495 F1000
G1 X66.534 Y39.366 F1000
G1 X66.663 Y39.366 F1000
G1 X66.791 Y39.237 F1000
G1 X66.920 Y39.237 F1000
G1 X67.049 Y39.109 F1000
G1 X67.177 Y39.109 F1000
G1 X67.306 Y38.980 F1000
G1 X67.435 Y38.980 F1000
G1 X67.564 Y38.851 F1000
G1 X67.564 Y38.722 F1000
G1 X67.692 Y38.594 F1000
G1 X67.692 Y37.950 F1000
G1 X67.821 Y37.821 F1000
G1 X67.821 Y37.178 F1000
G1 X67.950 Y37.049 F1000
G1 X67.950 Y36.276 F1000
G1 X68.079 Y36.148 F1000
G1 X68.079 Y35.504 F1000
G1 X68.207 Y35.375 F1000
G1 X68.207 Y34.602 F1000
G1 X68.336 Y34.474 F1000
G1 X68.336 Y33.701 F1000
G1 X68.465 Y33.572 F1000
G1 X68.465 Y32.929 F1000
G1 X68.594 Y32.800 F1000
G1 X68.594 Y32.414 F1000
G1 X68.722 Y32.285 F1000
G1 X68.594 Y32.156 F1000
G1 X68.851 Y32.414 F1000
G1 X68.980 Y32.414 F1000
G1 X70.911 Y34.345 F1000
G1 X70.911 Y34.474 F1000
G1 X73.229 Y36.791 F1000
G1 X73.358 Y36.791 F1000
G1 X73.486 Y36.920 F1000
G1 X73.615 Y36.791 F1000
G1 X74.259 Y36.791 F1000
G1 X74.388 Y36.663 F1000
G1 X75.031 Y36.663 F1000
G1 X75.160 Y36.534 F1000
G1 X75.804 Y36.534 F1000
G1 X75.933 Y36.405 F1000
G1 X76.448 Y36.405 F1000
G1 X76.576 Y36.276 F1000
G1 X77.220 Y36.276 F1000
G1 X77.349 Y36.148 F1000
G1 X77.993 Y36.148 F1000
G1 X78.121 Y36.019 F1000
G1 X78.765 Y36.019 F1000
G1 X78.894 Y35.890 F1000
G1 X79.666 Y35.890 F1000
G1 X79.924 Y35.633 F1000
G1 X79.666 Y35.890 F1000
G1 X79.666 Y36.019 F1000
G1 X79.538 Y36.148 F1000
G1 X79.538 Y36.405 F1000
G1 X79.409 Y36.534 F1000
G1 X79.409 Y36.663 F1000
G1 X79.280 Y36.791 F1000
G1 X79.280 Y36.920 F1000
G1 X79.151 Y37.049 F1000
G1 X79.151 Y37.178 F1000
G1 X79.023 Y37.306 F1000
G1 X79.023 Y37.435 F1000
G1 X78.894 Y37.564 F1000
G1 X78.894 Y37.693 F1000
G1 X78.765 Y37.821 F1000
G1 X78.765 Y37.950 F1000
G1 X78.636 Y38.079 F1000
G1 X78.636 Y38.207 F1000
G1 X78.508 Y38.336 F1000
G1 X78.508 Y38.465 F1000
G1 X78.379 Y38.594 F1000
G1 X78.379 Y38.722 F1000
G1 X78.250 Y38.851 F1000
G1 X78.250 Y38.980 F1000
G1 X78.121 Y39.109 F1000
G1 X78.121 Y39.237 F1000
G1 X77.993 Y39.366 F1000
G1 X77.993 Y39.495 F1000
G1 X77.864 Y39.624 F1000
G1 X77.864 Y39.752 F1000
G1 X77.735 Y39.881 F1000
G1 X77.735 Y40.010 F1000
G1 X77.606 Y40.139 F1000
G1 X77.606 Y40.267 F1000
G1 X77.478 Y40.396 F1000
G1 X77.478 Y40.525 F1000
G1 X77.349 Y40.654 F1000
G1 X77.349 Y40.782 F1000
G1 X77.220 Y40.911 F1000
G1 X77.220 Y41.040 F1000
G1 X77.091 Y41.169 F1000
G1 X77.091 Y41.297 F1000
G1 X76.963 Y41.426 F1000
G1 X76.963 Y42.199 F1000
G1 X77.091 Y42.328 F1000
G1 X77.091 Y42.456 F1000
G1 X77.220 Y42.585 F1000
G1 X77.220 Y42.714 F1000
G1 X77.349 Y42.843 F1000
G1 X77.349 Y42.971 F1000
G1 X77.478 Y43.100 F1000
G1 X77.478 Y43.229 F1000
G1 X77.606 Y43.358 F1000
G1 X77.606 Y43.486 F1000
G1 X77.735 Y43.615 F1000
G1 X77.735 Y43.744 F1000
G1 X77.864 Y43.873 F1000
G1 X77.864 Y44.001 F1000
G1 X77.993 Y44.130 F1000
G1 X77.993 Y44.259 F1000
G1 X78.121 Y44.388 F1000
G1 X78.121 Y44.516 F1000
G1 X78.250 Y44.645 F1000
G1 X78.250 Y44.774 F1000
G1 X78.508 Y45.031 F1000
G1 X78.508 Y45.160 F1000
G1 X78.636 Y45.289 F1000
G1 X78.636 Y45.418 F1000
G1 X78.765 Y45.546 F1000
G1 X78.765 Y45.675 F1000
G1 X78.894 Y45.804 F1000
G1 X78.894 Y45.933 F1000
G1 X79.023 Y46.061 F1000
G1 X79.023 Y46.190 F1000
G1 X79.151 Y46.319 F1000
G1 X79.151 Y46.448 F1000
G1 X79.280 Y46.576 F1000
G1 X79.280 Y46.705 F1000
G1 X79.409 Y46.834 F1000
G1 X79.409 Y46.963 F1000
G1 X79.538 Y47.091 F1000
G1 X79.538 Y47.477 F1000
G1 X79.666 Y47.606 F1000
G1 X79.795 Y47.606 F1000
G1 X79.795 Y47.735 F1000
G1 X79.924 Y47.864 F1000
G1 X79.666 Y47.606 F1000
G1 X79.151 Y47.606 F1000
G1 X79.023 Y47.477 F1000
G1 X78.379 Y47.477 F1000
G1 X78.250 Y47.349 F1000
G1 X77.606 Y47.349 F1000
G1 X77.478 Y47.220 F1000
G1 X76.963 Y47.220 F1000
G1 X76.834 Y47.091 F1000
G1 X76.190 Y47.091 F1000
G1 X76.061 Y46.963 F1000
G1 X75.418 Y46.963 F1000
G1 X75.289 Y46.834 F1000
G1 X74.645 Y46.834 F1000
G1 X74.516 Y46.705 F1000
G1 X73.873 Y46.705 F1000
G1 X73.744 Y46.576 F1000
G1 X73.358 Y46.576 F1000
G1 X70.911 Y49.023 F1000
G1 X70.911 Y49.151 F1000
G1 X68.980 Y51.082 F1000
G1 X68.851 Y51.082 F1000
G1 X68.594 Y51.340 F1000
G1 X68.722 Y51.211 F1000
G1 X68.594 Y51.082 F1000
G1 X68.594 Y50.696 F1000
G1 X68.465 Y50.567 F1000
G1 X68.465 Y49.924 F1000
G1 X68.336 Y49.795 F1000
G1 X68.336 Y49.023 F1000
G1 X68.207 Y48.894 F1000
G1 X68.207 Y48.121 F1000
G1 X68.079 Y47.992 F1000
G1 X68.079 Y47.349 F1000
G1 X67.950 Y47.220 F1000
G1 X67.950 Y46.448 F1000
G1 X67.821 Y46.319 F1000
G1 X67.821 Y45.675 F1000
G1 X67.692 Y45.546 F1000
G1 X67.692 Y44.903 F1000
G1 X67.564 Y44.774 F1000
G1 X67.564 Y44.645 F1000
G1 X67.435 Y44.516 F1000
G1 X67.306 Y44.516 F1000
G1 X67.177 Y44.388 F1000
G1 X67.049 Y44.388 F1000
G1 X66.920 Y44.259 F1000
G1 X66.791 Y44.259 F1000
G1 X66.663 Y44.130 F1000
G1 X66.534 Y44.130 F1000
G1 X66.405 Y44.001 F1000
G1 X66.276 Y44.001 F1000
G1 X66.148 Y43.873 F1000
G1 X66.019 Y43.873 F1000
G1 X65.890 Y43.744 F1000
G1 X65.761 Y43.744 F1000
G1 X65.633 Y43.615 F1000
G1 X65.504 Y43.615 F1000
G1 X65.375 Y43.486 F1000
G1 X65.246 Y43.486 F1000
G1 X65.118 Y43.358 F1000
G1 X64.989 Y43.358 F1000
G1 X64.860 Y43.229 F1000
G1 X64.731 Y43.229 F1000
G1 X64.602 Y43.100 F1000
G1 X64.474 Y43.100 F1000
G1 X64.345 Y42.971 F1000
G1 X64.216 Y42.971 F1000
G1 X64.088 Y42.843 F1000
G1 X63.959 Y42.843 F1000
G1 X63.830 Y42.714 F1000
G1 X63.701 Y42.714 F1000
G1 X63.573 Y42.585 F1000
G1 X63.444 Y42.585 F1000
G1 X63.315 Y42.456 F1000
G1 X63.186 Y42.456 F1000
G1 X63.058 Y42.328 F1000
G1 X62.929 Y42.328 F1000
G1 X62.800 Y42.199 F1000
G1 X62.671 Y42.199 F1000
G1 X62.543 Y42.070 F1000
G1 X62.414 Y42.070 F1000
G1 X62.156 Y41.812 F1000
G0 Z3.0 ; Pen up

G0 X62.285 Y41.684 F3000 ; Travel to line 8
G0 Z0.0 ; Pen down
G1 X62.156 Y41.812 F1000
G1 X62.414 Y42.070 F1000
G1 X62.543 Y42.070 F1000
G1 X62.671 Y42.199 F1000
G1 X62.800 Y42.199 F1000
G1 X62.929 Y42.328 F1000
G1 X63.058 Y42.328 F1000
G1 X63.186 Y42.456 F1000
G1 X63.315 Y42.456 F1000
G1 X63.444 Y42.585 F1000
G1 X63.573 Y42.585 F1000
G1 X63.701 Y42.714 F1000
G1 X63.830 Y42.714 F1000
G1 X63.959 Y42.843 F1000
G1 X64.088 Y42.843 F1000
G1 X64.216 Y42.971 F1000
G1 X64.345 Y42.971 F1000
G1 X64.474 Y43.100 F1000
G1 X64.602 Y43.100 F1000
G1 X64.731 Y43.229 F1000
G1 X64.860 Y43.229 F1000
G1 X64.989 Y43.358 F1000
G1 X65.118 Y43.358 F1000
G1 X65.246 Y43.486 F1000
G1 X65.375 Y43.486 F1000
G1 X65.504 Y43.615 F1000
G1 X65.633 Y43.615 F1000
G1 X65.761 Y43.744 F1000
G1 X65.890 Y43.744 F1000
G1 X66.019 Y43.873 F1000
G1 X66.148 Y43.873 F1000
G1 X66.276 Y44.001 F1000
G1 X66.405 Y44.001 F1000
G1 X66.534 Y44.130 F1000
G1 X66.663 Y44.130 F1000
G1 X66.791 Y44.259 F1000
G1 X66.920 Y44.259 F1000
G1 X67.049 Y44.388 F1000
G1 X67.177 Y44.388 F1000
G1 X67.306 Y44.516 F1000
G1 X67.435 Y44.516 F1000
G1 X67.692 Y44.774 F1000
G1 X67.692 Y45.546 F1000
G1 X67.821 Y45.675 F1000
G1 X67.821 Y46.319 F1000
G1 X67.950 Y46.448 F1000
G1 X67.950 Y47.220 F1000
G1 X68.079 Y47.349 F1000
G1 X68.079 Y47.992 F1000
G1 X68.207 Y48.121 F1000
G1 X68.207 Y48.894 F1000
G1 X68.336 Y49.023 F1000
G1 X68.336 Y49.795 F1000
G1 X68.465 Y49.924 F1000
G1 X68.465 Y50.567 F1000
G1 X68.594 Y50.696 F1000
G1 X68.594 Y51.082 F1000
G1 X68.722 Y51.211 F1000
G1 X68.851 Y51.082 F1000
G1 X68.980 Y51.082 F1000
G1 X70.911 Y49.151 F1000
G1 X70.911 Y49.023 F1000
G1 X73.358 Y46.576 F1000
G1 X73.744 Y46.576 F1000
G1 X73.873 Y46.705 F1000
G1 X74.516 Y46.705 F1000
G1 X74.645 Y46.834 F1000
G1 X75.289 Y46.834 F1000
G1 X75.418 Y46.963 F1000
G1 X76.061 Y46.963 F1000
G1 X76.190 Y47.091 F1000
G1 X76.834 Y47.091 F1000
G1 X76.963 Y47.220 F1000
G1 X77.478 Y47.220 F1000
G1 X77.606 Y47.349 F1000
G1 X78.250 Y47.349 F1000
G1 X78.379 Y47.477 F1000
G1 X79.023 Y47.477 F1000
G1 X79.151 Y47.606 F1000
G1 X79.409 Y47.606 F1000
G1 X79.538 Y47.477 F1000
G1 X79.538 Y47.220 F1000
G1 X79.409 Y47.091 F1000
G1 X79.409 Y46.963 F1000
G1 X79.280 Y46.834 F1000
G1 X79.280 Y46.705 F1000
G1 X79.151 Y46.576 F1000
G1 X79.151 Y46.448 F1000
G1 X79.023 Y46.319 F1000
G1 X79.023 Y46.190 F1000
G1 X78.894 Y46.061 F1000
G1 X78.894 Y45.933 F1000
G1 X78.765 Y45.804 F1000
G1 X78.765 Y45.675 F1000
G1 X78.636 Y45.546 F1000
G1 X78.636 Y45.418 F1000
G1 X78.508 Y45.289 F1000
G1 X78.508 Y45.160 F1000
G1 X78.379 Y45.031 F1000
G1 X78.379 Y44.903 F1000
G1 X78.121 Y44.645 F1000
G1 X78.121 Y44.516 F1000
G1 X77.993 Y44.388 F1000
G1 X77.993 Y44.259 F1000
G1 X77.864 Y44.130 F1000
G1 X77.864 Y44.001 F1000
G1 X77.735 Y43.873 F1000
G1 X77.735 Y43.744 F1000
G1 X77.606 Y43.615 F1000
G1 X77.606 Y43.486 F1000
G1 X77.478 Y43.358 F1000
G1 X77.478 Y43.229 F1000
G1 X77.349 Y43.100 F1000
G1 X77.349 Y42.971 F1000
G1 X77.220 Y42.843 F1000
G1 X77.220 Y42.714 F1000
G1 X77.091 Y42.585 F1000
G1 X77.091 Y42.456 F1000
G1 X76.963 Y42.328 F1000
G1 X76.963 Y41.297 F1000
G1 X77.091 Y41.169 F1000
G1 X77.091 Y41.040 F1000
G1 X77.220 Y40.911 F1000
G1 X77.220 Y40.782 F1000
G1 X77.349 Y40.654 F1000
G1 X77.349 Y40.525 F1000
G1 X77.478 Y40.396 F1000
G1 X77.478 Y40.267 F1000
G1 X77.606 Y40.139 F1000
G1 X77.606 Y40.010 F1000
G1 X77.735 Y39.881 F1000
G1 X77.735 Y39.752 F1000
G1 X77.864 Y39.624 F1000
G1 X77.864 Y39.495 F1000
G1 X77.993 Y39.366 F1000
G1 X77.993 Y39.237 F1000
G1 X78.121 Y39.109 F1000
G1 X78.121 Y38.980 F1000
G1 X78.250 Y38.851 F1000
G1 X78.250 Y38.722 F1000
G1 X78.379 Y38.594 F1000
G1 X78.379 Y38.465 F1000
G1 X78.508 Y38.336 F1000
G1 X78.508 Y38.207 F1000
G1 X78.636 Y38.079 F1000
G1 X78.636 Y37.950 F1000
G1 X78.765 Y37.821 F1000
G1 X78.765 Y37.693 F1000
G1 X78.894 Y37.564 F1000
G1 X78.894 Y37.435 F1000
G1 X79.023 Y37.306 F1000
G1 X79.023 Y37.178 F1000
G1 X79.151 Y37.049 F1000
G1 X79.151 Y36.920 F1000
G1 X79.280 Y36.791 F1000
G1 X79.280 Y36.663 F1000
G1 X79.409 Y36.534 F1000
G1 X79.409 Y36.405 F1000
G1 X79.538 Y36.276 F1000
G1 X79.538 Y36.148 F1000
G1 X79.666 Y36.019 F1000
G1 X79.538 Y35.890 F1000
G1 X78.894 Y35.890 F1000
G1 X78.765 Y36.019 F1000
G1 X78.121 Y36.019 F1000
G1 X77.993 Y36.148 F1000
G1 X77.349 Y36.148 F1000
G1 X77.220 Y36.276 F1000
G1 X76.576 Y36.276 F1000
G1 X76.448 Y36.405 F1000
G1 X75.933 Y36.405 F1000
G1 X75.804 Y36.534 F1000
G1 X75.160 Y36.534 F1000
G1 X75.031 Y36.663 F1000
G1 X74.388 Y36.663 F1000
G1 X74.259 Y36.791 F1000
G1 X73.615 Y36.791 F1000
G1 X73.486 Y36.920 F1000
G1 X73.358 Y36.791 F1000
G1 X73.229 Y36.791 F1000
G1 X70.911 Y34.474 F1000
G1 X70.911 Y34.345 F1000
G1 X68.980 Y32.414 F1000
G1 X68.722 Y32.414 F1000
G1 X68.594 Y32.543 F1000
G1 X68.594 Y32.800 F1000
G1 X68.465 Y32.929 F1000
G1 X68.465 Y33.572 F1000
G1 X68.336 Y33.701 F1000
G1 X68.336 Y34.474 F1000
G1 X68.207 Y34.602 F1000
G1 X68.207 Y35.375 F1000
G1 X68.079 Y35.504 F1000
G1 X68.079 Y36.148 F1000
G1 X67.950 Y36.276 F1000
G1 X67.950 Y37.049 F1000
G1 X67.821 Y37.178 F1000
G1 X67.821 Y37.821 F1000
G1 X67.692 Y37.950 F1000
G1 X67.692 Y38.722 F1000
G1 X67.435 Y38.980 F1000
G1 X67.306 Y38.980 F1000
G1 X67.177 Y39.109 F1000
G1 X67.049 Y39.109 F1000
G1 X66.920 Y39.237 F1000
G1 X66.791 Y39.237 F1000
G1 X66.663 Y39.366 F1000
G1 X66.534 Y39.366 F1000
G1 X66.405 Y39.495 F1000
G1 X66.276 Y39.495 F1000
G1 X66.148 Y39.624 F1000
G1 X66.019 Y39.624 F1000
G1 X65.890 Y39.752 F1000
G1 X65.761 Y39.752 F1000
G1 X65.633 Y39.881 F1000
G1 X65.504 Y39.881 F1000
G1 X65.375 Y40.010 F1000
G1 X65.246 Y40.010 F1000
G1 X65.118 Y40.139 F1000
G1 X64.989 Y40.139 F1000
G1 X64.860 Y40.267 F1000
G1 X64.731 Y40.267 F1000
G1 X64.602 Y40.396 F1000
G1 X64.474 Y40.396 F1000
G1 X64.345 Y40.525 F1000
G1 X64.216 Y40.525 F1000
G1 X64.088 Y40.654 F1000
G1 X63.959 Y40.654 F1000
G1 X63.830 Y40.782 F1000
G1 X63.701 Y40.782 F1000
G1 X63.573 Y40.911 F1000
G1 X63.444 Y40.911 F1000
G1 X63.315 Y41.040 F1000
G1 X63.186 Y41.040 F1000
G1 X63.058 Y41.169 F1000
G1 X62.929 Y41.169 F1000
G1 X62.800 Y41.297 F1000
G1 X62.671 Y41.297 F1000
G1 X62.543 Y41.426 F1000
G1 X62.414 Y41.426 F1000
G1 X62.285 Y41.555 F1000
G0 Z3.0 ; Pen up

; Return to origin
G0 X0 Y0
G0 Z3.0

; Total drawing distance: 1332.83 mm
; Total travel distance: 243.69 mm
; Total lines: 8
; Estimated time: 84.8 seconds (1.4 minutes)
M2 ; End program