; Blueprint to G-code
; Input: test_rotation_arrow.png
; Generated with blueprint2gcode.py

G21 ; Set units to millimeters
G90 ; Absolute positioning
G0 Z3.0 ; Pen up
G0 X0 Y0 ; Move to origin

G0 X31.250 Y136.208 F3000 ; Travel to line 1
G0 Z0.0 ; Pen down
G1 X49.442 Y160.792 F1000
G0 Z3.0 ; Pen up

G0 X49.933 Y160.792 F3000 ; Travel to line 2
G0 Z0.0 ; Pen down
G1 X31.742 Y136.208 F1000
G1 X31.742 Y136.208 F1000
G1 X49.933 Y160.792 F1000
G1 X49.933 Y160.792 F1000
G1 X31.742 Y136.208 F1000
G0 Z3.0 ; Pen up

G0 X32.233 Y136.208 F3000 ; Travel to line 3
G0 Z0.0 ; Pen down
G1 X50.425 Y160.792 F1000
G0 Z3.0 ; Pen up

G0 X50.917 Y160.792 F3000 ; Travel to line 4
G0 Z0.0 ; Pen down
G1 X32.725 Y136.208 F1000
G1 X32.725 Y136.208 F1000
G1 X50.917 Y160.792 F1000
G0 Z3.0 ; Pen up

G0 X51.408 Y160.792 F3000 ; Travel to line 5
G0 Z0.0 ; Pen down
G1 X33.217 Y136.208 F1000
G0 Z3.0 ; Pen up

G0 X33.708 Y136.208 F3000 ; Travel to line 6
G0 Z0.0 ; Pen down
G1 X51.900 Y160.792 F1000
G1 X51.900 Y160.792 F1000
G1 X33.708 Y136.208 F1000
G1 X33.708 Y136.208 F1000
G1 X51.900 Y160.792 F1000
G0 Z3.0 ; Pen up

G0 X52.392 Y160.792 F3000 ; Travel to line 7
G0 Z0.0 ; Pen down
G1 X34.200 Y136.208 F1000
G1 X34.200 Y136.208 F1000
G1 X52.392 Y160.792 F1000
G0 Z3.0 ; Pen up

G0 X52.883 Y160.792 F3000 ; Travel to line 8
G0 Z0.0 ; Pen down
G1 X34.692 Y136.208 F1000
G0 Z3.0 ; Pen up

G0 X35.183 Y136.208 F3000 ; Travel to line 9
G0 Z0.0 ; Pen down
G1 X53.375 Y160.792 F1000
G0 Z3.0 ; Pen up

G0 X53.867 Y160.792 F3000 ; Travel to line 10
G0 Z0.0 ; Pen down
G1 X35.183 Y136.208 F1000
G1 X35.183 Y136.208 F1000
G1 X53.867 Y160.792 F1000
G0 Z3.0 ; Pen up

G0 X54.358 Y160.792 F3000 ; Travel to line 11
G0 Z0.0 ; Pen down
G1 X36.167 Y136.208 F1000
G1 X36.167 Y136.208 F1000
G1 X54.358 Y160.792 F1000
G1 X54.358 Y160.792 F1000
G1 X35.675 Y136.208 F1000
G0 Z3.0 ; Pen up

G0 X36.658 Y136.208 F3000 ; Travel to line 12
G0 Z0.0 ; Pen down
G1 X54.850 Y160.792 F1000
G0 Z3.0 ; Pen up

G0 X55.342 Y160.792 F3000 ; Travel to line 13
G0 Z0.0 ; Pen down
G1 X37.150 Y136.208 F1000
G0 Z3.0 ; Pen up

G0 X37.642 Y136.208 F3000 ; Travel to line 14
G0 Z0.0 ; Pen down
G1 X56.325 Y160.792 F1000
G0 Z3.0 ; Pen up

G0 X56.817 Y160.792 F3000 ; Travel to line 15
G0 Z0.0 ; Pen down
G1 X38.133 Y136.208 F1000
G1 X38.133 Y136.208 F1000
G1 X56.817 Y160.792 F1000
G1 X56.817 Y160.792 F1000
G1 X38.625 Y136.208 F1000
G0 Z3.0 ; Pen up

G0 X39.117 Y136.208 F3000 ; Travel to line 16
G0 Z0.0 ; Pen down
G1 X57.308 Y160.792 F1000
G0 Z3.0 ; Pen up

G0 X57.800 Y160.792 F3000 ; Travel to line 17
G0 Z0.0 ; Pen down
G1 X39.117 Y136.208 F1000
G1 X39.117 Y136.208 F1000
G1 X57.800 Y160.792 F1000
G0 Z3.0 ; Pen up

G0 X58.292 Y160.792 F3000 ; Travel to line 18
G0 Z0.0 ; Pen down
G1 X39.608 Y136.208 F1000
G0 Z3.0 ; Pen up

G0 X40.592 Y136.208 F3000 ; Travel to line 19
G0 Z0.0 ; Pen down
G1 X59.275 Y160.792 F1000
G1 X59.275 Y160.792 F1000
G1 X41.083 Y136.208 F1000
G0 Z3.0 ; Pen up

G0 X41.575 Y136.208 F3000 ; Travel to line 20
G0 Z0.0 ; Pen down
G1 X60.258 Y160.792 F1000
G0 Z3.0 ; Pen up

G0 X60.750 Y160.792 F3000 ; Travel to line 21
G0 Z0.0 ; Pen down
G1 X42.067 Y136.208 F1000
G1 X42.067 Y136.208 F1000
G1 X60.750 Y160.792 F1000
G0 Z3.0 ; Pen up

G0 X61.242 Y160.792 F3000 ; Travel to line 22
G0 Z0.0 ; Pen down
G1 X42.558 Y136.208 F1000
G0 Z3.0 ; Pen up

G0 X44.525 Y136.208 F3000 ; Travel to line 23
G0 Z0.0 ; Pen down
G1 X63.208 Y160.792 F1000
G0 Z3.0 ; Pen up

G0 X63.700 Y160.792 F3000 ; Travel to line 24
G0 Z0.0 ; Pen down
G1 X45.017 Y136.208 F1000
G1 X45.017 Y136.208 F1000
G1 X63.700 Y160.792 F1000
G0 Z3.0 ; Pen up

G0 X64.192 Y160.792 F3000 ; Travel to line 25
G0 Z0.0 ; Pen down
G1 X45.508 Y136.208 F1000
G1 X45.508 Y136.208 F1000
G1 X64.683 Y160.792 F1000
G0 Z3.0 ; Pen up

G0 X65.175 Y160.792 F3000 ; Travel to line 26
G0 Z0.0 ; Pen down
G1 X46.492 Y136.208 F1000
G0 Z3.0 ; Pen up

G0 X46.000 Y136.208 F3000 ; Travel to line 27
G0 Z0.0 ; Pen down
G1 X64.683 Y160.792 F1000
G1 X64.683 Y160.792 F1000
G1 X45.508 Y136.208 F1000
G0 Z3.0 ; Pen up

G0 X47.475 Y136.208 F3000 ; Travel to line 28
G0 Z0.0 ; Pen down
G1 X66.158 Y160.792 F1000
G0 Z3.0 ; Pen up

G0 X65.667 Y160.792 F3000 ; Travel to line 29
G0 Z0.0 ; Pen down
G1 X46.983 Y136.208 F1000
G1 X46.983 Y136.208 F1000
G1 X65.667 Y160.792 F1000
G0 Z3.0 ; Pen up

G0 X66.650 Y160.792 F3000 ; Travel to line 30
G0 Z0.0 ; Pen down
G1 X47.967 Y136.208 F1000
G1 X47.967 Y136.208 F1000
G1 X66.650 Y160.792 F1000
G0 Z3.0 ; Pen up

G0 X67.633 Y160.792 F3000 ; Travel to line 31
G0 Z0.0 ; Pen down
G1 X48.950 Y136.208 F1000
G1 X48.950 Y136.208 F1000
G1 X67.633 Y160.792 F1000
G0 Z3.0 ; Pen up

G0 X68.125 Y160.792 F3000 ; Travel to line 32
G0 Z0.0 ; Pen down
G1 X49.442 Y136.208 F1000
G0 Z3.0 ; Pen up

G0 X48.458 Y136.208 F3000 ; Travel to line 33
G0 Z0.0 ; Pen down
G1 X67.142 Y160.792 F1000
G1 X67.142 Y160.792 F1000
G1 X47.967 Y136.208 F1000
G0 Z3.0 ; Pen up

G0 X51.408 Y136.208 F3000 ; Travel to line 34
G0 Z0.0 ; Pen down
G1 X70.092 Y160.792 F1000
G1 X70.092 Y160.792 F1000
G1 X50.917 Y136.208 F1000
G1 X50.917 Y136.208 F1000
G1 X70.092 Y160.792 F1000
G0 Z3.0 ; Pen up

G0 X70.583 Y160.792 F3000 ; Travel to line 35
G0 Z0.0 ; Pen down
G1 X51.900 Y136.208 F1000
G1 X51.900 Y136.208 F1000
G1 X70.583 Y160.792 F1000
G0 Z3.0 ; Pen up

G0 X71.075 Y160.792 F3000 ; Travel to line 36
G0 Z0.0 ; Pen down
G1 X52.392 Y136.208 F1000
G0 Z3.0 ; Pen up

G0 X52.883 Y136.208 F3000 ; Travel to line 37
G0 Z0.0 ; Pen down
G1 X72.058 Y160.792 F1000
G0 Z3.0 ; Pen up

G0 X72.550 Y160.792 F3000 ; Travel to line 38
G0 Z0.0 ; Pen down
G1 X53.375 Y136.208 F1000
G0 Z3.0 ; Pen up

G0 X54.358 Y136.208 F3000 ; Travel to line 39
G0 Z0.0 ; Pen down
G1 X73.042 Y160.792 F1000
G1 X73.042 Y160.792 F1000
G1 X53.867 Y136.208 F1000
G1 X53.867 Y136.208 F1000
G1 X73.042 Y160.792 F1000
G0 Z3.0 ; Pen up

G0 X73.533 Y160.792 F3000 ; Travel to line 40
G0 Z0.0 ; Pen down
G1 X54.850 Y136.208 F1000
G1 X54.850 Y136.208 F1000
G1 X73.533 Y160.792 F1000
G0 Z3.0 ; Pen up

G0 X74.025 Y160.792 F3000 ; Travel to line 41
G0 Z0.0 ; Pen down
G1 X55.342 Y136.208 F1000
G1 X55.342 Y136.208 F1000
G1 X74.517 Y160.792 F1000
G0 Z3.0 ; Pen up

G0 X75.008 Y160.792 F3000 ; Travel to line 42
G0 Z0.0 ; Pen down
G1 X55.833 Y136.208 F1000
G1 X55.833 Y136.208 F1000
G1 X75.008 Y160.792 F1000
G0 Z3.0 ; Pen up

G0 X75.500 Y160.792 F3000 ; Travel to line 43
G0 Z0.0 ; Pen down
G1 X56.325 Y136.208 F1000
G0 Z3.0 ; Pen up

G0 X57.308 Y136.208 F3000 ; Travel to line 44
G0 Z0.0 ; Pen down
G1 X76.483 Y160.792 F1000
G1 X76.483 Y160.792 F1000
G1 X57.800 Y136.208 F1000
G0 Z3.0 ; Pen up

G0 X58.292 Y136.208 F3000 ; Travel to line 45
G0 Z0.0 ; Pen down
G1 X77.467 Y160.792 F1000
G0 Z3.0 ; Pen up

G0 X77.958 Y160.792 F3000 ; Travel to line 46
G0 Z0.0 ; Pen down
G1 X58.783 Y136.208 F1000
G1 X58.783 Y136.208 F1000
G1 X77.958 Y160.792 F1000
G0 Z3.0 ; Pen up

G0 X78.450 Y160.792 F3000 ; Travel to line 47
G0 Z0.0 ; Pen down
G1 X59.275 Y136.208 F1000
G0 Z3.0 ; Pen up

G0 X61.242 Y136.208 F3000 ; Travel to line 48
G0 Z0.0 ; Pen down
G1 X80.417 Y160.792 F1000
G0 Z3.0 ; Pen up

G0 X80.908 Y160.792 F3000 ; Travel to line 49
G0 Z0.0 ; Pen down
G1 X61.733 Y136.208 F1000
G1 X61.733 Y136.208 F1000
G1 X80.908 Y160.792 F1000
G0 Z3.0 ; Pen up

G0 X81.400 Y160.792 F3000 ; Travel to line 50
G0 Z0.0 ; Pen down
G1 X62.225 Y136.208 F1000
G0 Z3.0 ; Pen up

G0 X64.192 Y136.208 F3000 ; Travel to line 51
G0 Z0.0 ; Pen down
G1 X83.367 Y160.792 F1000
G0 Z3.0 ; Pen up

G0 X83.858 Y160.792 F3000 ; Travel to line 52
G0 Z0.0 ; Pen down
G1 X64.683 Y136.208 F1000
G1 X64.683 Y136.208 F1000
G1 X83.858 Y160.792 F1000
G0 Z3.0 ; Pen up

G0 X84.350 Y160.792 F3000 ; Travel to line 53
G0 Z0.0 ; Pen down
G1 X65.175 Y136.208 F1000
G0 Z3.0 ; Pen up

G0 X66.158 Y136.208 F3000 ; Travel to line 54
G0 Z0.0 ; Pen down
G1 X85.333 Y160.792 F1000
G1 X85.333 Y160.792 F1000
G1 X65.667 Y136.208 F1000
G1 X65.667 Y136.208 F1000
G1 X84.842 Y160.792 F1000
G0 Z3.0 ; Pen up

G0 X85.825 Y160.792 F3000 ; Travel to line 55
G0 Z0.0 ; Pen down
G1 X66.650 Y136.208 F1000
G0 Z3.0 ; Pen up

G0 X67.633 Y136.208 F3000 ; Travel to line 56
G0 Z0.0 ; Pen down
G1 X87.300 Y160.792 F1000
G0 Z3.0 ; Pen up

G0 X86.808 Y160.792 F3000 ; Travel to line 57
G0 Z0.0 ; Pen down
G1 X67.142 Y136.208 F1000
G1 X67.142 Y136.208 F1000
G1 X86.317 Y160.792 F1000
G0 Z3.0 ; Pen up

G0 X87.792 Y160.792 F3000 ; Travel to line 58
G0 Z0.0 ; Pen down
G1 X68.125 Y136.208 F1000
G0 Z3.0 ; Pen up

G0 X69.108 Y136.208 F3000 ; Travel to line 59
G0 Z0.0 ; Pen down
G1 X88.775 Y160.792 F1000
G0 Z3.0 ; Pen up

G0 X89.267 Y160.792 F3000 ; Travel to line 60
G0 Z0.0 ; Pen down
G1 X69.600 Y136.208 F1000
G0 Z3.0 ; Pen up

G0 X71.567 Y136.208 F3000 ; Travel to line 61
G0 Z0.0 ; Pen down
G1 X91.233 Y160.792 F1000
G0 Z3.0 ; Pen up

G0 X91.725 Y160.792 F3000 ; Travel to line 62
G0 Z0.0 ; Pen down
G1 X72.058 Y136.208 F1000
G0 Z3.0 ; Pen up

G0 X73.042 Y136.208 F3000 ; Travel to line 63
G0 Z0.0 ; Pen down
G1 X93.200 Y160.792 F1000
G0 Z3.0 ; Pen up

G0 X93.692 Y160.792 F3000 ; Travel to line 64
G0 Z0.0 ; Pen down
G1 X73.533 Y136.208 F1000
G0 Z3.0 ; Pen up

G0 X74.025 Y136.208 F3000 ; Travel to line 65
G0 Z0.0 ; Pen down
G1 X94.183 Y160.792 F1000
G0 Z3.0 ; Pen up

G0 X94.675 Y160.792 F3000 ; Travel to line 66
G0 Z0.0 ; Pen down
G1 X74.517 Y136.208 F1000
G0 Z3.0 ; Pen up

G0 X75.008 Y136.208 F3000 ; Travel to line 67
G0 Z0.0 ; Pen down
G1 X95.167 Y160.792 F1000
G0 Z3.0 ; Pen up

G0 X95.658 Y160.792 F3000 ; Travel to line 68
G0 Z0.0 ; Pen down
G1 X75.500 Y136.208 F1000
G1 X75.500 Y136.208 F1000
G1 X95.658 Y160.792 F1000
G0 Z3.0 ; Pen up

G0 X96.150 Y160.792 F3000 ; Travel to line 69
G0 Z0.0 ; Pen down
G1 X75.992 Y136.208 F1000
G0 Z3.0 ; Pen up

G0 X76.483 Y136.208 F3000 ; Travel to line 70
G0 Z0.0 ; Pen down
G1 X97.133 Y160.792 F1000
G1 X97.133 Y160.792 F1000
G1 X76.975 Y136.208 F1000
G1 X76.975 Y136.208 F1000
G1 X97.625 Y160.792 F1000
G0 Z3.0 ; Pen up

G0 X98.117 Y160.792 F3000 ; Travel to line 71
G0 Z0.0 ; Pen down
G1 X77.958 Y136.208 F1000
G1 X77.958 Y136.208 F1000
G1 X98.608 Y160.792 F1000
G0 Z3.0 ; Pen up

G0 X99.100 Y160.792 F3000 ; Travel to line 72
G0 Z0.0 ; Pen down
G1 X78.450 Y136.208 F1000
G0 Z3.0 ; Pen up

G0 X78.942 Y136.208 F3000 ; Travel to line 73
G0 Z0.0 ; Pen down
G1 X99.592 Y160.792 F1000
G0 Z3.0 ; Pen up

G0 X100.575 Y160.792 F3000 ; Travel to line 74
G0 Z0.0 ; Pen down
G1 X79.925 Y136.208 F1000
G1 X79.925 Y136.208 F1000
G1 X100.083 Y160.792 F1000
G1 X100.083 Y160.792 F1000
G1 X79.433 Y136.208 F1000
G0 Z3.0 ; Pen up

G0 X80.908 Y136.208 F3000 ; Travel to line 75
G0 Z0.0 ; Pen down
G1 X101.558 Y160.792 F1000
G1 X101.558 Y160.792 F1000
G1 X81.400 Y136.208 F1000
G1 X81.400 Y136.208 F1000
G1 X102.050 Y160.792 F1000
G0 Z3.0 ; Pen up

G0 X102.542 Y160.792 F3000 ; Travel to line 76
G0 Z0.0 ; Pen down
G1 X81.892 Y136.208 F1000
G1 X81.892 Y136.208 F1000
G1 X102.542 Y160.792 F1000
G0 Z3.0 ; Pen up

G0 X103.033 Y160.792 F3000 ; Travel to line 77
G0 Z0.0 ; Pen down
G1 X82.383 Y136.208 F1000
G1 X82.383 Y136.208 F1000
G1 X103.033 Y160.792 F1000
G0 Z3.0 ; Pen up

G0 X103.525 Y160.792 F3000 ; Travel to line 78
G0 Z0.0 ; Pen down
G1 X82.875 Y136.208 F1000
G0 Z3.0 ; Pen up

G0 X83.367 Y136.208 F3000 ; Travel to line 79
G0 Z0.0 ; Pen down
G1 X104.017 Y160.792 F1000
G1 X104.017 Y160.792 F1000
G1 X83.858 Y136.208 F1000
G0 Z3.0 ; Pen up

G0 X84.350 Y136.208 F3000 ; Travel to line 80
G0 Z0.0 ; Pen down
G1 X105.000 Y160.792 F1000
G0 Z3.0 ; Pen up

G0 X105.492 Y160.792 F3000 ; Travel to line 81
G0 Z0.0 ; Pen down
G1 X84.842 Y136.208 F1000
G1 X84.842 Y136.208 F1000
G1 X105.492 Y160.792 F1000
G0 Z3.0 ; Pen up

G0 X105.983 Y160.792 F3000 ; Travel to line 82
G0 Z0.0 ; Pen down
G1 X85.333 Y136.208 F1000
G1 X85.333 Y136.208 F1000
G1 X105.983 Y160.792 F1000
G0 Z3.0 ; Pen up

G0 X106.967 Y160.792 F3000 ; Travel to line 83
G0 Z0.0 ; Pen down
G1 X86.317 Y136.208 F1000
G1 X86.317 Y136.208 F1000
G1 X106.475 Y160.792 F1000
G1 X106.475 Y160.792 F1000
G1 X85.825 Y136.208 F1000
G0 Z3.0 ; Pen up

G0 X87.792 Y136.208 F3000 ; Travel to line 84
G0 Z0.0 ; Pen down
G1 X108.442 Y160.792 F1000
G0 Z3.0 ; Pen up

G0 X107.950 Y160.792 F3000 ; Travel to line 85
G0 Z0.0 ; Pen down
G1 X87.300 Y136.208 F1000
G1 X87.300 Y136.208 F1000
G1 X107.950 Y160.792 F1000
G0 Z3.0 ; Pen up

G0 X107.458 Y160.792 F3000 ; Travel to line 86
G0 Z0.0 ; Pen down
G1 X86.808 Y136.208 F1000
G1 X86.808 Y136.208 F1000
G1 X107.458 Y160.792 F1000
G0 Z3.0 ; Pen up

G0 X109.425 Y160.792 F3000 ; Travel to line 87
G0 Z0.0 ; Pen down
G1 X88.775 Y136.208 F1000
G1 X88.775 Y136.208 F1000
G1 X109.425 Y160.792 F1000
G0 Z3.0 ; Pen up

G0 X109.917 Y160.792 F3000 ; Travel to line 88
G0 Z0.0 ; Pen down
G1 X89.267 Y136.208 F1000
G0 Z3.0 ; Pen up

G0 X88.775 Y136.208 F3000 ; Travel to line 89
G0 Z0.0 ; Pen down
G1 X108.933 Y160.792 F1000
G1 X108.933 Y160.792 F1000
G1 X88.283 Y136.208 F1000
G0 Z3.0 ; Pen up

G0 X90.742 Y136.208 F3000 ; Travel to line 90
G0 Z0.0 ; Pen down
G1 X111.392 Y160.792 F1000
G1 X111.392 Y160.792 F1000
G1 X91.233 Y136.208 F1000
G1 X91.233 Y136.208 F1000
G1 X111.883 Y160.792 F1000
G0 Z3.0 ; Pen up

G0 X112.375 Y160.792 F3000 ; Travel to line 91
G0 Z0.0 ; Pen down
G1 X91.725 Y136.208 F1000
G1 X91.725 Y136.208 F1000
G1 X112.375 Y160.792 F1000
G0 Z3.0 ; Pen up

G0 X113.358 Y160.792 F3000 ; Travel to line 92
G0 Z0.0 ; Pen down
G1 X92.708 Y136.208 F1000
G1 X92.708 Y136.208 F1000
G1 X112.867 Y160.792 F1000
G1 X112.867 Y160.792 F1000
G1 X92.217 Y136.208 F1000
G0 Z3.0 ; Pen up

G0 X93.200 Y136.208 F3000 ; Travel to line 93
G0 Z0.0 ; Pen down
G1 X113.850 Y160.792 F1000
G1 X113.850 Y160.792 F1000
G1 X93.692 Y136.208 F1000
G0 Z3.0 ; Pen up

G0 X94.183 Y136.208 F3000 ; Travel to line 94
G0 Z0.0 ; Pen down
G1 X114.833 Y160.792 F1000
G0 Z3.0 ; Pen up

G0 X114.342 Y160.792 F3000 ; Travel to line 95
G0 Z0.0 ; Pen down
G1 X93.692 Y136.208 F1000
G1 X93.692 Y136.208 F1000
G1 X114.342 Y160.792 F1000
G0 Z3.0 ; Pen up

G0 X115.325 Y160.792 F3000 ; Travel to line 96
G0 Z0.0 ; Pen down
G1 X94.675 Y136.208 F1000
G1 X94.675 Y136.208 F1000
G1 X115.325 Y160.792 F1000
G0 Z3.0 ; Pen up

G0 X115.817 Y160.792 F3000 ; Travel to line 97
G0 Z0.0 ; Pen down
G1 X95.167 Y136.208 F1000
G0 Z3.0 ; Pen up

G0 X96.150 Y136.208 F3000 ; Travel to line 98
G0 Z0.0 ; Pen down
G1 X116.800 Y160.792 F1000
G1 X116.800 Y160.792 F1000
G1 X96.642 Y136.208 F1000
G0 Z3.0 ; Pen up

G0 X97.133 Y136.208 F3000 ; Travel to line 99
G0 Z0.0 ; Pen down
G1 X117.783 Y160.792 F1000
G1 X117.783 Y160.792 F1000
G1 X97.625 Y136.208 F1000
G1 X97.625 Y136.208 F1000
G1 X118.275 Y160.792 F1000
G0 Z3.0 ; Pen up

G0 X118.767 Y160.792 F3000 ; Travel to line 100
G0 Z0.0 ; Pen down
G1 X98.117 Y136.208 F1000
G0 Z3.0 ; Pen up

G0 X99.592 Y136.208 F3000 ; Travel to line 101
G0 Z0.0 ; Pen down
G1 X120.242 Y160.792 F1000
G0 Z3.0 ; Pen up

G0 X119.750 Y160.792 F3000 ; Travel to line 102
G0 Z0.0 ; Pen down
G1 X99.100 Y136.208 F1000
G1 X99.100 Y136.208 F1000
G1 X119.258 Y160.792 F1000
G1 X119.258 Y160.792 F1000
G1 X98.608 Y136.208 F1000
G1 X98.608 Y136.208 F1000
G1 X119.258 Y160.792 F1000
G0 Z3.0 ; Pen up

G0 X120.733 Y160.792 F3000 ; Travel to line 103
G0 Z0.0 ; Pen down
G1 X100.083 Y136.208 F1000
G1 X100.083 Y136.208 F1000
G1 X120.733 Y160.792 F1000
G0 Z3.0 ; Pen up

G0 X121.225 Y160.792 F3000 ; Travel to line 104
G0 Z0.0 ; Pen down
G1 X100.575 Y136.208 F1000
G1 X100.575 Y136.208 F1000
G1 X121.225 Y160.792 F1000
G0 Z3.0 ; Pen up

G0 X122.208 Y160.792 F3000 ; Travel to line 105
G0 Z0.0 ; Pen down
G1 X101.558 Y136.208 F1000
G1 X101.558 Y136.208 F1000
G1 X122.208 Y160.792 F1000
G0 Z3.0 ; Pen up

G0 X122.700 Y160.792 F3000 ; Travel to line 106
G0 Z0.0 ; Pen down
G1 X102.050 Y136.208 F1000
G0 Z3.0 ; Pen up

G0 X101.558 Y136.208 F3000 ; Travel to line 107
G0 Z0.0 ; Pen down
G1 X121.717 Y160.792 F1000
G1 X121.717 Y160.792 F1000
G1 X101.067 Y136.208 F1000
G0 Z3.0 ; Pen up

G0 X103.033 Y136.208 F3000 ; Travel to line 108
G0 Z0.0 ; Pen down
G1 X123.683 Y160.792 F1000
G0 Z3.0 ; Pen up

G0 X124.175 Y160.792 F3000 ; Travel to line 109
G0 Z0.0 ; Pen down
G1 X103.525 Y136.208 F1000
G1 X103.525 Y136.208 F1000
G1 X124.175 Y160.792 F1000
G1 X124.175 Y160.792 F1000
G1 X104.017 Y136.208 F1000
G1 X104.017 Y136.208 F1000
G1 X124.667 Y160.792 F1000
G0 Z3.0 ; Pen up

G0 X125.158 Y160.792 F3000 ; Travel to line 110
G0 Z0.0 ; Pen down
G1 X104.508 Y136.208 F1000
G0 Z3.0 ; Pen up

G0 X105.983 Y136.208 F3000 ; Travel to line 111
G0 Z0.0 ; Pen down
G1 X126.633 Y160.792 F1000
G1 X126.633 Y160.792 F1000
G1 X106.475 Y136.208 F1000
G0 Z3.0 ; Pen up

G0 X106.967 Y136.208 F3000 ; Travel to line 112
G0 Z0.0 ; Pen down
G1 X127.617 Y160.792 F1000
G0 Z3.0 ; Pen up

G0 X127.125 Y160.792 F3000 ; Travel to line 113
G0 Z0.0 ; Pen down
G1 X106.475 Y136.208 F1000
G1 X106.475 Y136.208 F1000
G1 X127.125 Y160.792 F1000
G0 Z3.0 ; Pen up

G0 X126.142 Y160.792 F3000 ; Travel to line 114
G0 Z0.0 ; Pen down
G1 X105.492 Y136.208 F1000
G1 X105.492 Y136.208 F1000
G1 X126.142 Y160.792 F1000
G0 Z3.0 ; Pen up

G0 X125.650 Y160.792 F3000 ; Travel to line 115
G0 Z0.0 ; Pen down
G1 X105.000 Y136.208 F1000
G1 X105.000 Y136.208 F1000
G1 X125.650 Y160.792 F1000
G0 Z3.0 ; Pen up

G0 X123.192 Y160.792 F3000 ; Travel to line 116
G0 Z0.0 ; Pen down
G1 X102.542 Y136.208 F1000
G1 X102.542 Y136.208 F1000
G1 X123.192 Y160.792 F1000
G0 Z3.0 ; Pen up

G0 X128.600 Y160.792 F3000 ; Travel to line 117
G0 Z0.0 ; Pen down
G1 X107.950 Y136.208 F1000
G1 X107.950 Y136.208 F1000
G1 X128.108 Y160.792 F1000
G1 X128.108 Y160.792 F1000
G1 X107.458 Y136.208 F1000
G0 Z3.0 ; Pen up

G0 X109.425 Y136.208 F3000 ; Travel to line 118
G0 Z0.0 ; Pen down
G1 X136.958 Y169.150 F1000
G0 Z3.0 ; Pen up

G0 X137.450 Y169.150 F3000 ; Travel to line 119
G0 Z0.0 ; Pen down
G1 X109.917 Y136.208 F1000
G1 X109.917 Y136.208 F1000
G1 X137.450 Y169.150 F1000
G0 Z3.0 ; Pen up

G0 X137.450 Y168.658 F3000 ; Travel to line 120
G0 Z0.0 ; Pen down
G1 X110.408 Y136.208 F1000
G1 X110.408 Y136.208 F1000
G1 X137.942 Y168.658 F1000
G1 X137.942 Y168.658 F1000
G1 X110.900 Y136.208 F1000
G0 Z3.0 ; Pen up

G0 X111.883 Y136.208 F3000 ; Travel to line 121
G0 Z0.0 ; Pen down
G1 X138.925 Y168.167 F1000
G1 X138.925 Y168.167 F1000
G1 X112.375 Y136.208 F1000
G0 Z3.0 ; Pen up

G0 X112.867 Y136.208 F3000 ; Travel to line 122
G0 Z0.0 ; Pen down
G1 X139.417 Y168.167 F1000
G0 Z3.0 ; Pen up

G0 X139.417 Y167.675 F3000 ; Travel to line 123
G0 Z0.0 ; Pen down
G1 X113.358 Y136.208 F1000
G1 X113.358 Y136.208 F1000
G1 X139.417 Y167.675 F1000
G0 Z3.0 ; Pen up

G0 X140.400 Y167.675 F3000 ; Travel to line 124
G0 Z0.0 ; Pen down
G1 X114.342 Y136.208 F1000
G0 Z3.0 ; Pen up

G0 X115.325 Y136.208 F3000 ; Travel to line 125
G0 Z0.0 ; Pen down
G1 X140.892 Y167.183 F1000
G0 Z3.0 ; Pen up

G0 X141.383 Y167.183 F3000 ; Travel to line 126
G0 Z0.0 ; Pen down
G1 X115.817 Y136.208 F1000
G0 Z3.0 ; Pen up

G0 X116.308 Y136.208 F3000 ; Travel to line 127
G0 Z0.0 ; Pen down
G1 X141.383 Y166.692 F1000
G0 Z3.0 ; Pen up

G0 X141.875 Y166.692 F3000 ; Travel to line 128
G0 Z0.0 ; Pen down
G1 X116.800 Y136.208 F1000
G0 Z3.0 ; Pen up

G0 X117.292 Y136.208 F3000 ; Travel to line 129
G0 Z0.0 ; Pen down
G1 X142.367 Y166.692 F1000
G0 Z3.0 ; Pen up

G0 X142.367 Y166.200 F3000 ; Travel to line 130
G0 Z0.0 ; Pen down
G1 X117.783 Y136.208 F1000
G1 X117.783 Y136.208 F1000
G1 X142.367 Y166.200 F1000
G0 Z3.0 ; Pen up

G0 X142.858 Y166.200 F3000 ; Travel to line 131
G0 Z0.0 ; Pen down
G1 X118.767 Y136.208 F1000
G1 X118.767 Y136.208 F1000
G1 X143.350 Y166.200 F1000
G0 Z3.0 ; Pen up

G0 X143.350 Y165.708 F3000 ; Travel to line 132
G0 Z0.0 ; Pen down
G1 X119.750 Y136.208 F1000
G1 X119.750 Y136.208 F1000
G1 X143.842 Y165.708 F1000
G0 Z3.0 ; Pen up

G0 X144.333 Y165.708 F3000 ; Travel to line 133
G0 Z0.0 ; Pen down
G1 X120.242 Y136.208 F1000
G0 Z3.0 ; Pen up

G0 X120.733 Y136.208 F3000 ; Travel to line 134
G0 Z0.0 ; Pen down
G1 X144.333 Y165.217 F1000
G1 X144.333 Y165.217 F1000
G1 X121.225 Y136.208 F1000
G0 Z3.0 ; Pen up

G0 X121.717 Y136.208 F3000 ; Travel to line 135
G0 Z0.0 ; Pen down
G1 X144.825 Y165.217 F1000
G0 Z3.0 ; Pen up

G0 X145.317 Y165.217 F3000 ; Travel to line 136
G0 Z0.0 ; Pen down
G1 X122.208 Y136.208 F1000
G1 X122.208 Y136.208 F1000
G1 X145.317 Y165.217 F1000
G0 Z3.0 ; Pen up

G0 X146.792 Y164.233 F3000 ; Travel to line 137
G0 Z0.0 ; Pen down
G1 X124.667 Y136.208 F1000
G0 Z3.0 ; Pen up

G0 X125.158 Y136.208 F3000 ; Travel to line 138
G0 Z0.0 ; Pen down
G1 X147.283 Y163.742 F1000
G0 Z3.0 ; Pen up

G0 X147.775 Y163.742 F3000 ; Travel to line 139
G0 Z0.0 ; Pen down
G1 X126.142 Y136.208 F1000
G1 X126.142 Y136.208 F1000
G1 X147.775 Y163.742 F1000
G1 X147.775 Y163.742 F1000
G1 X125.650 Y136.208 F1000
G0 Z3.0 ; Pen up

G0 X126.633 Y136.208 F3000 ; Travel to line 140
G0 Z0.0 ; Pen down
G1 X148.267 Y163.742 F1000
G0 Z3.0 ; Pen up

G0 X148.267 Y163.250 F3000 ; Travel to line 141
G0 Z0.0 ; Pen down
G1 X127.125 Y136.208 F1000
G1 X127.125 Y136.208 F1000
G1 X148.267 Y163.250 F1000
G0 Z3.0 ; Pen up

G0 X148.758 Y163.250 F3000 ; Travel to line 142
G0 Z0.0 ; Pen down
G1 X127.617 Y136.208 F1000
G0 Z3.0 ; Pen up

G0 X128.108 Y136.208 F3000 ; Travel to line 143
G0 Z0.0 ; Pen down
G1 X149.250 Y163.250 F1000
G0 Z3.0 ; Pen up

G0 X149.742 Y162.758 F3000 ; Travel to line 144
G0 Z0.0 ; Pen down
G1 X128.600 Y136.208 F1000
G1 X128.600 Y136.208 F1000
G1 X149.250 Y162.758 F1000
G1 X149.250 Y162.758 F1000
G1 X128.600 Y136.208 F1000
G0 Z3.0 ; Pen up

G0 X129.583 Y136.208 F3000 ; Travel to line 145
G0 Z0.0 ; Pen down
G1 X150.233 Y162.267 F1000
G0 Z3.0 ; Pen up

G0 X150.725 Y162.267 F3000 ; Travel to line 146
G0 Z0.0 ; Pen down
G1 X129.583 Y135.717 F1000
G1 X129.583 Y135.717 F1000
G1 X150.725 Y162.267 F1000
G0 Z3.0 ; Pen up

G0 X150.233 Y162.758 F3000 ; Travel to line 147
G0 Z0.0 ; Pen down
G1 X129.092 Y136.208 F1000
G1 X129.092 Y136.208 F1000
G1 X150.233 Y162.758 F1000
G0 Z3.0 ; Pen up

G0 X151.708 Y161.775 F3000 ; Travel to line 148
G0 Z0.0 ; Pen down
G1 X129.583 Y133.750 F1000
G1 X129.583 Y133.750 F1000
G1 X151.708 Y161.775 F1000
G1 X151.708 Y161.775 F1000
G1 X129.583 Y133.258 F1000
G0 Z3.0 ; Pen up

G0 X129.583 Y132.275 F3000 ; Travel to line 149
G0 Z0.0 ; Pen down
G1 X152.200 Y161.283 F1000
G0 Z3.0 ; Pen up

G0 X152.692 Y161.283 F3000 ; Travel to line 150
G0 Z0.0 ; Pen down
G1 X129.583 Y131.783 F1000
G0 Z3.0 ; Pen up

G0 X129.583 Y130.800 F3000 ; Travel to line 151
G0 Z0.0 ; Pen down
G1 X153.183 Y160.792 F1000
G0 Z3.0 ; Pen up

G0 X153.675 Y160.792 F3000 ; Travel to line 152
G0 Z0.0 ; Pen down
G1 X129.583 Y129.817 F1000
G1 X129.583 Y129.817 F1000
G1 X153.675 Y160.792 F1000
G0 Z3.0 ; Pen up

G0 X154.167 Y160.792 F3000 ; Travel to line 153
G0 Z0.0 ; Pen down
G1 X129.583 Y129.325 F1000
G0 Z3.0 ; Pen up

G0 X129.583 Y128.342 F3000 ; Travel to line 154
G0 Z0.0 ; Pen down
G1 X154.658 Y160.300 F1000
G0 Z3.0 ; Pen up

G0 X154.167 Y160.300 F3000 ; Travel to line 155
G0 Z0.0 ; Pen down
G1 X129.583 Y128.833 F1000
G1 X129.583 Y128.833 F1000
G1 X154.167 Y160.300 F1000
G0 Z3.0 ; Pen up

G0 X155.150 Y160.300 F3000 ; Travel to line 156
G0 Z0.0 ; Pen down
G1 X129.583 Y127.358 F1000
G1 X129.583 Y127.358 F1000
G1 X155.150 Y160.300 F1000
G1 X155.150 Y160.300 F1000
G1 X129.583 Y127.850 F1000
G0 Z3.0 ; Pen up

G0 X129.583 Y126.867 F3000 ; Travel to line 157
G0 Z0.0 ; Pen down
G1 X155.150 Y159.808 F1000
G0 Z3.0 ; Pen up

G0 X155.642 Y159.808 F3000 ; Travel to line 158
G0 Z0.0 ; Pen down
G1 X129.583 Y126.375 F1000
G1 X129.583 Y126.375 F1000
G1 X155.642 Y159.808 F1000
G0 Z3.0 ; Pen up

G0 X156.133 Y159.808 F3000 ; Travel to line 159
G0 Z0.0 ; Pen down
G1 X129.583 Y125.392 F1000
G0 Z3.0 ; Pen up

G0 X129.583 Y124.900 F3000 ; Travel to line 160
G0 Z0.0 ; Pen down
G1 X156.133 Y159.317 F1000
G0 Z3.0 ; Pen up

G0 X156.625 Y159.317 F3000 ; Travel to line 161
G0 Z0.0 ; Pen down
G1 X129.583 Y124.408 F1000
G1 X129.583 Y124.408 F1000
G1 X156.625 Y159.317 F1000
G0 Z3.0 ; Pen up

G0 X157.117 Y159.317 F3000 ; Travel to line 162
G0 Z0.0 ; Pen down
G1 X129.583 Y123.917 F1000
G0 Z3.0 ; Pen up

G0 X130.567 Y124.408 F3000 ; Travel to line 163
G0 Z0.0 ; Pen down
G1 X157.608 Y158.825 F1000
G0 Z3.0 ; Pen up

G0 X158.100 Y158.825 F3000 ; Travel to line 164
G0 Z0.0 ; Pen down
G1 X131.550 Y124.900 F1000
G1 X131.550 Y124.900 F1000
G1 X158.100 Y158.825 F1000
G1 X158.100 Y158.825 F1000
G1 X132.533 Y125.392 F1000
G1 X132.533 Y125.392 F1000
G1 X158.100 Y158.333 F1000
G0 Z3.0 ; Pen up

G0 X158.592 Y158.333 F3000 ; Travel to line 165
G0 Z0.0 ; Pen down
G1 X133.517 Y125.883 F1000
G1 X133.517 Y125.883 F1000
G1 X158.592 Y158.333 F1000
G0 Z3.0 ; Pen up

G0 X159.083 Y158.333 F3000 ; Travel to line 166
G0 Z0.0 ; Pen down
G1 X134.500 Y126.375 F1000
G0 Z3.0 ; Pen up

G0 X135.483 Y126.867 F3000 ; Travel to line 167
G0 Z0.0 ; Pen down
G1 X159.575 Y157.842 F1000
G0 Z3.0 ; Pen up

G0 X160.067 Y157.842 F3000 ; Travel to line 168
G0 Z0.0 ; Pen down
G1 X136.467 Y127.358 F1000
G0 Z3.0 ; Pen up

G0 X137.450 Y127.850 F3000 ; Travel to line 169
G0 Z0.0 ; Pen down
G1 X160.067 Y157.350 F1000
G1 X160.067 Y157.350 F1000
G1 X137.450 Y127.850 F1000
G1 X137.450 Y127.850 F1000
G1 X160.558 Y157.350 F1000
G0 Z3.0 ; Pen up

G0 X161.050 Y157.350 F3000 ; Travel to line 170
G0 Z0.0 ; Pen down
G1 X138.433 Y128.342 F1000
G1 X138.433 Y128.342 F1000
G1 X161.050 Y157.350 F1000
G1 X161.050 Y157.350 F1000
G1 X139.417 Y128.833 F1000
G1 X139.417 Y128.833 F1000
G1 X161.050 Y156.858 F1000
G0 Z3.0 ; Pen up

G0 X161.542 Y156.858 F3000 ; Travel to line 171
G0 Z0.0 ; Pen down
G1 X140.400 Y129.325 F1000
G1 X140.400 Y129.325 F1000
G1 X161.542 Y156.858 F1000
G0 Z3.0 ; Pen up

G0 X162.033 Y156.858 F3000 ; Travel to line 172
G0 Z0.0 ; Pen down
G1 X141.383 Y129.817 F1000
G0 Z3.0 ; Pen up

G0 X142.367 Y130.308 F3000 ; Travel to line 173
G0 Z0.0 ; Pen down
G1 X162.525 Y156.367 F1000
G0 Z3.0 ; Pen up

G0 X163.017 Y156.367 F3000 ; Travel to line 174
G0 Z0.0 ; Pen down
G1 X143.350 Y130.800 F1000
G1 X143.350 Y130.800 F1000
G1 X163.017 Y156.367 F1000
G0 Z3.0 ; Pen up

G0 X163.017 Y155.875 F3000 ; Travel to line 175
G0 Z0.0 ; Pen down
G1 X144.333 Y131.292 F1000
G1 X144.333 Y131.292 F1000
G1 X163.508 Y155.875 F1000
G0 Z3.0 ; Pen up

G0 X164.000 Y155.875 F3000 ; Travel to line 176
G0 Z0.0 ; Pen down
G1 X145.317 Y131.783 F1000
G1 X145.317 Y131.783 F1000
G1 X164.000 Y155.875 F1000
G1 X164.000 Y155.875 F1000
G1 X146.300 Y132.275 F1000
G0 Z3.0 ; Pen up

G0 X147.283 Y132.767 F3000 ; Travel to line 177
G0 Z0.0 ; Pen down
G1 X164.492 Y155.383 F1000
G0 Z3.0 ; Pen up

G0 X164.983 Y155.383 F3000 ; Travel to line 178
G0 Z0.0 ; Pen down
G1 X148.267 Y133.258 F1000
G0 Z3.0 ; Pen up

G0 X149.250 Y133.750 F3000 ; Travel to line 179
G0 Z0.0 ; Pen down
G1 X165.475 Y154.892 F1000
G0 Z3.0 ; Pen up

G0 X164.983 Y154.892 F3000 ; Travel to line 180
G0 Z0.0 ; Pen down
G1 X148.267 Y133.258 F1000
G1 X148.267 Y133.258 F1000
G1 X164.983 Y154.892 F1000
G0 Z3.0 ; Pen up

G0 X165.967 Y154.400 F3000 ; Travel to line 181
G0 Z0.0 ; Pen down
G1 X150.233 Y134.242 F1000
G1 X150.233 Y134.242 F1000
G1 X165.967 Y154.892 F1000
G1 X165.967 Y154.892 F1000
G1 X150.233 Y134.242 F1000
G0 Z3.0 ; Pen up

G0 X154.167 Y136.208 F3000 ; Travel to line 182
G0 Z0.0 ; Pen down
G1 X167.442 Y153.908 F1000
G0 Z3.0 ; Pen up

G0 X167.933 Y153.908 F3000 ; Travel to line 183
G0 Z0.0 ; Pen down
G1 X154.167 Y136.208 F1000
G1 X154.167 Y136.208 F1000
G1 X167.933 Y153.908 F1000
G0 Z3.0 ; Pen up

G0 X167.933 Y153.417 F3000 ; Travel to line 184
G0 Z0.0 ; Pen down
G1 X155.150 Y136.700 F1000
G0 Z3.0 ; Pen up

G0 X156.133 Y137.192 F3000 ; Travel to line 185
G0 Z0.0 ; Pen down
G1 X168.917 Y153.417 F1000
G1 X168.917 Y153.417 F1000
G1 X157.117 Y137.683 F1000
G0 Z3.0 ; Pen up

G0 X158.100 Y138.175 F3000 ; Travel to line 186
G0 Z0.0 ; Pen down
G1 X169.408 Y152.925 F1000
G1 X169.408 Y152.925 F1000
G1 X158.100 Y138.175 F1000
G1 X158.100 Y138.175 F1000
G1 X169.408 Y152.925 F1000
G0 Z3.0 ; Pen up

G0 X169.900 Y152.925 F3000 ; Travel to line 187
G0 Z0.0 ; Pen down
G1 X159.083 Y138.667 F1000
G0 Z3.0 ; Pen up

G0 X160.067 Y139.158 F3000 ; Travel to line 188
G0 Z0.0 ; Pen down
G1 X169.900 Y152.433 F1000
G1 X169.900 Y152.433 F1000
G1 X160.067 Y139.158 F1000
G1 X160.067 Y139.158 F1000
G1 X170.392 Y152.433 F1000
G0 Z3.0 ; Pen up

G0 X170.883 Y152.433 F3000 ; Travel to line 189
G0 Z0.0 ; Pen down
G1 X161.050 Y139.650 F1000
G1 X161.050 Y139.650 F1000
G1 X170.883 Y152.433 F1000
G0 Z3.0 ; Pen up

G0 X170.883 Y151.942 F3000 ; Travel to line 190
G0 Z0.0 ; Pen down
G1 X162.033 Y140.142 F1000
G0 Z3.0 ; Pen up

G0 X163.017 Y140.633 F3000 ; Travel to line 191
G0 Z0.0 ; Pen down
G1 X171.867 Y151.942 F1000
G1 X171.867 Y151.942 F1000
G1 X164.000 Y141.125 F1000
G0 Z3.0 ; Pen up

G0 X164.983 Y141.617 F3000 ; Travel to line 192
G0 Z0.0 ; Pen down
G1 X172.358 Y151.450 F1000
G0 Z3.0 ; Pen up

G0 X171.867 Y151.450 F3000 ; Travel to line 193
G0 Z0.0 ; Pen down
G1 X164.000 Y141.125 F1000
G1 X164.000 Y141.125 F1000
G1 X171.867 Y151.450 F1000
G0 Z3.0 ; Pen up

G0 X171.375 Y151.942 F3000 ; Travel to line 194
G0 Z0.0 ; Pen down
G1 X162.033 Y140.142 F1000
G1 X162.033 Y140.142 F1000
G1 X171.375 Y151.942 F1000
G0 Z3.0 ; Pen up

G0 X172.850 Y150.958 F3000 ; Travel to line 195
G0 Z0.0 ; Pen down
G1 X165.967 Y142.108 F1000
G1 X165.967 Y142.108 F1000
G1 X172.850 Y151.450 F1000
G1 X172.850 Y151.450 F1000
G1 X165.967 Y142.108 F1000
G0 Z3.0 ; Pen up

G0 X166.950 Y142.600 F3000 ; Travel to line 196
G0 Z0.0 ; Pen down
G1 X173.342 Y150.958 F1000
G0 Z3.0 ; Pen up

G0 X173.833 Y150.958 F3000 ; Travel to line 197
G0 Z0.0 ; Pen down
G1 X167.933 Y143.092 F1000
G1 X167.933 Y143.092 F1000
G1 X173.833 Y150.958 F1000
G1 X173.833 Y150.958 F1000
G1 X167.933 Y143.092 F1000
G0 Z3.0 ; Pen up

G0 X169.900 Y144.075 F3000 ; Travel to line 198
G0 Z0.0 ; Pen down
G1 X174.325 Y150.467 F1000
G0 Z3.0 ; Pen up

G0 X174.817 Y150.467 F3000 ; Travel to line 199
G0 Z0.0 ; Pen down
G1 X169.900 Y144.075 F1000
G1 X169.900 Y144.075 F1000
G1 X174.817 Y150.467 F1000
G0 Z3.0 ; Pen up

G0 X174.817 Y149.975 F3000 ; Travel to line 200
G0 Z0.0 ; Pen down
G1 X170.883 Y144.567 F1000
G1 X170.883 Y144.567 F1000
G1 X175.308 Y149.975 F1000
G0 Z3.0 ; Pen up

G0 X175.800 Y149.975 F3000 ; Travel to line 201
G0 Z0.0 ; Pen down
G1 X171.867 Y145.058 F1000
G1 X171.867 Y145.058 F1000
G1 X175.800 Y149.975 F1000
G1 X175.800 Y149.975 F1000
G1 X172.850 Y145.550 F1000
G1 X172.850 Y145.550 F1000
G1 X176.292 Y149.483 F1000
G0 Z3.0 ; Pen up

G0 X176.783 Y149.483 F3000 ; Travel to line 202
G0 Z0.0 ; Pen down
G1 X174.817 Y146.533 F1000
G0 Z3.0 ; Pen up

G0 X175.800 Y147.025 F3000 ; Travel to line 203
G0 Z0.0 ; Pen down
G1 X177.275 Y148.992 F1000
G0 Z3.0 ; Pen up

G0 X176.783 Y148.992 F3000 ; Travel to line 204
G0 Z0.0 ; Pen down
G1 X174.817 Y146.533 F1000
G1 X174.817 Y146.533 F1000
G1 X176.783 Y148.992 F1000
G0 Z3.0 ; Pen up

G0 X177.767 Y148.500 F3000 ; Travel to line 205
G0 Z0.0 ; Pen down
G1 X176.783 Y147.517 F1000
G1 X176.783 Y147.517 F1000
G1 X177.767 Y148.992 F1000
G1 X177.767 Y148.992 F1000
G1 X176.783 Y147.517 F1000
G0 Z3.0 ; Pen up

G0 X178.258 Y148.500 F3000 ; Travel to line 206
G0 Z0.0 ; Pen down
G1 X177.767 Y148.008 F1000
G1 X177.767 Y148.008 F1000
G1 X178.258 Y148.500 F1000
G0 Z3.0 ; Pen up

G0 X173.833 Y150.467 F3000 ; Travel to line 207
G0 Z0.0 ; Pen down
G1 X168.917 Y143.583 F1000
G1 X168.917 Y143.583 F1000
G1 X173.833 Y150.467 F1000
G0 Z3.0 ; Pen up

G0 X173.833 Y146.042 F3000 ; Travel to line 208
G0 Z0.0 ; Pen down
G1 X176.292 Y149.483 F1000
G1 X176.292 Y149.483 F1000
G1 X172.850 Y145.550 F1000
G0 Z3.0 ; Pen up

G0 X168.917 Y153.417 F3000 ; Travel to line 209
G0 Z0.0 ; Pen down
G1 X156.133 Y137.192 F1000
G1 X156.133 Y137.192 F1000
G1 X168.425 Y153.417 F1000
G0 Z3.0 ; Pen up

G0 X166.950 Y153.908 F3000 ; Travel to line 210
G0 Z0.0 ; Pen down
G1 X153.183 Y135.717 F1000
G1 X153.183 Y135.717 F1000
G1 X166.950 Y153.908 F1000
G0 Z3.0 ; Pen up

G0 X166.950 Y154.400 F3000 ; Travel to line 211
G0 Z0.0 ; Pen down
G1 X152.200 Y135.225 F1000
G1 X152.200 Y135.225 F1000
G1 X166.458 Y154.400 F1000
G1 X166.458 Y154.400 F1000
G1 X151.217 Y134.733 F1000
G1 X151.217 Y134.733 F1000
G1 X166.458 Y154.400 F1000
G0 Z3.0 ; Pen up

G0 X164.000 Y155.383 F3000 ; Travel to line 212
G0 Z0.0 ; Pen down
G1 X146.300 Y132.275 F1000
G1 X146.300 Y132.275 F1000
G1 X164.000 Y155.383 F1000
G0 Z3.0 ; Pen up

G0 X162.033 Y156.367 F3000 ; Travel to line 213
G0 Z0.0 ; Pen down
G1 X141.383 Y129.817 F1000
G1 X141.383 Y129.817 F1000
G1 X162.033 Y156.367 F1000
G0 Z3.0 ; Pen up

G0 X159.083 Y157.842 F3000 ; Travel to line 214
G0 Z0.0 ; Pen down
G1 X134.500 Y126.375 F1000
G1 X134.500 Y126.375 F1000
G1 X159.083 Y157.842 F1000
G0 Z3.0 ; Pen up

G0 X157.117 Y158.825 F3000 ; Travel to line 215
G0 Z0.0 ; Pen down
G1 X129.583 Y123.917 F1000
G1 X129.583 Y123.917 F1000
G1 X157.117 Y158.825 F1000
G0 Z3.0 ; Pen up

G0 X153.183 Y161.283 F3000 ; Travel to line 216
G0 Z0.0 ; Pen down
G1 X129.583 Y131.292 F1000
G1 X129.583 Y131.292 F1000
G1 X153.183 Y161.283 F1000
G0 Z3.0 ; Pen up

G0 X152.200 Y161.775 F3000 ; Travel to line 217
G0 Z0.0 ; Pen down
G1 X129.583 Y132.767 F1000
G1 X129.583 Y132.767 F1000
G1 X152.200 Y161.775 F1000
G0 Z3.0 ; Pen up

G0 X147.283 Y164.233 F3000 ; Travel to line 218
G0 Z0.0 ; Pen down
G1 X124.667 Y136.208 F1000
G1 X124.667 Y136.208 F1000
G1 X147.283 Y164.233 F1000
G0 Z3.0 ; Pen up

G0 X140.400 Y167.183 F3000 ; Travel to line 219
G0 Z0.0 ; Pen down
G1 X114.833 Y136.208 F1000
G1 X114.833 Y136.208 F1000
G1 X140.400 Y167.183 F1000
G0 Z3.0 ; Pen up

G0 X138.433 Y168.658 F3000 ; Travel to line 220
G0 Z0.0 ; Pen down
G1 X111.392 Y136.208 F1000
G1 X111.392 Y136.208 F1000
G1 X138.433 Y168.658 F1000
G0 Z3.0 ; Pen up

G0 X136.467 Y169.150 F3000 ; Travel to line 221
G0 Z0.0 ; Pen down
G1 X108.933 Y136.208 F1000
G1 X108.933 Y136.208 F1000
G1 X136.467 Y169.642 F1000
G1 X136.467 Y169.642 F1000
G1 X108.442 Y136.208 F1000
G1 X108.442 Y136.208 F1000
G1 X136.467 Y169.642 F1000
G0 Z3.0 ; Pen up

G0 X135.975 Y169.642 F3000 ; Travel to line 222
G0 Z0.0 ; Pen down
G1 X129.583 Y162.267 F1000
G1 X129.583 Y162.267 F1000
G1 X135.975 Y169.642 F1000
G0 Z3.0 ; Pen up

G0 X135.483 Y169.642 F3000 ; Travel to line 223
G0 Z0.0 ; Pen down
G1 X129.583 Y162.758 F1000
G0 Z3.0 ; Pen up

G0 X129.583 Y163.250 F3000 ; Travel to line 224
G0 Z0.0 ; Pen down
G1 X135.483 Y170.133 F1000
G0 Z3.0 ; Pen up

G0 X134.992 Y170.133 F3000 ; Travel to line 225
G0 Z0.0 ; Pen down
G1 X129.583 Y163.742 F1000
G1 X129.583 Y163.742 F1000
G1 X134.992 Y170.133 F1000
G0 Z3.0 ; Pen up

G0 X134.500 Y170.133 F3000 ; Travel to line 226
G0 Z0.0 ; Pen down
G1 X129.583 Y164.233 F1000
G0 Z3.0 ; Pen up

G0 X129.583 Y165.217 F3000 ; Travel to line 227
G0 Z0.0 ; Pen down
G1 X134.008 Y170.625 F1000
G1 X134.008 Y170.625 F1000
G1 X129.583 Y165.708 F1000
G1 X129.583 Y165.708 F1000
G1 X133.517 Y170.625 F1000
G0 Z3.0 ; Pen up

G0 X133.025 Y171.117 F3000 ; Travel to line 228
G0 Z0.0 ; Pen down
G1 X129.583 Y167.183 F1000
G1 X129.583 Y167.183 F1000
G1 X133.025 Y171.117 F1000
G0 Z3.0 ; Pen up

G0 X132.533 Y171.117 F3000 ; Travel to line 229
G0 Z0.0 ; Pen down
G1 X129.583 Y167.675 F1000
G0 Z3.0 ; Pen up

G0 X129.583 Y166.692 F3000 ; Travel to line 230
G0 Z0.0 ; Pen down
G1 X133.517 Y171.117 F1000
G1 X133.517 Y171.117 F1000
G1 X129.583 Y166.200 F1000
G0 Z3.0 ; Pen up

G0 X129.583 Y168.658 F3000 ; Travel to line 231
G0 Z0.0 ; Pen down
G1 X132.042 Y171.608 F1000
G0 Z3.0 ; Pen up

G0 X132.533 Y171.608 F3000 ; Travel to line 232
G0 Z0.0 ; Pen down
G1 X129.583 Y168.167 F1000
G1 X129.583 Y168.167 F1000
G1 X132.533 Y171.608 F1000
G0 Z3.0 ; Pen up

G0 X131.550 Y171.608 F3000 ; Travel to line 233
G0 Z0.0 ; Pen down
G1 X129.583 Y169.150 F1000
G0 Z3.0 ; Pen up

G0 X129.583 Y170.133 F3000 ; Travel to line 234
G0 Z0.0 ; Pen down
G1 X131.550 Y172.100 F1000
G1 X131.550 Y172.100 F1000
G1 X129.583 Y169.642 F1000
G1 X129.583 Y169.642 F1000
G1 X131.550 Y172.100 F1000
G0 Z3.0 ; Pen up

G0 X131.058 Y172.100 F3000 ; Travel to line 235
G0 Z0.0 ; Pen down
G1 X129.583 Y170.625 F1000
G1 X129.583 Y170.625 F1000
G1 X130.567 Y172.100 F1000
G1 X130.567 Y172.100 F1000
G1 X129.583 Y171.117 F1000
G0 Z3.0 ; Pen up

G0 X129.583 Y172.100 F3000 ; Travel to line 236
G0 Z0.0 ; Pen down
G1 X130.075 Y172.592 F1000
G0 Z3.0 ; Pen up

G0 X130.567 Y172.592 F3000 ; Travel to line 237
G0 Z0.0 ; Pen down
G1 X129.583 Y171.608 F1000
G1 X129.583 Y171.608 F1000
G1 X130.567 Y172.592 F1000
G0 Z3.0 ; Pen up

G0 X134.500 Y170.625 F3000 ; Travel to line 238
G0 Z0.0 ; Pen down
G1 X129.583 Y164.725 F1000
G1 X129.583 Y164.725 F1000
G1 X134.500 Y170.625 F1000
G0 Z3.0 ; Pen up

G0 X117.292 Y160.792 F3000 ; Travel to line 239
G0 Z0.0 ; Pen down
G1 X96.642 Y136.208 F1000
G1 X96.642 Y136.208 F1000
G1 X117.292 Y160.792 F1000
G0 Z3.0 ; Pen up

G0 X116.308 Y160.792 F3000 ; Travel to line 240
G0 Z0.0 ; Pen down
G1 X95.658 Y136.208 F1000
G1 X95.658 Y136.208 F1000
G1 X116.308 Y160.792 F1000
G0 Z3.0 ; Pen up

G0 X110.900 Y160.792 F3000 ; Travel to line 241
G0 Z0.0 ; Pen down
G1 X90.250 Y136.208 F1000
G1 X90.250 Y136.208 F1000
G1 X110.900 Y160.792 F1000
G0 Z3.0 ; Pen up

G0 X110.408 Y160.792 F3000 ; Travel to line 242
G0 Z0.0 ; Pen down
G1 X89.758 Y136.208 F1000
G1 X89.758 Y136.208 F1000
G1 X110.408 Y160.792 F1000
G0 Z3.0 ; Pen up

G0 X104.508 Y160.792 F3000 ; Travel to line 243
G0 Z0.0 ; Pen down
G1 X83.858 Y136.208 F1000
G1 X83.858 Y136.208 F1000
G1 X104.508 Y160.792 F1000
G0 Z3.0 ; Pen up

G0 X101.067 Y160.792 F3000 ; Travel to line 244
G0 Z0.0 ; Pen down
G1 X80.417 Y136.208 F1000
G1 X80.417 Y136.208 F1000
G1 X101.067 Y160.792 F1000
G0 Z3.0 ; Pen up

G0 X92.708 Y160.792 F3000 ; Travel to line 245
G0 Z0.0 ; Pen down
G1 X72.550 Y136.208 F1000
G1 X72.550 Y136.208 F1000
G1 X92.708 Y160.792 F1000
G0 Z3.0 ; Pen up

G0 X90.742 Y160.792 F3000 ; Travel to line 246
G0 Z0.0 ; Pen down
G1 X71.075 Y136.208 F1000
G1 X71.075 Y136.208 F1000
G1 X90.742 Y160.792 F1000
G0 Z3.0 ; Pen up

G0 X90.250 Y160.792 F3000 ; Travel to line 247
G0 Z0.0 ; Pen down
G1 X70.092 Y136.208 F1000
G1 X70.092 Y136.208 F1000
G1 X89.758 Y160.792 F1000
G0 Z3.0 ; Pen up

G0 X88.283 Y160.792 F3000 ; Travel to line 248
G0 Z0.0 ; Pen down
G1 X68.617 Y136.208 F1000
G1 X68.617 Y136.208 F1000
G1 X88.283 Y160.792 F1000
G0 Z3.0 ; Pen up

G0 X82.875 Y160.792 F3000 ; Travel to line 249
G0 Z0.0 ; Pen down
G1 X63.700 Y136.208 F1000
G1 X63.700 Y136.208 F1000
G1 X82.875 Y160.792 F1000
G1 X82.875 Y160.792 F1000
G1 X63.208 Y136.208 F1000
G1 X63.208 Y136.208 F1000
G1 X82.383 Y160.792 F1000
G0 Z3.0 ; Pen up

G0 X81.892 Y160.792 F3000 ; Travel to line 250
G0 Z0.0 ; Pen down
G1 X62.717 Y136.208 F1000
G1 X62.717 Y136.208 F1000
G1 X81.892 Y160.792 F1000
G0 Z3.0 ; Pen up

G0 X79.925 Y160.792 F3000 ; Travel to line 251
G0 Z0.0 ; Pen down
G1 X60.750 Y136.208 F1000
G1 X60.750 Y136.208 F1000
G1 X79.925 Y160.792 F1000
G0 Z3.0 ; Pen up

G0 X79.433 Y160.792 F3000 ; Travel to line 252
G0 Z0.0 ; Pen down
G1 X60.258 Y136.208 F1000
G1 X60.258 Y136.208 F1000
G1 X79.433 Y160.792 F1000
G0 Z3.0 ; Pen up

G0 X78.942 Y160.792 F3000 ; Travel to line 253
G0 Z0.0 ; Pen down
G1 X59.767 Y136.208 F1000
G1 X59.767 Y136.208 F1000
G1 X78.942 Y160.792 F1000
G0 Z3.0 ; Pen up

G0 X76.975 Y160.792 F3000 ; Travel to line 254
G0 Z0.0 ; Pen down
G1 X57.800 Y136.208 F1000
G1 X57.800 Y136.208 F1000
G1 X76.483 Y160.792 F1000
G0 Z3.0 ; Pen up

G0 X75.992 Y160.792 F3000 ; Travel to line 255
G0 Z0.0 ; Pen down
G1 X56.817 Y136.208 F1000
G1 X56.817 Y136.208 F1000
G1 X75.992 Y160.792 F1000
G0 Z3.0 ; Pen up

G0 X71.567 Y160.792 F3000 ; Travel to line 256
G0 Z0.0 ; Pen down
G1 X52.392 Y136.208 F1000
G1 X52.392 Y136.208 F1000
G1 X71.567 Y160.792 F1000
G0 Z3.0 ; Pen up

G0 X69.600 Y160.792 F3000 ; Travel to line 257
G0 Z0.0 ; Pen down
G1 X50.425 Y136.208 F1000
G1 X50.425 Y136.208 F1000
G1 X69.108 Y160.792 F1000
G0 Z3.0 ; Pen up

G0 X68.617 Y160.792 F3000 ; Travel to line 258
G0 Z0.0 ; Pen down
G1 X49.933 Y136.208 F1000
G1 X49.933 Y136.208 F1000
G1 X68.617 Y160.792 F1000
G0 Z3.0 ; Pen up

G0 X62.717 Y160.792 F3000 ; Travel to line 259
G0 Z0.0 ; Pen down
G1 X44.033 Y136.208 F1000
G1 X44.033 Y136.208 F1000
G1 X62.717 Y160.792 F1000
G0 Z3.0 ; Pen up

G0 X62.225 Y160.792 F3000 ; Travel to line 260
G0 Z0.0 ; Pen down
G1 X43.542 Y136.208 F1000
G1 X43.542 Y136.208 F1000
G1 X61.733 Y160.792 F1000
G1 X61.733 Y160.792 F1000
G1 X43.050 Y136.208 F1000
G1 X43.050 Y136.208 F1000
G1 X61.733 Y160.792 F1000
G0 Z3.0 ; Pen up

G0 X59.767 Y160.792 F3000 ; Travel to line 261
G0 Z0.0 ; Pen down
G1 X41.083 Y136.208 F1000
G1 X41.083 Y136.208 F1000
G1 X59.275 Y160.792 F1000
G0 Z3.0 ; Pen up

G0 X58.783 Y160.792 F3000 ; Travel to line 262
G0 Z0.0 ; Pen down
G1 X40.100 Y136.208 F1000
G1 X40.100 Y136.208 F1000
G1 X58.783 Y160.792 F1000
G0 Z3.0 ; Pen up

G0 X55.833 Y160.792 F3000 ; Travel to line 263
G0 Z0.0 ; Pen down
G1 X37.150 Y136.208 F1000
G1 X37.150 Y136.208 F1000
G1 X55.833 Y160.792 F1000
G0 Z3.0 ; Pen up

G0 X48.950 Y160.792 F3000 ; Travel to line 264
G0 Z0.0 ; Pen down
G1 X31.250 Y136.700 F1000
G1 X31.250 Y136.700 F1000
G1 X48.950 Y160.792 F1000
G0 Z3.0 ; Pen up

G0 X48.458 Y160.792 F3000 ; Travel to line 265
G0 Z0.0 ; Pen down
G1 X31.250 Y137.192 F1000
G0 Z3.0 ; Pen up

G0 X31.250 Y137.683 F3000 ; Travel to line 266
G0 Z0.0 ; Pen down
G1 X47.967 Y160.792 F1000
G0 Z3.0 ; Pen up

G0 X47.475 Y160.792 F3000 ; Travel to line 267
G0 Z0.0 ; Pen down
G1 X31.250 Y138.175 F1000
G1 X31.250 Y138.175 F1000
G1 X47.475 Y160.792 F1000
G1 X47.475 Y160.792 F1000
G1 X31.250 Y138.667 F1000
G0 Z3.0 ; Pen up

G0 X31.250 Y140.142 F3000 ; Travel to line 268
G0 Z0.0 ; Pen down
G1 X46.492 Y160.792 F1000
G0 Z3.0 ; Pen up

G0 X46.983 Y160.792 F3000 ; Travel to line 269
G0 Z0.0 ; Pen down
G1 X31.250 Y139.158 F1000
G1 X31.250 Y139.158 F1000
G1 X46.983 Y160.792 F1000
G0 Z3.0 ; Pen up

G0 X46.000 Y160.792 F3000 ; Travel to line 270
G0 Z0.0 ; Pen down
G1 X31.250 Y140.633 F1000
G1 X31.250 Y140.633 F1000
G1 X46.000 Y160.792 F1000
G0 Z3.0 ; Pen up

G0 X45.017 Y160.792 F3000 ; Travel to line 271
G0 Z0.0 ; Pen down
G1 X31.250 Y142.108 F1000
G1 X31.250 Y142.108 F1000
G1 X45.017 Y160.792 F1000
G0 Z3.0 ; Pen up

G0 X44.525 Y160.792 F3000 ; Travel to line 272
G0 Z0.0 ; Pen down
G1 X31.250 Y142.600 F1000
G0 Z3.0 ; Pen up

G0 X31.250 Y143.583 F3000 ; Travel to line 273
G0 Z0.0 ; Pen down
G1 X43.542 Y160.792 F1000
G1 X43.542 Y160.792 F1000
G1 X31.250 Y144.075 F1000
G0 Z3.0 ; Pen up

G0 X31.250 Y145.058 F3000 ; Travel to line 274
G0 Z0.0 ; Pen down
G1 X42.558 Y160.792 F1000
G0 Z3.0 ; Pen up

G0 X43.050 Y160.792 F3000 ; Travel to line 275
G0 Z0.0 ; Pen down
G1 X31.250 Y144.567 F1000
G1 X31.250 Y144.567 F1000
G1 X43.050 Y160.792 F1000
G0 Z3.0 ; Pen up

G0 X44.033 Y160.792 F3000 ; Travel to line 276
G0 Z0.0 ; Pen down
G1 X31.250 Y143.092 F1000
G1 X31.250 Y143.092 F1000
G1 X44.033 Y160.792 F1000
G0 Z3.0 ; Pen up

G0 X42.067 Y160.792 F3000 ; Travel to line 277
G0 Z0.0 ; Pen down
G1 X31.250 Y145.550 F1000
G1 X31.250 Y145.550 F1000
G1 X42.067 Y160.792 F1000
G0 Z3.0 ; Pen up

G0 X41.575 Y160.792 F3000 ; Travel to line 278
G0 Z0.0 ; Pen down
G1 X31.250 Y146.533 F1000
G1 X31.250 Y146.533 F1000
G1 X41.575 Y160.792 F1000
G1 X41.575 Y160.792 F1000
G1 X31.250 Y146.042 F1000
G0 Z3.0 ; Pen up

G0 X31.250 Y147.025 F3000 ; Travel to line 279
G0 Z0.0 ; Pen down
G1 X41.083 Y160.792 F1000
G0 Z3.0 ; Pen up

G0 X40.592 Y160.792 F3000 ; Travel to line 280
G0 Z0.0 ; Pen down
G1 X31.250 Y148.008 F1000
G0 Z3.0 ; Pen up

G0 X31.250 Y148.992 F3000 ; Travel to line 281
G0 Z0.0 ; Pen down
G1 X39.608 Y160.792 F1000
G1 X39.608 Y160.792 F1000
G1 X31.250 Y149.483 F1000
G1 X31.250 Y149.483 F1000
G1 X39.608 Y160.792 F1000
G0 Z3.0 ; Pen up

G0 X40.100 Y160.792 F3000 ; Travel to line 282
G0 Z0.0 ; Pen down
G1 X31.250 Y148.500 F1000
G1 X31.250 Y148.500 F1000
G1 X40.100 Y160.792 F1000
G0 Z3.0 ; Pen up

G0 X39.117 Y160.792 F3000 ; Travel to line 283
G0 Z0.0 ; Pen down
G1 X31.250 Y149.975 F1000
G0 Z3.0 ; Pen up

G0 X31.250 Y150.467 F3000 ; Travel to line 284
G0 Z0.0 ; Pen down
G1 X38.625 Y160.792 F1000
G0 Z3.0 ; Pen up

G0 X38.133 Y160.792 F3000 ; Travel to line 285
G0 Z0.0 ; Pen down
G1 X31.250 Y150.958 F1000
G1 X31.250 Y150.958 F1000
G1 X38.133 Y160.792 F1000
G0 Z3.0 ; Pen up

G0 X37.642 Y160.792 F3000 ; Travel to line 286
G0 Z0.0 ; Pen down
G1 X31.250 Y151.942 F1000
G1 X31.250 Y151.942 F1000
G1 X37.642 Y160.792 F1000
G1 X37.642 Y160.792 F1000
G1 X31.250 Y151.450 F1000
G0 Z3.0 ; Pen up

G0 X31.250 Y152.433 F3000 ; Travel to line 287
G0 Z0.0 ; Pen down
G1 X37.150 Y160.792 F1000
G0 Z3.0 ; Pen up

G0 X36.658 Y160.792 F3000 ; Travel to line 288
G0 Z0.0 ; Pen down
G1 X31.250 Y152.925 F1000
G0 Z3.0 ; Pen up

G0 X31.250 Y153.908 F3000 ; Travel to line 289
G0 Z0.0 ; Pen down
G1 X36.167 Y160.792 F1000
G1 X36.167 Y160.792 F1000
G1 X31.250 Y153.417 F1000
G1 X31.250 Y153.417 F1000
G1 X36.167 Y160.792 F1000
G0 Z3.0 ; Pen up

G0 X35.675 Y160.792 F3000 ; Travel to line 290
G0 Z0.0 ; Pen down
G1 X31.250 Y154.400 F1000
G1 X31.250 Y154.400 F1000
G1 X35.675 Y160.792 F1000
G0 Z3.0 ; Pen up

G0 X35.183 Y160.792 F3000 ; Travel to line 291
G0 Z0.0 ; Pen down
G1 X31.250 Y155.383 F1000
G0 Z3.0 ; Pen up

G0 X31.250 Y156.367 F3000 ; Travel to line 292
G0 Z0.0 ; Pen down
G1 X34.200 Y160.792 F1000
G1 X34.200 Y160.792 F1000
G1 X31.250 Y156.858 F1000
G0 Z3.0 ; Pen up

G0 X31.250 Y157.842 F3000 ; Travel to line 293
G0 Z0.0 ; Pen down
G1 X33.217 Y160.792 F1000
G0 Z3.0 ; Pen up

G0 X32.725 Y160.792 F3000 ; Travel to line 294
G0 Z0.0 ; Pen down
G1 X31.250 Y158.333 F1000
G1 X31.250 Y158.333 F1000
G1 X32.725 Y160.792 F1000
G1 X32.725 Y160.792 F1000
G1 X31.250 Y158.825 F1000
G0 Z3.0 ; Pen up

G0 X31.250 Y159.317 F3000 ; Travel to line 295
G0 Z0.0 ; Pen down
G1 X32.233 Y160.792 F1000
G0 Z3.0 ; Pen up

G0 X31.742 Y160.792 F3000 ; Travel to line 296
G0 Z0.0 ; Pen down
G1 X31.250 Y159.808 F1000
G1 X31.250 Y159.808 F1000
G1 X31.742 Y160.792 F1000
G0 Z3.0 ; Pen up

G0 X31.250 Y160.792 F3000 ; Travel to line 297
G0 Z0.0 ; Pen down
G1 X31.250 Y160.300 F1000
G0 Z3.0 ; Pen up

G0 X33.708 Y160.792 F3000 ; Travel to line 298
G0 Z0.0 ; Pen down
G1 X31.250 Y157.350 F1000
G1 X31.250 Y157.350 F1000
G1 X33.708 Y160.792 F1000
G0 Z3.0 ; Pen up

G0 X34.692 Y160.792 F3000 ; Travel to line 299
G0 Z0.0 ; Pen down
G1 X31.250 Y155.875 F1000
G1 X31.250 Y155.875 F1000
G1 X34.692 Y160.792 F1000
G0 Z3.0 ; Pen up

G0 X31.250 Y141.617 F3000 ; Travel to line 300
G0 Z0.0 ; Pen down
G1 X45.508 Y160.792 F1000
G1 X45.508 Y160.792 F1000
G1 X31.250 Y141.125 F1000
G0 Z3.0 ; Pen up

G0 X19.942 Y183.408 F3000 ; Travel to line 301
G0 Z0.0 ; Pen down
G1 X19.450 Y182.917 F1000
G1 X17.975 Y182.917 F1000
G1 X17.483 Y183.408 F1000
G1 X18.467 Y184.392 F1000
G1 X18.958 Y184.392 F1000
G0 Z3.0 ; Pen up

G0 X19.942 Y184.392 F3000 ; Travel to line 302
G0 Z0.0 ; Pen down
G1 X19.450 Y183.900 F1000
G1 X19.942 Y183.408 F1000
G1 X19.942 Y182.917 F1000
G1 X18.958 Y182.917 F1000
G1 X18.467 Y182.425 F1000
G1 X18.467 Y181.933 F1000
G1 X19.450 Y180.950 F1000
G1 X18.958 Y181.442 F1000
G1 X18.467 Y180.950 F1000
G1 X17.483 Y180.950 F1000
G1 X17.975 Y180.950 F1000
G1 X18.467 Y181.442 F1000
G1 X17.975 Y181.933 F1000
G1 X17.483 Y181.933 F1000
G1 X17.975 Y181.933 F1000
G1 X18.467 Y182.425 F1000
G1 X17.975 Y182.917 F1000
G1 X17.483 Y182.917 F1000
G1 X17.483 Y183.408 F1000
G1 X17.975 Y183.900 F1000
G1 X17.483 Y184.392 F1000
G1 X17.483 Y185.375 F1000
G1 X17.975 Y185.375 F1000
G1 X18.467 Y185.867 F1000
G1 X18.958 Y185.867 F1000
G1 X19.450 Y185.375 F1000
G1 X19.942 Y185.375 F1000
G0 Z3.0 ; Pen up

G0 X19.942 Y184.883 F3000 ; Travel to line 303
G0 Z0.0 ; Pen down
G1 X19.450 Y184.392 F1000
G1 X17.975 Y184.392 F1000
G1 X17.483 Y184.883 F1000
G1 X18.467 Y185.867 F1000
G1 X18.958 Y185.867 F1000
G0 Z3.0 ; Pen up

G0 X19.942 Y193.242 F3000 ; Travel to line 304
G0 Z0.0 ; Pen down
G1 X19.450 Y192.750 F1000
G1 X19.942 Y192.258 F1000
G1 X19.942 Y186.850 F1000
G1 X19.942 Y187.833 F1000
G1 X19.450 Y188.325 F1000
G1 X17.483 Y188.325 F1000
G1 X19.450 Y188.325 F1000
G1 X19.942 Y188.817 F1000
G1 X19.942 Y190.783 F1000
G1 X19.450 Y191.275 F1000
G1 X17.483 Y191.275 F1000
G1 X19.450 Y191.275 F1000
G1 X19.942 Y191.767 F1000
G1 X19.450 Y192.258 F1000
G1 X19.450 Y192.750 F1000
G1 X18.958 Y193.242 F1000
G1 X17.483 Y193.242 F1000
G1 X17.483 Y194.225 F1000
G1 X17.975 Y194.225 F1000
G1 X18.467 Y194.717 F1000
G1 X18.958 Y194.717 F1000
G1 X19.450 Y194.225 F1000
G1 X19.942 Y194.225 F1000
G0 Z3.0 ; Pen up

G0 X19.942 Y193.733 F3000 ; Travel to line 305
G0 Z0.0 ; Pen down
G1 X19.450 Y193.242 F1000
G1 X17.975 Y193.242 F1000
G1 X17.483 Y193.733 F1000
G1 X18.467 Y194.717 F1000
G1 X18.958 Y194.717 F1000
G0 Z3.0 ; Pen up

G0 X19.942 Y196.192 F3000 ; Travel to line 306
G0 Z0.0 ; Pen down
G1 X17.483 Y196.192 F1000
G1 X17.483 Y197.175 F1000
G1 X17.975 Y197.667 F1000
G1 X18.958 Y197.667 F1000
G1 X19.450 Y197.175 F1000
G1 X19.942 Y197.175 F1000
G0 Z3.0 ; Pen up

G0 X19.450 Y197.175 F3000 ; Travel to line 307
G0 Z0.0 ; Pen down
G1 X19.942 Y196.683 F1000
G1 X19.450 Y196.192 F1000
G1 X18.958 Y196.683 F1000
G0 Z3.0 ; Pen up

G0 X18.467 Y197.667 F3000 ; Travel to line 308
G0 Z0.0 ; Pen down
G1 X18.958 Y197.175 F1000
G1 X18.958 Y196.683 F1000
G1 X18.467 Y196.192 F1000
G1 X17.975 Y196.192 F1000
G1 X17.483 Y196.683 F1000
G1 X17.483 Y197.175 F1000
G1 X17.975 Y197.667 F1000
G0 Z3.0 ; Pen up

G0 X122.700 Y136.208 F3000 ; Travel to line 309
G0 Z0.0 ; Pen down
G1 X145.808 Y164.725 F1000
G1 X145.808 Y164.725 F1000
G1 X123.192 Y136.208 F1000
G0 Z3.0 ; Pen up

G0 X123.683 Y136.208 F3000 ; Travel to line 310
G0 Z0.0 ; Pen down
G1 X146.300 Y164.233 F1000
G1 X146.300 Y164.233 F1000
G1 X124.175 Y136.208 F1000
G0 Z3.0 ; Pen up

G0 X129.583 Y134.733 F3000 ; Travel to line 311
G0 Z0.0 ; Pen down
G1 X151.217 Y162.267 F1000
G1 X151.217 Y162.267 F1000
G1 X129.583 Y134.242 F1000
G0 Z3.0 ; Pen up

; Return to origin
G0 X0 Y0
G0 Z3.0

; Total drawing distance: 15364.40 mm
; Total travel distance: 693.13 mm
; Total lines: 311
; Estimated time: 935.7 seconds (15.6 minutes)
M2 ; End program