; Blueprint to G-code
; Input: arch_test_thin_twisting.png
; Generated with blueprint2gcode.py
;
; Generation Parameters:
;   Paper size: A4 (210x297mm)
;   Orientation: landscape
;   Margin: 1.0mm
;   Z up: 3.0mm
;   Z down: 0.0mm
;   Feed rate: 1000mm/min
;   Travel rate: 3000mm/min
;   Join tolerance: 0.02mm
;   Min line length: 0.01mm
;   Simplify epsilon: 0.000001
;   Fill solid areas: True
;   Hatch spacing: 1.5px
;   Hatch angle: 45.0°
;   Crosshatch: False
;   Min solid area: 1.0px²
;   Invert colors: False

G21 ; Set units to millimeters
G90 ; Absolute positioning
G0 Z3.0 ; Pen up
G0 X0 Y0 ; Move to origin

G0 X86.516 Y63.192 F3000 ; Travel to line 1
G0 Z0.0 ; Pen down
G1 X86.100 Y63.816 F1000
G0 Z3.0 ; Pen up

G0 X87.556 Y64.440 F3000 ; Travel to line 2
G0 Z0.0 ; Pen down
G1 X86.308 Y65.688 F1000
G0 Z3.0 ; Pen up

G0 X87.972 Y66.104 F3000 ; Travel to line 3
G0 Z0.0 ; Pen down
G1 X86.516 Y67.560 F1000
G0 Z3.0 ; Pen up

G0 X88.388 Y67.768 F3000 ; Travel to line 4
G0 Z0.0 ; Pen down
G1 X86.724 Y69.640 F1000
G0 Z3.0 ; Pen up

G0 X86.932 Y71.512 F3000 ; Travel to line 5
G0 Z0.0 ; Pen down
G1 X89.220 Y69.224 F1000
G0 Z3.0 ; Pen up

G0 X89.844 Y70.680 F3000 ; Travel to line 6
G0 Z0.0 ; Pen down
G1 X87.556 Y72.760 F1000
G0 Z3.0 ; Pen up

G0 X87.140 Y72.760 F3000 ; Travel to line 7
G0 Z0.0 ; Pen down
G1 X86.100 Y63.400 F1000
G1 X87.140 Y63.400 F1000
G1 X88.180 Y67.768 F1000
G1 X90.052 Y71.512 F1000
G1 X91.300 Y72.968 F1000
G1 X92.132 Y72.968 F1000
G1 X94.420 Y70.680 F1000
G1 X94.628 Y70.264 F1000
G1 X94.628 Y69.848 F1000
G1 X94.836 Y69.640 F1000
G1 X94.836 Y69.224 F1000
G1 X95.044 Y69.016 F1000
G1 X95.044 Y68.600 F1000
G1 X95.252 Y68.392 F1000
G1 X95.252 Y67.976 F1000
G1 X95.668 Y67.144 F1000
G1 X95.668 Y66.520 F1000
G1 X95.876 Y66.312 F1000
G1 X95.876 Y65.688 F1000
G1 X96.084 Y65.480 F1000
G1 X96.084 Y64.856 F1000
G1 X96.292 Y64.648 F1000
G1 X96.292 Y64.024 F1000
G1 X96.500 Y63.816 F1000
G1 X96.500 Y63.192 F1000
G1 X96.708 Y62.984 F1000
G1 X96.708 Y62.360 F1000
G1 X96.916 Y62.152 F1000
G1 X96.916 Y61.528 F1000
G1 X97.124 Y61.320 F1000
G1 X97.124 Y60.696 F1000
G1 X97.332 Y60.488 F1000
G1 X97.332 Y59.864 F1000
G1 X97.540 Y59.656 F1000
G1 X97.748 Y58.824 F1000
G1 X98.164 Y58.408 F1000
G1 X98.164 Y58.200 F1000
G1 X99.620 Y56.120 F1000
G1 X99.828 Y56.120 F1000
G1 X102.740 Y54.040 F1000
G1 X103.364 Y54.040 F1000
G1 X103.572 Y53.832 F1000
G1 X104.196 Y53.832 F1000
G1 X104.404 Y53.624 F1000
G1 X105.028 Y53.624 F1000
G1 X105.236 Y53.416 F1000
G1 X105.860 Y53.416 F1000
G1 X106.068 Y53.208 F1000
G1 X106.692 Y53.208 F1000
G1 X106.900 Y53.000 F1000
G1 X107.108 Y53.208 F1000
G1 X107.732 Y53.208 F1000
G1 X107.940 Y53.416 F1000
G1 X108.564 Y53.416 F1000
G1 X108.772 Y53.624 F1000
G1 X109.396 Y53.624 F1000
G1 X109.604 Y53.832 F1000
G1 X111.060 Y54.040 F1000
G1 X111.476 Y54.456 F1000
G1 X111.684 Y54.456 F1000
G1 X112.100 Y54.872 F1000
G1 X112.308 Y54.872 F1000
G1 X112.724 Y55.288 F1000
G1 X114.180 Y56.120 F1000
G1 X116.260 Y59.240 F1000
G1 X117.300 Y63.400 F1000
G1 X116.468 Y63.400 F1000
G1 X116.052 Y63.816 F1000
G1 X116.052 Y64.440 F1000
G1 X115.844 Y64.648 F1000
G1 X115.844 Y65.272 F1000
G1 X115.636 Y65.480 F1000
G1 X115.636 Y66.104 F1000
G1 X115.428 Y66.312 F1000
G1 X115.220 Y67.560 F1000
G1 X113.140 Y71.720 F1000
G1 X110.020 Y75.880 F1000
G1 X105.860 Y77.960 F1000
G1 X105.236 Y77.960 F1000
G1 X105.028 Y78.168 F1000
G1 X104.404 Y78.168 F1000
G1 X104.196 Y78.376 F1000
G1 X103.572 Y78.376 F1000
G1 X103.364 Y78.584 F1000
G1 X102.740 Y78.584 F1000
G1 X102.532 Y78.792 F1000
G1 X101.908 Y78.792 F1000
G1 X101.700 Y79.000 F1000
G1 X101.492 Y78.792 F1000
G1 X100.868 Y78.792 F1000
G1 X100.660 Y78.584 F1000
G1 X100.036 Y78.584 F1000
G1 X99.828 Y78.376 F1000
G1 X99.204 Y78.376 F1000
G1 X98.996 Y78.168 F1000
G1 X97.540 Y77.960 F1000
G1 X93.380 Y75.880 F1000
G1 X92.548 Y74.840 F1000
G1 X92.548 Y74.632 F1000
G1 X91.924 Y74.008 F1000
G1 X91.924 Y73.800 F1000
G1 X91.092 Y72.968 F1000
G1 X89.428 Y73.176 F1000
G1 X89.220 Y73.384 F1000
G1 X88.388 Y72.968 F1000
G1 X87.140 Y72.760 F1000
G0 Z3.0 ; Pen up

G0 X89.220 Y73.384 F3000 ; Travel to line 8
G0 Z0.0 ; Pen down
G1 X90.676 Y71.928 F1000
G0 Z3.0 ; Pen up

G0 X91.508 Y73.176 F3000 ; Travel to line 9
G0 Z0.0 ; Pen down
G1 X91.924 Y72.760 F1000
G0 Z3.0 ; Pen up

G0 X92.340 Y74.424 F3000 ; Travel to line 10
G0 Z0.0 ; Pen down
G1 X112.100 Y54.664 F1000
G0 Z3.0 ; Pen up

G0 X110.852 Y53.832 F3000 ; Travel to line 11
G0 Z0.0 ; Pen down
G1 X94.628 Y70.056 F1000
G0 Z3.0 ; Pen up

G0 X95.668 Y66.936 F3000 ; Travel to line 12
G0 Z0.0 ; Pen down
G1 X108.980 Y53.416 F1000
G0 Z3.0 ; Pen up

G0 X107.316 Y53.000 F3000 ; Travel to line 13
G0 Z0.0 ; Pen down
G1 X96.292 Y64.232 F1000
G0 Z3.0 ; Pen up

G0 X96.916 Y61.528 F3000 ; Travel to line 14
G0 Z0.0 ; Pen down
G1 X96.916 Y61.320 F1000
G0 Z3.0 ; Pen up

G0 X97.124 Y61.320 F3000 ; Travel to line 15
G0 Z0.0 ; Pen down
G1 X104.820 Y53.416 F1000
G0 Z3.0 ; Pen up

G0 X101.076 Y55.080 F3000 ; Travel to line 16
G0 Z0.0 ; Pen down
G1 X98.580 Y57.784 F1000
G0 Z3.0 ; Pen up

G0 X113.348 Y55.496 F3000 ; Travel to line 17
G0 Z0.0 ; Pen down
G1 X93.172 Y75.672 F1000
G0 Z3.0 ; Pen up

G0 X94.628 Y76.504 F3000 ; Travel to line 18
G0 Z0.0 ; Pen down
G1 X114.596 Y56.536 F1000
G0 Z3.0 ; Pen up

G0 X115.428 Y57.784 F3000 ; Travel to line 19
G0 Z0.0 ; Pen down
G1 X95.876 Y77.128 F1000
G0 Z3.0 ; Pen up

G0 X97.540 Y77.752 F3000 ; Travel to line 20
G0 Z0.0 ; Pen down
G1 X116.260 Y59.032 F1000
G0 Z3.0 ; Pen up

G0 X116.884 Y60.696 F3000 ; Travel to line 21
G0 Z0.0 ; Pen down
G1 X99.204 Y78.376 F1000
G0 Z3.0 ; Pen up

G0 X100.868 Y78.792 F3000 ; Travel to line 22
G0 Z0.0 ; Pen down
G1 X117.300 Y62.360 F1000
G0 Z3.0 ; Pen up

G0 X115.844 Y65.896 F3000 ; Travel to line 23
G0 Z0.0 ; Pen down
G1 X102.948 Y78.584 F1000
G0 Z3.0 ; Pen up

G0 X105.652 Y77.960 F3000 ; Travel to line 24
G0 Z0.0 ; Pen down
G1 X114.388 Y69.432 F1000
G0 Z3.0 ; Pen up

G0 X110.436 Y75.464 F3000 ; Travel to line 25
G0 Z0.0 ; Pen down
G1 X110.020 Y75.880 F1000
G0 Z3.0 ; Pen up

G0 X65.716 Y105.208 F3000 ; Travel to line 26
G0 Z0.0 ; Pen down
G1 X65.300 Y105.624 F1000
G0 Z3.0 ; Pen up

G0 X65.716 Y107.496 F3000 ; Travel to line 27
G0 Z0.0 ; Pen down
G1 X65.300 Y107.912 F1000
G0 Z3.0 ; Pen up

G0 X65.716 Y109.576 F3000 ; Travel to line 28
G0 Z0.0 ; Pen down
G1 X65.300 Y109.992 F1000
G0 Z3.0 ; Pen up

G0 X65.716 Y111.656 F3000 ; Travel to line 29
G0 Z0.0 ; Pen down
G1 X65.300 Y112.072 F1000
G0 Z3.0 ; Pen up

G0 X65.716 Y113.736 F3000 ; Travel to line 30
G0 Z0.0 ; Pen down
G1 X65.300 Y114.152 F1000
G0 Z3.0 ; Pen up

G0 X65.508 Y116.024 F3000 ; Travel to line 31
G0 Z0.0 ; Pen down
G1 X65.300 Y116.232 F1000
G0 Z3.0 ; Pen up

G0 X65.508 Y118.104 F3000 ; Travel to line 32
G0 Z0.0 ; Pen down
G1 X65.300 Y118.312 F1000
G0 Z3.0 ; Pen up

G0 X65.508 Y120.392 F3000 ; Travel to line 33
G0 Z0.0 ; Pen down
G1 X65.300 Y120.600 F1000
G0 Z3.0 ; Pen up

G0 X65.508 Y122.472 F3000 ; Travel to line 34
G0 Z0.0 ; Pen down
G1 X65.300 Y122.680 F1000
G0 Z3.0 ; Pen up

G0 X65.508 Y124.552 F3000 ; Travel to line 35
G0 Z0.0 ; Pen down
G1 X65.300 Y124.760 F1000
G0 Z3.0 ; Pen up

G0 X66.340 Y125.592 F3000 ; Travel to line 36
G0 Z0.0 ; Pen down
G1 X65.300 Y126.840 F1000
G0 Z3.0 ; Pen up

G0 X66.548 Y127.880 F3000 ; Travel to line 37
G0 Z0.0 ; Pen down
G1 X65.300 Y129.128 F1000
G0 Z3.0 ; Pen up

G0 X66.548 Y129.960 F3000 ; Travel to line 38
G0 Z0.0 ; Pen down
G1 X65.300 Y131.208 F1000
G0 Z3.0 ; Pen up

G0 X66.548 Y132.040 F3000 ; Travel to line 39
G0 Z0.0 ; Pen down
G1 X65.300 Y133.288 F1000
G0 Z3.0 ; Pen up

G0 X66.548 Y134.120 F3000 ; Travel to line 40
G0 Z0.0 ; Pen down
G1 X65.300 Y135.368 F1000
G0 Z3.0 ; Pen up

G0 X65.508 Y137.240 F3000 ; Travel to line 41
G0 Z0.0 ; Pen down
G1 X65.300 Y137.448 F1000
G0 Z3.0 ; Pen up

G0 X65.508 Y139.320 F3000 ; Travel to line 42
G0 Z0.0 ; Pen down
G1 X65.300 Y139.528 F1000
G0 Z3.0 ; Pen up

G0 X65.508 Y141.608 F3000 ; Travel to line 43
G0 Z0.0 ; Pen down
G1 X65.300 Y141.816 F1000
G0 Z3.0 ; Pen up

G0 X65.508 Y143.688 F3000 ; Travel to line 44
G0 Z0.0 ; Pen down
G1 X65.300 Y143.896 F1000
G0 Z3.0 ; Pen up

G0 X65.508 Y145.768 F3000 ; Travel to line 45
G0 Z0.0 ; Pen down
G1 X65.300 Y145.976 F1000
G0 Z3.0 ; Pen up

G0 X66.756 Y146.392 F3000 ; Travel to line 46
G0 Z0.0 ; Pen down
G1 X65.300 Y148.056 F1000
G0 Z3.0 ; Pen up

G0 X65.300 Y150.136 F3000 ; Travel to line 47
G0 Z0.0 ; Pen down
G1 X67.588 Y147.848 F1000
G0 Z3.0 ; Pen up

G0 X67.588 Y150.136 F3000 ; Travel to line 48
G0 Z0.0 ; Pen down
G1 X65.300 Y152.424 F1000
G0 Z3.0 ; Pen up

G0 X65.300 Y154.504 F3000 ; Travel to line 49
G0 Z0.0 ; Pen down
G1 X67.588 Y152.216 F1000
G0 Z3.0 ; Pen up

G0 X67.588 Y154.296 F3000 ; Travel to line 50
G0 Z0.0 ; Pen down
G1 X65.300 Y156.584 F1000
G0 Z3.0 ; Pen up

G0 X66.756 Y157.000 F3000 ; Travel to line 51
G0 Z0.0 ; Pen down
G1 X67.588 Y156.376 F1000
G0 Z3.0 ; Pen up

G0 X65.508 Y158.456 F3000 ; Travel to line 52
G0 Z0.0 ; Pen down
G1 X65.300 Y158.664 F1000
G0 Z3.0 ; Pen up

G0 X65.508 Y160.536 F3000 ; Travel to line 53
G0 Z0.0 ; Pen down
G1 X65.300 Y160.744 F1000
G0 Z3.0 ; Pen up

G0 X65.508 Y162.824 F3000 ; Travel to line 54
G0 Z0.0 ; Pen down
G1 X65.300 Y163.032 F1000
G0 Z3.0 ; Pen up

G0 X65.508 Y164.904 F3000 ; Travel to line 55
G0 Z0.0 ; Pen down
G1 X65.300 Y165.112 F1000
G0 Z3.0 ; Pen up

G0 X65.508 Y166.984 F3000 ; Travel to line 56
G0 Z0.0 ; Pen down
G1 X65.300 Y167.192 F1000
G0 Z3.0 ; Pen up

G0 X67.172 Y167.192 F3000 ; Travel to line 57
G0 Z0.0 ; Pen down
G1 X65.300 Y169.272 F1000
G0 Z3.0 ; Pen up

G0 X65.300 Y171.352 F3000 ; Travel to line 58
G0 Z0.0 ; Pen down
G1 X69.460 Y167.192 F1000
G0 Z3.0 ; Pen up

G0 X69.668 Y169.272 F3000 ; Travel to line 59
G0 Z0.0 ; Pen down
G1 X65.300 Y173.640 F1000
G0 Z3.0 ; Pen up

G0 X65.300 Y175.720 F3000 ; Travel to line 60
G0 Z0.0 ; Pen down
G1 X69.668 Y171.352 F1000
G0 Z3.0 ; Pen up

G0 X69.668 Y173.432 F3000 ; Travel to line 61
G0 Z0.0 ; Pen down
G1 X65.300 Y177.800 F1000
G0 Z3.0 ; Pen up

G0 X67.172 Y177.800 F3000 ; Travel to line 62
G0 Z0.0 ; Pen down
G1 X69.668 Y175.512 F1000
G0 Z3.0 ; Pen up

G0 X69.668 Y177.592 F3000 ; Travel to line 63
G0 Z0.0 ; Pen down
G1 X69.460 Y177.800 F1000
G0 Z3.0 ; Pen up

G0 X69.460 Y177.800 F3000 ; Travel to line 64
G0 Z0.0 ; Pen down
G1 X65.300 Y177.800 F1000
G1 X65.300 Y105.000 F1000
G1 X65.508 Y105.000 F1000
G1 X65.508 Y115.400 F1000
G1 X65.300 Y115.608 F1000
G1 X65.300 Y125.592 F1000
G1 X65.508 Y125.800 F1000
G1 X66.340 Y125.800 F1000
G1 X66.340 Y136.200 F1000
G1 X65.508 Y136.200 F1000
G1 X65.300 Y136.408 F1000
G1 X65.300 Y146.392 F1000
G1 X65.508 Y146.600 F1000
G1 X67.380 Y146.600 F1000
G1 X67.380 Y157.000 F1000
G1 X65.508 Y157.000 F1000
G1 X65.300 Y157.208 F1000
G1 X65.300 Y167.192 F1000
G1 X65.508 Y167.400 F1000
G1 X69.460 Y167.400 F1000
G1 X69.460 Y177.800 F1000
G0 Z3.0 ; Pen up

G0 X127.908 Y189.032 F3000 ; Travel to line 65
G0 Z0.0 ; Pen down
G1 X138.516 Y178.216 F1000
G0 Z3.0 ; Pen up

G0 X137.060 Y177.800 F3000 ; Travel to line 66
G0 Z0.0 ; Pen down
G1 X137.060 Y177.592 F1000
G0 Z3.0 ; Pen up

G0 X136.852 Y177.800 F3000 ; Travel to line 67
G0 Z0.0 ; Pen down
G1 X129.156 Y185.704 F1000
G0 Z3.0 ; Pen up

G0 X128.948 Y185.704 F3000 ; Travel to line 68
G0 Z0.0 ; Pen down
G1 X128.948 Y185.912 F1000
G0 Z3.0 ; Pen up

G0 X134.564 Y184.248 F3000 ; Travel to line 69
G0 Z0.0 ; Pen down
G1 X139.972 Y178.840 F1000
G0 Z3.0 ; Pen up

G0 X141.220 Y179.880 F3000 ; Travel to line 70
G0 Z0.0 ; Pen down
G1 X137.892 Y183.208 F1000
G0 Z3.0 ; Pen up

G0 X140.180 Y183.000 F3000 ; Travel to line 71
G0 Z0.0 ; Pen down
G1 X142.260 Y181.128 F1000
G0 Z3.0 ; Pen up

G0 X142.884 Y182.584 F3000 ; Travel to line 72
G0 Z0.0 ; Pen down
G1 X141.844 Y183.416 F1000
G0 Z3.0 ; Pen up

G0 X143.092 Y184.248 F3000 ; Travel to line 73
G0 Z0.0 ; Pen down
G1 X143.508 Y183.832 F1000
G0 Z3.0 ; Pen up

G0 X144.340 Y185.288 F3000 ; Travel to line 74
G0 Z0.0 ; Pen down
G1 X144.132 Y185.496 F1000
G0 Z3.0 ; Pen up

G0 X144.756 Y186.952 F3000 ; Travel to line 75
G0 Z0.0 ; Pen down
G1 X145.172 Y186.744 F1000
G0 Z3.0 ; Pen up

G0 X145.796 Y188.200 F3000 ; Travel to line 76
G0 Z0.0 ; Pen down
G1 X145.172 Y188.824 F1000
G0 Z3.0 ; Pen up

G0 X146.004 Y189.864 F3000 ; Travel to line 77
G0 Z0.0 ; Pen down
G1 X145.588 Y190.280 F1000
G0 Z3.0 ; Pen up

G0 X146.212 Y189.864 F3000 ; Travel to line 78
G0 Z0.0 ; Pen down
G1 X156.404 Y179.464 F1000
G0 Z3.0 ; Pen up

G0 X157.652 Y180.296 F3000 ; Travel to line 79
G0 Z0.0 ; Pen down
G1 X146.420 Y191.736 F1000
G0 Z3.0 ; Pen up

G0 X146.836 Y193.400 F3000 ; Travel to line 80
G0 Z0.0 ; Pen down
G1 X158.900 Y181.336 F1000
G0 Z3.0 ; Pen up

G0 X159.732 Y182.584 F3000 ; Travel to line 81
G0 Z0.0 ; Pen down
G1 X147.460 Y194.856 F1000
G0 Z3.0 ; Pen up

G0 X148.292 Y196.312 F3000 ; Travel to line 82
G0 Z0.0 ; Pen down
G1 X160.564 Y183.832 F1000
G0 Z3.0 ; Pen up

G0 X161.188 Y185.288 F3000 ; Travel to line 83
G0 Z0.0 ; Pen down
G1 X149.124 Y197.352 F1000
G0 Z3.0 ; Pen up

G0 X150.164 Y198.392 F3000 ; Travel to line 84
G0 Z0.0 ; Pen down
G1 X161.812 Y186.744 F1000
G0 Z3.0 ; Pen up

G0 X162.436 Y188.408 F3000 ; Travel to line 85
G0 Z0.0 ; Pen down
G1 X151.412 Y199.224 F1000
G0 Z3.0 ; Pen up

G0 X153.076 Y199.848 F3000 ; Travel to line 86
G0 Z0.0 ; Pen down
G1 X162.852 Y190.072 F1000
G0 Z3.0 ; Pen up

G0 X163.060 Y192.152 F3000 ; Travel to line 87
G0 Z0.0 ; Pen down
G1 X154.740 Y200.264 F1000
G0 Z3.0 ; Pen up

G0 X156.820 Y200.264 F3000 ; Travel to line 88
G0 Z0.0 ; Pen down
G1 X157.028 Y200.264 F1000
G0 Z3.0 ; Pen up

G0 X157.028 Y200.056 F3000 ; Travel to line 89
G0 Z0.0 ; Pen down
G1 X162.436 Y194.856 F1000
G0 Z3.0 ; Pen up

G0 X161.396 Y196.936 F3000 ; Travel to line 90
G0 Z0.0 ; Pen down
G1 X160.980 Y197.352 F1000
G1 X160.772 Y197.976 F1000
G1 X158.900 Y199.640 F1000
G1 X157.652 Y199.848 F1000
G1 X156.820 Y200.264 F1000
G1 X154.324 Y200.264 F1000
G1 X154.116 Y200.056 F1000
G1 X153.492 Y200.056 F1000
G1 X153.284 Y199.848 F1000
G1 X151.828 Y199.640 F1000
G1 X151.412 Y199.224 F1000
G1 X149.956 Y198.392 F1000
G1 X148.084 Y196.104 F1000
G1 X146.836 Y193.608 F1000
G1 X146.836 Y193.192 F1000
G1 X146.420 Y192.360 F1000
G1 X146.420 Y191.736 F1000
G1 X146.212 Y191.528 F1000
G1 X146.004 Y190.488 F1000
G1 X145.588 Y190.280 F1000
G1 X145.380 Y189.864 F1000
G1 X145.380 Y189.240 F1000
G1 X145.172 Y189.032 F1000
G1 X144.964 Y187.576 F1000
G1 X144.340 Y186.328 F1000
G1 X144.340 Y185.912 F1000
G1 X143.924 Y185.288 F1000
G1 X143.924 Y184.872 F1000
G1 X143.300 Y184.248 F1000
G1 X143.092 Y184.248 F1000
G1 X141.636 Y183.208 F1000
G1 X140.804 Y183.208 F1000
G1 X140.596 Y183.000 F1000
G1 X138.516 Y183.000 F1000
G1 X138.308 Y183.208 F1000
G1 X137.268 Y183.208 F1000
G1 X137.060 Y183.416 F1000
G1 X136.644 Y183.416 F1000
G1 X136.020 Y183.832 F1000
G1 X135.604 Y183.832 F1000
G1 X134.980 Y184.248 F1000
G1 X134.148 Y184.456 F1000
G1 X133.732 Y184.872 F1000
G1 X132.276 Y185.704 F1000
G1 X129.572 Y188.408 F1000
G1 X129.572 Y188.616 F1000
G1 X128.116 Y190.696 F1000
G1 X127.700 Y188.200 F1000
G1 X127.908 Y188.200 F1000
G1 X128.324 Y187.784 F1000
G1 X128.532 Y186.952 F1000
G1 X128.948 Y186.328 F1000
G1 X128.948 Y185.912 F1000
G1 X129.364 Y185.288 F1000
G1 X129.364 Y184.872 F1000
G1 X129.988 Y183.624 F1000
G1 X130.404 Y183.208 F1000
G1 X130.404 Y183.000 F1000
G1 X130.820 Y182.584 F1000
G1 X131.652 Y181.128 F1000
G1 X134.356 Y178.840 F1000
G1 X134.772 Y178.840 F1000
G1 X135.396 Y178.424 F1000
G1 X135.812 Y178.424 F1000
G1 X137.060 Y177.800 F1000
G1 X138.308 Y178.424 F1000
G1 X138.724 Y178.424 F1000
G1 X139.348 Y178.840 F1000
G1 X139.764 Y178.840 F1000
G1 X142.052 Y181.128 F1000
G1 X143.924 Y185.080 F1000
G1 X144.340 Y185.496 F1000
G1 X145.172 Y186.952 F1000
G1 X145.172 Y187.368 F1000
G1 X145.588 Y187.992 F1000
G1 X145.796 Y189.864 F1000
G1 X146.004 Y190.072 F1000
G1 X146.212 Y189.864 F1000
G1 X146.212 Y189.240 F1000
G1 X146.420 Y189.032 F1000
G1 X146.628 Y187.576 F1000
G1 X147.252 Y186.328 F1000
G1 X147.252 Y185.912 F1000
G1 X147.668 Y185.288 F1000
G1 X147.668 Y184.872 F1000
G1 X148.292 Y183.624 F1000
G1 X148.708 Y183.208 F1000
G1 X149.540 Y181.752 F1000
G1 X151.828 Y179.880 F1000
G1 X152.660 Y179.672 F1000
G1 X153.284 Y179.256 F1000
G1 X153.700 Y179.256 F1000
G1 X154.324 Y178.840 F1000
G1 X154.948 Y179.256 F1000
G1 X155.364 Y179.256 F1000
G1 X155.988 Y179.672 F1000
G1 X156.820 Y179.880 F1000
G1 X159.108 Y181.752 F1000
G1 X159.108 Y181.960 F1000
G1 X160.356 Y183.624 F1000
G1 X160.980 Y184.872 F1000
G1 X160.980 Y185.288 F1000
G1 X161.396 Y185.912 F1000
G1 X161.396 Y186.328 F1000
G1 X161.812 Y186.952 F1000
G1 X162.020 Y188.200 F1000
G1 X162.228 Y188.408 F1000
G1 X162.228 Y189.032 F1000
G1 X162.436 Y189.240 F1000
G1 X162.436 Y189.864 F1000
G1 X162.852 Y190.280 F1000
G1 X163.060 Y190.280 F1000
G1 X163.060 Y190.904 F1000
G1 X162.852 Y191.112 F1000
G1 X162.852 Y192.568 F1000
G1 X162.644 Y192.776 F1000
G1 X162.644 Y193.608 F1000
G1 X162.228 Y194.440 F1000
G1 X162.020 Y195.688 F1000
G1 X161.396 Y196.936 F1000
G0 Z3.0 ; Pen up

G0 X146.836 Y187.160 F3000 ; Travel to line 91
G0 Z0.0 ; Pen down
G1 X154.948 Y179.048 F1000
G0 Z3.0 ; Pen up

G0 X152.036 Y179.672 F3000 ; Travel to line 92
G0 Z0.0 ; Pen down
G1 X148.708 Y183.000 F1000
G0 Z3.0 ; Pen up

G0 X148.500 Y167.400 F3000 ; Travel to line 93
G0 Z0.0 ; Pen down
G1 X148.500 Y166.984 F1000
G1 X148.708 Y166.776 F1000
G1 X148.708 Y165.944 F1000
G1 X148.916 Y165.736 F1000
G1 X148.916 Y164.904 F1000
G1 X149.124 Y164.696 F1000
G1 X149.124 Y163.864 F1000
G1 X149.332 Y163.656 F1000
G1 X149.332 Y162.408 F1000
G1 X149.540 Y162.200 F1000
G1 X149.540 Y160.328 F1000
G1 X149.748 Y160.120 F1000
G1 X149.540 Y155.960 F1000
G1 X149.332 Y155.752 F1000
G1 X149.332 Y154.504 F1000
G1 X149.124 Y154.296 F1000
G1 X149.124 Y153.464 F1000
G1 X148.916 Y153.256 F1000
G1 X148.916 Y152.424 F1000
G1 X148.708 Y152.216 F1000
G1 X148.708 Y151.384 F1000
G1 X148.500 Y151.176 F1000
G1 X148.500 Y149.720 F1000
G1 X148.292 Y149.512 F1000
G1 X148.292 Y147.640 F1000
G1 X148.084 Y147.432 F1000
G1 X148.084 Y144.728 F1000
G1 X148.292 Y144.520 F1000
G1 X148.292 Y140.568 F1000
G1 X148.500 Y140.360 F1000
G1 X148.500 Y137.448 F1000
G1 X148.708 Y137.240 F1000
G1 X148.708 Y135.368 F1000
G1 X148.916 Y135.160 F1000
G1 X148.916 Y133.704 F1000
G1 X149.124 Y133.496 F1000
G1 X149.124 Y132.664 F1000
G1 X149.332 Y132.456 F1000
G1 X149.332 Y131.624 F1000
G1 X149.540 Y131.416 F1000
G1 X149.540 Y130.584 F1000
G1 X149.748 Y130.376 F1000
G1 X149.748 Y129.128 F1000
G1 X149.956 Y128.920 F1000
G1 X149.956 Y127.048 F1000
G1 X150.164 Y126.840 F1000
G1 X150.164 Y125.384 F1000
G1 X150.372 Y125.176 F1000
G1 X150.372 Y124.344 F1000
G1 X151.620 Y121.848 F1000
G1 X153.492 Y120.600 F1000
G1 X154.740 Y121.640 F1000
G1 X155.156 Y122.472 F1000
G1 X155.156 Y122.888 F1000
G1 X155.572 Y123.512 F1000
G1 X155.572 Y124.136 F1000
G1 X155.780 Y124.344 F1000
G1 X155.780 Y125.176 F1000
G1 X155.988 Y125.384 F1000
G1 X155.988 Y125.800 F1000
G1 X155.572 Y126.008 F1000
G1 X155.572 Y126.632 F1000
G1 X155.364 Y126.840 F1000
G1 X155.364 Y128.712 F1000
G1 X155.156 Y128.920 F1000
G1 X155.156 Y130.376 F1000
G1 X154.948 Y130.584 F1000
G1 X154.948 Y131.416 F1000
G1 X154.740 Y131.624 F1000
G1 X154.532 Y133.496 F1000
G1 X154.324 Y133.704 F1000
G1 X154.324 Y134.328 F1000
G1 X153.908 Y135.160 F1000
G1 X153.908 Y135.784 F1000
G1 X153.700 Y135.992 F1000
G1 X153.700 Y136.408 F1000
G1 X153.284 Y137.240 F1000
G1 X153.284 Y137.864 F1000
G1 X153.076 Y138.072 F1000
G1 X153.076 Y138.696 F1000
G1 X152.868 Y138.904 F1000
G1 X152.868 Y139.736 F1000
G1 X152.660 Y139.944 F1000
G1 X152.660 Y140.776 F1000
G1 X152.452 Y140.984 F1000
G1 X152.452 Y141.816 F1000
G1 X152.244 Y142.024 F1000
G1 X152.036 Y146.600 F1000
G1 X151.620 Y146.808 F1000
G1 X151.620 Y148.472 F1000
G1 X151.412 Y148.680 F1000
G1 X151.412 Y151.592 F1000
G1 X151.204 Y151.800 F1000
G1 X151.204 Y153.672 F1000
G1 X150.996 Y153.880 F1000
G1 X150.996 Y155.336 F1000
G1 X150.788 Y155.544 F1000
G1 X150.788 Y156.376 F1000
G1 X150.580 Y156.584 F1000
G1 X150.580 Y157.416 F1000
G1 X150.372 Y157.624 F1000
G1 X150.372 Y158.456 F1000
G1 X150.164 Y158.664 F1000
G1 X150.164 Y159.496 F1000
G1 X149.956 Y159.704 F1000
G1 X149.956 Y160.536 F1000
G1 X149.748 Y160.744 F1000
G1 X149.748 Y161.576 F1000
G1 X149.540 Y161.784 F1000
G1 X149.540 Y162.616 F1000
G1 X149.332 Y162.824 F1000
G1 X149.332 Y164.072 F1000
G1 X149.124 Y164.280 F1000
G1 X149.124 Y166.152 F1000
G1 X148.916 Y166.360 F1000
G1 X148.916 Y167.400 F1000
G1 X148.500 Y167.400 F1000
G0 Z3.0 ; Pen up

G0 X148.708 Y166.568 F3000 ; Travel to line 94
G0 Z0.0 ; Pen down
G1 X149.332 Y165.944 F1000
G0 Z3.0 ; Pen up

G0 X149.124 Y163.864 F3000 ; Travel to line 95
G0 Z0.0 ; Pen down
G1 X149.540 Y163.448 F1000
G0 Z3.0 ; Pen up

G0 X149.540 Y161.368 F3000 ; Travel to line 96
G0 Z0.0 ; Pen down
G1 X149.956 Y160.952 F1000
G0 Z3.0 ; Pen up

G0 X149.748 Y159.080 F3000 ; Travel to line 97
G0 Z0.0 ; Pen down
G1 X150.580 Y158.248 F1000
G0 Z3.0 ; Pen up

G0 X149.540 Y157.208 F3000 ; Travel to line 98
G0 Z0.0 ; Pen down
G1 X150.996 Y155.752 F1000
G0 Z3.0 ; Pen up

G0 X149.332 Y155.336 F3000 ; Travel to line 99
G0 Z0.0 ; Pen down
G1 X151.412 Y153.256 F1000
G0 Z3.0 ; Pen up

G0 X149.124 Y153.256 F3000 ; Travel to line 100
G0 Z0.0 ; Pen down
G1 X151.620 Y150.968 F1000
G0 Z3.0 ; Pen up

G0 X151.620 Y148.680 F3000 ; Travel to line 101
G0 Z0.0 ; Pen down
G1 X148.708 Y151.592 F1000
G0 Z3.0 ; Pen up

G0 X148.500 Y149.720 F3000 ; Travel to line 102
G0 Z0.0 ; Pen down
G1 X152.244 Y145.976 F1000
G0 Z3.0 ; Pen up

G0 X152.452 Y143.688 F3000 ; Travel to line 103
G0 Z0.0 ; Pen down
G1 X148.292 Y147.848 F1000
G0 Z3.0 ; Pen up

G0 X148.084 Y145.976 F3000 ; Travel to line 104
G0 Z0.0 ; Pen down
G1 X152.660 Y141.400 F1000
G0 Z3.0 ; Pen up

G0 X153.284 Y138.696 F3000 ; Travel to line 105
G0 Z0.0 ; Pen down
G1 X148.292 Y143.480 F1000
G0 Z3.0 ; Pen up

G0 X148.292 Y141.400 F3000 ; Travel to line 106
G0 Z0.0 ; Pen down
G1 X154.116 Y135.576 F1000
G0 Z3.0 ; Pen up

G0 X154.740 Y132.872 F3000 ; Travel to line 107
G0 Z0.0 ; Pen down
G1 X148.500 Y139.112 F1000
G0 Z3.0 ; Pen up

G0 X148.708 Y136.824 F3000 ; Travel to line 108
G0 Z0.0 ; Pen down
G1 X155.364 Y130.168 F1000
G0 Z3.0 ; Pen up

G0 X155.572 Y127.880 F3000 ; Travel to line 109
G0 Z0.0 ; Pen down
G1 X148.916 Y134.536 F1000
G0 Z3.0 ; Pen up

G0 X149.332 Y131.832 F3000 ; Travel to line 110
G0 Z0.0 ; Pen down
G1 X155.988 Y125.176 F1000
G0 Z3.0 ; Pen up

G0 X155.572 Y123.304 F3000 ; Travel to line 111
G0 Z0.0 ; Pen down
G1 X149.748 Y129.336 F1000
G0 Z3.0 ; Pen up

G0 X149.956 Y127.048 F3000 ; Travel to line 112
G0 Z0.0 ; Pen down
G1 X149.956 Y126.840 F1000
G0 Z3.0 ; Pen up

G0 X150.164 Y126.840 F3000 ; Travel to line 113
G0 Z0.0 ; Pen down
G1 X154.948 Y121.848 F1000
G0 Z3.0 ; Pen up

G0 X153.908 Y120.808 F3000 ; Travel to line 114
G0 Z0.0 ; Pen down
G1 X150.372 Y124.552 F1000
G0 Z3.0 ; Pen up

G0 X191.556 Y117.480 F3000 ; Travel to line 115
G0 Z0.0 ; Pen down
G1 X208.612 Y100.424 F1000
G0 Z3.0 ; Pen up

G0 X208.404 Y98.552 F3000 ; Travel to line 116
G0 Z0.0 ; Pen down
G1 X191.348 Y115.608 F1000
G0 Z3.0 ; Pen up

G0 X190.932 Y113.944 F3000 ; Travel to line 117
G0 Z0.0 ; Pen down
G1 X208.196 Y96.680 F1000
G0 Z3.0 ; Pen up

G0 X207.780 Y94.808 F3000 ; Travel to line 118
G0 Z0.0 ; Pen down
G1 X190.724 Y112.072 F1000
G0 Z3.0 ; Pen up

G0 X190.516 Y109.992 F3000 ; Travel to line 119
G0 Z0.0 ; Pen down
G1 X207.364 Y93.144 F1000
G0 Z3.0 ; Pen up

G0 X206.740 Y91.688 F3000 ; Travel to line 120
G0 Z0.0 ; Pen down
G1 X200.500 Y97.928 F1000
G0 Z3.0 ; Pen up

G0 X200.292 Y97.928 F3000 ; Travel to line 121
G0 Z0.0 ; Pen down
G1 X200.292 Y98.136 F1000
G0 Z3.0 ; Pen up

G0 X202.580 Y93.768 F3000 ; Travel to line 122
G0 Z0.0 ; Pen down
G1 X202.580 Y93.560 F1000
G0 Z3.0 ; Pen up

G0 X202.788 Y93.560 F3000 ; Travel to line 123
G0 Z0.0 ; Pen down
G1 X202.788 Y93.352 F1000
G0 Z3.0 ; Pen up

G0 X202.996 Y93.352 F3000 ; Travel to line 124
G0 Z0.0 ; Pen down
G1 X205.700 Y90.440 F1000
G0 Z3.0 ; Pen up

G0 X208.612 Y102.504 F3000 ; Travel to line 125
G0 Z0.0 ; Pen down
G1 X191.972 Y119.144 F1000
G0 Z3.0 ; Pen up

G0 X192.180 Y121.016 F3000 ; Travel to line 126
G0 Z0.0 ; Pen down
G1 X208.820 Y104.584 F1000
G0 Z3.0 ; Pen up

G0 X208.820 Y106.664 F3000 ; Travel to line 127
G0 Z0.0 ; Pen down
G1 X192.596 Y122.680 F1000
G0 Z3.0 ; Pen up

G0 X193.012 Y124.344 F3000 ; Travel to line 128
G0 Z0.0 ; Pen down
G1 X208.612 Y108.952 F1000
G0 Z3.0 ; Pen up

G0 X208.404 Y111.240 F3000 ; Travel to line 129
G0 Z0.0 ; Pen down
G1 X193.428 Y126.008 F1000
G0 Z3.0 ; Pen up

G0 X194.052 Y127.672 F3000 ; Travel to line 130
G0 Z0.0 ; Pen down
G1 X208.196 Y113.528 F1000
G0 Z3.0 ; Pen up

G0 X207.780 Y116.024 F3000 ; Travel to line 131
G0 Z0.0 ; Pen down
G1 X194.468 Y129.544 F1000
G0 Z3.0 ; Pen up

G0 X195.092 Y131.000 F3000 ; Travel to line 132
G0 Z0.0 ; Pen down
G1 X207.364 Y118.728 F1000
G0 Z3.0 ; Pen up

G0 X206.740 Y121.432 F3000 ; Travel to line 133
G0 Z0.0 ; Pen down
G1 X195.716 Y132.248 F1000
G0 Z3.0 ; Pen up

G0 X196.548 Y133.704 F3000 ; Travel to line 134
G0 Z0.0 ; Pen down
G1 X206.116 Y124.136 F1000
G0 Z3.0 ; Pen up

G0 X205.284 Y127.048 F3000 ; Travel to line 135
G0 Z0.0 ; Pen down
G1 X197.380 Y134.744 F1000
G0 Z3.0 ; Pen up

G0 X198.836 Y135.576 F3000 ; Travel to line 136
G0 Z0.0 ; Pen down
G1 X204.452 Y129.960 F1000
G0 Z3.0 ; Pen up

G0 X199.460 Y136.200 F3000 ; Travel to line 137
G0 Z0.0 ; Pen down
G1 X198.004 Y135.160 F1000
G1 X197.796 Y135.160 F1000
G1 X196.548 Y133.704 F1000
G1 X194.676 Y130.168 F1000
G1 X194.468 Y128.920 F1000
G1 X194.260 Y128.712 F1000
G1 X194.260 Y128.296 F1000
G1 X193.844 Y127.464 F1000
G1 X193.844 Y126.840 F1000
G1 X193.428 Y126.008 F1000
G1 X193.428 Y125.384 F1000
G1 X193.220 Y125.176 F1000
G1 X193.220 Y124.552 F1000
G1 X193.012 Y124.344 F1000
G1 X193.012 Y123.720 F1000
G1 X192.804 Y123.512 F1000
G1 X192.804 Y122.888 F1000
G1 X192.596 Y122.680 F1000
G1 X192.596 Y122.056 F1000
G1 X192.388 Y121.848 F1000
G1 X192.388 Y121.224 F1000
G1 X192.180 Y121.016 F1000
G1 X192.180 Y120.184 F1000
G1 X191.972 Y119.976 F1000
G1 X191.764 Y118.104 F1000
G1 X191.556 Y117.896 F1000
G1 X191.348 Y115.400 F1000
G1 X191.140 Y115.192 F1000
G1 X191.140 Y114.152 F1000
G1 X190.932 Y113.944 F1000
G1 X190.932 Y112.280 F1000
G1 X190.724 Y112.072 F1000
G1 X190.724 Y110.200 F1000
G1 X190.516 Y109.992 F1000
G1 X190.516 Y107.080 F1000
G1 X190.308 Y106.872 F1000
G1 X190.308 Y105.208 F1000
G1 X190.100 Y105.000 F1000
G1 X190.100 Y87.320 F1000
G1 X190.100 Y88.776 F1000
G1 X190.308 Y88.984 F1000
G1 X190.308 Y91.896 F1000
G1 X190.516 Y92.104 F1000
G1 X190.516 Y94.184 F1000
G1 X190.724 Y94.392 F1000
G1 X190.724 Y95.848 F1000
G1 X190.932 Y96.056 F1000
G1 X190.932 Y97.096 F1000
G1 X191.140 Y97.304 F1000
G1 X191.348 Y99.176 F1000
G1 X191.556 Y99.384 F1000
G1 X191.556 Y100.008 F1000
G1 X191.972 Y100.632 F1000
G1 X191.972 Y101.048 F1000
G1 X192.388 Y101.880 F1000
G1 X193.636 Y103.128 F1000
G1 X194.052 Y103.128 F1000
G1 X194.260 Y103.336 F1000
G1 X195.300 Y103.336 F1000
G1 X195.508 Y103.128 F1000
G1 X195.924 Y103.128 F1000
G1 X197.380 Y102.088 F1000
G1 X197.588 Y102.088 F1000
G1 X198.212 Y101.464 F1000
G1 X198.212 Y101.256 F1000
G1 X199.668 Y99.592 F1000
G1 X202.580 Y93.768 F1000
G1 X203.620 Y92.520 F1000
G1 X204.036 Y91.688 F1000
G1 X205.492 Y90.440 F1000
G1 X206.532 Y91.480 F1000
G1 X206.948 Y92.312 F1000
G1 X206.948 Y92.728 F1000
G1 X207.364 Y93.352 F1000
G1 X207.364 Y93.976 F1000
G1 X207.572 Y94.184 F1000
G1 X207.780 Y96.056 F1000
G1 X207.988 Y96.264 F1000
G1 X207.988 Y97.720 F1000
G1 X208.196 Y97.928 F1000
G1 X208.196 Y99.800 F1000
G1 X208.404 Y100.008 F1000
G1 X208.404 Y102.920 F1000
G1 X208.612 Y103.128 F1000
G1 X208.612 Y106.872 F1000
G1 X208.404 Y107.080 F1000
G1 X208.404 Y109.992 F1000
G1 X208.196 Y110.200 F1000
G1 X207.988 Y113.944 F1000
G1 X207.780 Y114.152 F1000
G1 X207.572 Y116.648 F1000
G1 X207.364 Y116.856 F1000
G1 X207.364 Y117.896 F1000
G1 X207.156 Y118.104 F1000
G1 X207.156 Y118.936 F1000
G1 X206.948 Y119.144 F1000
G1 X206.740 Y121.016 F1000
G1 X206.532 Y121.224 F1000
G1 X206.532 Y121.848 F1000
G1 X206.324 Y122.056 F1000
G1 X206.324 Y122.680 F1000
G1 X206.116 Y122.888 F1000
G1 X206.116 Y123.512 F1000
G1 X205.908 Y123.720 F1000
G1 X205.908 Y124.344 F1000
G1 X205.700 Y124.552 F1000
G1 X205.492 Y126.008 F1000
G1 X205.076 Y126.840 F1000
G1 X205.076 Y127.464 F1000
G1 X204.868 Y127.672 F1000
G1 X204.868 Y128.088 F1000
G1 X204.452 Y128.920 F1000
G1 X204.244 Y130.168 F1000
G1 X202.372 Y133.704 F1000
G1 X201.124 Y135.160 F1000
G1 X200.916 Y135.160 F1000
G1 X199.460 Y136.200 F1000
G0 Z3.0 ; Pen up

G0 X190.516 Y107.912 F3000 ; Travel to line 138
G0 Z0.0 ; Pen down
G1 X195.092 Y103.128 F1000
G0 Z3.0 ; Pen up

G0 X193.428 Y102.712 F3000 ; Travel to line 139
G0 Z0.0 ; Pen down
G1 X190.308 Y106.040 F1000
G0 Z3.0 ; Pen up

G0 X190.100 Y104.168 F3000 ; Travel to line 140
G0 Z0.0 ; Pen down
G1 X192.596 Y101.672 F1000
G0 Z3.0 ; Pen up

G0 X191.972 Y100.008 F3000 ; Travel to line 141
G0 Z0.0 ; Pen down
G1 X190.100 Y101.880 F1000
G0 Z3.0 ; Pen up

G0 X190.100 Y99.800 F3000 ; Travel to line 142
G0 Z0.0 ; Pen down
G1 X191.556 Y98.344 F1000
G0 Z3.0 ; Pen up

G0 X190.100 Y97.720 F3000 ; Travel to line 143
G0 Z0.0 ; Pen down
G1 X191.140 Y96.680 F1000
G0 Z3.0 ; Pen up

G0 X190.100 Y95.640 F3000 ; Travel to line 144
G0 Z0.0 ; Pen down
G1 X190.932 Y94.808 F1000
G0 Z3.0 ; Pen up

G0 X190.100 Y93.560 F3000 ; Travel to line 145
G0 Z0.0 ; Pen down
G1 X190.724 Y92.936 F1000
G0 Z3.0 ; Pen up

G0 X190.100 Y91.272 F3000 ; Travel to line 146
G0 Z0.0 ; Pen down
G1 X190.516 Y91.064 F1000
G0 Z3.0 ; Pen up

G0 X190.100 Y89.192 F3000 ; Travel to line 147
G0 Z0.0 ; Pen down
G1 X190.308 Y88.776 F1000
G0 Z3.0 ; Pen up

G0 X190.100 Y88.360 F3000 ; Travel to line 148
G0 Z0.0 ; Pen down
G1 X190.308 Y88.152 F1000
G0 Z3.0 ; Pen up

G0 X190.100 Y87.320 F3000 ; Travel to line 149
G0 Z0.0 ; Pen down
G1 X190.308 Y87.112 F1000
G0 Z3.0 ; Pen up

; Return to origin
G0 X0 Y0
G0 Z3.0

; Total drawing distance: 2141.06 mm
; Total travel distance: 621.06 mm
; Total lines: 149
; Estimated time: 140.9 seconds (2.3 minutes)
M2 ; End program