; Blueprint to G-code
; Input: arch_test_manual.png
; Generated with blueprint2gcode.py
;
; Generation Parameters:
;   Paper size: A4 (210x297mm)
;   Orientation: landscape
;   Margin: 1.0mm
;   Z up: 3.0mm
;   Z down: 0.0mm
;   Feed rate: 1000mm/min
;   Travel rate: 3000mm/min
;   Join tolerance: 0.02mm
;   Min line length: 0.01mm
;   Simplify epsilon: 0.000001
;   Fill solid areas: True
;   Hatch spacing: 1.5px
;   Hatch angle: 45.0°
;   Crosshatch: False
;   Min solid area: 1.0px²
;   Invert colors: False

G21 ; Set units to millimeters
G90 ; Absolute positioning
G0 Z3.0 ; Pen up
G0 X0 Y0 ; Move to origin

G0 X100.292 Y2.896 F3000 ; Travel to line 1
G0 Z0.0 ; Pen down
G1 X106.521 Y1.271 F1000
G0 Z3.0 ; Pen up

G0 X105.979 Y1.812 F3000 ; Travel to line 2
G0 Z0.0 ; Pen down
G1 X101.104 Y3.167 F1000
G0 Z3.0 ; Pen up

G0 X103.000 Y3.167 F3000 ; Travel to line 3
G0 Z0.0 ; Pen down
G1 X103.542 Y3.167 F1000
G0 Z3.0 ; Pen up

G0 X103.812 Y2.896 F3000 ; Travel to line 4
G0 Z0.0 ; Pen down
G1 X104.354 Y2.896 F1000
G0 Z3.0 ; Pen up

G0 X104.354 Y2.625 F3000 ; Travel to line 5
G0 Z0.0 ; Pen down
G1 X104.896 Y2.625 F1000
G0 Z3.0 ; Pen up

G0 X143.354 Y80.083 F3000 ; Travel to line 6
G0 Z0.0 ; Pen down
G1 X136.312 Y87.125 F1000
G0 Z3.0 ; Pen up

G0 X136.583 Y87.396 F3000 ; Travel to line 7
G0 Z0.0 ; Pen down
G1 X143.625 Y80.354 F1000
G0 Z3.0 ; Pen up

G0 X144.438 Y80.896 F3000 ; Travel to line 8
G0 Z0.0 ; Pen down
G1 X137.125 Y88.208 F1000
G0 Z3.0 ; Pen up

G0 X137.667 Y88.750 F3000 ; Travel to line 9
G0 Z0.0 ; Pen down
G1 X144.979 Y81.438 F1000
G0 Z3.0 ; Pen up

G0 X145.250 Y81.708 F3000 ; Travel to line 10
G0 Z0.0 ; Pen down
G1 X137.938 Y89.021 F1000
G0 Z3.0 ; Pen up

G0 X138.208 Y89.292 F3000 ; Travel to line 11
G0 Z0.0 ; Pen down
G1 X145.521 Y81.979 F1000
G1 X145.521 Y81.979 F1000
G1 X138.208 Y89.292 F1000
G1 X138.208 Y89.292 F1000
G1 X145.521 Y81.979 F1000
G1 X145.521 Y81.979 F1000
G1 X138.208 Y89.562 F1000
G0 Z3.0 ; Pen up

G0 X138.479 Y89.833 F3000 ; Travel to line 12
G0 Z0.0 ; Pen down
G1 X146.062 Y82.521 F1000
G0 Z3.0 ; Pen up

G0 X146.604 Y83.062 F3000 ; Travel to line 13
G0 Z0.0 ; Pen down
G1 X139.021 Y90.375 F1000
G0 Z3.0 ; Pen up

G0 X139.562 Y90.917 F3000 ; Travel to line 14
G0 Z0.0 ; Pen down
G1 X147.146 Y83.333 F1000
G0 Z3.0 ; Pen up

G0 X147.688 Y83.875 F3000 ; Travel to line 15
G0 Z0.0 ; Pen down
G1 X140.104 Y91.458 F1000
G0 Z3.0 ; Pen up

G0 X140.646 Y92.271 F3000 ; Travel to line 16
G0 Z0.0 ; Pen down
G1 X148.229 Y84.417 F1000
G0 Z3.0 ; Pen up

G0 X148.771 Y84.958 F3000 ; Travel to line 17
G0 Z0.0 ; Pen down
G1 X140.917 Y92.812 F1000
G0 Z3.0 ; Pen up

G0 X141.458 Y93.354 F3000 ; Travel to line 18
G0 Z0.0 ; Pen down
G1 X149.312 Y85.500 F1000
G0 Z3.0 ; Pen up

G0 X149.854 Y86.042 F3000 ; Travel to line 19
G0 Z0.0 ; Pen down
G1 X142.000 Y94.167 F1000
G0 Z3.0 ; Pen up

G0 X142.271 Y94.438 F3000 ; Travel to line 20
G0 Z0.0 ; Pen down
G1 X150.396 Y86.583 F1000
G0 Z3.0 ; Pen up

G0 X150.938 Y87.125 F3000 ; Travel to line 21
G0 Z0.0 ; Pen down
G1 X142.812 Y94.979 F1000
G0 Z3.0 ; Pen up

G0 X143.354 Y95.521 F3000 ; Travel to line 22
G0 Z0.0 ; Pen down
G1 X151.479 Y87.667 F1000
G0 Z3.0 ; Pen up

G0 X152.021 Y88.208 F3000 ; Travel to line 23
G0 Z0.0 ; Pen down
G1 X143.896 Y96.062 F1000
G0 Z3.0 ; Pen up

G0 X144.438 Y96.604 F3000 ; Travel to line 24
G0 Z0.0 ; Pen down
G1 X152.562 Y88.750 F1000
G0 Z3.0 ; Pen up

G0 X153.104 Y89.021 F3000 ; Travel to line 25
G0 Z0.0 ; Pen down
G1 X144.979 Y97.417 F1000
G0 Z3.0 ; Pen up

G0 X145.521 Y97.958 F3000 ; Travel to line 26
G0 Z0.0 ; Pen down
G1 X153.646 Y89.562 F1000
G0 Z3.0 ; Pen up

G0 X154.188 Y90.104 F3000 ; Travel to line 27
G0 Z0.0 ; Pen down
G1 X145.792 Y98.500 F1000
G0 Z3.0 ; Pen up

G0 X146.333 Y99.042 F3000 ; Travel to line 28
G0 Z0.0 ; Pen down
G1 X154.729 Y90.646 F1000
G0 Z3.0 ; Pen up

G0 X155.271 Y91.188 F3000 ; Travel to line 29
G0 Z0.0 ; Pen down
G1 X146.875 Y99.583 F1000
G0 Z3.0 ; Pen up

G0 X147.417 Y100.396 F3000 ; Travel to line 30
G0 Z0.0 ; Pen down
G1 X155.812 Y91.729 F1000
G0 Z3.0 ; Pen up

G0 X156.354 Y92.271 F3000 ; Travel to line 31
G0 Z0.0 ; Pen down
G1 X147.958 Y100.938 F1000
G0 Z3.0 ; Pen up

G0 X148.229 Y101.479 F3000 ; Travel to line 32
G0 Z0.0 ; Pen down
G1 X156.896 Y92.812 F1000
G0 Z3.0 ; Pen up

G0 X157.438 Y93.083 F3000 ; Travel to line 33
G0 Z0.0 ; Pen down
G1 X148.771 Y102.021 F1000
G0 Z3.0 ; Pen up

G0 X149.312 Y102.562 F3000 ; Travel to line 34
G0 Z0.0 ; Pen down
G1 X157.979 Y93.625 F1000
G0 Z3.0 ; Pen up

G0 X158.521 Y94.167 F3000 ; Travel to line 35
G0 Z0.0 ; Pen down
G1 X149.583 Y103.104 F1000
G0 Z3.0 ; Pen up

G0 X149.854 Y103.375 F3000 ; Travel to line 36
G0 Z0.0 ; Pen down
G1 X158.792 Y94.438 F1000
G0 Z3.0 ; Pen up

G0 X159.062 Y94.708 F3000 ; Travel to line 37
G0 Z0.0 ; Pen down
G1 X150.125 Y103.646 F1000
G0 Z3.0 ; Pen up

G0 X150.125 Y103.375 F3000 ; Travel to line 38
G0 Z0.0 ; Pen down
G1 X159.062 Y94.438 F1000
G1 X159.062 Y94.438 F1000
G1 X150.125 Y103.375 F1000
G1 X150.125 Y103.375 F1000
G1 X159.062 Y94.438 F1000
G1 X159.062 Y94.438 F1000
G1 X150.125 Y103.375 F1000
G1 X150.125 Y103.375 F1000
G1 X159.062 Y94.438 F1000
G1 X159.062 Y94.438 F1000
G1 X150.125 Y103.375 F1000
G1 X150.125 Y103.375 F1000
G1 X159.062 Y94.438 F1000
G1 X159.062 Y94.438 F1000
G1 X150.125 Y103.375 F1000
G1 X150.125 Y103.375 F1000
G1 X159.062 Y94.438 F1000
G1 X159.062 Y94.438 F1000
G1 X150.125 Y103.375 F1000
G1 X150.125 Y103.375 F1000
G1 X159.062 Y94.438 F1000
G1 X159.062 Y94.438 F1000
G1 X150.125 Y103.375 F1000
G1 X150.125 Y103.375 F1000
G1 X159.062 Y94.438 F1000
G1 X159.062 Y94.438 F1000
G1 X150.125 Y103.375 F1000
G1 X150.125 Y103.375 F1000
G1 X159.062 Y94.438 F1000
G1 X159.062 Y94.438 F1000
G1 X150.125 Y103.375 F1000
G1 X150.125 Y103.375 F1000
G1 X159.062 Y94.438 F1000
G1 X159.062 Y94.438 F1000
G1 X150.125 Y103.375 F1000
G1 X150.125 Y103.375 F1000
G1 X159.062 Y94.438 F1000
G1 X159.062 Y94.438 F1000
G1 X150.125 Y103.375 F1000
G1 X150.125 Y103.375 F1000
G1 X159.062 Y94.438 F1000
G1 X159.062 Y94.438 F1000
G1 X150.125 Y103.375 F1000
G1 X150.125 Y103.375 F1000
G1 X159.062 Y94.438 F1000
G1 X159.062 Y94.438 F1000
G1 X150.125 Y103.375 F1000
G1 X150.125 Y103.375 F1000
G1 X159.062 Y94.438 F1000
G1 X159.062 Y94.438 F1000
G1 X150.125 Y103.375 F1000
G1 X150.125 Y103.375 F1000
G1 X159.062 Y94.438 F1000
G1 X159.062 Y94.438 F1000
G1 X150.125 Y103.375 F1000
G1 X150.125 Y103.375 F1000
G1 X159.062 Y94.438 F1000
G1 X159.062 Y94.438 F1000
G1 X150.125 Y103.375 F1000
G1 X150.125 Y103.375 F1000
G1 X159.062 Y94.438 F1000
G1 X159.062 Y94.438 F1000
G1 X150.125 Y103.375 F1000
G1 X150.125 Y103.375 F1000
G1 X159.062 Y94.438 F1000
G1 X159.062 Y94.438 F1000
G1 X150.125 Y103.375 F1000
G1 X150.125 Y103.375 F1000
G1 X159.062 Y94.438 F1000
G1 X159.062 Y94.438 F1000
G1 X150.125 Y103.375 F1000
G1 X150.125 Y103.375 F1000
G1 X159.062 Y94.438 F1000
G1 X159.062 Y94.438 F1000
G1 X150.125 Y103.375 F1000
G1 X150.125 Y103.375 F1000
G1 X159.062 Y94.438 F1000
G1 X159.062 Y94.438 F1000
G1 X150.125 Y103.375 F1000
G1 X150.125 Y103.375 F1000
G1 X159.062 Y94.438 F1000
G1 X159.062 Y94.438 F1000
G1 X150.125 Y103.375 F1000
G1 X150.125 Y103.375 F1000
G1 X159.062 Y94.438 F1000
G1 X159.062 Y94.438 F1000
G1 X150.125 Y103.375 F1000
G1 X150.125 Y103.375 F1000
G1 X159.062 Y94.438 F1000
G1 X159.062 Y94.438 F1000
G1 X150.125 Y103.375 F1000
G1 X150.125 Y103.375 F1000
G1 X159.062 Y94.438 F1000
G1 X159.062 Y94.438 F1000
G1 X150.125 Y103.375 F1000
G1 X150.125 Y103.375 F1000
G1 X159.062 Y94.438 F1000
G1 X159.062 Y94.438 F1000
G1 X150.125 Y103.375 F1000
G1 X150.125 Y103.375 F1000
G1 X159.062 Y94.438 F1000
G1 X159.062 Y94.438 F1000
G1 X150.125 Y103.375 F1000
G1 X150.125 Y103.375 F1000
G1 X159.062 Y94.438 F1000
G1 X159.062 Y94.438 F1000
G1 X150.125 Y103.375 F1000
G1 X150.125 Y103.375 F1000
G1 X159.062 Y94.438 F1000
G1 X159.062 Y94.438 F1000
G1 X150.125 Y103.375 F1000
G1 X150.125 Y103.375 F1000
G1 X159.062 Y94.438 F1000
G1 X159.062 Y94.438 F1000
G1 X150.125 Y103.375 F1000
G1 X150.125 Y103.375 F1000
G1 X159.062 Y94.438 F1000
G1 X159.062 Y94.438 F1000
G1 X150.125 Y103.375 F1000
G1 X150.125 Y103.375 F1000
G1 X159.062 Y94.438 F1000
G1 X159.062 Y94.438 F1000
G1 X150.125 Y103.375 F1000
G1 X150.125 Y103.375 F1000
G1 X159.062 Y94.438 F1000
G1 X159.062 Y94.438 F1000
G1 X150.125 Y103.375 F1000
G1 X150.125 Y103.375 F1000
G1 X159.062 Y94.438 F1000
G1 X159.062 Y94.438 F1000
G1 X150.125 Y103.375 F1000
G1 X150.125 Y103.375 F1000
G1 X159.062 Y94.438 F1000
G1 X159.062 Y94.438 F1000
G1 X150.125 Y103.375 F1000
G1 X150.125 Y103.375 F1000
G1 X159.062 Y94.438 F1000
G1 X159.062 Y94.438 F1000
G1 X150.125 Y103.375 F1000
G1 X150.125 Y103.375 F1000
G1 X159.062 Y94.438 F1000
G1 X159.062 Y94.438 F1000
G1 X150.125 Y103.375 F1000
G1 X150.125 Y103.375 F1000
G1 X159.062 Y94.438 F1000
G1 X159.062 Y94.438 F1000
G1 X150.125 Y103.375 F1000
G1 X150.125 Y103.375 F1000
G1 X159.062 Y94.438 F1000
G1 X159.062 Y94.438 F1000
G1 X150.125 Y103.375 F1000
G1 X150.125 Y103.375 F1000
G1 X159.062 Y94.438 F1000
G1 X159.062 Y94.438 F1000
G1 X150.125 Y103.375 F1000
G1 X150.125 Y103.375 F1000
G1 X159.062 Y94.438 F1000
G1 X159.062 Y94.438 F1000
G1 X150.125 Y103.375 F1000
G1 X150.125 Y103.375 F1000
G1 X159.062 Y94.438 F1000
G1 X159.062 Y94.438 F1000
G1 X150.125 Y103.375 F1000
G1 X150.125 Y103.375 F1000
G1 X159.062 Y94.438 F1000
G1 X159.062 Y94.438 F1000
G1 X150.125 Y103.375 F1000
G1 X150.125 Y103.375 F1000
G1 X159.062 Y94.438 F1000
G1 X159.062 Y94.438 F1000
G1 X150.125 Y103.375 F1000
G0 Z3.0 ; Pen up

G0 X150.396 Y103.917 F3000 ; Travel to line 39
G0 Z0.0 ; Pen down
G1 X159.333 Y94.979 F1000
G0 Z3.0 ; Pen up

G0 X159.604 Y95.250 F3000 ; Travel to line 40
G0 Z0.0 ; Pen down
G1 X150.667 Y104.458 F1000
G0 Z3.0 ; Pen up

G0 X151.208 Y105.000 F3000 ; Travel to line 41
G0 Z0.0 ; Pen down
G1 X160.146 Y95.792 F1000
G0 Z3.0 ; Pen up

G0 X160.688 Y96.333 F3000 ; Travel to line 42
G0 Z0.0 ; Pen down
G1 X151.750 Y105.542 F1000
G0 Z3.0 ; Pen up

G0 X152.021 Y106.083 F3000 ; Travel to line 43
G0 Z0.0 ; Pen down
G1 X161.229 Y96.875 F1000
G0 Z3.0 ; Pen up

G0 X161.771 Y97.417 F3000 ; Travel to line 44
G0 Z0.0 ; Pen down
G1 X152.562 Y106.625 F1000
G0 Z3.0 ; Pen up

G0 X153.104 Y107.437 F3000 ; Travel to line 45
G0 Z0.0 ; Pen down
G1 X162.312 Y97.958 F1000
G0 Z3.0 ; Pen up

G0 X162.854 Y98.771 F3000 ; Travel to line 46
G0 Z0.0 ; Pen down
G1 X153.646 Y107.979 F1000
G0 Z3.0 ; Pen up

G0 X154.188 Y108.521 F3000 ; Travel to line 47
G0 Z0.0 ; Pen down
G1 X163.396 Y99.312 F1000
G0 Z3.0 ; Pen up

G0 X163.938 Y99.854 F3000 ; Travel to line 48
G0 Z0.0 ; Pen down
G1 X154.458 Y109.333 F1000
G0 Z3.0 ; Pen up

G0 X155.000 Y109.875 F3000 ; Travel to line 49
G0 Z0.0 ; Pen down
G1 X164.479 Y100.396 F1000
G0 Z3.0 ; Pen up

G0 X164.750 Y100.667 F3000 ; Travel to line 50
G0 Z0.0 ; Pen down
G1 X155.542 Y110.146 F1000
G0 Z3.0 ; Pen up

G0 X155.812 Y110.958 F3000 ; Travel to line 51
G0 Z0.0 ; Pen down
G1 X165.292 Y101.208 F1000
G0 Z3.0 ; Pen up

G0 X165.833 Y101.750 F3000 ; Travel to line 52
G0 Z0.0 ; Pen down
G1 X156.354 Y111.500 F1000
G0 Z3.0 ; Pen up

G0 X156.896 Y112.042 F3000 ; Travel to line 53
G0 Z0.0 ; Pen down
G1 X166.375 Y102.292 F1000
G0 Z3.0 ; Pen up

G0 X166.917 Y102.833 F3000 ; Travel to line 54
G0 Z0.0 ; Pen down
G1 X157.438 Y112.583 F1000
G0 Z3.0 ; Pen up

G0 X157.708 Y113.396 F3000 ; Travel to line 55
G0 Z0.0 ; Pen down
G1 X167.458 Y103.375 F1000
G0 Z3.0 ; Pen up

G0 X168.000 Y103.917 F3000 ; Travel to line 56
G0 Z0.0 ; Pen down
G1 X158.250 Y113.937 F1000
G0 Z3.0 ; Pen up

G0 X158.792 Y114.479 F3000 ; Travel to line 57
G0 Z0.0 ; Pen down
G1 X168.542 Y104.458 F1000
G0 Z3.0 ; Pen up

G0 X169.083 Y105.000 F3000 ; Travel to line 58
G0 Z0.0 ; Pen down
G1 X159.062 Y115.292 F1000
G0 Z3.0 ; Pen up

G0 X159.604 Y115.833 F3000 ; Travel to line 59
G0 Z0.0 ; Pen down
G1 X169.625 Y105.542 F1000
G0 Z3.0 ; Pen up

G0 X170.167 Y106.083 F3000 ; Travel to line 60
G0 Z0.0 ; Pen down
G1 X160.146 Y116.375 F1000
G0 Z3.0 ; Pen up

G0 X160.417 Y117.187 F3000 ; Travel to line 61
G0 Z0.0 ; Pen down
G1 X170.708 Y106.896 F1000
G0 Z3.0 ; Pen up

G0 X170.979 Y107.167 F3000 ; Travel to line 62
G0 Z0.0 ; Pen down
G1 X160.958 Y117.729 F1000
G0 Z3.0 ; Pen up

G0 X161.229 Y118.271 F3000 ; Travel to line 63
G0 Z0.0 ; Pen down
G1 X171.521 Y107.708 F1000
G0 Z3.0 ; Pen up

G0 X172.062 Y108.250 F3000 ; Travel to line 64
G0 Z0.0 ; Pen down
G1 X161.771 Y118.812 F1000
G0 Z3.0 ; Pen up

G0 X162.312 Y119.625 F3000 ; Travel to line 65
G0 Z0.0 ; Pen down
G1 X172.604 Y108.792 F1000
G0 Z3.0 ; Pen up

G0 X173.146 Y109.333 F3000 ; Travel to line 66
G0 Z0.0 ; Pen down
G1 X162.854 Y119.896 F1000
G0 Z3.0 ; Pen up

G0 X163.125 Y120.708 F3000 ; Travel to line 67
G0 Z0.0 ; Pen down
G1 X173.688 Y109.875 F1000
G0 Z3.0 ; Pen up

G0 X174.500 Y110.687 F3000 ; Travel to line 68
G0 Z0.0 ; Pen down
G1 X163.667 Y121.521 F1000
G1 X163.667 Y121.521 F1000
G1 X174.229 Y110.417 F1000
G1 X174.229 Y110.417 F1000
G1 X163.396 Y121.250 F1000
G0 Z3.0 ; Pen up

G0 X163.667 Y121.521 F3000 ; Travel to line 69
G0 Z0.0 ; Pen down
G1 X174.229 Y110.417 F1000
G1 X174.229 Y110.417 F1000
G1 X163.667 Y121.521 F1000
G0 Z3.0 ; Pen up

G0 X164.208 Y122.062 F3000 ; Travel to line 70
G0 Z0.0 ; Pen down
G1 X174.771 Y111.229 F1000
G0 Z3.0 ; Pen up

G0 X175.312 Y111.771 F3000 ; Travel to line 71
G0 Z0.0 ; Pen down
G1 X164.479 Y122.604 F1000
G0 Z3.0 ; Pen up

; Return to origin
G0 X0 Y0
G0 Z3.0

; Total drawing distance: 2181.95 mm
; Total travel distance: 236.26 mm
; Total lines: 71
; Estimated time: 135.6 seconds (2.3 minutes)
M2 ; End program