; Blueprint to G-code
; Input: arch_test_manual.png
; Generated with blueprint2gcode.py
;
; Generation Parameters:
;   Paper size: A4 (210x297mm)
;   Orientation: landscape
;   Margin: 1.0mm
;   Z up: 3.0mm
;   Z down: 0.0mm
;   Feed rate: 1000mm/min
;   Travel rate: 3000mm/min
;   Join tolerance: 0.02mm
;   Min line length: 0.01mm
;   Simplify epsilon: 0.000001
;   Fill solid areas: True
;   Hatch spacing: 1.5px
;   Hatch angle: 45.0°
;   Crosshatch: False
;   Min solid area: 1.0px²
;   Invert colors: False

G21 ; Set units to millimeters
G90 ; Absolute positioning
G0 Z3.0 ; Pen up
G0 X0 Y0 ; Move to origin

G0 X98.125 Y1.271 F3000 ; Travel to line 1
G0 Z0.0 ; Pen down
G1 X106.250 Y1.271 F1000
G1 X105.167 Y2.354 F1000
G1 X104.083 Y2.896 F1000
G1 X103.542 Y2.896 F1000
G1 X103.271 Y3.167 F1000
G1 X101.104 Y3.167 F1000
G1 X100.833 Y2.896 F1000
G1 X100.292 Y2.896 F1000
G1 X99.208 Y2.354 F1000
G1 X98.125 Y1.271 F1000
G0 Z3.0 ; Pen up

G0 X100.292 Y2.896 F3000 ; Travel to line 2
G0 Z0.0 ; Pen down
G1 X106.521 Y1.271 F1000
G0 Z3.0 ; Pen up

G0 X105.979 Y1.812 F3000 ; Travel to line 3
G0 Z0.0 ; Pen down
G1 X101.104 Y3.167 F1000
G0 Z3.0 ; Pen up

G0 X103.000 Y3.167 F3000 ; Travel to line 4
G0 Z0.0 ; Pen down
G1 X103.542 Y3.167 F1000
G0 Z3.0 ; Pen up

G0 X103.812 Y2.896 F3000 ; Travel to line 5
G0 Z0.0 ; Pen down
G1 X104.354 Y2.896 F1000
G0 Z3.0 ; Pen up

G0 X104.354 Y2.625 F3000 ; Travel to line 6
G0 Z0.0 ; Pen down
G1 X104.896 Y2.625 F1000
G0 Z3.0 ; Pen up

G0 X143.354 Y80.083 F3000 ; Travel to line 7
G0 Z0.0 ; Pen down
G1 X136.312 Y87.125 F1000
G0 Z3.0 ; Pen up

G0 X136.583 Y87.396 F3000 ; Travel to line 8
G0 Z0.0 ; Pen down
G1 X143.625 Y80.354 F1000
G0 Z3.0 ; Pen up

G0 X144.438 Y80.896 F3000 ; Travel to line 9
G0 Z0.0 ; Pen down
G1 X137.125 Y88.208 F1000
G0 Z3.0 ; Pen up

G0 X137.667 Y88.750 F3000 ; Travel to line 10
G0 Z0.0 ; Pen down
G1 X144.979 Y81.438 F1000
G0 Z3.0 ; Pen up

G0 X145.250 Y81.708 F3000 ; Travel to line 11
G0 Z0.0 ; Pen down
G1 X137.938 Y89.021 F1000
G0 Z3.0 ; Pen up

G0 X138.208 Y89.292 F3000 ; Travel to line 12
G0 Z0.0 ; Pen down
G1 X145.521 Y81.979 F1000
G0 Z3.0 ; Pen up

G0 X145.521 Y81.979 F3000 ; Travel to line 13
G0 Z0.0 ; Pen down
G1 X138.208 Y89.562 F1000
G0 Z3.0 ; Pen up

G0 X138.208 Y89.292 F3000 ; Travel to line 14
G0 Z0.0 ; Pen down
G1 X145.521 Y81.979 F1000
G0 Z3.0 ; Pen up

G0 X145.521 Y81.979 F3000 ; Travel to line 15
G0 Z0.0 ; Pen down
G1 X138.208 Y89.292 F1000
G0 Z3.0 ; Pen up

G0 X138.479 Y89.833 F3000 ; Travel to line 16
G0 Z0.0 ; Pen down
G1 X146.062 Y82.521 F1000
G0 Z3.0 ; Pen up

G0 X146.604 Y83.062 F3000 ; Travel to line 17
G0 Z0.0 ; Pen down
G1 X139.021 Y90.375 F1000
G0 Z3.0 ; Pen up

G0 X139.562 Y90.917 F3000 ; Travel to line 18
G0 Z0.0 ; Pen down
G1 X147.146 Y83.333 F1000
G0 Z3.0 ; Pen up

G0 X147.688 Y83.875 F3000 ; Travel to line 19
G0 Z0.0 ; Pen down
G1 X140.104 Y91.458 F1000
G0 Z3.0 ; Pen up

G0 X140.646 Y92.271 F3000 ; Travel to line 20
G0 Z0.0 ; Pen down
G1 X148.229 Y84.417 F1000
G0 Z3.0 ; Pen up

G0 X148.771 Y84.958 F3000 ; Travel to line 21
G0 Z0.0 ; Pen down
G1 X140.917 Y92.812 F1000
G0 Z3.0 ; Pen up

G0 X141.458 Y93.354 F3000 ; Travel to line 22
G0 Z0.0 ; Pen down
G1 X149.312 Y85.500 F1000
G0 Z3.0 ; Pen up

G0 X149.854 Y86.042 F3000 ; Travel to line 23
G0 Z0.0 ; Pen down
G1 X142.000 Y94.167 F1000
G0 Z3.0 ; Pen up

G0 X142.271 Y94.438 F3000 ; Travel to line 24
G0 Z0.0 ; Pen down
G1 X150.396 Y86.583 F1000
G0 Z3.0 ; Pen up

G0 X150.938 Y87.125 F3000 ; Travel to line 25
G0 Z0.0 ; Pen down
G1 X142.812 Y94.979 F1000
G0 Z3.0 ; Pen up

G0 X143.354 Y95.521 F3000 ; Travel to line 26
G0 Z0.0 ; Pen down
G1 X151.479 Y87.667 F1000
G0 Z3.0 ; Pen up

G0 X152.021 Y88.208 F3000 ; Travel to line 27
G0 Z0.0 ; Pen down
G1 X143.896 Y96.062 F1000
G0 Z3.0 ; Pen up

G0 X144.438 Y96.604 F3000 ; Travel to line 28
G0 Z0.0 ; Pen down
G1 X152.562 Y88.750 F1000
G0 Z3.0 ; Pen up

G0 X153.104 Y89.021 F3000 ; Travel to line 29
G0 Z0.0 ; Pen down
G1 X144.979 Y97.417 F1000
G0 Z3.0 ; Pen up

G0 X145.521 Y97.958 F3000 ; Travel to line 30
G0 Z0.0 ; Pen down
G1 X153.646 Y89.562 F1000
G0 Z3.0 ; Pen up

G0 X154.188 Y90.104 F3000 ; Travel to line 31
G0 Z0.0 ; Pen down
G1 X145.792 Y98.500 F1000
G0 Z3.0 ; Pen up

G0 X146.333 Y99.042 F3000 ; Travel to line 32
G0 Z0.0 ; Pen down
G1 X154.729 Y90.646 F1000
G0 Z3.0 ; Pen up

G0 X155.271 Y91.188 F3000 ; Travel to line 33
G0 Z0.0 ; Pen down
G1 X146.875 Y99.583 F1000
G0 Z3.0 ; Pen up

G0 X147.417 Y100.396 F3000 ; Travel to line 34
G0 Z0.0 ; Pen down
G1 X155.812 Y91.729 F1000
G0 Z3.0 ; Pen up

G0 X156.354 Y92.271 F3000 ; Travel to line 35
G0 Z0.0 ; Pen down
G1 X147.958 Y100.938 F1000
G0 Z3.0 ; Pen up

G0 X148.229 Y101.479 F3000 ; Travel to line 36
G0 Z0.0 ; Pen down
G1 X156.896 Y92.812 F1000
G0 Z3.0 ; Pen up

G0 X157.438 Y93.083 F3000 ; Travel to line 37
G0 Z0.0 ; Pen down
G1 X148.771 Y102.021 F1000
G0 Z3.0 ; Pen up

G0 X149.312 Y102.562 F3000 ; Travel to line 38
G0 Z0.0 ; Pen down
G1 X157.979 Y93.625 F1000
G0 Z3.0 ; Pen up

G0 X158.521 Y94.167 F3000 ; Travel to line 39
G0 Z0.0 ; Pen down
G1 X149.583 Y103.104 F1000
G0 Z3.0 ; Pen up

G0 X149.854 Y103.375 F3000 ; Travel to line 40
G0 Z0.0 ; Pen down
G1 X158.792 Y94.438 F1000
G0 Z3.0 ; Pen up

G0 X159.062 Y94.438 F3000 ; Travel to line 41
G0 Z0.0 ; Pen down
G1 X150.125 Y103.375 F1000
G0 Z3.0 ; Pen up

G0 X150.125 Y103.375 F3000 ; Travel to line 42
G0 Z0.0 ; Pen down
G1 X159.062 Y94.438 F1000
G0 Z3.0 ; Pen up

G0 X159.062 Y94.438 F3000 ; Travel to line 43
G0 Z0.0 ; Pen down
G1 X150.125 Y103.375 F1000
G0 Z3.0 ; Pen up

G0 X150.125 Y103.375 F3000 ; Travel to line 44
G0 Z0.0 ; Pen down
G1 X159.062 Y94.438 F1000
G0 Z3.0 ; Pen up

G0 X159.062 Y94.438 F3000 ; Travel to line 45
G0 Z0.0 ; Pen down
G1 X150.125 Y103.375 F1000
G0 Z3.0 ; Pen up

G0 X150.125 Y103.375 F3000 ; Travel to line 46
G0 Z0.0 ; Pen down
G1 X159.062 Y94.438 F1000
G0 Z3.0 ; Pen up

G0 X159.062 Y94.438 F3000 ; Travel to line 47
G0 Z0.0 ; Pen down
G1 X150.125 Y103.375 F1000
G0 Z3.0 ; Pen up

G0 X150.125 Y103.375 F3000 ; Travel to line 48
G0 Z0.0 ; Pen down
G1 X159.062 Y94.438 F1000
G0 Z3.0 ; Pen up

G0 X159.062 Y94.438 F3000 ; Travel to line 49
G0 Z0.0 ; Pen down
G1 X150.125 Y103.375 F1000
G0 Z3.0 ; Pen up

G0 X150.125 Y103.375 F3000 ; Travel to line 50
G0 Z0.0 ; Pen down
G1 X159.062 Y94.438 F1000
G0 Z3.0 ; Pen up

G0 X159.062 Y94.438 F3000 ; Travel to line 51
G0 Z0.0 ; Pen down
G1 X150.125 Y103.375 F1000
G0 Z3.0 ; Pen up

G0 X150.125 Y103.375 F3000 ; Travel to line 52
G0 Z0.0 ; Pen down
G1 X159.062 Y94.438 F1000
G0 Z3.0 ; Pen up

G0 X159.062 Y94.438 F3000 ; Travel to line 53
G0 Z0.0 ; Pen down
G1 X150.125 Y103.375 F1000
G0 Z3.0 ; Pen up

G0 X150.125 Y103.375 F3000 ; Travel to line 54
G0 Z0.0 ; Pen down
G1 X159.062 Y94.438 F1000
G0 Z3.0 ; Pen up

G0 X159.062 Y94.438 F3000 ; Travel to line 55
G0 Z0.0 ; Pen down
G1 X150.125 Y103.375 F1000
G0 Z3.0 ; Pen up

G0 X150.125 Y103.375 F3000 ; Travel to line 56
G0 Z0.0 ; Pen down
G1 X159.062 Y94.438 F1000
G0 Z3.0 ; Pen up

G0 X159.062 Y94.438 F3000 ; Travel to line 57
G0 Z0.0 ; Pen down
G1 X150.125 Y103.375 F1000
G0 Z3.0 ; Pen up

G0 X150.125 Y103.375 F3000 ; Travel to line 58
G0 Z0.0 ; Pen down
G1 X159.062 Y94.438 F1000
G0 Z3.0 ; Pen up

G0 X159.062 Y94.438 F3000 ; Travel to line 59
G0 Z0.0 ; Pen down
G1 X150.125 Y103.375 F1000
G0 Z3.0 ; Pen up

G0 X150.125 Y103.375 F3000 ; Travel to line 60
G0 Z0.0 ; Pen down
G1 X159.062 Y94.438 F1000
G0 Z3.0 ; Pen up

G0 X159.062 Y94.438 F3000 ; Travel to line 61
G0 Z0.0 ; Pen down
G1 X150.125 Y103.375 F1000
G0 Z3.0 ; Pen up

G0 X150.125 Y103.375 F3000 ; Travel to line 62
G0 Z0.0 ; Pen down
G1 X159.062 Y94.438 F1000
G0 Z3.0 ; Pen up

G0 X159.062 Y94.438 F3000 ; Travel to line 63
G0 Z0.0 ; Pen down
G1 X150.125 Y103.375 F1000
G0 Z3.0 ; Pen up

G0 X150.125 Y103.375 F3000 ; Travel to line 64
G0 Z0.0 ; Pen down
G1 X159.062 Y94.438 F1000
G0 Z3.0 ; Pen up

G0 X159.062 Y94.438 F3000 ; Travel to line 65
G0 Z0.0 ; Pen down
G1 X150.125 Y103.375 F1000
G0 Z3.0 ; Pen up

G0 X150.125 Y103.375 F3000 ; Travel to line 66
G0 Z0.0 ; Pen down
G1 X159.062 Y94.438 F1000
G0 Z3.0 ; Pen up

G0 X159.062 Y94.438 F3000 ; Travel to line 67
G0 Z0.0 ; Pen down
G1 X150.125 Y103.375 F1000
G0 Z3.0 ; Pen up

G0 X150.125 Y103.375 F3000 ; Travel to line 68
G0 Z0.0 ; Pen down
G1 X159.062 Y94.438 F1000
G0 Z3.0 ; Pen up

G0 X159.062 Y94.438 F3000 ; Travel to line 69
G0 Z0.0 ; Pen down
G1 X150.125 Y103.375 F1000
G0 Z3.0 ; Pen up

G0 X150.125 Y103.375 F3000 ; Travel to line 70
G0 Z0.0 ; Pen down
G1 X159.062 Y94.438 F1000
G0 Z3.0 ; Pen up

G0 X159.062 Y94.438 F3000 ; Travel to line 71
G0 Z0.0 ; Pen down
G1 X150.125 Y103.375 F1000
G0 Z3.0 ; Pen up

G0 X150.125 Y103.375 F3000 ; Travel to line 72
G0 Z0.0 ; Pen down
G1 X159.062 Y94.438 F1000
G0 Z3.0 ; Pen up

G0 X159.062 Y94.438 F3000 ; Travel to line 73
G0 Z0.0 ; Pen down
G1 X150.125 Y103.375 F1000
G0 Z3.0 ; Pen up

G0 X150.125 Y103.375 F3000 ; Travel to line 74
G0 Z0.0 ; Pen down
G1 X159.062 Y94.438 F1000
G0 Z3.0 ; Pen up

G0 X159.062 Y94.438 F3000 ; Travel to line 75
G0 Z0.0 ; Pen down
G1 X150.125 Y103.375 F1000
G0 Z3.0 ; Pen up

G0 X150.125 Y103.375 F3000 ; Travel to line 76
G0 Z0.0 ; Pen down
G1 X159.062 Y94.438 F1000
G0 Z3.0 ; Pen up

G0 X159.062 Y94.438 F3000 ; Travel to line 77
G0 Z0.0 ; Pen down
G1 X150.125 Y103.375 F1000
G0 Z3.0 ; Pen up

G0 X150.125 Y103.375 F3000 ; Travel to line 78
G0 Z0.0 ; Pen down
G1 X159.062 Y94.438 F1000
G0 Z3.0 ; Pen up

G0 X159.062 Y94.438 F3000 ; Travel to line 79
G0 Z0.0 ; Pen down
G1 X150.125 Y103.375 F1000
G0 Z3.0 ; Pen up

G0 X150.125 Y103.375 F3000 ; Travel to line 80
G0 Z0.0 ; Pen down
G1 X159.062 Y94.438 F1000
G0 Z3.0 ; Pen up

G0 X159.062 Y94.438 F3000 ; Travel to line 81
G0 Z0.0 ; Pen down
G1 X150.125 Y103.375 F1000
G0 Z3.0 ; Pen up

G0 X150.125 Y103.375 F3000 ; Travel to line 82
G0 Z0.0 ; Pen down
G1 X159.062 Y94.438 F1000
G0 Z3.0 ; Pen up

G0 X159.062 Y94.438 F3000 ; Travel to line 83
G0 Z0.0 ; Pen down
G1 X150.125 Y103.375 F1000
G0 Z3.0 ; Pen up

G0 X150.125 Y103.375 F3000 ; Travel to line 84
G0 Z0.0 ; Pen down
G1 X159.062 Y94.438 F1000
G0 Z3.0 ; Pen up

G0 X159.062 Y94.438 F3000 ; Travel to line 85
G0 Z0.0 ; Pen down
G1 X150.125 Y103.375 F1000
G0 Z3.0 ; Pen up

G0 X150.125 Y103.375 F3000 ; Travel to line 86
G0 Z0.0 ; Pen down
G1 X159.062 Y94.438 F1000
G0 Z3.0 ; Pen up

G0 X159.062 Y94.438 F3000 ; Travel to line 87
G0 Z0.0 ; Pen down
G1 X150.125 Y103.375 F1000
G0 Z3.0 ; Pen up

G0 X150.125 Y103.375 F3000 ; Travel to line 88
G0 Z0.0 ; Pen down
G1 X159.062 Y94.438 F1000
G0 Z3.0 ; Pen up

G0 X159.062 Y94.438 F3000 ; Travel to line 89
G0 Z0.0 ; Pen down
G1 X150.125 Y103.375 F1000
G0 Z3.0 ; Pen up

G0 X150.125 Y103.375 F3000 ; Travel to line 90
G0 Z0.0 ; Pen down
G1 X159.062 Y94.438 F1000
G0 Z3.0 ; Pen up

G0 X159.062 Y94.438 F3000 ; Travel to line 91
G0 Z0.0 ; Pen down
G1 X150.125 Y103.375 F1000
G0 Z3.0 ; Pen up

G0 X150.125 Y103.375 F3000 ; Travel to line 92
G0 Z0.0 ; Pen down
G1 X159.062 Y94.438 F1000
G0 Z3.0 ; Pen up

G0 X159.062 Y94.438 F3000 ; Travel to line 93
G0 Z0.0 ; Pen down
G1 X150.125 Y103.375 F1000
G0 Z3.0 ; Pen up

G0 X150.125 Y103.375 F3000 ; Travel to line 94
G0 Z0.0 ; Pen down
G1 X159.062 Y94.438 F1000
G0 Z3.0 ; Pen up

G0 X159.062 Y94.438 F3000 ; Travel to line 95
G0 Z0.0 ; Pen down
G1 X150.125 Y103.375 F1000
G0 Z3.0 ; Pen up

G0 X150.125 Y103.375 F3000 ; Travel to line 96
G0 Z0.0 ; Pen down
G1 X159.062 Y94.438 F1000
G0 Z3.0 ; Pen up

G0 X159.062 Y94.438 F3000 ; Travel to line 97
G0 Z0.0 ; Pen down
G1 X150.125 Y103.375 F1000
G0 Z3.0 ; Pen up

G0 X150.125 Y103.375 F3000 ; Travel to line 98
G0 Z0.0 ; Pen down
G1 X159.062 Y94.438 F1000
G0 Z3.0 ; Pen up

G0 X159.062 Y94.438 F3000 ; Travel to line 99
G0 Z0.0 ; Pen down
G1 X150.125 Y103.375 F1000
G0 Z3.0 ; Pen up

G0 X150.125 Y103.375 F3000 ; Travel to line 100
G0 Z0.0 ; Pen down
G1 X159.062 Y94.438 F1000
G0 Z3.0 ; Pen up

G0 X159.062 Y94.438 F3000 ; Travel to line 101
G0 Z0.0 ; Pen down
G1 X150.125 Y103.375 F1000
G0 Z3.0 ; Pen up

G0 X150.125 Y103.375 F3000 ; Travel to line 102
G0 Z0.0 ; Pen down
G1 X159.062 Y94.438 F1000
G0 Z3.0 ; Pen up

G0 X159.062 Y94.438 F3000 ; Travel to line 103
G0 Z0.0 ; Pen down
G1 X150.125 Y103.375 F1000
G0 Z3.0 ; Pen up

G0 X150.125 Y103.375 F3000 ; Travel to line 104
G0 Z0.0 ; Pen down
G1 X159.062 Y94.438 F1000
G0 Z3.0 ; Pen up

G0 X159.062 Y94.438 F3000 ; Travel to line 105
G0 Z0.0 ; Pen down
G1 X150.125 Y103.375 F1000
G0 Z3.0 ; Pen up

G0 X150.125 Y103.375 F3000 ; Travel to line 106
G0 Z0.0 ; Pen down
G1 X159.062 Y94.438 F1000
G0 Z3.0 ; Pen up

G0 X159.062 Y94.438 F3000 ; Travel to line 107
G0 Z0.0 ; Pen down
G1 X150.125 Y103.375 F1000
G0 Z3.0 ; Pen up

G0 X150.125 Y103.375 F3000 ; Travel to line 108
G0 Z0.0 ; Pen down
G1 X159.062 Y94.438 F1000
G0 Z3.0 ; Pen up

G0 X159.062 Y94.438 F3000 ; Travel to line 109
G0 Z0.0 ; Pen down
G1 X150.125 Y103.375 F1000
G0 Z3.0 ; Pen up

G0 X150.125 Y103.375 F3000 ; Travel to line 110
G0 Z0.0 ; Pen down
G1 X159.062 Y94.438 F1000
G0 Z3.0 ; Pen up

G0 X159.062 Y94.438 F3000 ; Travel to line 111
G0 Z0.0 ; Pen down
G1 X150.125 Y103.375 F1000
G0 Z3.0 ; Pen up

G0 X150.125 Y103.375 F3000 ; Travel to line 112
G0 Z0.0 ; Pen down
G1 X159.062 Y94.438 F1000
G0 Z3.0 ; Pen up

G0 X159.062 Y94.438 F3000 ; Travel to line 113
G0 Z0.0 ; Pen down
G1 X150.125 Y103.375 F1000
G0 Z3.0 ; Pen up

G0 X150.125 Y103.375 F3000 ; Travel to line 114
G0 Z0.0 ; Pen down
G1 X159.062 Y94.438 F1000
G0 Z3.0 ; Pen up

G0 X159.062 Y94.438 F3000 ; Travel to line 115
G0 Z0.0 ; Pen down
G1 X150.125 Y103.375 F1000
G0 Z3.0 ; Pen up

G0 X150.125 Y103.375 F3000 ; Travel to line 116
G0 Z0.0 ; Pen down
G1 X159.062 Y94.438 F1000
G0 Z3.0 ; Pen up

G0 X159.062 Y94.438 F3000 ; Travel to line 117
G0 Z0.0 ; Pen down
G1 X150.125 Y103.375 F1000
G0 Z3.0 ; Pen up

G0 X150.125 Y103.375 F3000 ; Travel to line 118
G0 Z0.0 ; Pen down
G1 X159.062 Y94.438 F1000
G0 Z3.0 ; Pen up

G0 X159.062 Y94.438 F3000 ; Travel to line 119
G0 Z0.0 ; Pen down
G1 X150.125 Y103.375 F1000
G0 Z3.0 ; Pen up

G0 X150.125 Y103.375 F3000 ; Travel to line 120
G0 Z0.0 ; Pen down
G1 X159.062 Y94.438 F1000
G0 Z3.0 ; Pen up

G0 X159.062 Y94.438 F3000 ; Travel to line 121
G0 Z0.0 ; Pen down
G1 X150.125 Y103.375 F1000
G0 Z3.0 ; Pen up

G0 X150.125 Y103.375 F3000 ; Travel to line 122
G0 Z0.0 ; Pen down
G1 X159.062 Y94.438 F1000
G0 Z3.0 ; Pen up

G0 X159.062 Y94.438 F3000 ; Travel to line 123
G0 Z0.0 ; Pen down
G1 X150.125 Y103.375 F1000
G0 Z3.0 ; Pen up

G0 X150.125 Y103.375 F3000 ; Travel to line 124
G0 Z0.0 ; Pen down
G1 X159.062 Y94.438 F1000
G0 Z3.0 ; Pen up

G0 X159.062 Y94.438 F3000 ; Travel to line 125
G0 Z0.0 ; Pen down
G1 X150.125 Y103.375 F1000
G0 Z3.0 ; Pen up

G0 X150.125 Y103.375 F3000 ; Travel to line 126
G0 Z0.0 ; Pen down
G1 X159.062 Y94.438 F1000
G0 Z3.0 ; Pen up

G0 X159.062 Y94.708 F3000 ; Travel to line 127
G0 Z0.0 ; Pen down
G1 X150.125 Y103.646 F1000
G0 Z3.0 ; Pen up

G0 X150.396 Y103.917 F3000 ; Travel to line 128
G0 Z0.0 ; Pen down
G1 X159.333 Y94.979 F1000
G0 Z3.0 ; Pen up

G0 X159.604 Y95.250 F3000 ; Travel to line 129
G0 Z0.0 ; Pen down
G1 X150.667 Y104.458 F1000
G0 Z3.0 ; Pen up

G0 X151.208 Y105.000 F3000 ; Travel to line 130
G0 Z0.0 ; Pen down
G1 X160.146 Y95.792 F1000
G0 Z3.0 ; Pen up

G0 X160.688 Y96.333 F3000 ; Travel to line 131
G0 Z0.0 ; Pen down
G1 X151.750 Y105.542 F1000
G0 Z3.0 ; Pen up

G0 X152.021 Y106.083 F3000 ; Travel to line 132
G0 Z0.0 ; Pen down
G1 X161.229 Y96.875 F1000
G0 Z3.0 ; Pen up

G0 X161.771 Y97.417 F3000 ; Travel to line 133
G0 Z0.0 ; Pen down
G1 X152.562 Y106.625 F1000
G0 Z3.0 ; Pen up

G0 X153.104 Y107.437 F3000 ; Travel to line 134
G0 Z0.0 ; Pen down
G1 X162.312 Y97.958 F1000
G0 Z3.0 ; Pen up

G0 X162.854 Y98.771 F3000 ; Travel to line 135
G0 Z0.0 ; Pen down
G1 X153.646 Y107.979 F1000
G0 Z3.0 ; Pen up

G0 X154.188 Y108.521 F3000 ; Travel to line 136
G0 Z0.0 ; Pen down
G1 X163.396 Y99.312 F1000
G0 Z3.0 ; Pen up

G0 X163.938 Y99.854 F3000 ; Travel to line 137
G0 Z0.0 ; Pen down
G1 X154.458 Y109.333 F1000
G0 Z3.0 ; Pen up

G0 X155.000 Y109.875 F3000 ; Travel to line 138
G0 Z0.0 ; Pen down
G1 X164.479 Y100.396 F1000
G0 Z3.0 ; Pen up

G0 X164.750 Y100.667 F3000 ; Travel to line 139
G0 Z0.0 ; Pen down
G1 X155.542 Y110.146 F1000
G0 Z3.0 ; Pen up

G0 X155.812 Y110.958 F3000 ; Travel to line 140
G0 Z0.0 ; Pen down
G1 X165.292 Y101.208 F1000
G0 Z3.0 ; Pen up

G0 X165.833 Y101.750 F3000 ; Travel to line 141
G0 Z0.0 ; Pen down
G1 X156.354 Y111.500 F1000
G0 Z3.0 ; Pen up

G0 X156.896 Y112.042 F3000 ; Travel to line 142
G0 Z0.0 ; Pen down
G1 X166.375 Y102.292 F1000
G0 Z3.0 ; Pen up

G0 X166.917 Y102.833 F3000 ; Travel to line 143
G0 Z0.0 ; Pen down
G1 X157.438 Y112.583 F1000
G0 Z3.0 ; Pen up

G0 X157.708 Y113.396 F3000 ; Travel to line 144
G0 Z0.0 ; Pen down
G1 X167.458 Y103.375 F1000
G0 Z3.0 ; Pen up

G0 X168.000 Y103.917 F3000 ; Travel to line 145
G0 Z0.0 ; Pen down
G1 X158.250 Y113.937 F1000
G0 Z3.0 ; Pen up

G0 X158.792 Y114.479 F3000 ; Travel to line 146
G0 Z0.0 ; Pen down
G1 X168.542 Y104.458 F1000
G0 Z3.0 ; Pen up

G0 X169.083 Y105.000 F3000 ; Travel to line 147
G0 Z0.0 ; Pen down
G1 X159.062 Y115.292 F1000
G0 Z3.0 ; Pen up

G0 X159.604 Y115.833 F3000 ; Travel to line 148
G0 Z0.0 ; Pen down
G1 X169.625 Y105.542 F1000
G0 Z3.0 ; Pen up

G0 X170.167 Y106.083 F3000 ; Travel to line 149
G0 Z0.0 ; Pen down
G1 X160.146 Y116.375 F1000
G0 Z3.0 ; Pen up

G0 X160.417 Y117.187 F3000 ; Travel to line 150
G0 Z0.0 ; Pen down
G1 X170.708 Y106.896 F1000
G0 Z3.0 ; Pen up

G0 X170.979 Y107.167 F3000 ; Travel to line 151
G0 Z0.0 ; Pen down
G1 X160.958 Y117.729 F1000
G0 Z3.0 ; Pen up

G0 X161.229 Y118.271 F3000 ; Travel to line 152
G0 Z0.0 ; Pen down
G1 X171.521 Y107.708 F1000
G0 Z3.0 ; Pen up

G0 X172.062 Y108.250 F3000 ; Travel to line 153
G0 Z0.0 ; Pen down
G1 X161.771 Y118.812 F1000
G0 Z3.0 ; Pen up

G0 X162.312 Y119.625 F3000 ; Travel to line 154
G0 Z0.0 ; Pen down
G1 X172.604 Y108.792 F1000
G0 Z3.0 ; Pen up

G0 X173.146 Y109.333 F3000 ; Travel to line 155
G0 Z0.0 ; Pen down
G1 X162.854 Y119.896 F1000
G0 Z3.0 ; Pen up

G0 X163.125 Y120.708 F3000 ; Travel to line 156
G0 Z0.0 ; Pen down
G1 X173.688 Y109.875 F1000
G0 Z3.0 ; Pen up

G0 X174.229 Y110.417 F3000 ; Travel to line 157
G0 Z0.0 ; Pen down
G1 X163.667 Y121.521 F1000
G0 Z3.0 ; Pen up

G0 X163.667 Y121.521 F3000 ; Travel to line 158
G0 Z0.0 ; Pen down
G1 X174.500 Y110.687 F1000
G0 Z3.0 ; Pen up

G0 X174.229 Y110.417 F3000 ; Travel to line 159
G0 Z0.0 ; Pen down
G1 X163.667 Y121.521 F1000
G0 Z3.0 ; Pen up

G0 X163.667 Y121.521 F3000 ; Travel to line 160
G0 Z0.0 ; Pen down
G1 X174.229 Y110.417 F1000
G0 Z3.0 ; Pen up

G0 X174.229 Y110.417 F3000 ; Travel to line 161
G0 Z0.0 ; Pen down
G1 X163.396 Y121.250 F1000
G0 Z3.0 ; Pen up

G0 X164.208 Y122.062 F3000 ; Travel to line 162
G0 Z0.0 ; Pen down
G1 X174.771 Y111.229 F1000
G0 Z3.0 ; Pen up

G0 X175.312 Y111.771 F3000 ; Travel to line 163
G0 Z0.0 ; Pen down
G1 X164.479 Y122.604 F1000
G0 Z3.0 ; Pen up

G0 X216.479 Y169.458 F3000 ; Travel to line 164
G0 Z0.0 ; Pen down
G1 X215.667 Y170.271 F1000
G1 X213.771 Y171.354 F1000
G1 X212.958 Y172.167 F1000
G1 X211.062 Y173.250 F1000
G1 X210.250 Y174.062 F1000
G1 X209.979 Y174.062 F1000
G1 X209.438 Y174.604 F1000
G1 X207.542 Y175.688 F1000
G1 X206.729 Y176.500 F1000
G1 X204.833 Y177.583 F1000
G1 X204.021 Y178.396 F1000
G1 X202.125 Y179.479 F1000
G1 X201.312 Y180.292 F1000
G1 X201.042 Y180.292 F1000
G1 X198.875 Y181.917 F1000
G1 X198.604 Y181.646 F1000
G1 X198.333 Y180.833 F1000
G1 X197.792 Y180.292 F1000
G1 X196.708 Y178.125 F1000
G1 X196.708 Y177.583 F1000
G1 X196.167 Y176.500 F1000
G1 X195.625 Y175.958 F1000
G1 X193.188 Y170.812 F1000
G1 X192.646 Y170.271 F1000
G1 X190.208 Y165.125 F1000
G1 X189.667 Y164.583 F1000
G1 X188.583 Y162.417 F1000
G1 X188.583 Y161.875 F1000
G1 X188.042 Y160.792 F1000
G1 X187.500 Y160.250 F1000
G1 X185.604 Y156.458 F1000
G1 X185.062 Y155.917 F1000
G1 X184.792 Y155.104 F1000
G1 X183.438 Y153.208 F1000
G1 X182.354 Y150.771 F1000
G1 X181.000 Y148.875 F1000
G1 X179.917 Y146.438 F1000
G1 X178.562 Y144.542 F1000
G1 X177.479 Y142.104 F1000
G1 X175.854 Y140.208 F1000
G1 X174.771 Y137.771 F1000
G1 X173.958 Y136.958 F1000
G1 X172.875 Y134.792 F1000
G1 X171.250 Y132.896 F1000
G1 X170.979 Y132.083 F1000
G1 X169.354 Y129.917 F1000
G1 X169.083 Y129.104 F1000
G1 X167.458 Y127.208 F1000
G1 X167.458 Y126.937 F1000
G1 X166.375 Y125.583 F1000
G1 X166.104 Y124.771 F1000
G1 X165.562 Y124.229 F1000
G1 X165.021 Y123.146 F1000
G1 X163.396 Y121.250 F1000
G1 X163.396 Y120.979 F1000
G1 X162.042 Y119.354 F1000
G1 X162.042 Y119.083 F1000
G1 X160.146 Y116.917 F1000
G1 X159.604 Y115.833 F1000
G1 X157.979 Y113.937 F1000
G1 X157.979 Y113.667 F1000
G1 X156.625 Y112.042 F1000
G1 X156.625 Y111.771 F1000
G1 X154.188 Y109.062 F1000
G1 X154.188 Y108.792 F1000
G1 X153.375 Y107.979 F1000
G1 X152.833 Y106.896 F1000
G1 X150.938 Y105.000 F1000
G1 X150.938 Y104.729 F1000
G1 X149.583 Y103.104 F1000
G1 X149.583 Y102.833 F1000
G1 X148.229 Y101.479 F1000
G1 X148.229 Y101.208 F1000
G1 X145.792 Y98.500 F1000
G1 X145.792 Y98.229 F1000
G1 X144.708 Y97.146 F1000
G1 X144.708 Y96.875 F1000
G1 X142.000 Y94.167 F1000
G1 X142.000 Y93.896 F1000
G1 X140.917 Y92.812 F1000
G1 X140.375 Y91.729 F1000
G1 X138.208 Y89.562 F1000
G1 X138.208 Y89.292 F1000
G1 X136.854 Y87.938 F1000
G1 X136.854 Y87.667 F1000
G1 X134.146 Y84.958 F1000
G1 X134.146 Y84.688 F1000
G1 X132.792 Y83.333 F1000
G1 X132.792 Y83.062 F1000
G1 X128.458 Y78.729 F1000
G1 X128.458 Y78.458 F1000
G1 X122.771 Y72.500 F1000
G1 X122.771 Y72.229 F1000
G1 X119.792 Y69.521 F1000
G1 X119.792 Y69.250 F1000
G1 X116.812 Y66.271 F1000
G1 X116.812 Y66.000 F1000
G1 X110.854 Y60.042 F1000
G1 X110.854 Y59.771 F1000
G1 X101.646 Y50.292 F1000
G1 X101.646 Y50.021 F1000
G1 X100.021 Y48.396 F1000
G1 X99.750 Y48.396 F1000
G1 X86.208 Y34.583 F1000
G1 X86.208 Y34.312 F1000
G1 X85.125 Y32.958 F1000
G1 X85.396 Y32.958 F1000
G1 X87.292 Y31.604 F1000
G1 X88.104 Y32.417 F1000
G1 X88.375 Y32.417 F1000
G1 X92.979 Y36.750 F1000
G1 X94.062 Y37.292 F1000
G1 X96.500 Y39.729 F1000
G1 X97.583 Y40.271 F1000
G1 X100.292 Y42.979 F1000
G1 X100.562 Y42.979 F1000
G1 X105.708 Y47.583 F1000
G1 X105.979 Y47.583 F1000
G1 X110.854 Y51.917 F1000
G1 X111.125 Y51.917 F1000
G1 X112.479 Y53.271 F1000
G1 X112.750 Y53.271 F1000
G1 X115.458 Y55.979 F1000
G1 X115.729 Y55.979 F1000
G1 X117.625 Y57.604 F1000
G1 X117.896 Y57.604 F1000
G1 X120.875 Y60.583 F1000
G1 X121.146 Y60.583 F1000
G1 X122.771 Y62.208 F1000
G1 X123.042 Y62.208 F1000
G1 X124.396 Y63.562 F1000
G1 X124.667 Y63.562 F1000
G1 X126.021 Y64.917 F1000
G1 X126.292 Y64.917 F1000
G1 X129.271 Y67.896 F1000
G1 X129.542 Y67.896 F1000
G1 X130.896 Y69.250 F1000
G1 X131.167 Y69.250 F1000
G1 X132.521 Y70.604 F1000
G1 X132.792 Y70.604 F1000
G1 X135.771 Y73.583 F1000
G1 X136.042 Y73.583 F1000
G1 X137.396 Y74.938 F1000
G1 X137.667 Y74.938 F1000
G1 X142.000 Y79.271 F1000
G1 X142.271 Y79.271 F1000
G1 X146.604 Y83.333 F1000
G1 X146.875 Y83.333 F1000
G1 X152.562 Y89.021 F1000
G1 X152.833 Y89.021 F1000
G1 X156.896 Y93.083 F1000
G1 X157.167 Y93.083 F1000
G1 X162.312 Y98.229 F1000
G1 X162.312 Y98.500 F1000
G1 X170.438 Y106.625 F1000
G1 X170.438 Y106.896 F1000
G1 X174.229 Y110.687 F1000
G1 X174.229 Y110.958 F1000
G1 X176.667 Y113.396 F1000
G1 X176.667 Y113.667 F1000
G1 X179.104 Y116.104 F1000
G1 X179.104 Y116.375 F1000
G1 X182.625 Y119.896 F1000
G1 X182.625 Y120.167 F1000
G1 X183.708 Y121.250 F1000
G1 X183.708 Y121.521 F1000
G1 X186.146 Y123.958 F1000
G1 X186.146 Y124.229 F1000
G1 X187.229 Y125.312 F1000
G1 X187.229 Y125.583 F1000
G1 X188.312 Y126.667 F1000
G1 X188.312 Y126.937 F1000
G1 X192.646 Y132.083 F1000
G1 X192.646 Y132.354 F1000
G1 X193.458 Y133.167 F1000
G1 X193.458 Y133.438 F1000
G1 X194.542 Y134.521 F1000
G1 X194.542 Y134.792 F1000
G1 X197.521 Y138.312 F1000
G1 X197.792 Y139.125 F1000
G1 X198.604 Y139.938 F1000
G1 X198.604 Y140.208 F1000
G1 X199.688 Y141.292 F1000
G1 X199.688 Y141.562 F1000
G1 X200.500 Y142.375 F1000
G1 X200.500 Y142.646 F1000
G1 X203.479 Y146.167 F1000
G1 X203.750 Y146.979 F1000
G1 X205.375 Y148.875 F1000
G1 X205.646 Y149.688 F1000
G1 X207.271 Y151.312 F1000
G1 X208.354 Y153.479 F1000
G1 X209.979 Y155.375 F1000
G1 X210.250 Y156.188 F1000
G1 X211.875 Y157.812 F1000
G1 X212.958 Y159.979 F1000
G1 X214.583 Y161.875 F1000
G1 X215.396 Y163.500 F1000
G1 X217.292 Y165.667 F1000
G1 X217.562 Y166.479 F1000
G1 X218.104 Y167.021 F1000
G1 X218.646 Y168.104 F1000
G1 X216.479 Y169.458 F1000
G0 Z3.0 ; Pen up

; Return to origin
G0 X0 Y0
G0 Z3.0

; Total drawing distance: 2679.74 mm
; Total travel distance: 306.92 mm
; Total lines: 164
; Estimated time: 166.9 seconds (2.8 minutes)
M2 ; End program