; Blueprint to G-code
; Input: arch_test_multiple.png
; Generated with blueprint2gcode.py
;
; Generation Parameters:
;   Paper size: A4 (210x297mm)
;   Orientation: landscape
;   Margin: 1.0mm
;   Z up: 3.0mm
;   Z down: 0.0mm
;   Feed rate: 1000mm/min
;   Travel rate: 3000mm/min
;   Join tolerance: 0.02mm
;   Min line length: 0.01mm
;   Simplify epsilon: 0.000001
;   Fill solid areas: True
;   Hatch spacing: 1.5px
;   Hatch angle: 45.0°
;   Crosshatch: False
;   Min solid area: 1.0px²
;   Invert colors: False

G21 ; Set units to millimeters
G90 ; Absolute positioning
G0 Z3.0 ; Pen up
G0 X0 Y0 ; Move to origin

G0 X70.760 Y28.040 F3000 ; Travel to line 1
G0 Z0.0 ; Pen down
G1 X71.800 Y26.740 F1000
G0 Z3.0 ; Pen up

G0 X73.880 Y26.740 F3000 ; Travel to line 2
G0 Z0.0 ; Pen down
G1 X71.020 Y29.860 F1000
G0 Z3.0 ; Pen up

G0 X71.280 Y31.420 F3000 ; Travel to line 3
G0 Z0.0 ; Pen down
G1 X75.960 Y26.740 F1000
G0 Z3.0 ; Pen up

G0 X78.040 Y26.740 F3000 ; Travel to line 4
G0 Z0.0 ; Pen down
G1 X71.800 Y33.240 F1000
G0 Z3.0 ; Pen up

G0 X72.060 Y35.060 F3000 ; Travel to line 5
G0 Z0.0 ; Pen down
G1 X80.120 Y26.740 F1000
G0 Z3.0 ; Pen up

G0 X82.460 Y26.740 F3000 ; Travel to line 6
G0 Z0.0 ; Pen down
G1 X72.580 Y36.880 F1000
G0 Z3.0 ; Pen up

G0 X72.840 Y38.700 F3000 ; Travel to line 7
G0 Z0.0 ; Pen down
G1 X84.540 Y26.740 F1000
G0 Z3.0 ; Pen up

G0 X86.620 Y26.740 F3000 ; Travel to line 8
G0 Z0.0 ; Pen down
G1 X73.100 Y40.520 F1000
G0 Z3.0 ; Pen up

G0 X73.620 Y42.080 F3000 ; Travel to line 9
G0 Z0.0 ; Pen down
G1 X88.700 Y26.740 F1000
G0 Z3.0 ; Pen up

G0 X90.780 Y26.740 F3000 ; Travel to line 10
G0 Z0.0 ; Pen down
G1 X73.880 Y43.900 F1000
G0 Z3.0 ; Pen up

G0 X74.140 Y45.720 F3000 ; Travel to line 11
G0 Z0.0 ; Pen down
G1 X92.860 Y26.740 F1000
G0 Z3.0 ; Pen up

G0 X95.200 Y26.740 F3000 ; Travel to line 12
G0 Z0.0 ; Pen down
G1 X74.660 Y47.280 F1000
G0 Z3.0 ; Pen up

G0 X74.920 Y49.360 F3000 ; Travel to line 13
G0 Z0.0 ; Pen down
G1 X97.280 Y26.740 F1000
G0 Z3.0 ; Pen up

G0 X99.360 Y26.740 F3000 ; Travel to line 14
G0 Z0.0 ; Pen down
G1 X75.180 Y50.920 F1000
G0 Z3.0 ; Pen up

G0 X75.700 Y52.740 F3000 ; Travel to line 15
G0 Z0.0 ; Pen down
G1 X101.440 Y26.740 F1000
G0 Z3.0 ; Pen up

G0 X103.520 Y26.740 F3000 ; Travel to line 16
G0 Z0.0 ; Pen down
G1 X75.960 Y54.560 F1000
G0 Z3.0 ; Pen up

G0 X76.220 Y56.120 F3000 ; Travel to line 17
G0 Z0.0 ; Pen down
G1 X105.600 Y26.740 F1000
G0 Z3.0 ; Pen up

G0 X107.680 Y26.740 F3000 ; Travel to line 18
G0 Z0.0 ; Pen down
G1 X76.740 Y57.940 F1000
G0 Z3.0 ; Pen up

G0 X77.000 Y60.020 F3000 ; Travel to line 19
G0 Z0.0 ; Pen down
G1 X110.020 Y26.740 F1000
G0 Z3.0 ; Pen up

G0 X112.100 Y26.740 F3000 ; Travel to line 20
G0 Z0.0 ; Pen down
G1 X77.520 Y61.580 F1000
G0 Z3.0 ; Pen up

G0 X77.780 Y63.400 F3000 ; Travel to line 21
G0 Z0.0 ; Pen down
G1 X114.180 Y26.740 F1000
G0 Z3.0 ; Pen up

G0 X116.260 Y26.740 F3000 ; Travel to line 22
G0 Z0.0 ; Pen down
G1 X78.040 Y65.220 F1000
G0 Z3.0 ; Pen up

G0 X78.560 Y66.780 F3000 ; Travel to line 23
G0 Z0.0 ; Pen down
G1 X118.340 Y26.740 F1000
G0 Z3.0 ; Pen up

G0 X120.420 Y26.740 F3000 ; Travel to line 24
G0 Z0.0 ; Pen down
G1 X78.820 Y68.600 F1000
G0 Z3.0 ; Pen up

G0 X79.080 Y70.420 F3000 ; Travel to line 25
G0 Z0.0 ; Pen down
G1 X122.760 Y26.740 F1000
G0 Z3.0 ; Pen up

G0 X124.840 Y26.740 F3000 ; Travel to line 26
G0 Z0.0 ; Pen down
G1 X79.600 Y72.240 F1000
G0 Z3.0 ; Pen up

G0 X79.860 Y74.060 F3000 ; Travel to line 27
G0 Z0.0 ; Pen down
G1 X126.920 Y26.740 F1000
G0 Z3.0 ; Pen up

G0 X129.000 Y26.740 F3000 ; Travel to line 28
G0 Z0.0 ; Pen down
G1 X80.120 Y75.620 F1000
G0 Z3.0 ; Pen up

G0 X80.640 Y77.440 F3000 ; Travel to line 29
G0 Z0.0 ; Pen down
G1 X131.080 Y26.740 F1000
G0 Z3.0 ; Pen up

G0 X133.160 Y26.740 F3000 ; Travel to line 30
G0 Z0.0 ; Pen down
G1 X80.900 Y79.260 F1000
G0 Z3.0 ; Pen up

G0 X81.420 Y80.820 F3000 ; Travel to line 31
G0 Z0.0 ; Pen down
G1 X135.500 Y26.740 F1000
G0 Z3.0 ; Pen up

G0 X137.580 Y26.740 F3000 ; Travel to line 32
G0 Z0.0 ; Pen down
G1 X81.680 Y82.900 F1000
G0 Z3.0 ; Pen up

G0 X81.940 Y84.720 F3000 ; Travel to line 33
G0 Z0.0 ; Pen down
G1 X139.660 Y26.740 F1000
G0 Z3.0 ; Pen up

G0 X141.740 Y26.740 F3000 ; Travel to line 34
G0 Z0.0 ; Pen down
G1 X82.460 Y86.280 F1000
G0 Z3.0 ; Pen up

G0 X82.720 Y88.100 F3000 ; Travel to line 35
G0 Z0.0 ; Pen down
G1 X143.820 Y26.740 F1000
G0 Z3.0 ; Pen up

G0 X145.900 Y26.740 F3000 ; Travel to line 36
G0 Z0.0 ; Pen down
G1 X82.980 Y89.920 F1000
G0 Z3.0 ; Pen up

G0 X83.500 Y91.480 F3000 ; Travel to line 37
G0 Z0.0 ; Pen down
G1 X148.240 Y26.740 F1000
G0 Z3.0 ; Pen up

G0 X148.240 Y28.820 F3000 ; Travel to line 38
G0 Z0.0 ; Pen down
G1 X83.760 Y93.560 F1000
G0 Z3.0 ; Pen up

G0 X84.020 Y95.120 F3000 ; Travel to line 39
G0 Z0.0 ; Pen down
G1 X147.720 Y31.680 F1000
G0 Z3.0 ; Pen up

G0 X147.720 Y31.420 F3000 ; Travel to line 40
G0 Z0.0 ; Pen down
G1 X147.980 Y31.420 F1000
G0 Z3.0 ; Pen up

G0 X148.240 Y28.820 F3000 ; Travel to line 41
G0 Z0.0 ; Pen down
G1 X148.500 Y28.820 F1000
G0 Z3.0 ; Pen up

G0 X147.460 Y34.020 F3000 ; Travel to line 42
G0 Z0.0 ; Pen down
G1 X147.200 Y34.020 F1000
G0 Z3.0 ; Pen up

G0 X147.200 Y34.280 F3000 ; Travel to line 43
G0 Z0.0 ; Pen down
G1 X84.540 Y96.940 F1000
G0 Z3.0 ; Pen up

G0 X84.800 Y98.760 F3000 ; Travel to line 44
G0 Z0.0 ; Pen down
G1 X146.680 Y36.880 F1000
G0 Z3.0 ; Pen up

G0 X146.160 Y39.480 F3000 ; Travel to line 45
G0 Z0.0 ; Pen down
G1 X85.060 Y100.320 F1000
G0 Z3.0 ; Pen up

G0 X85.580 Y102.140 F3000 ; Travel to line 46
G0 Z0.0 ; Pen down
G1 X145.640 Y42.080 F1000
G0 Z3.0 ; Pen up

G0 X145.120 Y44.940 F3000 ; Travel to line 47
G0 Z0.0 ; Pen down
G1 X85.840 Y104.220 F1000
G0 Z3.0 ; Pen up

G0 X85.060 Y104.740 F3000 ; Travel to line 48
G0 Z0.0 ; Pen down
G1 X84.020 Y106.040 F1000
G0 Z3.0 ; Pen up

G0 X84.800 Y107.340 F3000 ; Travel to line 49
G0 Z0.0 ; Pen down
G1 X144.600 Y47.540 F1000
G0 Z3.0 ; Pen up

G0 X144.080 Y50.140 F3000 ; Travel to line 50
G0 Z0.0 ; Pen down
G1 X85.580 Y108.640 F1000
G0 Z3.0 ; Pen up

G0 X86.360 Y109.940 F3000 ; Travel to line 51
G0 Z0.0 ; Pen down
G1 X143.560 Y52.740 F1000
G0 Z3.0 ; Pen up

G0 X143.040 Y55.340 F3000 ; Travel to line 52
G0 Z0.0 ; Pen down
G1 X87.140 Y111.240 F1000
G0 Z3.0 ; Pen up

G0 X87.660 Y112.800 F3000 ; Travel to line 53
G0 Z0.0 ; Pen down
G1 X142.520 Y57.940 F1000
G0 Z3.0 ; Pen up

G0 X142.000 Y60.800 F3000 ; Travel to line 54
G0 Z0.0 ; Pen down
G1 X87.920 Y114.620 F1000
G0 Z3.0 ; Pen up

G0 X88.440 Y116.440 F3000 ; Travel to line 55
G0 Z0.0 ; Pen down
G1 X141.480 Y63.400 F1000
G0 Z3.0 ; Pen up

G0 X140.960 Y66.000 F3000 ; Travel to line 56
G0 Z0.0 ; Pen down
G1 X88.700 Y118.260 F1000
G0 Z3.0 ; Pen up

G0 X88.960 Y119.820 F3000 ; Travel to line 57
G0 Z0.0 ; Pen down
G1 X140.440 Y68.600 F1000
G0 Z3.0 ; Pen up

G0 X139.920 Y71.200 F3000 ; Travel to line 58
G0 Z0.0 ; Pen down
G1 X89.480 Y121.640 F1000
G0 Z3.0 ; Pen up

G0 X89.740 Y123.460 F3000 ; Travel to line 59
G0 Z0.0 ; Pen down
G1 X139.400 Y73.800 F1000
G0 Z3.0 ; Pen up

G0 X138.880 Y76.400 F3000 ; Travel to line 60
G0 Z0.0 ; Pen down
G1 X90.260 Y125.020 F1000
G0 Z3.0 ; Pen up

G0 X90.520 Y127.100 F3000 ; Travel to line 61
G0 Z0.0 ; Pen down
G1 X138.360 Y79.260 F1000
G0 Z3.0 ; Pen up

G0 X137.840 Y81.860 F3000 ; Travel to line 62
G0 Z0.0 ; Pen down
G1 X90.780 Y128.920 F1000
G0 Z3.0 ; Pen up

G0 X91.300 Y130.480 F3000 ; Travel to line 63
G0 Z0.0 ; Pen down
G1 X137.320 Y84.460 F1000
G0 Z3.0 ; Pen up

G0 X136.800 Y87.060 F3000 ; Travel to line 64
G0 Z0.0 ; Pen down
G1 X91.560 Y132.300 F1000
G0 Z3.0 ; Pen up

G0 X91.820 Y134.120 F3000 ; Travel to line 65
G0 Z0.0 ; Pen down
G1 X136.280 Y89.660 F1000
G0 Z3.0 ; Pen up

G0 X135.760 Y92.260 F3000 ; Travel to line 66
G0 Z0.0 ; Pen down
G1 X92.340 Y135.680 F1000
G0 Z3.0 ; Pen up

G0 X92.600 Y137.760 F3000 ; Travel to line 67
G0 Z0.0 ; Pen down
G1 X134.980 Y95.120 F1000
G0 Z3.0 ; Pen up

G0 X134.980 Y95.120 F3000 ; Travel to line 68
G0 Z0.0 ; Pen down
G1 X135.240 Y95.120 F1000
G0 Z3.0 ; Pen up

G0 X134.720 Y97.720 F3000 ; Travel to line 69
G0 Z0.0 ; Pen down
G1 X134.460 Y97.720 F1000
G0 Z3.0 ; Pen up

G0 X134.460 Y97.980 F3000 ; Travel to line 70
G0 Z0.0 ; Pen down
G1 X92.860 Y139.320 F1000
G0 Z3.0 ; Pen up

G0 X93.380 Y141.140 F3000 ; Travel to line 71
G0 Z0.0 ; Pen down
G1 X133.940 Y100.580 F1000
G0 Z3.0 ; Pen up

G0 X133.940 Y100.320 F3000 ; Travel to line 72
G0 Z0.0 ; Pen down
G1 X134.200 Y100.320 F1000
G0 Z3.0 ; Pen up

G0 X133.680 Y102.920 F3000 ; Travel to line 73
G0 Z0.0 ; Pen down
G1 X133.420 Y102.920 F1000
G0 Z3.0 ; Pen up

G0 X133.420 Y103.180 F3000 ; Travel to line 74
G0 Z0.0 ; Pen down
G1 X93.640 Y142.960 F1000
G0 Z3.0 ; Pen up

G0 X93.900 Y144.520 F3000 ; Travel to line 75
G0 Z0.0 ; Pen down
G1 X133.680 Y104.740 F1000
G0 Z3.0 ; Pen up

G0 X135.760 Y104.740 F3000 ; Travel to line 76
G0 Z0.0 ; Pen down
G1 X94.420 Y146.340 F1000
G0 Z3.0 ; Pen up

G0 X94.680 Y148.420 F3000 ; Travel to line 77
G0 Z0.0 ; Pen down
G1 X138.100 Y104.740 F1000
G0 Z3.0 ; Pen up

G0 X140.180 Y104.740 F3000 ; Travel to line 78
G0 Z0.0 ; Pen down
G1 X95.200 Y149.980 F1000
G0 Z3.0 ; Pen up

G0 X95.460 Y151.800 F3000 ; Travel to line 79
G0 Z0.0 ; Pen down
G1 X142.260 Y104.740 F1000
G0 Z3.0 ; Pen up

G0 X143.560 Y103.700 F3000 ; Travel to line 80
G0 Z0.0 ; Pen down
G1 X194.260 Y52.740 F1000
G0 Z3.0 ; Pen up

G0 X192.180 Y52.740 F3000 ; Travel to line 81
G0 Z0.0 ; Pen down
G1 X144.080 Y101.100 F1000
G0 Z3.0 ; Pen up

G0 X144.600 Y98.500 F3000 ; Travel to line 82
G0 Z0.0 ; Pen down
G1 X190.100 Y52.740 F1000
G0 Z3.0 ; Pen up

G0 X187.760 Y52.740 F3000 ; Travel to line 83
G0 Z0.0 ; Pen down
G1 X145.120 Y95.640 F1000
G0 Z3.0 ; Pen up

G0 X145.640 Y93.040 F3000 ; Travel to line 84
G0 Z0.0 ; Pen down
G1 X185.680 Y52.740 F1000
G0 Z3.0 ; Pen up

G0 X183.600 Y52.740 F3000 ; Travel to line 85
G0 Z0.0 ; Pen down
G1 X146.940 Y89.660 F1000
G0 Z3.0 ; Pen up

G0 X146.680 Y89.660 F3000 ; Travel to line 86
G0 Z0.0 ; Pen down
G1 X146.680 Y89.920 F1000
G0 Z3.0 ; Pen up

G0 X147.980 Y86.540 F3000 ; Travel to line 87
G0 Z0.0 ; Pen down
G1 X147.980 Y86.280 F1000
G0 Z3.0 ; Pen up

G0 X148.240 Y86.280 F3000 ; Travel to line 88
G0 Z0.0 ; Pen down
G1 X181.520 Y52.740 F1000
G0 Z3.0 ; Pen up

G0 X179.440 Y52.740 F3000 ; Travel to line 89
G0 Z0.0 ; Pen down
G1 X163.060 Y69.380 F1000
G0 Z3.0 ; Pen up

G0 X163.060 Y67.300 F3000 ; Travel to line 90
G0 Z0.0 ; Pen down
G1 X177.360 Y52.740 F1000
G0 Z3.0 ; Pen up

G0 X175.280 Y52.740 F3000 ; Travel to line 91
G0 Z0.0 ; Pen down
G1 X162.800 Y65.220 F1000
G0 Z3.0 ; Pen up

G0 X162.540 Y63.400 F3000 ; Travel to line 92
G0 Z0.0 ; Pen down
G1 X172.940 Y52.740 F1000
G0 Z3.0 ; Pen up

G0 X170.860 Y52.740 F3000 ; Travel to line 93
G0 Z0.0 ; Pen down
G1 X162.280 Y61.580 F1000
G0 Z3.0 ; Pen up

G0 X162.280 Y59.500 F3000 ; Travel to line 94
G0 Z0.0 ; Pen down
G1 X168.780 Y52.740 F1000
G0 Z3.0 ; Pen up

G0 X166.700 Y52.740 F3000 ; Travel to line 95
G0 Z0.0 ; Pen down
G1 X162.020 Y57.680 F1000
G0 Z3.0 ; Pen up

G0 X161.760 Y55.860 F3000 ; Travel to line 96
G0 Z0.0 ; Pen down
G1 X164.620 Y52.740 F1000
G0 Z3.0 ; Pen up

G0 X162.540 Y52.740 F3000 ; Travel to line 97
G0 Z0.0 ; Pen down
G1 X161.500 Y54.040 F1000
G0 Z3.0 ; Pen up

G0 X159.940 Y72.240 F3000 ; Travel to line 98
G0 Z0.0 ; Pen down
G1 X149.540 Y82.900 F1000
G0 Z3.0 ; Pen up

G0 X151.100 Y79.260 F3000 ; Travel to line 99
G0 Z0.0 ; Pen down
G1 X151.620 Y78.480 F1000
G0 Z3.0 ; Pen up

G0 X152.660 Y105.000 F3000 ; Travel to line 100
G0 Z0.0 ; Pen down
G1 X204.920 Y52.740 F1000
G0 Z3.0 ; Pen up

G0 X207.000 Y52.740 F3000 ; Travel to line 101
G0 Z0.0 ; Pen down
G1 X154.740 Y105.000 F1000
G0 Z3.0 ; Pen up

G0 X156.820 Y105.000 F3000 ; Travel to line 102
G0 Z0.0 ; Pen down
G1 X209.080 Y52.740 F1000
G0 Z3.0 ; Pen up

G0 X211.160 Y52.740 F3000 ; Travel to line 103
G0 Z0.0 ; Pen down
G1 X158.900 Y105.000 F1000
G0 Z3.0 ; Pen up

G0 X160.980 Y105.000 F3000 ; Travel to line 104
G0 Z0.0 ; Pen down
G1 X213.240 Y52.740 F1000
G0 Z3.0 ; Pen up

G0 X215.580 Y52.740 F3000 ; Travel to line 105
G0 Z0.0 ; Pen down
G1 X163.060 Y105.000 F1000
G0 Z3.0 ; Pen up

G0 X165.400 Y105.000 F3000 ; Travel to line 106
G0 Z0.0 ; Pen down
G1 X217.660 Y52.740 F1000
G0 Z3.0 ; Pen up

G0 X218.960 Y53.780 F3000 ; Travel to line 107
G0 Z0.0 ; Pen down
G1 X167.480 Y105.000 F1000
G0 Z3.0 ; Pen up

G0 X168.260 Y106.300 F3000 ; Travel to line 108
G0 Z0.0 ; Pen down
G1 X218.700 Y56.120 F1000
G0 Z3.0 ; Pen up

G0 X218.440 Y58.460 F3000 ; Travel to line 109
G0 Z0.0 ; Pen down
G1 X168.780 Y108.120 F1000
G0 Z3.0 ; Pen up

G0 X169.300 Y109.680 F3000 ; Travel to line 110
G0 Z0.0 ; Pen down
G1 X218.180 Y60.800 F1000
G0 Z3.0 ; Pen up

G0 X217.920 Y63.140 F3000 ; Travel to line 111
G0 Z0.0 ; Pen down
G1 X169.560 Y111.500 F1000
G0 Z3.0 ; Pen up

G0 X170.080 Y113.320 F3000 ; Travel to line 112
G0 Z0.0 ; Pen down
G1 X217.660 Y65.740 F1000
G0 Z3.0 ; Pen up

G0 X217.400 Y68.080 F3000 ; Travel to line 113
G0 Z0.0 ; Pen down
G1 X170.600 Y114.880 F1000
G0 Z3.0 ; Pen up

G0 X170.860 Y116.700 F3000 ; Travel to line 114
G0 Z0.0 ; Pen down
G1 X217.140 Y70.420 F1000
G0 Z3.0 ; Pen up

G0 X216.880 Y72.760 F3000 ; Travel to line 115
G0 Z0.0 ; Pen down
G1 X171.380 Y118.260 F1000
G0 Z3.0 ; Pen up

G0 X171.640 Y119.820 F3000 ; Travel to line 116
G0 Z0.0 ; Pen down
G1 X216.620 Y75.100 F1000
G0 Z3.0 ; Pen up

G0 X216.620 Y77.180 F3000 ; Travel to line 117
G0 Z0.0 ; Pen down
G1 X172.160 Y121.640 F1000
G0 Z3.0 ; Pen up

G0 X172.680 Y123.460 F3000 ; Travel to line 118
G0 Z0.0 ; Pen down
G1 X216.100 Y79.780 F1000
G0 Z3.0 ; Pen up

G0 X216.360 Y79.780 F3000 ; Travel to line 119
G0 Z0.0 ; Pen down
G1 X179.180 Y116.700 F1000
G0 Z3.0 ; Pen up

G0 X172.940 Y125.020 F3000 ; Travel to line 120
G0 Z0.0 ; Pen down
G1 X215.840 Y82.380 F1000
G0 Z3.0 ; Pen up

G0 X215.580 Y84.720 F3000 ; Travel to line 121
G0 Z0.0 ; Pen down
G1 X173.460 Y126.840 F1000
G0 Z3.0 ; Pen up

G0 X173.980 Y128.400 F3000 ; Travel to line 122
G0 Z0.0 ; Pen down
G1 X215.060 Y87.320 F1000
G0 Z3.0 ; Pen up

G0 X214.800 Y89.660 F3000 ; Travel to line 123
G0 Z0.0 ; Pen down
G1 X174.240 Y130.220 F1000
G0 Z3.0 ; Pen up

G0 X174.760 Y131.780 F3000 ; Travel to line 124
G0 Z0.0 ; Pen down
G1 X214.280 Y92.260 F1000
G0 Z3.0 ; Pen up

G0 X214.020 Y94.600 F3000 ; Travel to line 125
G0 Z0.0 ; Pen down
G1 X175.540 Y133.080 F1000
G0 Z3.0 ; Pen up

G0 X176.060 Y134.900 F3000 ; Travel to line 126
G0 Z0.0 ; Pen down
G1 X213.500 Y97.460 F1000
G0 Z3.0 ; Pen up

G0 X213.240 Y99.800 F3000 ; Travel to line 127
G0 Z0.0 ; Pen down
G1 X176.580 Y136.460 F1000
G0 Z3.0 ; Pen up

G0 X177.100 Y137.760 F3000 ; Travel to line 128
G0 Z0.0 ; Pen down
G1 X212.720 Y102.400 F1000
G0 Z3.0 ; Pen up

G0 X212.720 Y102.140 F3000 ; Travel to line 129
G0 Z0.0 ; Pen down
G1 X212.980 Y102.140 F1000
G0 Z3.0 ; Pen up

G0 X212.460 Y104.740 F3000 ; Travel to line 130
G0 Z0.0 ; Pen down
G1 X177.880 Y139.320 F1000
G0 Z3.0 ; Pen up

G0 X178.400 Y140.880 F3000 ; Travel to line 131
G0 Z0.0 ; Pen down
G1 X211.680 Y107.600 F1000
G0 Z3.0 ; Pen up

G0 X211.160 Y110.200 F3000 ; Travel to line 132
G0 Z0.0 ; Pen down
G1 X178.920 Y142.180 F1000
G0 Z3.0 ; Pen up

G0 X179.700 Y144.000 F3000 ; Travel to line 133
G0 Z0.0 ; Pen down
G1 X210.380 Y113.320 F1000
G0 Z3.0 ; Pen up

G0 X209.600 Y116.180 F3000 ; Travel to line 134
G0 Z0.0 ; Pen down
G1 X180.220 Y145.560 F1000
G0 Z3.0 ; Pen up

G0 X180.740 Y146.860 F3000 ; Travel to line 135
G0 Z0.0 ; Pen down
G1 X208.820 Y119.040 F1000
G0 Z3.0 ; Pen up

G0 X208.820 Y118.780 F3000 ; Travel to line 136
G0 Z0.0 ; Pen down
G1 X209.080 Y118.780 F1000
G0 Z3.0 ; Pen up

G0 X208.300 Y121.640 F3000 ; Travel to line 137
G0 Z0.0 ; Pen down
G1 X181.520 Y148.420 F1000
G0 Z3.0 ; Pen up

G0 X182.040 Y149.980 F3000 ; Travel to line 138
G0 Z0.0 ; Pen down
G1 X207.520 Y124.500 F1000
G0 Z3.0 ; Pen up

G0 X206.740 Y127.360 F3000 ; Travel to line 139
G0 Z0.0 ; Pen down
G1 X182.560 Y151.280 F1000
G0 Z3.0 ; Pen up

G0 X183.340 Y153.100 F3000 ; Travel to line 140
G0 Z0.0 ; Pen down
G1 X205.960 Y130.220 F1000
G0 Z3.0 ; Pen up

G0 X206.220 Y130.220 F3000 ; Travel to line 141
G0 Z0.0 ; Pen down
G1 X183.340 Y153.100 F1000
G0 Z3.0 ; Pen up

G0 X183.860 Y154.660 F3000 ; Travel to line 142
G0 Z0.0 ; Pen down
G1 X204.920 Y133.600 F1000
G0 Z3.0 ; Pen up

G0 X203.620 Y136.980 F3000 ; Travel to line 143
G0 Z0.0 ; Pen down
G1 X203.360 Y136.980 F1000
G0 Z3.0 ; Pen up

G0 X203.360 Y137.240 F3000 ; Travel to line 144
G0 Z0.0 ; Pen down
G1 X184.380 Y155.960 F1000
G0 Z3.0 ; Pen up

G0 X185.420 Y157.000 F3000 ; Travel to line 145
G0 Z0.0 ; Pen down
G1 X202.060 Y140.620 F1000
G0 Z3.0 ; Pen up

G0 X202.060 Y140.360 F3000 ; Travel to line 146
G0 Z0.0 ; Pen down
G1 X202.320 Y140.360 F1000
G0 Z3.0 ; Pen up

G0 X200.760 Y144.000 F3000 ; Travel to line 147
G0 Z0.0 ; Pen down
G1 X187.500 Y157.000 F1000
G0 Z3.0 ; Pen up

G0 X189.580 Y157.000 F3000 ; Travel to line 148
G0 Z0.0 ; Pen down
G1 X199.200 Y147.640 F1000
G0 Z3.0 ; Pen up

G0 X197.900 Y151.020 F3000 ; Travel to line 149
G0 Z0.0 ; Pen down
G1 X191.920 Y157.000 F1000
G0 Z3.0 ; Pen up

G0 X194.000 Y157.000 F3000 ; Travel to line 150
G0 Z0.0 ; Pen down
G1 X196.340 Y154.920 F1000
G0 Z3.0 ; Pen up

G0 X196.340 Y154.660 F3000 ; Travel to line 151
G0 Z0.0 ; Pen down
G1 X196.600 Y154.660 F1000
G0 Z3.0 ; Pen up

G0 X150.580 Y105.000 F3000 ; Travel to line 152
G0 Z0.0 ; Pen down
G1 X202.840 Y52.740 F1000
G0 Z3.0 ; Pen up

G0 X200.500 Y52.740 F3000 ; Travel to line 153
G0 Z0.0 ; Pen down
G1 X148.240 Y105.000 F1000
G0 Z3.0 ; Pen up

G0 X146.160 Y105.000 F3000 ; Travel to line 154
G0 Z0.0 ; Pen down
G1 X198.420 Y52.740 F1000
G0 Z3.0 ; Pen up

G0 X196.340 Y52.740 F3000 ; Travel to line 155
G0 Z0.0 ; Pen down
G1 X144.080 Y105.000 F1000
G0 Z3.0 ; Pen up

G0 X143.040 Y106.300 F3000 ; Travel to line 156
G0 Z0.0 ; Pen down
G1 X95.720 Y153.620 F1000
G0 Z3.0 ; Pen up

G0 X96.240 Y155.180 F3000 ; Travel to line 157
G0 Z0.0 ; Pen down
G1 X141.480 Y109.940 F1000
G0 Z3.0 ; Pen up

G0 X140.180 Y113.320 F3000 ; Travel to line 158
G0 Z0.0 ; Pen down
G1 X96.500 Y157.000 F1000
G0 Z3.0 ; Pen up

G0 X97.020 Y158.560 F3000 ; Travel to line 159
G0 Z0.0 ; Pen down
G1 X128.740 Y127.100 F1000
G0 Z3.0 ; Pen up

G0 X128.220 Y129.700 F3000 ; Travel to line 160
G0 Z0.0 ; Pen down
G1 X97.800 Y160.120 F1000
G0 Z3.0 ; Pen up

G0 X98.320 Y161.680 F3000 ; Travel to line 161
G0 Z0.0 ; Pen down
G1 X127.700 Y132.300 F1000
G0 Z3.0 ; Pen up

G0 X127.180 Y134.900 F3000 ; Travel to line 162
G0 Z0.0 ; Pen down
G1 X98.840 Y162.980 F1000
G0 Z3.0 ; Pen up

G0 X99.620 Y164.540 F3000 ; Travel to line 163
G0 Z0.0 ; Pen down
G1 X126.660 Y137.500 F1000
G0 Z3.0 ; Pen up

G0 X126.140 Y140.100 F3000 ; Travel to line 164
G0 Z0.0 ; Pen down
G1 X100.140 Y166.100 F1000
G0 Z3.0 ; Pen up

G0 X100.660 Y167.660 F3000 ; Travel to line 165
G0 Z0.0 ; Pen down
G1 X125.620 Y142.700 F1000
G0 Z3.0 ; Pen up

G0 X125.100 Y145.560 F3000 ; Travel to line 166
G0 Z0.0 ; Pen down
G1 X101.440 Y169.220 F1000
G0 Z3.0 ; Pen up

G0 X101.960 Y170.780 F3000 ; Travel to line 167
G0 Z0.0 ; Pen down
G1 X124.580 Y148.160 F1000
G0 Z3.0 ; Pen up

G0 X124.060 Y150.760 F3000 ; Travel to line 168
G0 Z0.0 ; Pen down
G1 X102.480 Y172.080 F1000
G0 Z3.0 ; Pen up

G0 X103.260 Y173.640 F3000 ; Travel to line 169
G0 Z0.0 ; Pen down
G1 X123.540 Y153.360 F1000
G0 Z3.0 ; Pen up

G0 X123.020 Y155.960 F3000 ; Travel to line 170
G0 Z0.0 ; Pen down
G1 X103.780 Y175.200 F1000
G0 Z3.0 ; Pen up

G0 X104.300 Y176.760 F3000 ; Travel to line 171
G0 Z0.0 ; Pen down
G1 X122.500 Y158.560 F1000
G0 Z3.0 ; Pen up

G0 X121.980 Y161.420 F3000 ; Travel to line 172
G0 Z0.0 ; Pen down
G1 X105.080 Y178.320 F1000
G0 Z3.0 ; Pen up

G0 X105.080 Y178.320 F3000 ; Travel to line 173
G0 Z0.0 ; Pen down
G1 X121.720 Y161.420 F1000
G0 Z3.0 ; Pen up

G0 X121.460 Y164.020 F3000 ; Travel to line 174
G0 Z0.0 ; Pen down
G1 X121.200 Y164.020 F1000
G0 Z3.0 ; Pen up

G0 X121.200 Y164.280 F3000 ; Travel to line 175
G0 Z0.0 ; Pen down
G1 X105.600 Y179.880 F1000
G0 Z3.0 ; Pen up

G0 X106.120 Y181.180 F3000 ; Travel to line 176
G0 Z0.0 ; Pen down
G1 X120.680 Y166.880 F1000
G0 Z3.0 ; Pen up

G0 X120.680 Y166.620 F3000 ; Travel to line 177
G0 Z0.0 ; Pen down
G1 X120.940 Y166.620 F1000
G0 Z3.0 ; Pen up

G0 X120.420 Y169.220 F3000 ; Travel to line 178
G0 Z0.0 ; Pen down
G1 X120.160 Y169.220 F1000
G0 Z3.0 ; Pen up

G0 X120.160 Y169.480 F3000 ; Travel to line 179
G0 Z0.0 ; Pen down
G1 X106.900 Y182.740 F1000
G0 Z3.0 ; Pen up

G0 X106.900 Y183.000 F3000 ; Travel to line 180
G0 Z0.0 ; Pen down
G1 X106.380 Y181.960 F1000
G1 X106.380 Y181.440 F1000
G1 X105.860 Y180.660 F1000
G1 X105.860 Y180.140 F1000
G1 X105.340 Y179.360 F1000
G1 X105.340 Y178.840 F1000
G1 X104.820 Y178.060 F1000
G1 X104.820 Y177.540 F1000
G1 X104.300 Y176.760 F1000
G1 X104.300 Y176.240 F1000
G1 X103.780 Y175.460 F1000
G1 X103.780 Y174.940 F1000
G1 X103.260 Y174.160 F1000
G1 X103.260 Y173.640 F1000
G1 X102.740 Y172.860 F1000
G1 X102.740 Y172.340 F1000
G1 X102.220 Y171.560 F1000
G1 X102.220 Y171.040 F1000
G1 X101.700 Y170.260 F1000
G1 X101.700 Y169.740 F1000
G1 X101.180 Y168.960 F1000
G1 X101.180 Y168.440 F1000
G1 X100.660 Y167.660 F1000
G1 X100.660 Y167.140 F1000
G1 X100.140 Y166.360 F1000
G1 X100.140 Y165.840 F1000
G1 X99.620 Y165.060 F1000
G1 X99.620 Y164.540 F1000
G1 X99.100 Y163.760 F1000
G1 X99.100 Y163.240 F1000
G1 X98.580 Y162.460 F1000
G1 X98.580 Y161.940 F1000
G1 X98.060 Y161.160 F1000
G1 X98.060 Y160.640 F1000
G1 X97.540 Y159.860 F1000
G1 X97.540 Y159.340 F1000
G1 X97.020 Y158.560 F1000
G1 X97.020 Y158.040 F1000
G1 X96.500 Y157.260 F1000
G1 X96.240 Y155.180 F1000
G1 X95.980 Y154.920 F1000
G1 X95.980 Y153.880 F1000
G1 X95.720 Y153.620 F1000
G1 X95.720 Y152.580 F1000
G1 X95.460 Y152.320 F1000
G1 X95.460 Y151.280 F1000
G1 X95.200 Y151.020 F1000
G1 X95.200 Y149.980 F1000
G1 X94.940 Y149.720 F1000
G1 X94.940 Y148.680 F1000
G1 X94.680 Y148.420 F1000
G1 X94.680 Y147.380 F1000
G1 X94.420 Y147.120 F1000
G1 X94.420 Y146.080 F1000
G1 X94.160 Y145.820 F1000
G1 X94.160 Y144.780 F1000
G1 X93.900 Y144.520 F1000
G1 X93.900 Y143.480 F1000
G1 X93.640 Y143.220 F1000
G1 X93.640 Y142.180 F1000
G1 X93.380 Y141.920 F1000
G1 X93.380 Y140.880 F1000
G1 X93.120 Y140.620 F1000
G1 X93.120 Y139.580 F1000
G1 X92.860 Y139.320 F1000
G1 X92.860 Y138.280 F1000
G1 X92.600 Y138.020 F1000
G1 X92.600 Y136.980 F1000
G1 X92.340 Y136.720 F1000
G1 X92.340 Y135.680 F1000
G1 X92.080 Y135.420 F1000
G1 X92.080 Y134.380 F1000
G1 X91.820 Y134.120 F1000
G1 X91.820 Y133.080 F1000
G1 X91.560 Y132.820 F1000
G1 X91.560 Y131.780 F1000
G1 X91.300 Y131.520 F1000
G1 X91.300 Y130.480 F1000
G1 X91.040 Y130.220 F1000
G1 X91.040 Y129.180 F1000
G1 X90.780 Y128.920 F1000
G1 X90.780 Y127.880 F1000
G1 X90.520 Y127.620 F1000
G1 X90.520 Y126.580 F1000
G1 X90.260 Y126.320 F1000
G1 X90.260 Y125.280 F1000
G1 X90.000 Y125.020 F1000
G1 X90.000 Y123.980 F1000
G1 X89.740 Y123.720 F1000
G1 X89.740 Y122.680 F1000
G1 X89.480 Y122.420 F1000
G1 X89.480 Y121.380 F1000
G1 X89.220 Y121.120 F1000
G1 X89.220 Y120.080 F1000
G1 X88.960 Y119.820 F1000
G1 X88.960 Y118.780 F1000
G1 X88.700 Y118.520 F1000
G1 X88.700 Y117.480 F1000
G1 X88.440 Y117.220 F1000
G1 X88.440 Y116.180 F1000
G1 X88.180 Y115.920 F1000
G1 X88.180 Y114.880 F1000
G1 X87.920 Y114.620 F1000
G1 X87.920 Y113.580 F1000
G1 X87.660 Y113.320 F1000
G1 X87.660 Y112.280 F1000
G1 X87.400 Y112.020 F1000
G1 X87.400 Y111.500 F1000
G1 X86.880 Y110.460 F1000
G1 X86.360 Y109.940 F1000
G1 X86.100 Y109.160 F1000
G1 X85.580 Y108.640 F1000
G1 X85.320 Y107.860 F1000
G1 X84.800 Y107.340 F1000
G1 X84.540 Y106.560 F1000
G1 X84.020 Y106.040 F1000
G1 X83.500 Y105.000 F1000
G1 X85.840 Y105.000 F1000
G1 X86.100 Y104.480 F1000
G1 X85.840 Y104.220 F1000
G1 X85.840 Y103.180 F1000
G1 X85.580 Y102.920 F1000
G1 X85.580 Y101.880 F1000
G1 X85.320 Y101.620 F1000
G1 X85.320 Y100.580 F1000
G1 X85.060 Y100.320 F1000
G1 X85.060 Y99.280 F1000
G1 X84.800 Y99.020 F1000
G1 X84.800 Y97.980 F1000
G1 X84.540 Y97.720 F1000
G1 X84.540 Y96.680 F1000
G1 X84.280 Y96.420 F1000
G1 X84.280 Y95.380 F1000
G1 X84.020 Y95.120 F1000
G1 X84.020 Y94.080 F1000
G1 X83.760 Y93.820 F1000
G1 X83.760 Y92.780 F1000
G1 X83.500 Y92.520 F1000
G1 X83.500 Y91.480 F1000
G1 X83.240 Y91.220 F1000
G1 X83.240 Y90.180 F1000
G1 X82.980 Y89.920 F1000
G1 X82.980 Y88.880 F1000
G1 X82.720 Y88.620 F1000
G1 X82.720 Y87.580 F1000
G1 X82.460 Y87.320 F1000
G1 X82.460 Y86.280 F1000
G1 X82.200 Y86.020 F1000
G1 X82.200 Y84.980 F1000
G1 X81.940 Y84.720 F1000
G1 X81.940 Y83.680 F1000
G1 X81.680 Y83.420 F1000
G1 X81.680 Y82.380 F1000
G1 X81.420 Y82.120 F1000
G1 X81.420 Y81.080 F1000
G1 X81.160 Y80.820 F1000
G1 X81.160 Y79.780 F1000
G1 X80.900 Y79.520 F1000
G1 X80.900 Y78.480 F1000
G1 X80.640 Y78.220 F1000
G1 X80.640 Y77.180 F1000
G1 X80.380 Y76.920 F1000
G1 X80.380 Y75.880 F1000
G1 X80.120 Y75.620 F1000
G1 X80.120 Y74.580 F1000
G1 X79.860 Y74.320 F1000
G1 X79.860 Y73.280 F1000
G1 X79.600 Y73.020 F1000
G1 X79.600 Y71.980 F1000
G1 X79.340 Y71.720 F1000
G1 X79.340 Y70.680 F1000
G1 X79.080 Y70.420 F1000
G1 X79.080 Y69.380 F1000
G1 X78.820 Y69.120 F1000
G1 X78.820 Y68.080 F1000
G1 X78.560 Y67.820 F1000
G1 X78.560 Y66.780 F1000
G1 X78.300 Y66.520 F1000
G1 X78.300 Y65.480 F1000
G1 X78.040 Y65.220 F1000
G1 X78.040 Y64.180 F1000
G1 X77.780 Y63.920 F1000
G1 X77.780 Y62.880 F1000
G1 X77.520 Y62.620 F1000
G1 X77.520 Y61.580 F1000
G1 X77.260 Y61.320 F1000
G1 X77.260 Y60.280 F1000
G1 X77.000 Y60.020 F1000
G1 X77.000 Y58.980 F1000
G1 X76.740 Y58.720 F1000
G1 X76.740 Y57.680 F1000
G1 X76.480 Y57.420 F1000
G1 X76.480 Y56.380 F1000
G1 X76.220 Y56.120 F1000
G1 X76.220 Y55.080 F1000
G1 X75.960 Y54.820 F1000
G1 X75.960 Y53.780 F1000
G1 X75.700 Y53.520 F1000
G1 X75.700 Y52.480 F1000
G1 X75.440 Y52.220 F1000
G1 X75.440 Y51.180 F1000
G1 X75.180 Y50.920 F1000
G1 X75.180 Y49.880 F1000
G1 X74.920 Y49.620 F1000
G1 X74.920 Y48.580 F1000
G1 X74.660 Y48.320 F1000
G1 X74.660 Y47.280 F1000
G1 X74.400 Y47.020 F1000
G1 X74.400 Y45.980 F1000
G1 X74.140 Y45.720 F1000
G1 X74.140 Y44.680 F1000
G1 X73.880 Y44.420 F1000
G1 X73.880 Y43.380 F1000
G1 X73.620 Y43.120 F1000
G1 X73.620 Y42.080 F1000
G1 X73.360 Y41.820 F1000
G1 X73.360 Y40.780 F1000
G1 X73.100 Y40.520 F1000
G1 X73.100 Y39.480 F1000
G1 X72.840 Y39.220 F1000
G1 X72.840 Y38.180 F1000
G1 X72.580 Y37.920 F1000
G1 X72.580 Y36.880 F1000
G1 X72.320 Y36.620 F1000
G1 X72.320 Y35.580 F1000
G1 X72.060 Y35.320 F1000
G1 X72.060 Y34.280 F1000
G1 X71.800 Y34.020 F1000
G1 X71.800 Y32.980 F1000
G1 X71.540 Y32.720 F1000
G1 X71.540 Y31.680 F1000
G1 X71.280 Y31.420 F1000
G1 X71.280 Y30.380 F1000
G1 X71.020 Y30.120 F1000
G1 X71.020 Y29.080 F1000
G1 X70.760 Y28.820 F1000
G1 X70.760 Y27.780 F1000
G1 X70.500 Y27.520 F1000
G1 X70.500 Y27.000 F1000
G1 X148.500 Y27.000 F1000
G1 X148.500 Y27.520 F1000
G1 X148.240 Y27.780 F1000
G1 X148.240 Y28.820 F1000
G1 X147.980 Y29.080 F1000
G1 X147.980 Y30.120 F1000
G1 X147.720 Y30.380 F1000
G1 X147.720 Y31.420 F1000
G1 X147.460 Y31.680 F1000
G1 X147.460 Y32.720 F1000
G1 X147.200 Y32.980 F1000
G1 X147.200 Y34.020 F1000
G1 X146.940 Y34.280 F1000
G1 X146.940 Y35.320 F1000
G1 X146.680 Y35.580 F1000
G1 X146.680 Y36.620 F1000
G1 X146.420 Y36.880 F1000
G1 X146.420 Y37.920 F1000
G1 X146.160 Y38.180 F1000
G1 X146.160 Y39.220 F1000
G1 X145.900 Y39.480 F1000
G1 X145.900 Y40.520 F1000
G1 X145.640 Y40.780 F1000
G1 X145.640 Y41.820 F1000
G1 X145.380 Y42.080 F1000
G1 X145.380 Y43.120 F1000
G1 X145.120 Y43.380 F1000
G1 X145.120 Y44.420 F1000
G1 X144.860 Y44.680 F1000
G1 X144.860 Y45.720 F1000
G1 X144.600 Y45.980 F1000
G1 X144.600 Y47.020 F1000
G1 X144.340 Y47.280 F1000
G1 X144.340 Y48.320 F1000
G1 X144.080 Y48.580 F1000
G1 X144.080 Y49.620 F1000
G1 X143.820 Y49.880 F1000
G1 X143.820 Y50.920 F1000
G1 X143.560 Y51.180 F1000
G1 X143.560 Y52.220 F1000
G1 X143.300 Y52.480 F1000
G1 X143.300 Y53.520 F1000
G1 X143.040 Y53.780 F1000
G1 X143.040 Y54.820 F1000
G1 X142.780 Y55.080 F1000
G1 X142.780 Y56.120 F1000
G1 X142.520 Y56.380 F1000
G1 X142.520 Y57.420 F1000
G1 X142.260 Y57.680 F1000
G1 X142.260 Y58.720 F1000
G1 X142.000 Y58.980 F1000
G1 X142.000 Y60.020 F1000
G1 X141.740 Y60.280 F1000
G1 X141.740 Y61.320 F1000
G1 X141.480 Y61.580 F1000
G1 X141.480 Y62.620 F1000
G1 X141.220 Y62.880 F1000
G1 X141.220 Y63.920 F1000
G1 X140.960 Y64.180 F1000
G1 X140.960 Y65.220 F1000
G1 X140.700 Y65.480 F1000
G1 X140.700 Y66.520 F1000
G1 X140.440 Y66.780 F1000
G1 X140.440 Y67.820 F1000
G1 X140.180 Y68.080 F1000
G1 X140.180 Y69.120 F1000
G1 X139.920 Y69.380 F1000
G1 X139.920 Y70.420 F1000
G1 X139.660 Y70.680 F1000
G1 X139.660 Y71.720 F1000
G1 X139.400 Y71.980 F1000
G1 X139.400 Y73.020 F1000
G1 X139.140 Y73.280 F1000
G1 X139.140 Y74.320 F1000
G1 X138.880 Y74.580 F1000
G1 X138.880 Y75.620 F1000
G1 X138.620 Y75.880 F1000
G1 X138.620 Y76.920 F1000
G1 X138.360 Y77.180 F1000
G1 X138.360 Y78.220 F1000
G1 X138.100 Y78.480 F1000
G1 X138.100 Y79.520 F1000
G1 X137.840 Y79.780 F1000
G1 X137.840 Y80.820 F1000
G1 X137.580 Y81.080 F1000
G1 X137.580 Y82.120 F1000
G1 X137.320 Y82.380 F1000
G1 X137.320 Y83.420 F1000
G1 X137.060 Y83.680 F1000
G1 X137.060 Y84.720 F1000
G1 X136.800 Y84.980 F1000
G1 X136.800 Y86.020 F1000
G1 X136.540 Y86.280 F1000
G1 X136.540 Y87.320 F1000
G1 X136.280 Y87.580 F1000
G1 X136.280 Y88.620 F1000
G1 X136.020 Y88.880 F1000
G1 X136.020 Y89.920 F1000
G1 X135.760 Y90.180 F1000
G1 X135.760 Y91.220 F1000
G1 X135.500 Y91.480 F1000
G1 X135.500 Y92.520 F1000
G1 X135.240 Y92.780 F1000
G1 X135.240 Y93.820 F1000
G1 X134.980 Y94.080 F1000
G1 X134.980 Y95.120 F1000
G1 X134.720 Y95.380 F1000
G1 X134.720 Y96.420 F1000
G1 X134.460 Y96.680 F1000
G1 X134.460 Y97.720 F1000
G1 X134.200 Y97.980 F1000
G1 X134.200 Y99.020 F1000
G1 X133.940 Y99.280 F1000
G1 X133.940 Y100.320 F1000
G1 X133.680 Y100.580 F1000
G1 X133.680 Y101.620 F1000
G1 X133.420 Y101.880 F1000
G1 X133.420 Y102.920 F1000
G1 X133.160 Y103.180 F1000
G1 X133.160 Y104.220 F1000
G1 X132.900 Y104.480 F1000
G1 X133.160 Y105.000 F1000
G1 X143.040 Y105.000 F1000
G1 X143.560 Y104.220 F1000
G1 X143.560 Y103.180 F1000
G1 X143.820 Y102.920 F1000
G1 X143.820 Y101.880 F1000
G1 X144.080 Y101.620 F1000
G1 X144.080 Y100.580 F1000
G1 X144.340 Y100.320 F1000
G1 X144.340 Y99.280 F1000
G1 X144.600 Y99.020 F1000
G1 X144.600 Y97.980 F1000
G1 X144.860 Y97.720 F1000
G1 X144.860 Y96.680 F1000
G1 X145.120 Y96.420 F1000
G1 X145.120 Y95.380 F1000
G1 X145.380 Y95.120 F1000
G1 X145.380 Y94.080 F1000
G1 X145.640 Y93.820 F1000
G1 X145.900 Y91.740 F1000
G1 X146.420 Y90.960 F1000
G1 X146.420 Y90.440 F1000
G1 X146.940 Y89.660 F1000
G1 X146.940 Y89.140 F1000
G1 X147.460 Y88.360 F1000
G1 X147.460 Y87.840 F1000
G1 X147.980 Y87.060 F1000
G1 X147.980 Y86.540 F1000
G1 X148.500 Y85.760 F1000
G1 X148.500 Y85.240 F1000
G1 X149.020 Y84.460 F1000
G1 X149.020 Y83.940 F1000
G1 X149.540 Y83.160 F1000
G1 X149.540 Y82.640 F1000
G1 X150.060 Y81.860 F1000
G1 X150.060 Y81.340 F1000
G1 X150.580 Y80.560 F1000
G1 X150.580 Y80.040 F1000
G1 X151.100 Y79.000 F1000
G1 X152.400 Y77.960 F1000
G1 X152.660 Y77.960 F1000
G1 X153.440 Y77.180 F1000
G1 X153.700 Y77.180 F1000
G1 X154.480 Y76.400 F1000
G1 X154.740 Y76.400 F1000
G1 X155.520 Y75.620 F1000
G1 X155.780 Y75.620 F1000
G1 X156.560 Y74.840 F1000
G1 X156.820 Y74.840 F1000
G1 X157.600 Y74.060 F1000
G1 X157.860 Y74.060 F1000
G1 X158.640 Y73.280 F1000
G1 X158.900 Y73.280 F1000
G1 X159.680 Y72.500 F1000
G1 X159.940 Y72.500 F1000
G1 X160.720 Y71.720 F1000
G1 X160.980 Y71.720 F1000
G1 X161.500 Y71.200 F1000
G1 X162.280 Y71.200 F1000
G1 X163.320 Y70.680 F1000
G1 X163.320 Y69.900 F1000
G1 X163.060 Y69.640 F1000
G1 X163.060 Y67.300 F1000
G1 X162.800 Y67.040 F1000
G1 X162.800 Y64.700 F1000
G1 X162.540 Y64.440 F1000
G1 X162.540 Y62.100 F1000
G1 X162.280 Y61.840 F1000
G1 X162.280 Y59.500 F1000
G1 X162.020 Y59.240 F1000
G1 X162.020 Y56.900 F1000
G1 X161.760 Y56.640 F1000
G1 X161.760 Y54.300 F1000
G1 X161.500 Y54.040 F1000
G1 X161.500 Y53.000 F1000
G1 X218.700 Y53.000 F1000
G1 X218.700 Y54.040 F1000
G1 X218.440 Y54.300 F1000
G1 X218.440 Y56.640 F1000
G1 X218.180 Y56.900 F1000
G1 X218.180 Y59.240 F1000
G1 X217.920 Y59.500 F1000
G1 X217.920 Y61.840 F1000
G1 X217.660 Y62.100 F1000
G1 X217.660 Y64.440 F1000
G1 X217.400 Y64.700 F1000
G1 X217.400 Y67.040 F1000
G1 X217.140 Y67.300 F1000
G1 X217.140 Y69.640 F1000
G1 X216.880 Y69.900 F1000
G1 X216.880 Y72.240 F1000
G1 X216.620 Y72.500 F1000
G1 X216.620 Y74.840 F1000
G1 X216.360 Y75.100 F1000
G1 X216.360 Y77.440 F1000
G1 X216.100 Y77.700 F1000
G1 X216.100 Y79.780 F1000
G1 X215.840 Y80.040 F1000
G1 X215.840 Y81.340 F1000
G1 X215.580 Y81.600 F1000
G1 X215.580 Y83.160 F1000
G1 X215.320 Y83.420 F1000
G1 X215.320 Y84.980 F1000
G1 X215.060 Y85.240 F1000
G1 X215.060 Y86.540 F1000
G1 X214.800 Y86.800 F1000
G1 X214.800 Y88.360 F1000
G1 X214.540 Y88.620 F1000
G1 X214.540 Y90.180 F1000
G1 X214.280 Y90.440 F1000
G1 X214.280 Y91.740 F1000
G1 X214.020 Y92.000 F1000
G1 X214.020 Y93.560 F1000
G1 X213.760 Y93.820 F1000
G1 X213.760 Y95.380 F1000
G1 X213.500 Y95.640 F1000
G1 X213.500 Y96.940 F1000
G1 X213.240 Y97.200 F1000
G1 X213.240 Y98.760 F1000
G1 X212.980 Y99.020 F1000
G1 X212.980 Y100.580 F1000
G1 X212.720 Y100.840 F1000
G1 X212.720 Y102.140 F1000
G1 X212.460 Y102.400 F1000
G1 X212.460 Y103.960 F1000
G1 X212.200 Y104.220 F1000
G1 X212.200 Y105.260 F1000
G1 X211.940 Y105.520 F1000
G1 X211.940 Y106.300 F1000
G1 X211.680 Y106.560 F1000
G1 X211.680 Y107.340 F1000
G1 X211.420 Y107.600 F1000
G1 X211.420 Y108.380 F1000
G1 X211.160 Y108.640 F1000
G1 X211.160 Y109.420 F1000
G1 X210.900 Y109.680 F1000
G1 X210.900 Y110.460 F1000
G1 X210.640 Y110.720 F1000
G1 X210.640 Y111.500 F1000
G1 X210.380 Y111.760 F1000
G1 X210.380 Y112.540 F1000
G1 X210.120 Y112.800 F1000
G1 X210.120 Y113.580 F1000
G1 X209.860 Y113.840 F1000
G1 X209.860 Y114.620 F1000
G1 X209.600 Y114.880 F1000
G1 X209.600 Y115.660 F1000
G1 X209.340 Y115.920 F1000
G1 X209.340 Y116.700 F1000
G1 X209.080 Y116.960 F1000
G1 X209.080 Y117.740 F1000
G1 X208.820 Y118.000 F1000
G1 X208.820 Y118.780 F1000
G1 X208.560 Y119.040 F1000
G1 X208.560 Y119.820 F1000
G1 X208.300 Y120.080 F1000
G1 X208.300 Y120.860 F1000
G1 X208.040 Y121.120 F1000
G1 X208.040 Y121.900 F1000
G1 X207.780 Y122.160 F1000
G1 X207.780 Y122.940 F1000
G1 X207.520 Y123.200 F1000
G1 X207.520 Y123.980 F1000
G1 X207.260 Y124.240 F1000
G1 X207.260 Y125.020 F1000
G1 X207.000 Y125.280 F1000
G1 X207.000 Y126.060 F1000
G1 X206.740 Y126.320 F1000
G1 X206.740 Y127.100 F1000
G1 X206.480 Y127.360 F1000
G1 X206.480 Y128.140 F1000
G1 X206.220 Y128.400 F1000
G1 X206.220 Y129.180 F1000
G1 X205.960 Y129.440 F1000
G1 X205.700 Y131.260 F1000
G1 X205.180 Y132.040 F1000
G1 X205.180 Y132.560 F1000
G1 X204.660 Y133.340 F1000
G1 X204.660 Y133.860 F1000
G1 X204.140 Y134.640 F1000
G1 X204.140 Y135.160 F1000
G1 X203.620 Y135.940 F1000
G1 X203.620 Y136.460 F1000
G1 X203.100 Y137.240 F1000
G1 X203.100 Y137.760 F1000
G1 X202.580 Y138.540 F1000
G1 X202.580 Y139.060 F1000
G1 X202.060 Y139.840 F1000
G1 X202.060 Y140.360 F1000
G1 X201.540 Y141.140 F1000
G1 X201.540 Y141.660 F1000
G1 X201.020 Y142.440 F1000
G1 X201.020 Y142.960 F1000
G1 X200.500 Y143.740 F1000
G1 X200.500 Y144.260 F1000
G1 X199.980 Y145.040 F1000
G1 X199.980 Y145.560 F1000
G1 X199.460 Y146.340 F1000
G1 X199.460 Y146.860 F1000
G1 X198.940 Y147.640 F1000
G1 X198.940 Y148.160 F1000
G1 X198.420 Y148.940 F1000
G1 X198.420 Y149.460 F1000
G1 X197.900 Y150.240 F1000
G1 X197.900 Y150.760 F1000
G1 X197.380 Y151.540 F1000
G1 X197.380 Y152.060 F1000
G1 X196.860 Y152.840 F1000
G1 X196.860 Y153.360 F1000
G1 X196.340 Y154.140 F1000
G1 X196.340 Y154.660 F1000
G1 X195.820 Y155.440 F1000
G1 X195.820 Y155.960 F1000
G1 X195.300 Y157.000 F1000
G1 X184.900 Y157.000 F1000
G1 X184.380 Y155.960 F1000
G1 X184.380 Y155.440 F1000
G1 X183.860 Y154.660 F1000
G1 X183.860 Y154.140 F1000
G1 X183.340 Y153.360 F1000
G1 X183.340 Y152.840 F1000
G1 X182.820 Y152.060 F1000
G1 X182.820 Y151.540 F1000
G1 X182.300 Y150.760 F1000
G1 X182.300 Y150.240 F1000
G1 X181.780 Y149.460 F1000
G1 X181.780 Y148.940 F1000
G1 X181.260 Y148.160 F1000
G1 X181.260 Y147.640 F1000
G1 X180.740 Y146.860 F1000
G1 X180.740 Y146.340 F1000
G1 X180.220 Y145.560 F1000
G1 X180.220 Y145.040 F1000
G1 X179.700 Y144.260 F1000
G1 X179.700 Y143.740 F1000
G1 X179.180 Y142.960 F1000
G1 X179.180 Y142.440 F1000
G1 X178.660 Y141.660 F1000
G1 X178.660 Y141.140 F1000
G1 X178.140 Y140.360 F1000
G1 X178.140 Y139.840 F1000
G1 X177.620 Y139.060 F1000
G1 X177.620 Y138.540 F1000
G1 X177.100 Y137.760 F1000
G1 X177.100 Y137.240 F1000
G1 X176.580 Y136.460 F1000
G1 X176.580 Y135.940 F1000
G1 X176.060 Y135.160 F1000
G1 X176.060 Y134.640 F1000
G1 X175.540 Y133.860 F1000
G1 X175.540 Y133.340 F1000
G1 X175.020 Y132.560 F1000
G1 X175.020 Y132.040 F1000
G1 X174.500 Y131.260 F1000
G1 X174.500 Y130.480 F1000
G1 X174.240 Y130.220 F1000
G1 X174.240 Y129.440 F1000
G1 X173.980 Y129.180 F1000
G1 X173.980 Y128.400 F1000
G1 X173.720 Y128.140 F1000
G1 X173.720 Y127.360 F1000
G1 X173.460 Y127.100 F1000
G1 X173.460 Y126.320 F1000
G1 X173.200 Y126.060 F1000
G1 X173.200 Y125.280 F1000
G1 X172.940 Y125.020 F1000
G1 X172.940 Y124.240 F1000
G1 X172.680 Y123.980 F1000
G1 X172.680 Y123.200 F1000
G1 X172.420 Y122.940 F1000
G1 X172.420 Y122.160 F1000
G1 X172.160 Y121.900 F1000
G1 X172.160 Y121.120 F1000
G1 X171.900 Y120.860 F1000
G1 X171.900 Y120.080 F1000
G1 X171.640 Y119.820 F1000
G1 X171.640 Y119.040 F1000
G1 X171.380 Y118.780 F1000
G1 X171.380 Y118.000 F1000
G1 X171.120 Y117.740 F1000
G1 X171.120 Y116.960 F1000
G1 X170.860 Y116.700 F1000
G1 X170.860 Y115.920 F1000
G1 X170.600 Y115.660 F1000
G1 X170.600 Y114.880 F1000
G1 X170.340 Y114.620 F1000
G1 X170.340 Y113.840 F1000
G1 X170.080 Y113.580 F1000
G1 X170.080 Y112.800 F1000
G1 X169.820 Y112.540 F1000
G1 X169.820 Y111.760 F1000
G1 X169.560 Y111.500 F1000
G1 X169.560 Y110.720 F1000
G1 X169.300 Y110.460 F1000
G1 X169.300 Y109.680 F1000
G1 X169.040 Y109.420 F1000
G1 X169.040 Y108.640 F1000
G1 X168.780 Y108.380 F1000
G1 X168.780 Y107.600 F1000
G1 X168.520 Y107.340 F1000
G1 X168.260 Y105.520 F1000
G1 X167.740 Y105.000 F1000
G1 X143.560 Y105.000 F1000
G1 X142.780 Y106.040 F1000
G1 X142.780 Y106.560 F1000
G1 X142.260 Y107.340 F1000
G1 X142.260 Y107.860 F1000
G1 X141.740 Y108.640 F1000
G1 X141.740 Y109.160 F1000
G1 X141.220 Y109.940 F1000
G1 X141.220 Y110.460 F1000
G1 X140.700 Y111.240 F1000
G1 X140.700 Y111.760 F1000
G1 X140.180 Y112.540 F1000
G1 X140.180 Y113.060 F1000
G1 X139.660 Y113.840 F1000
G1 X139.660 Y114.360 F1000
G1 X139.140 Y115.140 F1000
G1 X139.140 Y115.660 F1000
G1 X138.620 Y116.440 F1000
G1 X138.620 Y116.960 F1000
G1 X138.100 Y118.000 F1000
G1 X136.800 Y119.040 F1000
G1 X136.540 Y119.040 F1000
G1 X135.760 Y119.820 F1000
G1 X135.500 Y119.820 F1000
G1 X134.720 Y120.600 F1000
G1 X134.460 Y120.600 F1000
G1 X133.680 Y121.380 F1000
G1 X133.420 Y121.380 F1000
G1 X132.640 Y122.160 F1000
G1 X132.380 Y122.160 F1000
G1 X131.600 Y122.940 F1000
G1 X131.340 Y122.940 F1000
G1 X130.560 Y123.720 F1000
G1 X130.300 Y123.720 F1000
G1 X129.520 Y124.500 F1000
G1 X129.260 Y124.500 F1000
G1 X128.740 Y125.280 F1000
G1 X128.740 Y126.320 F1000
G1 X128.480 Y126.580 F1000
G1 X128.480 Y127.620 F1000
G1 X128.220 Y127.880 F1000
G1 X128.220 Y128.920 F1000
G1 X127.960 Y129.180 F1000
G1 X127.960 Y130.220 F1000
G1 X127.700 Y130.480 F1000
G1 X127.700 Y131.520 F1000
G1 X127.440 Y131.780 F1000
G1 X127.440 Y132.820 F1000
G1 X127.180 Y133.080 F1000
G1 X127.180 Y134.120 F1000
G1 X126.920 Y134.380 F1000
G1 X126.920 Y135.420 F1000
G1 X126.660 Y135.680 F1000
G1 X126.660 Y136.720 F1000
G1 X126.400 Y136.980 F1000
G1 X126.400 Y138.020 F1000
G1 X126.140 Y138.280 F1000
G1 X126.140 Y139.320 F1000
G1 X125.880 Y139.580 F1000
G1 X125.880 Y140.620 F1000
G1 X125.620 Y140.880 F1000
G1 X125.620 Y141.920 F1000
G1 X125.360 Y142.180 F1000
G1 X125.360 Y143.220 F1000
G1 X125.100 Y143.480 F1000
G1 X125.100 Y144.520 F1000
G1 X124.840 Y144.780 F1000
G1 X124.840 Y145.820 F1000
G1 X124.580 Y146.080 F1000
G1 X124.580 Y147.120 F1000
G1 X124.320 Y147.380 F1000
G1 X124.320 Y148.420 F1000
G1 X124.060 Y148.680 F1000
G1 X124.060 Y149.720 F1000
G1 X123.800 Y149.980 F1000
G1 X123.800 Y151.020 F1000
G1 X123.540 Y151.280 F1000
G1 X123.540 Y152.320 F1000
G1 X123.280 Y152.580 F1000
G1 X123.280 Y153.620 F1000
G1 X123.020 Y153.880 F1000
G1 X123.020 Y154.920 F1000
G1 X122.760 Y155.180 F1000
G1 X122.760 Y156.220 F1000
G1 X122.500 Y156.480 F1000
G1 X122.500 Y157.520 F1000
G1 X122.240 Y157.780 F1000
G1 X122.240 Y158.820 F1000
G1 X121.980 Y159.080 F1000
G1 X121.980 Y160.120 F1000
G1 X121.720 Y160.380 F1000
G1 X121.720 Y161.420 F1000
G1 X121.460 Y161.680 F1000
G1 X121.460 Y162.720 F1000
G1 X121.200 Y162.980 F1000
G1 X121.200 Y164.020 F1000
G1 X120.940 Y164.280 F1000
G1 X120.940 Y165.320 F1000
G1 X120.680 Y165.580 F1000
G1 X120.680 Y166.620 F1000
G1 X120.420 Y166.880 F1000
G1 X120.420 Y167.920 F1000
G1 X120.160 Y168.180 F1000
G1 X120.160 Y169.220 F1000
G1 X119.900 Y169.480 F1000
G1 X119.900 Y170.520 F1000
G1 X119.640 Y170.780 F1000
G1 X119.640 Y171.820 F1000
G1 X119.380 Y172.080 F1000
G1 X119.380 Y173.120 F1000
G1 X119.120 Y173.380 F1000
G1 X119.120 Y174.420 F1000
G1 X118.860 Y174.680 F1000
G1 X118.860 Y175.720 F1000
G1 X118.600 Y175.980 F1000
G1 X118.600 Y177.020 F1000
G1 X118.340 Y177.280 F1000
G1 X118.340 Y178.320 F1000
G1 X118.080 Y178.580 F1000
G1 X118.080 Y179.620 F1000
G1 X117.820 Y179.880 F1000
G1 X117.820 Y180.920 F1000
G1 X117.560 Y181.180 F1000
G1 X117.560 Y182.220 F1000
G1 X117.300 Y182.480 F1000
G1 X117.300 Y183.000 F1000
G1 X106.900 Y183.000 F1000
G0 Z3.0 ; Pen up

G0 X108.460 Y183.000 F3000 ; Travel to line 181
G0 Z0.0 ; Pen down
G1 X119.640 Y172.080 F1000
G0 Z3.0 ; Pen up

G0 X119.120 Y174.680 F3000 ; Travel to line 182
G0 Z0.0 ; Pen down
G1 X110.540 Y183.000 F1000
G0 Z3.0 ; Pen up

G0 X112.880 Y183.000 F3000 ; Travel to line 183
G0 Z0.0 ; Pen down
G1 X118.600 Y177.540 F1000
G0 Z3.0 ; Pen up

G0 X118.080 Y180.140 F3000 ; Travel to line 184
G0 Z0.0 ; Pen down
G1 X114.960 Y183.000 F1000
G0 Z3.0 ; Pen up

G0 X117.040 Y183.000 F3000 ; Travel to line 185
G0 Z0.0 ; Pen down
G1 X117.560 Y182.740 F1000
G0 Z3.0 ; Pen up

G0 X135.760 Y119.820 F3000 ; Travel to line 186
G0 Z0.0 ; Pen down
G1 X138.620 Y116.960 F1000
G0 Z3.0 ; Pen up

G0 X138.880 Y116.960 F3000 ; Travel to line 187
G0 Z0.0 ; Pen down
G1 X135.760 Y119.820 F1000
G0 Z3.0 ; Pen up

; Return to origin
G0 X0 Y0
G0 Z3.0

; Total drawing distance: 9271.39 mm
; Total travel distance: 615.61 mm
; Total lines: 187
; Estimated time: 568.6 seconds (9.5 minutes)
M2 ; End program