; Blueprint to G-code
; Input: crescent_spiral_test.png
; Generated with blueprint2gcode.py
;
; Generation Parameters:
;   Paper size: A4 (210x297mm)
;   Orientation: landscape
;   Margin: 1.0mm
;   Z up: 3.0mm
;   Z down: 0.0mm
;   Feed rate: 1000mm/min
;   Travel rate: 3000mm/min
;   Join tolerance: 0.02mm
;   Min line length: 0.01mm
;   Simplify epsilon: 0.000001
;   Fill solid areas: True
;   Hatch spacing: 1.5px
;   Hatch angle: 45.0°
;   Crosshatch: False
;   Min solid area: 1.0px²
;   Invert colors: False

G21 ; Set units to millimeters
G90 ; Absolute positioning
G0 Z3.0 ; Pen up
G0 X0 Y0 ; Move to origin

G0 X80.484 Y44.888 F3000 ; Travel to line 1
G0 Z0.0 ; Pen down
G1 X80.692 Y44.680 F1000
G0 Z3.0 ; Pen up

G0 X80.900 Y45.096 F3000 ; Travel to line 2
G0 Z0.0 ; Pen down
G1 X80.692 Y45.304 F1000
G0 Z3.0 ; Pen up

G0 X88.388 Y36.984 F3000 ; Travel to line 3
G0 Z0.0 ; Pen down
G1 X88.596 Y36.776 F1000
G0 Z3.0 ; Pen up

G0 X89.012 Y36.984 F3000 ; Travel to line 4
G0 Z0.0 ; Pen down
G1 X88.804 Y37.192 F1000
G0 Z3.0 ; Pen up

G0 X90.676 Y36.152 F3000 ; Travel to line 5
G0 Z0.0 ; Pen down
G1 X90.884 Y35.944 F1000
G0 Z3.0 ; Pen up

G0 X102.324 Y36.152 F3000 ; Travel to line 6
G0 Z0.0 ; Pen down
G1 X102.532 Y35.944 F1000
G0 Z3.0 ; Pen up

G0 X104.196 Y37.192 F3000 ; Travel to line 7
G0 Z0.0 ; Pen down
G1 X104.404 Y36.984 F1000
G0 Z3.0 ; Pen up

G0 X104.612 Y36.984 F3000 ; Travel to line 8
G0 Z0.0 ; Pen down
G1 X104.820 Y36.776 F1000
G0 Z3.0 ; Pen up

G0 X112.724 Y44.680 F3000 ; Travel to line 9
G0 Z0.0 ; Pen down
G1 X112.516 Y44.888 F1000
G0 Z3.0 ; Pen up

G0 X112.516 Y45.096 F3000 ; Travel to line 10
G0 Z0.0 ; Pen down
G1 X112.308 Y45.304 F1000
G0 Z3.0 ; Pen up

G0 X113.556 Y46.968 F3000 ; Travel to line 11
G0 Z0.0 ; Pen down
G1 X113.348 Y47.176 F1000
G0 Z3.0 ; Pen up

G0 X113.556 Y58.616 F3000 ; Travel to line 12
G0 Z0.0 ; Pen down
G1 X113.348 Y58.824 F1000
G0 Z3.0 ; Pen up

G0 X111.892 Y59.240 F3000 ; Travel to line 13
G0 Z0.0 ; Pen down
G1 X112.100 Y59.032 F1000
G1 X112.932 Y59.032 F1000
G1 X112.100 Y59.032 F1000
G1 X111.892 Y59.240 F1000
G1 X110.852 Y59.240 F1000
G1 X110.644 Y59.032 F1000
G1 X110.020 Y59.032 F1000
G1 X109.812 Y58.824 F1000
G1 X109.604 Y58.824 F1000
G1 X109.396 Y58.616 F1000
G1 X109.188 Y58.616 F1000
G1 X108.980 Y58.408 F1000
G1 X108.564 Y58.408 F1000
G1 X108.148 Y57.992 F1000
G1 X107.940 Y57.992 F1000
G1 X107.108 Y57.160 F1000
G1 X107.108 Y56.952 F1000
G1 X106.276 Y56.120 F1000
G1 X106.276 Y55.912 F1000
G1 X106.068 Y55.704 F1000
G1 X106.068 Y55.496 F1000
G1 X105.860 Y55.288 F1000
G1 X105.860 Y54.872 F1000
G1 X105.652 Y54.664 F1000
G1 X105.652 Y54.456 F1000
G1 X105.444 Y54.248 F1000
G1 X105.444 Y51.752 F1000
G1 X105.652 Y51.544 F1000
G1 X105.652 Y51.336 F1000
G1 X105.860 Y51.128 F1000
G1 X105.860 Y50.712 F1000
G1 X106.068 Y50.504 F1000
G1 X106.068 Y50.296 F1000
G1 X106.276 Y50.088 F1000
G1 X106.276 Y49.256 F1000
G1 X106.484 Y49.048 F1000
G1 X106.692 Y49.048 F1000
G1 X106.900 Y48.840 F1000
G1 X107.940 Y48.840 F1000
G1 X108.148 Y48.632 F1000
G1 X108.564 Y48.632 F1000
G1 X108.772 Y48.424 F1000
G1 X109.188 Y48.424 F1000
G1 X109.396 Y48.216 F1000
G1 X109.604 Y48.216 F1000
G1 X109.812 Y48.008 F1000
G1 X110.020 Y48.008 F1000
G1 X111.060 Y46.968 F1000
G1 X112.932 Y46.968 F1000
G1 X111.892 Y46.968 F1000
G1 X111.684 Y46.760 F1000
G1 X111.684 Y46.136 F1000
G1 X111.684 Y46.760 F1000
G1 X111.476 Y46.968 F1000
G1 X111.060 Y46.968 F1000
G1 X110.228 Y47.800 F1000
G1 X110.020 Y47.800 F1000
G1 X109.604 Y48.216 F1000
G1 X109.396 Y48.216 F1000
G1 X109.188 Y48.424 F1000
G1 X108.564 Y48.424 F1000
G1 X108.356 Y48.632 F1000
G1 X108.148 Y48.632 F1000
G1 X107.940 Y48.840 F1000
G1 X106.900 Y48.840 F1000
G1 X106.692 Y49.048 F1000
G1 X106.276 Y49.048 F1000
G1 X106.068 Y48.840 F1000
G1 X105.652 Y48.840 F1000
G1 X105.444 Y48.632 F1000
G1 X104.820 Y48.632 F1000
G1 X104.612 Y48.424 F1000
G1 X104.404 Y48.424 F1000
G1 X104.196 Y48.216 F1000
G1 X103.988 Y48.216 F1000
G1 X103.780 Y48.008 F1000
G1 X103.572 Y48.008 F1000
G1 X101.492 Y45.928 F1000
G1 X101.492 Y45.720 F1000
G1 X101.284 Y45.512 F1000
G1 X101.284 Y45.304 F1000
G1 X101.076 Y45.096 F1000
G1 X101.076 Y44.888 F1000
G1 X100.868 Y44.680 F1000
G1 X100.868 Y44.056 F1000
G1 X100.660 Y43.848 F1000
G1 X100.660 Y43.432 F1000
G1 X100.452 Y43.224 F1000
G1 X100.452 Y42.808 F1000
G1 X100.660 Y42.600 F1000
G1 X100.660 Y42.392 F1000
G1 X101.284 Y41.768 F1000
G1 X101.284 Y41.560 F1000
G1 X101.908 Y40.936 F1000
G1 X101.908 Y40.728 F1000
G1 X102.116 Y40.520 F1000
G1 X102.116 Y40.312 F1000
G1 X102.324 Y40.104 F1000
G1 X102.324 Y39.480 F1000
G1 X102.532 Y39.272 F1000
G1 X102.532 Y38.024 F1000
G1 X102.740 Y37.816 F1000
G1 X103.364 Y37.816 F1000
G1 X102.740 Y37.816 F1000
G1 X102.532 Y37.608 F1000
G1 X102.532 Y36.568 F1000
G1 X102.532 Y39.272 F1000
G1 X102.324 Y39.480 F1000
G1 X102.324 Y39.896 F1000
G1 X102.116 Y40.104 F1000
G1 X102.116 Y40.312 F1000
G1 X101.908 Y40.520 F1000
G1 X101.908 Y40.936 F1000
G1 X101.284 Y41.560 F1000
G1 X101.284 Y41.768 F1000
G1 X100.660 Y42.392 F1000
G1 X100.660 Y42.600 F1000
G1 X100.452 Y42.808 F1000
G1 X100.452 Y43.016 F1000
G1 X100.244 Y43.224 F1000
G1 X99.412 Y43.224 F1000
G1 X99.204 Y43.432 F1000
G1 X98.996 Y43.432 F1000
G1 X98.788 Y43.640 F1000
G1 X98.372 Y43.640 F1000
G1 X98.164 Y43.848 F1000
G1 X97.956 Y43.848 F1000
G1 X97.748 Y44.056 F1000
G1 X95.252 Y44.056 F1000
G1 X95.044 Y43.848 F1000
G1 X94.836 Y43.848 F1000
G1 X94.628 Y43.640 F1000
G1 X94.212 Y43.640 F1000
G1 X94.004 Y43.432 F1000
G1 X93.796 Y43.432 F1000
G1 X93.588 Y43.224 F1000
G1 X92.756 Y43.224 F1000
G1 X92.340 Y42.808 F1000
G1 X92.340 Y42.392 F1000
G1 X92.132 Y42.184 F1000
G1 X92.132 Y40.936 F1000
G1 X91.924 Y40.728 F1000
G1 X91.924 Y40.312 F1000
G1 X91.508 Y39.896 F1000
G1 X91.508 Y39.688 F1000
G1 X91.300 Y39.480 F1000
G1 X91.300 Y39.272 F1000
G1 X90.468 Y38.440 F1000
G1 X90.468 Y38.232 F1000
G1 X90.260 Y38.024 F1000
G1 X90.260 Y37.608 F1000
G1 X90.468 Y37.400 F1000
G1 X90.468 Y36.568 F1000
G1 X90.468 Y37.400 F1000
G1 X90.052 Y37.816 F1000
G1 X89.636 Y37.816 F1000
G1 X90.052 Y37.816 F1000
G1 X90.468 Y38.232 F1000
G1 X90.468 Y38.440 F1000
G1 X91.092 Y39.064 F1000
G1 X91.092 Y39.272 F1000
G1 X91.508 Y39.688 F1000
G1 X91.508 Y39.896 F1000
G1 X91.924 Y40.312 F1000
G1 X91.924 Y40.936 F1000
G1 X92.132 Y41.144 F1000
G1 X92.132 Y42.184 F1000
G1 X92.340 Y42.392 F1000
G1 X92.340 Y42.808 F1000
G1 X92.548 Y43.016 F1000
G1 X92.340 Y43.224 F1000
G1 X92.340 Y43.640 F1000
G1 X92.132 Y43.848 F1000
G1 X92.132 Y44.472 F1000
G1 X91.924 Y44.680 F1000
G1 X91.924 Y44.888 F1000
G1 X91.716 Y45.096 F1000
G1 X91.716 Y45.512 F1000
G1 X91.300 Y45.928 F1000
G1 X91.300 Y46.136 F1000
G1 X89.428 Y48.008 F1000
G1 X89.220 Y48.008 F1000
G1 X89.012 Y48.216 F1000
G1 X88.804 Y48.216 F1000
G1 X88.596 Y48.424 F1000
G1 X88.388 Y48.424 F1000
G1 X88.180 Y48.632 F1000
G1 X87.556 Y48.632 F1000
G1 X87.348 Y48.840 F1000
G1 X85.060 Y48.840 F1000
G1 X84.852 Y48.632 F1000
G1 X84.644 Y48.632 F1000
G1 X84.436 Y48.424 F1000
G1 X83.812 Y48.424 F1000
G1 X83.604 Y48.216 F1000
G1 X83.396 Y48.216 F1000
G1 X82.980 Y47.800 F1000
G1 X82.772 Y47.800 F1000
G1 X81.316 Y46.344 F1000
G1 X81.316 Y46.136 F1000
G1 X81.316 Y46.552 F1000
G1 X81.732 Y46.968 F1000
G1 X81.940 Y46.968 F1000
G1 X82.980 Y48.008 F1000
G1 X83.188 Y48.008 F1000
G1 X83.396 Y48.216 F1000
G1 X83.604 Y48.216 F1000
G1 X83.812 Y48.424 F1000
G1 X84.228 Y48.424 F1000
G1 X84.436 Y48.632 F1000
G1 X84.852 Y48.632 F1000
G1 X85.060 Y48.840 F1000
G1 X87.348 Y48.840 F1000
G1 X87.556 Y48.632 F1000
G1 X88.180 Y48.632 F1000
G1 X88.388 Y48.424 F1000
G1 X88.596 Y48.424 F1000
G1 X88.804 Y48.216 F1000
G1 X89.012 Y48.216 F1000
G1 X89.220 Y48.008 F1000
G1 X89.428 Y48.008 F1000
G1 X90.052 Y47.384 F1000
G1 X90.260 Y47.384 F1000
G1 X90.676 Y46.968 F1000
G1 X90.676 Y46.760 F1000
G1 X91.300 Y46.136 F1000
G1 X91.300 Y45.928 F1000
G1 X91.716 Y45.512 F1000
G1 X91.716 Y45.096 F1000
G1 X91.924 Y44.888 F1000
G1 X91.924 Y44.680 F1000
G1 X92.132 Y44.472 F1000
G1 X92.132 Y43.848 F1000
G1 X92.340 Y43.640 F1000
G1 X92.340 Y43.224 F1000
G1 X92.548 Y43.016 F1000
G1 X92.756 Y43.224 F1000
G1 X93.588 Y43.224 F1000
G1 X94.004 Y43.640 F1000
G1 X94.628 Y43.640 F1000
G1 X94.836 Y43.848 F1000
G1 X95.044 Y43.848 F1000
G1 X95.252 Y44.056 F1000
G1 X97.748 Y44.056 F1000
G1 X97.956 Y43.848 F1000
G1 X98.164 Y43.848 F1000
G1 X98.372 Y43.640 F1000
G1 X98.996 Y43.640 F1000
G1 X99.412 Y43.224 F1000
G1 X100.452 Y43.224 F1000
G1 X100.660 Y43.432 F1000
G1 X100.660 Y43.848 F1000
G1 X100.868 Y44.056 F1000
G1 X100.868 Y44.680 F1000
G1 X101.076 Y44.888 F1000
G1 X101.076 Y45.096 F1000
G1 X101.284 Y45.304 F1000
G1 X101.284 Y45.512 F1000
G1 X101.492 Y45.720 F1000
G1 X101.492 Y45.928 F1000
G1 X102.116 Y46.552 F1000
G1 X102.116 Y46.760 F1000
G1 X102.740 Y47.384 F1000
G1 X102.948 Y47.384 F1000
G1 X103.572 Y48.008 F1000
G1 X103.780 Y48.008 F1000
G1 X103.988 Y48.216 F1000
G1 X104.196 Y48.216 F1000
G1 X104.404 Y48.424 F1000
G1 X104.612 Y48.424 F1000
G1 X104.820 Y48.632 F1000
G1 X105.444 Y48.632 F1000
G1 X105.652 Y48.840 F1000
G1 X106.068 Y48.840 F1000
G1 X106.276 Y49.048 F1000
G1 X106.276 Y50.088 F1000
G1 X105.860 Y50.504 F1000
G1 X105.860 Y51.128 F1000
G1 X105.652 Y51.336 F1000
G1 X105.652 Y51.544 F1000
G1 X105.444 Y51.752 F1000
G1 X105.444 Y54.248 F1000
G1 X105.652 Y54.456 F1000
G1 X105.652 Y54.664 F1000
G1 X105.860 Y54.872 F1000
G1 X105.860 Y55.496 F1000
G1 X106.276 Y55.912 F1000
G1 X106.276 Y56.120 F1000
G1 X106.484 Y56.328 F1000
G1 X106.484 Y56.536 F1000
G1 X107.940 Y57.992 F1000
G1 X108.148 Y57.992 F1000
G1 X108.564 Y58.408 F1000
G1 X108.772 Y58.408 F1000
G1 X108.980 Y58.616 F1000
G1 X109.188 Y58.616 F1000
G1 X109.396 Y58.824 F1000
G1 X109.812 Y58.824 F1000
G1 X110.020 Y59.032 F1000
G1 X110.644 Y59.032 F1000
G1 X110.852 Y59.240 F1000
G0 Z3.0 ; Pen up

G0 X150.580 Y45.928 F3000 ; Travel to line 14
G0 Z0.0 ; Pen down
G1 X150.580 Y44.680 F1000
G1 X150.788 Y44.472 F1000
G1 X150.788 Y43.432 F1000
G1 X150.996 Y43.224 F1000
G1 X150.996 Y42.808 F1000
G1 X151.204 Y42.600 F1000
G1 X151.204 Y41.768 F1000
G1 X151.412 Y41.560 F1000
G1 X151.412 Y41.144 F1000
G1 X151.620 Y40.936 F1000
G1 X151.620 Y40.728 F1000
G1 X151.828 Y40.520 F1000
G1 X151.828 Y40.104 F1000
G1 X152.036 Y39.896 F1000
G1 X152.036 Y39.688 F1000
G1 X152.244 Y39.480 F1000
G1 X152.244 Y39.272 F1000
G1 X152.452 Y39.064 F1000
G1 X152.452 Y38.856 F1000
G1 X152.868 Y38.440 F1000
G1 X152.868 Y38.232 F1000
G1 X153.076 Y38.024 F1000
G1 X153.076 Y37.816 F1000
G1 X153.492 Y37.400 F1000
G1 X153.492 Y37.192 F1000
G1 X153.908 Y36.776 F1000
G1 X153.908 Y36.568 F1000
G1 X154.948 Y35.528 F1000
G1 X154.948 Y35.320 F1000
G1 X156.612 Y33.656 F1000
G1 X156.820 Y33.656 F1000
G1 X158.068 Y32.408 F1000
G1 X158.276 Y32.408 F1000
G1 X158.692 Y31.992 F1000
G1 X158.900 Y31.992 F1000
G1 X159.316 Y31.576 F1000
G1 X159.524 Y31.576 F1000
G1 X159.732 Y31.368 F1000
G1 X159.940 Y31.368 F1000
G1 X160.148 Y31.160 F1000
G1 X159.940 Y31.368 F1000
G1 X159.732 Y31.368 F1000
G1 X159.316 Y31.784 F1000
G1 X159.108 Y31.784 F1000
G1 X158.692 Y32.200 F1000
G1 X158.484 Y32.200 F1000
G1 X158.068 Y32.616 F1000
G1 X157.860 Y32.616 F1000
G1 X156.820 Y33.656 F1000
G1 X156.612 Y33.656 F1000
G1 X155.364 Y34.904 F1000
G1 X155.364 Y35.112 F1000
G1 X154.116 Y36.360 F1000
G1 X154.116 Y36.568 F1000
G1 X153.700 Y36.984 F1000
G1 X153.700 Y37.192 F1000
G1 X153.284 Y37.608 F1000
G1 X153.284 Y37.816 F1000
G1 X152.868 Y38.232 F1000
G1 X152.868 Y38.440 F1000
G1 X152.660 Y38.648 F1000
G1 X152.660 Y38.856 F1000
G1 X152.452 Y39.064 F1000
G1 X152.452 Y39.272 F1000
G1 X152.244 Y39.480 F1000
G1 X152.244 Y39.688 F1000
G1 X152.036 Y39.896 F1000
G1 X152.036 Y40.104 F1000
G1 X151.828 Y40.312 F1000
G1 X151.828 Y40.520 F1000
G1 X151.620 Y40.728 F1000
G1 X151.620 Y41.144 F1000
G1 X151.412 Y41.352 F1000
G1 X151.412 Y41.768 F1000
G1 X151.204 Y41.976 F1000
G1 X151.204 Y42.600 F1000
G1 X150.996 Y42.808 F1000
G1 X150.996 Y43.432 F1000
G1 X150.788 Y43.640 F1000
G1 X150.788 Y44.472 F1000
G1 X150.580 Y44.680 F1000
G0 Z3.0 ; Pen up

G0 X162.228 Y39.064 F3000 ; Travel to line 15
G0 Z0.0 ; Pen down
G1 X162.644 Y38.648 F1000
G1 X163.476 Y38.232 F1000
G1 X163.268 Y38.232 F1000
G1 X162.228 Y39.064 F1000
G0 Z3.0 ; Pen up

G0 X163.476 Y38.232 F3000 ; Travel to line 16
G0 Z0.0 ; Pen down
G1 X163.684 Y38.024 F1000
G0 Z3.0 ; Pen up

G0 X163.892 Y38.024 F3000 ; Travel to line 17
G0 Z0.0 ; Pen down
G1 X164.308 Y37.816 F1000
G1 X163.892 Y38.024 F1000
G0 Z3.0 ; Pen up

G0 X164.308 Y37.816 F3000 ; Travel to line 18
G0 Z0.0 ; Pen down
G1 X164.516 Y37.608 F1000
G0 Z3.0 ; Pen up

G0 X164.724 Y37.608 F3000 ; Travel to line 19
G0 Z0.0 ; Pen down
G1 X164.932 Y37.400 F1000
G1 X165.764 Y37.192 F1000
G1 X164.932 Y37.400 F1000
G1 X164.724 Y37.608 F1000
G0 Z3.0 ; Pen up

G0 X165.764 Y37.192 F3000 ; Travel to line 20
G0 Z0.0 ; Pen down
G1 X165.972 Y36.984 F1000
G0 Z3.0 ; Pen up

G0 X166.180 Y36.984 F3000 ; Travel to line 21
G0 Z0.0 ; Pen down
G1 X167.220 Y36.984 F1000
G0 Z3.0 ; Pen up

G0 X167.428 Y36.776 F3000 ; Travel to line 22
G0 Z0.0 ; Pen down
G1 X169.300 Y36.776 F1000
G0 Z3.0 ; Pen up

G0 X169.716 Y36.984 F3000 ; Travel to line 23
G0 Z0.0 ; Pen down
G1 X170.548 Y36.984 F1000
G0 Z3.0 ; Pen up

G0 X170.964 Y37.192 F3000 ; Travel to line 24
G0 Z0.0 ; Pen down
G1 X171.380 Y37.192 F1000
G1 X170.964 Y37.192 F1000
G0 Z3.0 ; Pen up

G0 X171.380 Y37.192 F3000 ; Travel to line 25
G0 Z0.0 ; Pen down
G1 X171.588 Y36.984 F1000
G0 Z3.0 ; Pen up

G0 X171.796 Y37.400 F3000 ; Travel to line 26
G0 Z0.0 ; Pen down
G1 X172.004 Y37.400 F1000
G1 X171.796 Y37.400 F1000
G0 Z3.0 ; Pen up

G0 X172.004 Y37.400 F3000 ; Travel to line 27
G0 Z0.0 ; Pen down
G1 X172.212 Y37.192 F1000
G0 Z3.0 ; Pen up

G0 X172.420 Y37.608 F3000 ; Travel to line 28
G0 Z0.0 ; Pen down
G1 X172.628 Y37.608 F1000
G1 X172.420 Y37.608 F1000
G0 Z3.0 ; Pen up

G0 X172.628 Y37.608 F3000 ; Travel to line 29
G0 Z0.0 ; Pen down
G1 X172.836 Y37.400 F1000
G0 Z3.0 ; Pen up

G0 X173.668 Y38.232 F3000 ; Travel to line 30
G0 Z0.0 ; Pen down
G1 X173.876 Y38.024 F1000
G0 Z3.0 ; Pen up

G0 X173.668 Y38.232 F3000 ; Travel to line 31
G0 Z0.0 ; Pen down
G1 X173.044 Y37.816 F1000
G1 X173.668 Y38.232 F1000
G0 Z3.0 ; Pen up

G0 X175.540 Y34.904 F3000 ; Travel to line 32
G0 Z0.0 ; Pen down
G1 X175.748 Y34.696 F1000
G0 Z3.0 ; Pen up

G0 X175.332 Y34.488 F3000 ; Travel to line 33
G0 Z0.0 ; Pen down
G1 X175.124 Y34.696 F1000
G0 Z3.0 ; Pen up

G0 X174.708 Y34.488 F3000 ; Travel to line 34
G0 Z0.0 ; Pen down
G1 X174.916 Y34.280 F1000
G0 Z3.0 ; Pen up

G0 X174.708 Y34.488 F3000 ; Travel to line 35
G0 Z0.0 ; Pen down
G1 X174.500 Y34.280 F1000
G1 X174.708 Y34.488 F1000
G0 Z3.0 ; Pen up

G0 X174.084 Y34.072 F3000 ; Travel to line 36
G0 Z0.0 ; Pen down
G1 X174.292 Y33.864 F1000
G0 Z3.0 ; Pen up

G0 X173.876 Y33.656 F3000 ; Travel to line 37
G0 Z0.0 ; Pen down
G1 X173.668 Y33.864 F1000
G0 Z3.0 ; Pen up

G0 X173.252 Y33.864 F3000 ; Travel to line 38
G0 Z0.0 ; Pen down
G1 X173.668 Y33.864 F1000
G1 X173.252 Y33.864 F1000
G0 Z3.0 ; Pen up

G0 X172.836 Y33.656 F3000 ; Travel to line 39
G0 Z0.0 ; Pen down
G1 X173.044 Y33.448 F1000
G0 Z3.0 ; Pen up

G0 X172.628 Y33.240 F3000 ; Travel to line 40
G0 Z0.0 ; Pen down
G1 X172.420 Y33.448 F1000
G0 Z3.0 ; Pen up

G0 X172.004 Y33.448 F3000 ; Travel to line 41
G0 Z0.0 ; Pen down
G1 X172.420 Y33.448 F1000
G1 X172.004 Y33.448 F1000
G0 Z3.0 ; Pen up

G0 X171.588 Y33.240 F3000 ; Travel to line 42
G0 Z0.0 ; Pen down
G1 X171.796 Y33.032 F1000
G0 Z3.0 ; Pen up

G0 X171.172 Y33.240 F3000 ; Travel to line 43
G0 Z0.0 ; Pen down
G1 X171.588 Y33.240 F1000
G1 X171.172 Y33.240 F1000
G0 Z3.0 ; Pen up

G0 X170.756 Y33.032 F3000 ; Travel to line 44
G0 Z0.0 ; Pen down
G1 X166.804 Y33.032 F1000
G0 Z3.0 ; Pen up

G0 X166.804 Y33.032 F3000 ; Travel to line 45
G0 Z0.0 ; Pen down
G1 X170.756 Y33.032 F1000
G1 X166.804 Y33.032 F1000
G0 Z3.0 ; Pen up

G0 X166.388 Y33.240 F3000 ; Travel to line 46
G0 Z0.0 ; Pen down
G1 X165.556 Y33.240 F1000
G0 Z3.0 ; Pen up

G0 X165.556 Y33.240 F3000 ; Travel to line 47
G0 Z0.0 ; Pen down
G1 X166.388 Y33.240 F1000
G1 X165.556 Y33.240 F1000
G0 Z3.0 ; Pen up

G0 X165.348 Y33.240 F3000 ; Travel to line 48
G0 Z0.0 ; Pen down
G1 X165.140 Y33.448 F1000
G0 Z3.0 ; Pen up

G0 X164.100 Y33.656 F3000 ; Travel to line 49
G0 Z0.0 ; Pen down
G1 X164.516 Y33.448 F1000
G1 X165.140 Y33.448 F1000
G1 X164.516 Y33.448 F1000
G1 X164.100 Y33.656 F1000
G0 Z3.0 ; Pen up

G0 X163.892 Y33.656 F3000 ; Travel to line 50
G0 Z0.0 ; Pen down
G1 X163.684 Y33.864 F1000
G0 Z3.0 ; Pen up

G0 X163.476 Y33.864 F3000 ; Travel to line 51
G0 Z0.0 ; Pen down
G1 X163.684 Y33.864 F1000
G1 X163.476 Y33.864 F1000
G0 Z3.0 ; Pen up

G0 X163.268 Y33.864 F3000 ; Travel to line 52
G0 Z0.0 ; Pen down
G1 X163.060 Y34.072 F1000
G0 Z3.0 ; Pen up

G0 X162.644 Y34.280 F3000 ; Travel to line 53
G0 Z0.0 ; Pen down
G1 X163.060 Y34.072 F1000
G1 X162.644 Y34.280 F1000
G0 Z3.0 ; Pen up

G0 X162.436 Y34.280 F3000 ; Travel to line 54
G0 Z0.0 ; Pen down
G1 X162.228 Y34.488 F1000
G0 Z3.0 ; Pen up

G0 X162.020 Y34.488 F3000 ; Travel to line 55
G0 Z0.0 ; Pen down
G1 X161.812 Y34.696 F1000
G0 Z3.0 ; Pen up

G0 X161.604 Y34.696 F3000 ; Travel to line 56
G0 Z0.0 ; Pen down
G1 X161.188 Y35.112 F1000
G0 Z3.0 ; Pen up

G0 X160.356 Y35.736 F3000 ; Travel to line 57
G0 Z0.0 ; Pen down
G1 X161.396 Y34.904 F1000
G1 X160.356 Y35.736 F1000
G0 Z3.0 ; Pen up

G0 X160.772 Y30.952 F3000 ; Travel to line 58
G0 Z0.0 ; Pen down
G1 X160.980 Y30.744 F1000
G0 Z3.0 ; Pen up

G0 X161.188 Y30.744 F3000 ; Travel to line 59
G0 Z0.0 ; Pen down
G1 X161.812 Y30.328 F1000
G1 X162.228 Y30.328 F1000
G1 X161.812 Y30.328 F1000
G1 X161.188 Y30.744 F1000
G0 Z3.0 ; Pen up

G0 X162.228 Y30.328 F3000 ; Travel to line 60
G0 Z0.0 ; Pen down
G1 X162.436 Y30.120 F1000
G0 Z3.0 ; Pen up

G0 X162.852 Y30.120 F3000 ; Travel to line 61
G0 Z0.0 ; Pen down
G1 X163.060 Y29.912 F1000
G0 Z3.0 ; Pen up

G0 X163.268 Y29.912 F3000 ; Travel to line 62
G0 Z0.0 ; Pen down
G1 X163.476 Y29.704 F1000
G0 Z3.0 ; Pen up

G0 X163.892 Y29.704 F3000 ; Travel to line 63
G0 Z0.0 ; Pen down
G1 X164.100 Y29.496 F1000
G0 Z3.0 ; Pen up

G0 X164.516 Y29.496 F3000 ; Travel to line 64
G0 Z0.0 ; Pen down
G1 X164.932 Y29.496 F1000
G1 X164.516 Y29.496 F1000
G0 Z3.0 ; Pen up

G0 X164.932 Y29.496 F3000 ; Travel to line 65
G0 Z0.0 ; Pen down
G1 X165.140 Y29.288 F1000
G0 Z3.0 ; Pen up

G0 X165.556 Y29.288 F3000 ; Travel to line 66
G0 Z0.0 ; Pen down
G1 X166.596 Y29.288 F1000
G0 Z3.0 ; Pen up

G0 X167.220 Y29.080 F3000 ; Travel to line 67
G0 Z0.0 ; Pen down
G1 X169.924 Y29.080 F1000
G0 Z3.0 ; Pen up

G0 X170.548 Y29.288 F3000 ; Travel to line 68
G0 Z0.0 ; Pen down
G1 X171.796 Y29.288 F1000
G0 Z3.0 ; Pen up

G0 X172.212 Y29.496 F3000 ; Travel to line 69
G0 Z0.0 ; Pen down
G1 X172.836 Y29.496 F1000
G1 X172.212 Y29.496 F1000
G0 Z3.0 ; Pen up

G0 X172.836 Y29.496 F3000 ; Travel to line 70
G0 Z0.0 ; Pen down
G1 X173.044 Y29.288 F1000
G0 Z3.0 ; Pen up

G0 X173.252 Y29.704 F3000 ; Travel to line 71
G0 Z0.0 ; Pen down
G1 X173.460 Y29.496 F1000
G0 Z3.0 ; Pen up

G0 X173.876 Y29.912 F3000 ; Travel to line 72
G0 Z0.0 ; Pen down
G1 X174.084 Y29.704 F1000
G0 Z3.0 ; Pen up

G0 X174.500 Y29.912 F3000 ; Travel to line 73
G0 Z0.0 ; Pen down
G1 X174.292 Y30.120 F1000
G0 Z3.0 ; Pen up

G0 X174.916 Y30.328 F3000 ; Travel to line 74
G0 Z0.0 ; Pen down
G1 X175.124 Y30.120 F1000
G0 Z3.0 ; Pen up

G0 X175.540 Y30.328 F3000 ; Travel to line 75
G0 Z0.0 ; Pen down
G1 X175.332 Y30.536 F1000
G0 Z3.0 ; Pen up

G0 X175.956 Y30.744 F3000 ; Travel to line 76
G0 Z0.0 ; Pen down
G1 X176.164 Y30.536 F1000
G0 Z3.0 ; Pen up

G0 X176.580 Y30.744 F3000 ; Travel to line 77
G0 Z0.0 ; Pen down
G1 X176.372 Y30.952 F1000
G0 Z3.0 ; Pen up

G0 X177.204 Y31.160 F3000 ; Travel to line 78
G0 Z0.0 ; Pen down
G1 X177.204 Y31.368 F1000
G0 Z3.0 ; Pen up

G0 X178.452 Y32.200 F3000 ; Travel to line 79
G0 Z0.0 ; Pen down
G1 X178.660 Y31.992 F1000
G0 Z3.0 ; Pen up

G0 X178.452 Y32.200 F3000 ; Travel to line 80
G0 Z0.0 ; Pen down
G1 X176.996 Y31.160 F1000
G1 X178.452 Y32.200 F1000
G0 Z3.0 ; Pen up

G0 X179.076 Y32.616 F3000 ; Travel to line 81
G0 Z0.0 ; Pen down
G1 X179.284 Y32.408 F1000
G0 Z3.0 ; Pen up

G0 X179.076 Y32.616 F3000 ; Travel to line 82
G0 Z0.0 ; Pen down
G1 X178.868 Y32.408 F1000
G1 X179.076 Y32.616 F1000
G0 Z3.0 ; Pen up

G0 X176.372 Y35.112 F3000 ; Travel to line 83
G0 Z0.0 ; Pen down
G1 X176.164 Y35.320 F1000
G0 Z3.0 ; Pen up

G0 X176.164 Y35.320 F3000 ; Travel to line 84
G0 Z0.0 ; Pen down
G1 X175.956 Y35.112 F1000
G1 X176.164 Y35.320 F1000
G0 Z3.0 ; Pen up

G0 X169.716 Y36.984 F3000 ; Travel to line 85
G0 Z0.0 ; Pen down
G1 X170.548 Y36.984 F1000
G1 X169.716 Y36.984 F1000
G0 Z3.0 ; Pen up

G0 X166.180 Y36.984 F3000 ; Travel to line 86
G0 Z0.0 ; Pen down
G1 X167.220 Y36.984 F1000
G1 X167.428 Y36.776 F1000
G1 X169.300 Y36.776 F1000
G1 X167.428 Y36.776 F1000
G1 X167.220 Y36.984 F1000
G1 X166.180 Y36.984 F1000
G0 Z3.0 ; Pen up

G0 X165.556 Y29.288 F3000 ; Travel to line 87
G0 Z0.0 ; Pen down
G1 X166.596 Y29.288 F1000
G1 X165.556 Y29.288 F1000
G0 Z3.0 ; Pen up

G0 X167.220 Y29.080 F3000 ; Travel to line 88
G0 Z0.0 ; Pen down
G1 X169.924 Y29.080 F1000
G1 X167.220 Y29.080 F1000
G0 Z3.0 ; Pen up

G0 X170.548 Y29.288 F3000 ; Travel to line 89
G0 Z0.0 ; Pen down
G1 X171.796 Y29.288 F1000
G1 X170.548 Y29.288 F1000
G0 Z3.0 ; Pen up

G0 X174.500 Y45.720 F3000 ; Travel to line 90
G0 Z0.0 ; Pen down
G1 X174.292 Y45.512 F1000
G1 X174.292 Y44.680 F1000
G1 X174.084 Y44.472 F1000
G1 X174.084 Y44.264 F1000
G1 X173.876 Y44.056 F1000
G1 X173.876 Y43.640 F1000
G1 X173.460 Y43.224 F1000
G1 X173.460 Y43.016 F1000
G1 X172.212 Y41.768 F1000
G1 X172.004 Y41.768 F1000
G1 X171.588 Y41.352 F1000
G1 X171.380 Y41.352 F1000
G1 X171.172 Y41.144 F1000
G1 X170.756 Y41.144 F1000
G1 X170.548 Y40.936 F1000
G1 X170.132 Y40.936 F1000
G1 X169.924 Y40.728 F1000
G1 X167.428 Y40.728 F1000
G1 X169.924 Y40.728 F1000
G1 X170.132 Y40.936 F1000
G1 X170.548 Y40.936 F1000
G1 X170.756 Y41.144 F1000
G1 X170.964 Y41.144 F1000
G1 X171.172 Y41.352 F1000
G1 X171.380 Y41.352 F1000
G1 X171.588 Y41.560 F1000
G1 X171.796 Y41.560 F1000
G1 X172.420 Y42.184 F1000
G1 X172.628 Y42.184 F1000
G1 X173.460 Y43.016 F1000
G1 X173.460 Y43.224 F1000
G1 X173.876 Y43.640 F1000
G1 X173.876 Y44.056 F1000
G1 X174.084 Y44.264 F1000
G1 X174.084 Y44.472 F1000
G1 X174.292 Y44.680 F1000
G1 X174.292 Y45.512 F1000
G1 X174.500 Y45.720 F1000
G1 X174.500 Y46.968 F1000
G0 Z3.0 ; Pen up

G0 X172.212 Y54.664 F3000 ; Travel to line 91
G0 Z0.0 ; Pen down
G1 X172.420 Y54.456 F1000
G1 X172.836 Y54.456 F1000
G1 X173.044 Y54.248 F1000
G1 X173.460 Y54.248 F1000
G1 X173.876 Y53.832 F1000
G1 X174.084 Y53.832 F1000
G1 X174.292 Y53.624 F1000
G1 X174.500 Y53.624 F1000
G1 X175.540 Y52.584 F1000
G1 X175.748 Y52.584 F1000
G1 X176.164 Y52.168 F1000
G1 X176.164 Y51.960 F1000
G1 X176.580 Y51.544 F1000
G1 X176.580 Y51.336 F1000
G1 X176.996 Y50.920 F1000
G1 X176.996 Y50.712 F1000
G1 X177.412 Y50.296 F1000
G1 X177.412 Y50.088 F1000
G1 X177.620 Y49.880 F1000
G1 X177.620 Y49.464 F1000
G1 X177.828 Y49.256 F1000
G1 X177.828 Y49.048 F1000
G1 X178.036 Y48.840 F1000
G1 X178.036 Y47.800 F1000
G1 X178.244 Y47.592 F1000
G1 X178.244 Y44.680 F1000
G1 X178.036 Y44.472 F1000
G1 X178.036 Y43.848 F1000
G1 X177.828 Y43.640 F1000
G1 X177.828 Y43.224 F1000
G1 X177.620 Y43.016 F1000
G1 X177.620 Y42.600 F1000
G1 X177.412 Y42.392 F1000
G1 X177.412 Y42.184 F1000
G1 X177.204 Y41.976 F1000
G1 X177.204 Y41.768 F1000
G1 X176.996 Y41.560 F1000
G1 X176.996 Y41.352 F1000
G1 X175.956 Y40.312 F1000
G1 X175.956 Y40.104 F1000
G1 X175.748 Y39.896 F1000
G1 X175.748 Y39.688 F1000
G1 X175.540 Y39.480 F1000
G1 X175.332 Y39.480 F1000
G1 X174.916 Y39.064 F1000
G1 X174.708 Y39.064 F1000
G1 X174.084 Y38.440 F1000
G1 X174.708 Y39.064 F1000
G1 X174.916 Y39.064 F1000
G1 X175.748 Y39.896 F1000
G1 X175.748 Y40.104 F1000
G1 X176.788 Y41.144 F1000
G1 X176.788 Y41.352 F1000
G1 X176.996 Y41.560 F1000
G1 X176.996 Y41.768 F1000
G1 X177.204 Y41.976 F1000
G1 X177.204 Y42.184 F1000
G1 X177.412 Y42.392 F1000
G1 X177.412 Y42.600 F1000
G1 X177.620 Y42.808 F1000
G1 X177.620 Y43.224 F1000
G1 X177.828 Y43.432 F1000
G1 X177.828 Y43.640 F1000
G1 X178.036 Y43.848 F1000
G1 X178.036 Y44.472 F1000
G1 X178.244 Y44.680 F1000
G1 X178.244 Y47.592 F1000
G1 X178.036 Y47.800 F1000
G1 X178.036 Y48.632 F1000
G1 X177.828 Y48.840 F1000
G1 X177.828 Y49.048 F1000
G1 X177.620 Y49.256 F1000
G1 X177.620 Y49.672 F1000
G1 X177.412 Y49.880 F1000
G1 X177.412 Y50.088 F1000
G1 X177.204 Y50.296 F1000
G1 X177.204 Y50.504 F1000
G1 X176.996 Y50.712 F1000
G1 X176.996 Y50.920 F1000
G1 X176.580 Y51.336 F1000
G1 X176.580 Y51.544 F1000
G1 X174.500 Y53.624 F1000
G1 X174.292 Y53.624 F1000
G1 X174.084 Y53.832 F1000
G1 X173.876 Y53.832 F1000
G1 X173.460 Y54.248 F1000
G1 X173.044 Y54.248 F1000
G1 X172.836 Y54.456 F1000
G1 X172.420 Y54.456 F1000
G1 X172.212 Y54.664 F1000
G1 X172.004 Y54.664 F1000
G0 Z3.0 ; Pen up

G0 X169.924 Y55.080 F3000 ; Travel to line 92
G0 Z0.0 ; Pen down
G1 X170.132 Y54.872 F1000
G1 X171.588 Y54.872 F1000
G1 X170.132 Y54.872 F1000
G1 X169.924 Y55.080 F1000
G1 X169.716 Y55.080 F1000
G1 X169.508 Y54.872 F1000
G1 X168.052 Y54.872 F1000
G1 X167.844 Y54.664 F1000
G1 X167.428 Y54.664 F1000
G1 X167.844 Y54.664 F1000
G1 X168.052 Y54.872 F1000
G1 X169.508 Y54.872 F1000
G1 X169.716 Y55.080 F1000
G0 Z3.0 ; Pen up

G0 X167.012 Y54.456 F3000 ; Travel to line 93
G0 Z0.0 ; Pen down
G1 X166.804 Y54.456 F1000
G1 X166.596 Y54.248 F1000
G1 X166.388 Y54.248 F1000
G1 X166.180 Y54.040 F1000
G1 X165.972 Y54.040 F1000
G1 X165.764 Y53.832 F1000
G1 X165.556 Y53.832 F1000
G1 X165.140 Y53.416 F1000
G1 X164.932 Y53.416 F1000
G1 X164.516 Y53.000 F1000
G1 X164.516 Y52.792 F1000
G1 X164.308 Y52.792 F1000
G1 X163.476 Y51.960 F1000
G1 X163.476 Y51.752 F1000
G1 X163.268 Y51.544 F1000
G1 X163.268 Y51.336 F1000
G1 X162.852 Y50.920 F1000
G1 X162.852 Y50.712 F1000
G1 X162.644 Y50.504 F1000
G1 X162.644 Y50.088 F1000
G1 X162.436 Y49.880 F1000
G1 X162.436 Y49.672 F1000
G1 X162.228 Y49.464 F1000
G1 X162.228 Y48.840 F1000
G1 X162.020 Y48.632 F1000
G1 X162.020 Y46.552 F1000
G1 X162.228 Y46.344 F1000
G1 X162.228 Y45.512 F1000
G1 X162.436 Y45.304 F1000
G1 X162.436 Y45.096 F1000
G1 X162.644 Y44.888 F1000
G1 X162.644 Y44.472 F1000
G1 X162.852 Y44.264 F1000
G1 X162.852 Y44.056 F1000
G1 X163.060 Y43.848 F1000
G1 X163.060 Y43.640 F1000
G1 X163.268 Y43.432 F1000
G1 X163.476 Y43.432 F1000
G1 X163.476 Y43.224 F1000
G1 X163.892 Y42.808 F1000
G1 X163.892 Y42.600 F1000
G1 X164.100 Y42.392 F1000
G1 X164.308 Y42.392 F1000
G1 X164.932 Y41.768 F1000
G1 X165.140 Y41.768 F1000
G1 X165.556 Y41.352 F1000
G1 X165.972 Y41.352 F1000
G1 X166.180 Y41.144 F1000
G1 X166.388 Y41.144 F1000
G1 X166.596 Y40.936 F1000
G1 X167.012 Y40.936 F1000
G1 X166.596 Y40.936 F1000
G1 X166.388 Y41.144 F1000
G1 X166.180 Y41.144 F1000
G1 X165.972 Y41.352 F1000
G1 X165.556 Y41.352 F1000
G1 X165.348 Y41.560 F1000
G1 X165.140 Y41.560 F1000
G1 X164.308 Y42.392 F1000
G1 X164.100 Y42.392 F1000
G1 X163.892 Y42.600 F1000
G1 X163.892 Y42.808 F1000
G1 X163.060 Y43.640 F1000
G1 X163.060 Y43.848 F1000
G1 X162.852 Y44.056 F1000
G1 X162.852 Y44.264 F1000
G1 X162.644 Y44.472 F1000
G1 X162.644 Y44.888 F1000
G1 X162.436 Y45.096 F1000
G1 X162.436 Y45.304 F1000
G1 X162.228 Y45.512 F1000
G1 X162.228 Y46.344 F1000
G1 X162.020 Y46.552 F1000
G1 X162.020 Y48.632 F1000
G1 X162.228 Y48.840 F1000
G1 X162.228 Y49.464 F1000
G1 X162.436 Y49.672 F1000
G1 X162.436 Y49.880 F1000
G1 X162.644 Y50.088 F1000
G1 X162.644 Y50.504 F1000
G1 X162.852 Y50.712 F1000
G1 X162.852 Y50.920 F1000
G1 X163.268 Y51.336 F1000
G1 X163.268 Y51.544 F1000
G1 X163.476 Y51.752 F1000
G1 X163.476 Y51.960 F1000
G1 X164.932 Y53.416 F1000
G1 X165.140 Y53.416 F1000
G1 X165.556 Y53.832 F1000
G1 X165.764 Y53.832 F1000
G1 X165.972 Y54.040 F1000
G1 X166.180 Y54.040 F1000
G1 X166.388 Y54.248 F1000
G1 X166.596 Y54.248 F1000
G1 X166.804 Y54.456 F1000
G0 Z3.0 ; Pen up

G0 X165.556 Y57.784 F3000 ; Travel to line 94
G0 Z0.0 ; Pen down
G1 X165.348 Y57.992 F1000
G0 Z3.0 ; Pen up

G0 X165.348 Y57.992 F3000 ; Travel to line 95
G0 Z0.0 ; Pen down
G1 X165.140 Y57.784 F1000
G1 X164.724 Y57.784 F1000
G1 X165.140 Y57.784 F1000
G1 X165.348 Y57.992 F1000
G0 Z3.0 ; Pen up

G0 X165.764 Y58.200 F3000 ; Travel to line 96
G0 Z0.0 ; Pen down
G1 X165.972 Y58.200 F1000
G1 X165.764 Y58.200 F1000
G0 Z3.0 ; Pen up

G0 X165.972 Y58.200 F3000 ; Travel to line 97
G0 Z0.0 ; Pen down
G1 X166.180 Y57.992 F1000
G0 Z3.0 ; Pen up

G0 X166.388 Y58.408 F3000 ; Travel to line 98
G0 Z0.0 ; Pen down
G1 X166.804 Y58.408 F1000
G1 X166.388 Y58.408 F1000
G0 Z3.0 ; Pen up

G0 X166.804 Y58.408 F3000 ; Travel to line 99
G0 Z0.0 ; Pen down
G1 X167.012 Y58.200 F1000
G0 Z3.0 ; Pen up

G0 X167.220 Y58.616 F3000 ; Travel to line 100
G0 Z0.0 ; Pen down
G1 X167.844 Y58.616 F1000
G1 X167.220 Y58.616 F1000
G0 Z3.0 ; Pen up

G0 X167.844 Y58.616 F3000 ; Travel to line 101
G0 Z0.0 ; Pen down
G1 X168.052 Y58.408 F1000
G0 Z3.0 ; Pen up

G0 X168.260 Y58.824 F3000 ; Travel to line 102
G0 Z0.0 ; Pen down
G1 X171.172 Y58.824 F1000
G0 Z3.0 ; Pen up

G0 X171.588 Y58.616 F3000 ; Travel to line 103
G0 Z0.0 ; Pen down
G1 X172.420 Y58.616 F1000
G0 Z3.0 ; Pen up

G0 X172.836 Y58.408 F3000 ; Travel to line 104
G0 Z0.0 ; Pen down
G1 X173.876 Y58.200 F1000
G1 X172.836 Y58.408 F1000
G0 Z3.0 ; Pen up

G0 X173.876 Y58.200 F3000 ; Travel to line 105
G0 Z0.0 ; Pen down
G1 X174.084 Y57.992 F1000
G0 Z3.0 ; Pen up

G0 X174.292 Y57.992 F3000 ; Travel to line 106
G0 Z0.0 ; Pen down
G1 X174.500 Y57.784 F1000
G1 X174.916 Y57.784 F1000
G1 X174.500 Y57.784 F1000
G1 X174.292 Y57.992 F1000
G0 Z3.0 ; Pen up

G0 X174.916 Y57.784 F3000 ; Travel to line 107
G0 Z0.0 ; Pen down
G1 X175.124 Y57.576 F1000
G0 Z3.0 ; Pen up

G0 X175.332 Y57.576 F3000 ; Travel to line 108
G0 Z0.0 ; Pen down
G1 X175.748 Y57.160 F1000
G0 Z3.0 ; Pen up

G0 X175.956 Y57.160 F3000 ; Travel to line 109
G0 Z0.0 ; Pen down
G1 X176.164 Y56.952 F1000
G0 Z3.0 ; Pen up

G0 X176.372 Y56.952 F3000 ; Travel to line 110
G0 Z0.0 ; Pen down
G1 X176.788 Y56.536 F1000
G0 Z3.0 ; Pen up

G0 X176.996 Y56.536 F3000 ; Travel to line 111
G0 Z0.0 ; Pen down
G1 X178.036 Y55.496 F1000
G1 X177.828 Y55.704 F1000
G1 X177.828 Y55.912 F1000
G1 X177.620 Y56.120 F1000
G1 X177.412 Y56.120 F1000
G0 Z3.0 ; Pen up

G0 X178.452 Y55.288 F3000 ; Travel to line 112
G0 Z0.0 ; Pen down
G1 X178.660 Y55.080 F1000
G1 X178.660 Y54.872 F1000
G1 X179.700 Y53.832 F1000
G1 X179.700 Y53.624 F1000
G1 X180.116 Y53.208 F1000
G1 X180.116 Y53.000 F1000
G1 X180.324 Y52.792 F1000
G1 X180.324 Y52.584 F1000
G1 X180.740 Y52.168 F1000
G1 X180.740 Y51.960 F1000
G1 X180.948 Y51.752 F1000
G1 X180.948 Y51.544 F1000
G1 X181.156 Y51.336 F1000
G1 X181.156 Y50.920 F1000
G1 X181.364 Y50.712 F1000
G1 X181.364 Y50.296 F1000
G1 X181.572 Y50.088 F1000
G1 X181.572 Y49.672 F1000
G1 X181.780 Y49.464 F1000
G1 X181.780 Y48.840 F1000
G1 X181.988 Y48.632 F1000
G1 X181.988 Y47.384 F1000
G1 X182.196 Y47.176 F1000
G1 X182.196 Y45.512 F1000
G1 X181.988 Y45.304 F1000
G1 X181.988 Y43.848 F1000
G1 X181.780 Y43.640 F1000
G1 X181.780 Y43.016 F1000
G1 X181.572 Y42.808 F1000
G1 X181.572 Y42.184 F1000
G1 X181.364 Y41.976 F1000
G1 X181.364 Y41.768 F1000
G1 X181.156 Y41.560 F1000
G1 X181.156 Y41.144 F1000
G1 X180.948 Y40.936 F1000
G1 X180.948 Y40.728 F1000
G1 X180.740 Y40.520 F1000
G1 X180.740 Y40.312 F1000
G1 X180.532 Y40.104 F1000
G1 X180.532 Y39.896 F1000
G1 X180.324 Y39.688 F1000
G1 X180.324 Y39.480 F1000
G1 X180.116 Y39.272 F1000
G1 X180.116 Y39.064 F1000
G1 X179.076 Y38.024 F1000
G1 X179.076 Y37.816 F1000
G1 X176.996 Y35.736 F1000
G1 X176.788 Y35.736 F1000
G1 X176.580 Y35.528 F1000
G1 X176.788 Y35.736 F1000
G1 X176.996 Y35.736 F1000
G1 X177.828 Y36.568 F1000
G1 X178.036 Y36.568 F1000
G1 X178.868 Y37.400 F1000
G1 X178.868 Y37.608 F1000
G1 X179.700 Y38.440 F1000
G1 X179.700 Y38.648 F1000
G1 X180.116 Y39.064 F1000
G1 X180.116 Y39.272 F1000
G1 X180.324 Y39.480 F1000
G1 X180.324 Y39.688 F1000
G1 X180.740 Y40.104 F1000
G1 X180.740 Y40.520 F1000
G1 X180.948 Y40.728 F1000
G1 X180.948 Y40.936 F1000
G1 X181.156 Y41.144 F1000
G1 X181.156 Y41.352 F1000
G1 X181.364 Y41.560 F1000
G1 X181.364 Y41.976 F1000
G1 X181.572 Y42.184 F1000
G1 X181.572 Y42.600 F1000
G1 X181.780 Y42.808 F1000
G1 X181.780 Y43.432 F1000
G1 X181.988 Y43.640 F1000
G1 X181.988 Y45.096 F1000
G1 X182.196 Y45.304 F1000
G1 X182.196 Y47.176 F1000
G1 X181.988 Y47.384 F1000
G1 X181.988 Y48.840 F1000
G1 X181.780 Y49.048 F1000
G1 X181.780 Y49.672 F1000
G1 X181.572 Y49.880 F1000
G1 X181.572 Y50.296 F1000
G1 X181.364 Y50.504 F1000
G1 X181.364 Y50.712 F1000
G1 X181.156 Y50.920 F1000
G1 X181.156 Y51.336 F1000
G1 X180.948 Y51.544 F1000
G1 X180.948 Y51.752 F1000
G1 X180.740 Y51.960 F1000
G1 X180.740 Y52.168 F1000
G1 X180.532 Y52.376 F1000
G1 X180.532 Y52.584 F1000
G1 X180.116 Y53.000 F1000
G1 X180.116 Y53.208 F1000
G1 X179.908 Y53.416 F1000
G1 X179.908 Y53.624 F1000
G1 X179.492 Y54.040 F1000
G1 X179.492 Y54.248 F1000
G0 Z3.0 ; Pen up

G0 X176.372 Y56.952 F3000 ; Travel to line 113
G0 Z0.0 ; Pen down
G1 X176.580 Y56.744 F1000
G1 X176.372 Y56.952 F1000
G0 Z3.0 ; Pen up

G0 X175.332 Y57.576 F3000 ; Travel to line 114
G0 Z0.0 ; Pen down
G1 X175.540 Y57.368 F1000
G1 X175.332 Y57.576 F1000
G0 Z3.0 ; Pen up

G0 X176.996 Y60.904 F3000 ; Travel to line 115
G0 Z0.0 ; Pen down
G1 X176.788 Y61.112 F1000
G0 Z3.0 ; Pen up

G0 X176.580 Y61.112 F3000 ; Travel to line 116
G0 Z0.0 ; Pen down
G1 X176.372 Y61.320 F1000
G0 Z3.0 ; Pen up

G0 X175.956 Y61.320 F3000 ; Travel to line 117
G0 Z0.0 ; Pen down
G1 X175.748 Y61.528 F1000
G0 Z3.0 ; Pen up

G0 X175.540 Y61.528 F3000 ; Travel to line 118
G0 Z0.0 ; Pen down
G1 X175.332 Y61.736 F1000
G0 Z3.0 ; Pen up

G0 X175.124 Y61.736 F3000 ; Travel to line 119
G0 Z0.0 ; Pen down
G1 X174.916 Y61.944 F1000
G0 Z3.0 ; Pen up

G0 X174.500 Y61.944 F3000 ; Travel to line 120
G0 Z0.0 ; Pen down
G1 X174.916 Y61.944 F1000
G1 X174.500 Y61.944 F1000
G0 Z3.0 ; Pen up

G0 X174.084 Y61.944 F3000 ; Travel to line 121
G0 Z0.0 ; Pen down
G1 X173.876 Y62.152 F1000
G0 Z3.0 ; Pen up

G0 X173.668 Y62.152 F3000 ; Travel to line 122
G0 Z0.0 ; Pen down
G1 X173.460 Y62.360 F1000
G0 Z3.0 ; Pen up

G0 X172.836 Y62.360 F3000 ; Travel to line 123
G0 Z0.0 ; Pen down
G1 X173.460 Y62.360 F1000
G1 X172.836 Y62.360 F1000
G0 Z3.0 ; Pen up

G0 X172.420 Y62.568 F3000 ; Travel to line 124
G0 Z0.0 ; Pen down
G1 X171.380 Y62.568 F1000
G0 Z3.0 ; Pen up

G0 X171.380 Y62.568 F3000 ; Travel to line 125
G0 Z0.0 ; Pen down
G1 X172.420 Y62.568 F1000
G1 X171.380 Y62.568 F1000
G0 Z3.0 ; Pen up

G0 X170.964 Y62.776 F3000 ; Travel to line 126
G0 Z0.0 ; Pen down
G1 X168.884 Y62.776 F1000
G0 Z3.0 ; Pen up

G0 X168.884 Y62.776 F3000 ; Travel to line 127
G0 Z0.0 ; Pen down
G1 X170.964 Y62.776 F1000
G1 X168.884 Y62.776 F1000
G0 Z3.0 ; Pen up

G0 X168.468 Y62.568 F3000 ; Travel to line 128
G0 Z0.0 ; Pen down
G1 X167.428 Y62.568 F1000
G0 Z3.0 ; Pen up

G0 X167.428 Y62.568 F3000 ; Travel to line 129
G0 Z0.0 ; Pen down
G1 X168.468 Y62.568 F1000
G1 X167.428 Y62.568 F1000
G0 Z3.0 ; Pen up

G0 X167.012 Y62.360 F3000 ; Travel to line 130
G0 Z0.0 ; Pen down
G1 X167.220 Y62.152 F1000
G0 Z3.0 ; Pen up

G0 X166.596 Y62.360 F3000 ; Travel to line 131
G0 Z0.0 ; Pen down
G1 X167.012 Y62.360 F1000
G1 X166.596 Y62.360 F1000
G0 Z3.0 ; Pen up

G0 X166.180 Y61.944 F3000 ; Travel to line 132
G0 Z0.0 ; Pen down
G1 X165.972 Y62.152 F1000
G0 Z3.0 ; Pen up

G0 X165.556 Y62.152 F3000 ; Travel to line 133
G0 Z0.0 ; Pen down
G1 X165.972 Y62.152 F1000
G1 X165.556 Y62.152 F1000
G0 Z3.0 ; Pen up

G0 X165.348 Y61.736 F3000 ; Travel to line 134
G0 Z0.0 ; Pen down
G1 X165.140 Y61.944 F1000
G0 Z3.0 ; Pen up

G0 X164.724 Y61.528 F3000 ; Travel to line 135
G0 Z0.0 ; Pen down
G1 X164.516 Y61.736 F1000
G0 Z3.0 ; Pen up

G0 X164.100 Y61.736 F3000 ; Travel to line 136
G0 Z0.0 ; Pen down
G1 X164.516 Y61.736 F1000
G1 X164.100 Y61.736 F1000
G0 Z3.0 ; Pen up

G0 X163.684 Y61.528 F3000 ; Travel to line 137
G0 Z0.0 ; Pen down
G1 X163.892 Y61.320 F1000
G0 Z3.0 ; Pen up

G0 X163.476 Y61.112 F3000 ; Travel to line 138
G0 Z0.0 ; Pen down
G1 X163.268 Y61.320 F1000
G0 Z3.0 ; Pen up

G0 X162.852 Y61.112 F3000 ; Travel to line 139
G0 Z0.0 ; Pen down
G1 X162.644 Y60.904 F1000
G1 X162.436 Y60.904 F1000
G1 X162.228 Y60.696 F1000
G1 X162.020 Y60.696 F1000
G1 X161.604 Y60.280 F1000
G1 X161.396 Y60.280 F1000
G1 X160.980 Y59.864 F1000
G1 X160.772 Y59.864 F1000
G1 X160.356 Y59.448 F1000
G1 X160.148 Y59.448 F1000
G1 X159.524 Y58.824 F1000
G1 X159.316 Y58.824 F1000
G1 X158.900 Y58.408 F1000
G1 X158.900 Y58.200 F1000
G1 X157.652 Y56.952 F1000
G1 X157.652 Y56.744 F1000
G1 X156.612 Y55.704 F1000
G1 X156.612 Y55.496 F1000
G1 X156.196 Y55.080 F1000
G1 X156.196 Y54.872 F1000
G1 X155.988 Y54.664 F1000
G1 X155.988 Y54.456 F1000
G1 X155.780 Y54.248 F1000
G1 X155.780 Y53.832 F1000
G1 X155.572 Y53.624 F1000
G1 X155.572 Y53.416 F1000
G1 X155.364 Y53.208 F1000
G1 X155.364 Y52.584 F1000
G1 X155.156 Y52.376 F1000
G1 X155.156 Y52.168 F1000
G1 X154.948 Y51.960 F1000
G1 X154.948 Y51.544 F1000
G1 X154.740 Y51.336 F1000
G1 X154.740 Y50.712 F1000
G1 X154.532 Y50.504 F1000
G1 X154.532 Y49.256 F1000
G1 X154.324 Y49.048 F1000
G1 X154.324 Y45.512 F1000
G1 X154.532 Y45.304 F1000
G1 X154.532 Y44.680 F1000
G1 X154.740 Y44.472 F1000
G1 X154.740 Y43.640 F1000
G1 X154.948 Y43.432 F1000
G1 X154.948 Y43.016 F1000
G1 X155.156 Y42.808 F1000
G1 X155.156 Y42.392 F1000
G1 X155.364 Y42.184 F1000
G1 X155.364 Y41.976 F1000
G1 X155.572 Y41.768 F1000
G1 X155.572 Y41.560 F1000
G1 X155.780 Y41.352 F1000
G1 X155.780 Y41.144 F1000
G1 X155.988 Y40.936 F1000
G1 X155.988 Y40.728 F1000
G1 X156.196 Y40.520 F1000
G1 X156.196 Y40.312 F1000
G1 X156.404 Y40.104 F1000
G1 X156.404 Y39.896 F1000
G1 X156.612 Y39.688 F1000
G1 X156.612 Y39.480 F1000
G1 X157.028 Y39.064 F1000
G1 X157.028 Y38.856 F1000
G1 X157.860 Y38.024 F1000
G1 X157.860 Y37.816 F1000
G1 X159.524 Y36.152 F1000
G1 X159.732 Y36.152 F1000
G1 X159.940 Y35.944 F1000
G1 X159.732 Y36.152 F1000
G1 X159.524 Y36.152 F1000
G1 X157.860 Y37.816 F1000
G1 X157.860 Y38.024 F1000
G1 X157.444 Y38.440 F1000
G1 X157.444 Y38.648 F1000
G1 X156.820 Y39.272 F1000
G1 X156.820 Y39.480 F1000
G1 X156.612 Y39.688 F1000
G1 X156.612 Y39.896 F1000
G1 X156.404 Y40.104 F1000
G1 X156.404 Y40.312 F1000
G1 X156.196 Y40.520 F1000
G1 X156.196 Y40.728 F1000
G1 X155.988 Y40.936 F1000
G1 X155.988 Y41.144 F1000
G1 X155.780 Y41.352 F1000
G1 X155.780 Y41.560 F1000
G1 X155.572 Y41.768 F1000
G1 X155.572 Y41.976 F1000
G1 X155.364 Y42.184 F1000
G1 X155.364 Y42.392 F1000
G1 X155.156 Y42.600 F1000
G1 X155.156 Y42.808 F1000
G1 X154.948 Y43.016 F1000
G1 X154.948 Y43.640 F1000
G1 X154.740 Y43.848 F1000
G1 X154.740 Y44.472 F1000
G1 X154.532 Y44.680 F1000
G1 X154.532 Y45.304 F1000
G1 X154.324 Y45.512 F1000
G1 X154.324 Y49.048 F1000
G1 X154.532 Y49.256 F1000
G1 X154.532 Y50.504 F1000
G1 X154.740 Y50.712 F1000
G1 X154.740 Y51.336 F1000
G1 X154.948 Y51.544 F1000
G1 X154.948 Y51.752 F1000
G1 X155.156 Y51.960 F1000
G1 X155.156 Y52.376 F1000
G1 X155.364 Y52.584 F1000
G1 X155.364 Y53.000 F1000
G1 X155.572 Y53.208 F1000
G1 X155.572 Y53.624 F1000
G1 X155.780 Y53.832 F1000
G1 X155.780 Y54.040 F1000
G1 X155.988 Y54.248 F1000
G1 X155.988 Y54.456 F1000
G1 X156.196 Y54.664 F1000
G1 X156.196 Y54.872 F1000
G1 X156.404 Y55.080 F1000
G1 X156.404 Y55.288 F1000
G1 X156.612 Y55.496 F1000
G1 X156.612 Y55.704 F1000
G1 X157.860 Y56.952 F1000
G1 X157.860 Y57.160 F1000
G1 X159.940 Y59.240 F1000
G1 X160.148 Y59.240 F1000
G1 X160.772 Y59.864 F1000
G1 X160.980 Y59.864 F1000
G1 X161.396 Y60.280 F1000
G1 X161.604 Y60.280 F1000
G1 X161.812 Y60.488 F1000
G1 X162.020 Y60.488 F1000
G1 X162.436 Y60.904 F1000
G1 X162.644 Y60.904 F1000
G0 Z3.0 ; Pen up

G0 X164.308 Y57.576 F3000 ; Travel to line 140
G0 Z0.0 ; Pen down
G1 X164.516 Y57.368 F1000
G0 Z3.0 ; Pen up

G0 X164.308 Y57.576 F3000 ; Travel to line 141
G0 Z0.0 ; Pen down
G1 X164.100 Y57.368 F1000
G1 X164.308 Y57.576 F1000
G0 Z3.0 ; Pen up

G0 X163.684 Y57.160 F3000 ; Travel to line 142
G0 Z0.0 ; Pen down
G1 X163.892 Y56.952 F1000
G0 Z3.0 ; Pen up

G0 X163.684 Y57.160 F3000 ; Travel to line 143
G0 Z0.0 ; Pen down
G1 X163.476 Y56.952 F1000
G1 X163.684 Y57.160 F1000
G0 Z3.0 ; Pen up

G0 X163.060 Y56.744 F3000 ; Travel to line 144
G0 Z0.0 ; Pen down
G1 X163.268 Y56.536 F1000
G0 Z3.0 ; Pen up

G0 X163.060 Y56.744 F3000 ; Travel to line 145
G0 Z0.0 ; Pen down
G1 X162.644 Y56.328 F1000
G1 X163.060 Y56.744 F1000
G0 Z3.0 ; Pen up

G0 X162.228 Y56.120 F3000 ; Travel to line 146
G0 Z0.0 ; Pen down
G1 X161.812 Y55.704 F1000
G1 X161.604 Y55.704 F1000
G1 X161.396 Y55.496 F1000
G1 X161.396 Y55.288 F1000
G1 X160.564 Y54.456 F1000
G1 X160.564 Y54.248 F1000
G1 X160.148 Y53.832 F1000
G1 X160.148 Y53.624 F1000
G1 X159.524 Y53.000 F1000
G1 X159.524 Y52.792 F1000
G1 X159.316 Y52.584 F1000
G1 X159.316 Y52.376 F1000
G1 X159.108 Y52.168 F1000
G1 X159.108 Y51.752 F1000
G1 X158.900 Y51.544 F1000
G1 X158.900 Y51.128 F1000
G1 X158.692 Y50.920 F1000
G1 X158.692 Y50.504 F1000
G1 X158.484 Y50.296 F1000
G1 X158.484 Y49.880 F1000
G1 X158.276 Y49.672 F1000
G1 X158.276 Y45.512 F1000
G1 X158.484 Y45.304 F1000
G1 X158.484 Y44.472 F1000
G1 X158.692 Y44.264 F1000
G1 X158.692 Y43.848 F1000
G1 X158.900 Y43.640 F1000
G1 X158.900 Y43.432 F1000
G1 X159.108 Y43.224 F1000
G1 X159.108 Y42.808 F1000
G1 X159.316 Y42.600 F1000
G1 X159.316 Y42.392 F1000
G1 X159.732 Y41.976 F1000
G1 X159.732 Y41.768 F1000
G1 X160.148 Y41.352 F1000
G1 X160.148 Y41.144 F1000
G1 X160.980 Y40.312 F1000
G1 X160.980 Y40.104 F1000
G1 X161.812 Y39.272 F1000
G1 X161.188 Y39.896 F1000
G1 X161.188 Y40.104 F1000
G1 X160.356 Y40.936 F1000
G1 X160.356 Y41.144 F1000
G1 X159.940 Y41.560 F1000
G1 X159.940 Y41.768 F1000
G1 X159.524 Y42.184 F1000
G1 X159.524 Y42.392 F1000
G1 X159.316 Y42.600 F1000
G1 X159.316 Y42.808 F1000
G1 X159.108 Y43.016 F1000
G1 X159.108 Y43.224 F1000
G1 X158.900 Y43.432 F1000
G1 X158.900 Y43.848 F1000
G1 X158.692 Y44.056 F1000
G1 X158.692 Y44.472 F1000
G1 X158.484 Y44.680 F1000
G1 X158.484 Y45.512 F1000
G1 X158.276 Y45.720 F1000
G1 X158.276 Y49.464 F1000
G1 X158.484 Y49.672 F1000
G1 X158.484 Y50.088 F1000
G1 X158.692 Y50.296 F1000
G1 X158.692 Y50.712 F1000
G1 X158.900 Y50.920 F1000
G1 X158.900 Y51.544 F1000
G1 X159.108 Y51.752 F1000
G1 X159.108 Y52.168 F1000
G1 X159.316 Y52.376 F1000
G1 X159.316 Y52.584 F1000
G1 X159.732 Y53.000 F1000
G1 X159.732 Y53.208 F1000
G1 X160.356 Y53.832 F1000
G1 X160.356 Y54.040 F1000
G1 X160.772 Y54.456 F1000
G1 X160.772 Y54.664 F1000
G0 Z3.0 ; Pen up

G0 X168.260 Y58.824 F3000 ; Travel to line 147
G0 Z0.0 ; Pen down
G1 X171.172 Y58.824 F1000
G1 X168.260 Y58.824 F1000
G0 Z3.0 ; Pen up

G0 X171.588 Y58.616 F3000 ; Travel to line 148
G0 Z0.0 ; Pen down
G1 X172.420 Y58.616 F1000
G1 X171.588 Y58.616 F1000
G0 Z3.0 ; Pen up

G0 X177.204 Y60.904 F3000 ; Travel to line 149
G0 Z0.0 ; Pen down
G1 X178.452 Y60.072 F1000
G1 X177.204 Y60.904 F1000
G0 Z3.0 ; Pen up

G0 X178.244 Y60.280 F3000 ; Travel to line 150
G0 Z0.0 ; Pen down
G1 X178.660 Y59.864 F1000
G0 Z3.0 ; Pen up

G0 X178.868 Y59.864 F3000 ; Travel to line 151
G0 Z0.0 ; Pen down
G1 X179.076 Y59.656 F1000
G1 X179.284 Y59.656 F1000
G1 X180.324 Y58.616 F1000
G1 X180.532 Y58.616 F1000
G1 X182.404 Y56.744 F1000
G1 X182.404 Y56.536 F1000
G1 X183.028 Y55.912 F1000
G1 X183.028 Y55.704 F1000
G1 X183.444 Y55.288 F1000
G1 X183.444 Y55.080 F1000
G1 X183.652 Y54.872 F1000
G1 X183.652 Y54.664 F1000
G1 X184.068 Y54.248 F1000
G1 X184.068 Y54.040 F1000
G1 X184.276 Y53.832 F1000
G1 X184.276 Y53.624 F1000
G1 X184.484 Y53.416 F1000
G1 X184.484 Y53.000 F1000
G1 X184.692 Y52.792 F1000
G1 X184.692 Y52.584 F1000
G1 X184.900 Y52.376 F1000
G1 X184.900 Y52.168 F1000
G1 X185.108 Y51.960 F1000
G1 X185.108 Y51.336 F1000
G1 X185.316 Y51.128 F1000
G1 X185.316 Y50.504 F1000
G1 X185.524 Y50.296 F1000
G1 X185.524 Y49.464 F1000
G1 X185.732 Y49.256 F1000
G1 X185.732 Y48.424 F1000
G1 X185.940 Y48.216 F1000
G1 X185.940 Y43.848 F1000
G1 X185.732 Y43.640 F1000
G1 X185.732 Y42.808 F1000
G1 X185.524 Y42.600 F1000
G1 X185.524 Y41.976 F1000
G1 X185.316 Y41.768 F1000
G1 X185.316 Y41.352 F1000
G1 X185.108 Y41.144 F1000
G1 X185.108 Y40.728 F1000
G1 X184.900 Y40.520 F1000
G1 X184.900 Y40.312 F1000
G1 X184.692 Y40.104 F1000
G1 X184.692 Y39.688 F1000
G1 X184.484 Y39.480 F1000
G1 X184.484 Y39.272 F1000
G1 X184.276 Y39.064 F1000
G1 X184.276 Y38.856 F1000
G1 X184.068 Y38.648 F1000
G1 X184.068 Y38.440 F1000
G1 X183.860 Y38.232 F1000
G1 X183.860 Y38.024 F1000
G1 X183.652 Y37.816 F1000
G1 X183.652 Y37.608 F1000
G1 X183.236 Y37.192 F1000
G1 X183.236 Y36.984 F1000
G1 X182.612 Y36.360 F1000
G1 X182.612 Y36.152 F1000
G1 X181.988 Y35.528 F1000
G1 X181.988 Y35.320 F1000
G1 X180.532 Y33.864 F1000
G1 X180.532 Y33.656 F1000
G1 X180.116 Y33.240 F1000
G1 X179.908 Y33.240 F1000
G1 X179.492 Y32.824 F1000
G1 X179.908 Y33.240 F1000
G1 X180.116 Y33.240 F1000
G1 X180.740 Y33.864 F1000
G1 X180.740 Y34.072 F1000
G1 X182.196 Y35.528 F1000
G1 X182.196 Y35.736 F1000
G1 X182.820 Y36.360 F1000
G1 X182.820 Y36.568 F1000
G1 X183.444 Y37.192 F1000
G1 X183.444 Y37.400 F1000
G1 X183.652 Y37.608 F1000
G1 X183.652 Y37.816 F1000
G1 X183.860 Y38.024 F1000
G1 X183.860 Y38.232 F1000
G1 X184.276 Y38.648 F1000
G1 X184.276 Y39.064 F1000
G1 X184.484 Y39.272 F1000
G1 X184.484 Y39.480 F1000
G1 X184.692 Y39.688 F1000
G1 X184.692 Y39.896 F1000
G1 X184.900 Y40.104 F1000
G1 X184.900 Y40.520 F1000
G1 X185.108 Y40.728 F1000
G1 X185.108 Y40.936 F1000
G1 X185.316 Y41.144 F1000
G1 X185.316 Y41.560 F1000
G1 X185.524 Y41.768 F1000
G1 X185.524 Y42.600 F1000
G1 X185.732 Y42.808 F1000
G1 X185.732 Y43.640 F1000
G1 X185.940 Y43.848 F1000
G1 X185.940 Y48.216 F1000
G1 X185.732 Y48.424 F1000
G1 X185.732 Y49.256 F1000
G1 X185.524 Y49.464 F1000
G1 X185.524 Y50.296 F1000
G1 X185.316 Y50.504 F1000
G1 X185.316 Y51.336 F1000
G1 X185.108 Y51.544 F1000
G1 X185.108 Y51.960 F1000
G1 X184.900 Y52.168 F1000
G1 X184.900 Y52.376 F1000
G1 X184.692 Y52.584 F1000
G1 X184.692 Y52.792 F1000
G1 X184.484 Y53.000 F1000
G1 X184.484 Y53.416 F1000
G1 X184.276 Y53.624 F1000
G1 X184.276 Y53.832 F1000
G1 X184.068 Y54.040 F1000
G1 X184.068 Y54.248 F1000
G1 X183.652 Y54.664 F1000
G1 X183.652 Y54.872 F1000
G1 X183.444 Y55.080 F1000
G1 X183.444 Y55.288 F1000
G1 X183.028 Y55.704 F1000
G1 X183.028 Y55.912 F1000
G1 X182.612 Y56.328 F1000
G1 X182.612 Y56.536 F1000
G1 X180.324 Y58.824 F1000
G1 X180.116 Y58.824 F1000
G1 X179.284 Y59.656 F1000
G1 X179.076 Y59.656 F1000
G0 Z3.0 ; Pen up

G0 X130.820 Y100.424 F3000 ; Travel to line 152
G0 Z0.0 ; Pen down
G1 X130.612 Y100.632 F1000
G0 Z3.0 ; Pen up

G0 X130.404 Y100.632 F3000 ; Travel to line 153
G0 Z0.0 ; Pen down
G1 X130.612 Y100.632 F1000
G1 X130.404 Y100.632 F1000
G0 Z3.0 ; Pen up

G0 X129.780 Y100.424 F3000 ; Travel to line 154
G0 Z0.0 ; Pen down
G1 X123.124 Y100.424 F1000
G0 Z3.0 ; Pen up

G0 X122.916 Y100.632 F3000 ; Travel to line 155
G0 Z0.0 ; Pen down
G1 X122.500 Y100.632 F1000
G0 Z3.0 ; Pen up

G0 X122.500 Y100.632 F3000 ; Travel to line 156
G0 Z0.0 ; Pen down
G1 X122.916 Y100.632 F1000
G1 X123.540 Y100.216 F1000
G1 X125.204 Y100.216 F1000
G1 X125.412 Y100.008 F1000
G1 X127.492 Y100.008 F1000
G1 X127.700 Y100.216 F1000
G1 X129.364 Y100.216 F1000
G1 X129.780 Y100.424 F1000
G1 X128.740 Y100.424 F1000
G1 X128.532 Y100.216 F1000
G1 X124.164 Y100.216 F1000
G1 X123.956 Y100.424 F1000
G1 X123.124 Y100.424 F1000
G1 X122.916 Y100.632 F1000
G1 X122.500 Y100.632 F1000
G0 Z3.0 ; Pen up

G0 X122.084 Y100.632 F3000 ; Travel to line 157
G0 Z0.0 ; Pen down
G1 X121.876 Y100.840 F1000
G0 Z3.0 ; Pen up

G0 X121.668 Y100.840 F3000 ; Travel to line 158
G0 Z0.0 ; Pen down
G1 X121.876 Y100.840 F1000
G1 X121.668 Y100.840 F1000
G0 Z3.0 ; Pen up

G0 X123.540 Y100.216 F3000 ; Travel to line 159
G0 Z0.0 ; Pen down
G1 X129.364 Y100.216 F1000
G0 Z3.0 ; Pen up

G0 X127.492 Y100.008 F3000 ; Travel to line 160
G0 Z0.0 ; Pen down
G1 X125.412 Y100.008 F1000
G0 Z3.0 ; Pen up

G0 X124.788 Y126.632 F3000 ; Travel to line 161
G0 Z0.0 ; Pen down
G1 X124.580 Y126.632 F1000
G1 X124.372 Y126.424 F1000
G1 X124.164 Y126.424 F1000
G1 X123.956 Y126.216 F1000
G1 X123.748 Y126.216 F1000
G1 X123.540 Y126.008 F1000
G1 X123.332 Y126.008 F1000
G1 X122.916 Y125.592 F1000
G1 X122.708 Y125.592 F1000
G1 X122.292 Y125.176 F1000
G1 X122.084 Y125.176 F1000
G1 X120.836 Y123.928 F1000
G1 X120.628 Y123.928 F1000
G1 X120.212 Y123.512 F1000
G1 X120.212 Y123.304 F1000
G1 X119.380 Y122.472 F1000
G1 X119.380 Y122.264 F1000
G1 X118.964 Y121.848 F1000
G1 X118.964 Y121.640 F1000
G1 X118.756 Y121.432 F1000
G1 X118.756 Y121.224 F1000
G1 X118.548 Y121.016 F1000
G1 X118.548 Y120.600 F1000
G1 X118.340 Y120.392 F1000
G1 X118.340 Y120.184 F1000
G1 X118.132 Y119.976 F1000
G1 X118.132 Y119.768 F1000
G1 X117.924 Y119.560 F1000
G1 X117.924 Y118.728 F1000
G1 X117.716 Y118.520 F1000
G1 X117.716 Y118.104 F1000
G1 X117.508 Y117.896 F1000
G1 X117.508 Y115.608 F1000
G1 X117.716 Y115.400 F1000
G1 X117.716 Y114.776 F1000
G1 X117.924 Y114.568 F1000
G1 X117.924 Y114.152 F1000
G1 X118.132 Y113.944 F1000
G1 X118.132 Y113.528 F1000
G1 X118.340 Y113.320 F1000
G1 X118.340 Y112.904 F1000
G1 X118.548 Y112.696 F1000
G1 X118.548 Y112.488 F1000
G1 X118.756 Y112.280 F1000
G1 X118.756 Y112.072 F1000
G1 X118.964 Y111.864 F1000
G1 X118.964 Y111.656 F1000
G1 X119.380 Y111.240 F1000
G1 X119.380 Y111.032 F1000
G1 X119.588 Y110.824 F1000
G1 X119.588 Y110.616 F1000
G1 X120.836 Y109.368 F1000
G1 X121.044 Y109.368 F1000
G1 X121.460 Y108.952 F1000
G1 X121.668 Y108.952 F1000
G1 X122.292 Y108.328 F1000
G1 X122.500 Y108.328 F1000
G1 X122.708 Y108.120 F1000
G1 X123.124 Y108.120 F1000
G1 X123.332 Y107.912 F1000
G1 X123.540 Y107.912 F1000
G1 X123.748 Y107.704 F1000
G1 X124.580 Y107.704 F1000
G1 X124.788 Y107.496 F1000
G1 X128.324 Y107.496 F1000
G1 X128.532 Y107.704 F1000
G1 X129.156 Y107.704 F1000
G1 X129.364 Y107.912 F1000
G1 X129.572 Y107.912 F1000
G1 X129.780 Y108.120 F1000
G1 X129.988 Y108.120 F1000
G1 X130.196 Y108.328 F1000
G1 X130.404 Y108.328 F1000
G1 X130.820 Y108.744 F1000
G1 X131.028 Y108.744 F1000
G1 X132.692 Y110.408 F1000
G1 X132.692 Y110.616 F1000
G1 X133.108 Y111.032 F1000
G1 X133.108 Y111.240 F1000
G1 X133.316 Y111.448 F1000
G1 X133.316 Y111.656 F1000
G1 X133.524 Y111.864 F1000
G1 X133.524 Y112.488 F1000
G1 X133.732 Y112.696 F1000
G1 X133.732 Y113.320 F1000
G1 X133.940 Y113.528 F1000
G1 X133.940 Y116.232 F1000
G1 X133.940 Y113.528 F1000
G1 X133.732 Y113.320 F1000
G1 X133.732 Y112.488 F1000
G1 X133.524 Y112.280 F1000
G1 X133.524 Y111.864 F1000
G1 X133.316 Y111.656 F1000
G1 X133.316 Y111.448 F1000
G1 X133.108 Y111.240 F1000
G1 X133.108 Y111.032 F1000
G1 X132.692 Y110.616 F1000
G1 X132.692 Y110.408 F1000
G1 X132.484 Y110.200 F1000
G1 X132.484 Y109.992 F1000
G1 X132.276 Y109.784 F1000
G1 X132.068 Y109.784 F1000
G1 X131.860 Y109.576 F1000
G1 X131.860 Y109.368 F1000
G1 X131.652 Y109.160 F1000
G1 X131.444 Y109.160 F1000
G1 X130.820 Y108.536 F1000
G1 X130.612 Y108.536 F1000
G1 X130.404 Y108.328 F1000
G1 X130.196 Y108.328 F1000
G1 X129.988 Y108.120 F1000
G1 X129.780 Y108.120 F1000
G1 X129.572 Y107.912 F1000
G1 X129.364 Y107.912 F1000
G1 X129.156 Y107.704 F1000
G1 X128.532 Y107.704 F1000
G1 X128.324 Y107.496 F1000
G1 X124.788 Y107.496 F1000
G1 X124.580 Y107.704 F1000
G1 X123.748 Y107.704 F1000
G1 X123.540 Y107.912 F1000
G1 X123.124 Y107.912 F1000
G1 X122.916 Y108.120 F1000
G1 X122.708 Y108.120 F1000
G1 X122.500 Y108.328 F1000
G1 X122.292 Y108.328 F1000
G1 X122.084 Y108.536 F1000
G1 X121.876 Y108.536 F1000
G1 X121.252 Y109.160 F1000
G1 X121.044 Y109.160 F1000
G1 X119.588 Y110.616 F1000
G1 X119.588 Y110.824 F1000
G1 X118.964 Y111.448 F1000
G1 X118.964 Y111.656 F1000
G1 X118.756 Y111.864 F1000
G1 X118.756 Y112.280 F1000
G1 X118.548 Y112.488 F1000
G1 X118.548 Y112.696 F1000
G1 X118.340 Y112.904 F1000
G1 X118.340 Y113.320 F1000
G1 X118.132 Y113.528 F1000
G1 X118.132 Y113.944 F1000
G1 X117.924 Y114.152 F1000
G1 X117.924 Y114.568 F1000
G1 X117.716 Y114.776 F1000
G1 X117.716 Y115.192 F1000
G1 X117.508 Y115.400 F1000
G1 X117.508 Y117.896 F1000
G1 X117.716 Y118.104 F1000
G1 X117.716 Y118.520 F1000
G1 X117.924 Y118.728 F1000
G1 X117.924 Y119.560 F1000
G1 X118.132 Y119.768 F1000
G1 X118.132 Y119.976 F1000
G1 X118.340 Y120.184 F1000
G1 X118.340 Y120.392 F1000
G1 X118.548 Y120.600 F1000
G1 X118.548 Y121.016 F1000
G1 X118.756 Y121.224 F1000
G1 X118.756 Y121.432 F1000
G1 X118.964 Y121.640 F1000
G1 X118.964 Y121.848 F1000
G1 X119.380 Y122.264 F1000
G1 X119.380 Y122.472 F1000
G1 X119.588 Y122.680 F1000
G1 X119.588 Y122.888 F1000
G1 X121.460 Y124.760 F1000
G1 X121.668 Y124.760 F1000
G1 X122.084 Y125.176 F1000
G1 X122.292 Y125.176 F1000
G1 X122.708 Y125.592 F1000
G1 X122.916 Y125.592 F1000
G1 X123.332 Y126.008 F1000
G1 X123.540 Y126.008 F1000
G1 X123.748 Y126.216 F1000
G1 X123.956 Y126.216 F1000
G1 X124.164 Y126.424 F1000
G1 X124.372 Y126.424 F1000
G1 X124.580 Y126.632 F1000
G0 Z3.0 ; Pen up

G0 X128.532 Y127.464 F3000 ; Travel to line 162
G0 Z0.0 ; Pen down
G1 X128.324 Y127.256 F1000
G1 X127.076 Y127.256 F1000
G1 X126.868 Y127.048 F1000
G1 X126.244 Y127.048 F1000
G1 X126.036 Y126.840 F1000
G1 X125.412 Y126.840 F1000
G1 X126.036 Y126.840 F1000
G1 X126.244 Y127.048 F1000
G1 X126.868 Y127.048 F1000
G1 X127.076 Y127.256 F1000
G1 X128.324 Y127.256 F1000
G1 X128.532 Y127.464 F1000
G1 X128.740 Y127.464 F1000
G1 X128.948 Y127.256 F1000
G1 X130.404 Y127.256 F1000
G1 X130.612 Y127.048 F1000
G1 X131.236 Y127.048 F1000
G1 X131.444 Y126.840 F1000
G1 X131.860 Y126.840 F1000
G1 X132.068 Y126.632 F1000
G1 X132.692 Y126.632 F1000
G1 X132.900 Y126.424 F1000
G1 X133.316 Y126.424 F1000
G1 X133.524 Y126.216 F1000
G1 X133.732 Y126.216 F1000
G1 X134.148 Y125.800 F1000
G1 X134.564 Y125.800 F1000
G1 X134.356 Y125.800 F1000
G1 X134.148 Y126.008 F1000
G1 X133.940 Y126.008 F1000
G1 X133.524 Y126.424 F1000
G1 X132.900 Y126.424 F1000
G1 X132.692 Y126.632 F1000
G1 X132.276 Y126.632 F1000
G1 X132.068 Y126.840 F1000
G1 X131.444 Y126.840 F1000
G1 X131.236 Y127.048 F1000
G1 X130.612 Y127.048 F1000
G1 X130.404 Y127.256 F1000
G1 X128.948 Y127.256 F1000
G1 X128.740 Y127.464 F1000
G0 Z3.0 ; Pen up

G0 X134.980 Y125.592 F3000 ; Travel to line 163
G0 Z0.0 ; Pen down
G1 X135.604 Y124.968 F1000
G1 X135.812 Y124.968 F1000
G1 X136.228 Y124.552 F1000
G1 X136.436 Y124.552 F1000
G1 X138.308 Y122.680 F1000
G1 X138.308 Y122.472 F1000
G1 X138.724 Y122.056 F1000
G1 X138.724 Y121.848 F1000
G1 X139.140 Y121.432 F1000
G1 X139.140 Y121.224 F1000
G1 X139.556 Y120.808 F1000
G1 X139.556 Y120.600 F1000
G1 X139.764 Y120.392 F1000
G1 X139.764 Y120.184 F1000
G1 X139.972 Y119.976 F1000
G1 X139.972 Y119.560 F1000
G1 X140.180 Y119.352 F1000
G1 X140.180 Y119.144 F1000
G1 X140.388 Y118.936 F1000
G1 X140.388 Y118.728 F1000
G1 X140.596 Y118.520 F1000
G1 X140.596 Y117.896 F1000
G1 X140.804 Y117.688 F1000
G1 X140.804 Y117.272 F1000
G1 X141.012 Y117.064 F1000
G1 X141.012 Y115.400 F1000
G1 X141.220 Y115.192 F1000
G1 X141.220 Y113.944 F1000
G1 X141.012 Y113.736 F1000
G1 X141.012 Y111.864 F1000
G1 X140.804 Y111.656 F1000
G1 X140.804 Y110.824 F1000
G1 X140.596 Y110.616 F1000
G1 X140.596 Y110.200 F1000
G1 X140.388 Y109.992 F1000
G1 X140.388 Y109.576 F1000
G1 X140.180 Y109.368 F1000
G1 X140.180 Y109.160 F1000
G1 X139.972 Y108.952 F1000
G1 X139.972 Y108.536 F1000
G1 X139.764 Y108.328 F1000
G1 X139.764 Y108.120 F1000
G1 X139.348 Y107.704 F1000
G1 X139.348 Y107.496 F1000
G1 X139.140 Y107.288 F1000
G1 X139.140 Y107.080 F1000
G1 X138.932 Y106.872 F1000
G1 X138.932 Y106.664 F1000
G1 X137.892 Y105.624 F1000
G1 X137.892 Y105.416 F1000
G1 X135.396 Y102.920 F1000
G1 X135.188 Y102.920 F1000
G1 X134.980 Y102.712 F1000
G1 X134.772 Y102.712 F1000
G1 X134.356 Y102.296 F1000
G1 X134.148 Y102.296 F1000
G1 X133.732 Y101.880 F1000
G1 X133.524 Y101.880 F1000
G1 X133.316 Y101.672 F1000
G1 X133.108 Y101.672 F1000
G1 X132.900 Y101.464 F1000
G1 X132.692 Y101.464 F1000
G1 X132.484 Y101.256 F1000
G1 X132.276 Y101.256 F1000
G1 X132.068 Y101.048 F1000
G1 X131.444 Y101.048 F1000
G1 X131.236 Y100.840 F1000
G1 X131.028 Y100.840 F1000
G1 X131.236 Y100.840 F1000
G1 X131.444 Y101.048 F1000
G1 X132.068 Y101.048 F1000
G1 X132.276 Y101.256 F1000
G1 X132.484 Y101.256 F1000
G1 X132.692 Y101.464 F1000
G1 X133.108 Y101.464 F1000
G1 X133.316 Y101.672 F1000
G1 X133.524 Y101.672 F1000
G1 X133.732 Y101.880 F1000
G1 X133.940 Y101.880 F1000
G1 X134.772 Y102.712 F1000
G1 X134.980 Y102.712 F1000
G1 X135.188 Y102.920 F1000
G1 X135.396 Y102.920 F1000
G1 X135.812 Y103.336 F1000
G1 X136.020 Y103.336 F1000
G1 X137.684 Y105.000 F1000
G1 X137.684 Y105.208 F1000
G1 X138.724 Y106.248 F1000
G1 X138.724 Y106.456 F1000
G1 X138.932 Y106.664 F1000
G1 X138.932 Y106.872 F1000
G1 X139.348 Y107.288 F1000
G1 X139.348 Y107.496 F1000
G1 X139.556 Y107.704 F1000
G1 X139.556 Y107.912 F1000
G1 X139.764 Y108.120 F1000
G1 X139.764 Y108.328 F1000
G1 X139.972 Y108.536 F1000
G1 X139.972 Y108.744 F1000
G1 X140.180 Y108.952 F1000
G1 X140.180 Y109.368 F1000
G1 X140.388 Y109.576 F1000
G1 X140.388 Y109.784 F1000
G1 X140.596 Y109.992 F1000
G1 X140.596 Y110.616 F1000
G1 X140.804 Y110.824 F1000
G1 X140.804 Y111.448 F1000
G1 X141.012 Y111.656 F1000
G1 X141.012 Y113.736 F1000
G1 X141.220 Y113.944 F1000
G1 X141.220 Y115.192 F1000
G1 X141.012 Y115.400 F1000
G1 X141.012 Y117.064 F1000
G1 X140.804 Y117.272 F1000
G1 X140.804 Y117.688 F1000
G1 X140.596 Y117.896 F1000
G1 X140.596 Y118.520 F1000
G1 X140.388 Y118.728 F1000
G1 X140.388 Y119.144 F1000
G1 X140.180 Y119.352 F1000
G1 X140.180 Y119.560 F1000
G1 X139.972 Y119.768 F1000
G1 X139.972 Y119.976 F1000
G1 X139.764 Y120.184 F1000
G1 X139.764 Y120.600 F1000
G1 X139.556 Y120.808 F1000
G1 X139.556 Y121.016 F1000
G1 X139.140 Y121.432 F1000
G1 X139.140 Y121.640 F1000
G1 X138.724 Y122.056 F1000
G1 X138.724 Y122.264 F1000
G1 X137.684 Y123.304 F1000
G1 X137.684 Y123.512 F1000
G1 X136.852 Y124.344 F1000
G1 X136.644 Y124.344 F1000
G1 X136.228 Y124.760 F1000
G1 X136.020 Y124.760 F1000
G1 X135.604 Y125.176 F1000
G1 X135.396 Y125.176 F1000
G0 Z3.0 ; Pen up

G0 X137.268 Y132.456 F3000 ; Travel to line 164
G0 Z0.0 ; Pen down
G1 X137.476 Y132.456 F1000
G1 X137.684 Y132.248 F1000
G1 X137.892 Y132.248 F1000
G1 X138.100 Y132.040 F1000
G1 X138.308 Y132.040 F1000
G1 X138.516 Y131.832 F1000
G1 X138.724 Y131.832 F1000
G1 X139.140 Y131.416 F1000
G1 X139.348 Y131.416 F1000
G1 X139.764 Y131.000 F1000
G1 X139.972 Y131.000 F1000
G1 X140.388 Y130.584 F1000
G1 X140.596 Y130.584 F1000
G1 X141.220 Y129.960 F1000
G1 X141.428 Y129.960 F1000
G1 X142.884 Y128.504 F1000
G1 X142.884 Y128.296 F1000
G1 X144.548 Y126.632 F1000
G1 X144.548 Y126.424 F1000
G1 X144.756 Y126.216 F1000
G1 X144.756 Y126.008 F1000
G1 X145.380 Y125.384 F1000
G1 X145.380 Y125.176 F1000
G1 X145.588 Y124.968 F1000
G1 X145.588 Y124.760 F1000
G1 X145.796 Y124.552 F1000
G1 X145.796 Y124.344 F1000
G1 X146.004 Y124.136 F1000
G1 X146.004 Y123.928 F1000
G1 X146.212 Y123.720 F1000
G1 X146.212 Y123.512 F1000
G1 X146.420 Y123.304 F1000
G1 X146.420 Y123.096 F1000
G1 X146.628 Y122.888 F1000
G1 X146.628 Y122.680 F1000
G1 X146.836 Y122.472 F1000
G1 X146.836 Y122.264 F1000
G1 X147.044 Y122.056 F1000
G1 X147.044 Y121.640 F1000
G1 X147.252 Y121.432 F1000
G1 X147.252 Y121.016 F1000
G1 X147.460 Y120.808 F1000
G1 X147.460 Y120.392 F1000
G1 X147.668 Y120.184 F1000
G1 X147.668 Y119.560 F1000
G1 X147.876 Y119.352 F1000
G1 X147.876 Y118.520 F1000
G1 X148.084 Y118.312 F1000
G1 X148.084 Y117.896 F1000
G1 X148.292 Y117.688 F1000
G1 X148.292 Y116.024 F1000
G1 X148.292 Y117.688 F1000
G1 X148.084 Y117.896 F1000
G1 X148.084 Y118.312 F1000
G1 X147.876 Y118.520 F1000
G1 X147.876 Y119.352 F1000
G1 X147.668 Y119.560 F1000
G1 X147.668 Y120.184 F1000
G1 X147.460 Y120.392 F1000
G1 X147.460 Y120.808 F1000
G1 X147.252 Y121.016 F1000
G1 X147.252 Y121.432 F1000
G1 X147.044 Y121.640 F1000
G1 X147.044 Y122.056 F1000
G1 X146.836 Y122.264 F1000
G1 X146.836 Y122.472 F1000
G1 X146.628 Y122.680 F1000
G1 X146.628 Y122.888 F1000
G1 X146.420 Y123.096 F1000
G1 X146.420 Y123.304 F1000
G1 X146.004 Y123.720 F1000
G1 X146.004 Y124.136 F1000
G1 X145.796 Y124.344 F1000
G1 X145.796 Y124.552 F1000
G1 X145.380 Y124.968 F1000
G1 X145.380 Y125.176 F1000
G1 X145.172 Y125.384 F1000
G1 X145.172 Y125.592 F1000
G1 X144.548 Y126.216 F1000
G1 X144.548 Y126.424 F1000
G1 X143.924 Y127.048 F1000
G1 X143.924 Y127.256 F1000
G1 X141.220 Y129.960 F1000
G1 X141.012 Y129.960 F1000
G1 X140.180 Y130.792 F1000
G1 X139.972 Y130.792 F1000
G1 X139.556 Y131.208 F1000
G1 X139.348 Y131.208 F1000
G1 X138.932 Y131.624 F1000
G1 X138.724 Y131.624 F1000
G1 X138.308 Y132.040 F1000
G1 X138.100 Y132.040 F1000
G1 X137.892 Y132.248 F1000
G1 X137.684 Y132.248 F1000
G1 X137.476 Y132.456 F1000
G1 X137.268 Y132.456 F1000
G1 X137.060 Y132.664 F1000
G0 Z3.0 ; Pen up

G0 X136.852 Y132.664 F3000 ; Travel to line 165
G0 Z0.0 ; Pen down
G1 X136.644 Y132.872 F1000
G0 Z3.0 ; Pen up

G0 X136.436 Y132.872 F3000 ; Travel to line 166
G0 Z0.0 ; Pen down
G1 X136.228 Y133.080 F1000
G0 Z3.0 ; Pen up

G0 X135.812 Y133.080 F3000 ; Travel to line 167
G0 Z0.0 ; Pen down
G1 X135.604 Y133.288 F1000
G0 Z3.0 ; Pen up

G0 X135.396 Y133.288 F3000 ; Travel to line 168
G0 Z0.0 ; Pen down
G1 X135.188 Y133.496 F1000
G0 Z3.0 ; Pen up

G0 X134.980 Y133.496 F3000 ; Travel to line 169
G0 Z0.0 ; Pen down
G1 X135.188 Y133.496 F1000
G1 X134.980 Y133.496 F1000
G0 Z3.0 ; Pen up

G0 X134.772 Y133.496 F3000 ; Travel to line 170
G0 Z0.0 ; Pen down
G1 X134.564 Y133.704 F1000
G0 Z3.0 ; Pen up

G0 X134.356 Y133.704 F3000 ; Travel to line 171
G0 Z0.0 ; Pen down
G1 X134.564 Y133.704 F1000
G1 X134.356 Y133.704 F1000
G0 Z3.0 ; Pen up

G0 X133.940 Y133.912 F3000 ; Travel to line 172
G0 Z0.0 ; Pen down
G1 X133.108 Y133.912 F1000
G0 Z3.0 ; Pen up

G0 X133.108 Y133.912 F3000 ; Travel to line 173
G0 Z0.0 ; Pen down
G1 X133.940 Y133.912 F1000
G1 X133.108 Y133.912 F1000
G0 Z3.0 ; Pen up

G0 X132.900 Y133.912 F3000 ; Travel to line 174
G0 Z0.0 ; Pen down
G1 X132.692 Y134.120 F1000
G0 Z3.0 ; Pen up

G0 X132.068 Y134.120 F3000 ; Travel to line 175
G0 Z0.0 ; Pen down
G1 X132.692 Y134.120 F1000
G1 X132.068 Y134.120 F1000
G0 Z3.0 ; Pen up

G0 X131.652 Y134.328 F3000 ; Travel to line 176
G0 Z0.0 ; Pen down
G1 X130.820 Y134.328 F1000
G0 Z3.0 ; Pen up

G0 X130.820 Y134.328 F3000 ; Travel to line 177
G0 Z0.0 ; Pen down
G1 X131.652 Y134.328 F1000
G1 X130.820 Y134.328 F1000
G0 Z3.0 ; Pen up

G0 X130.404 Y134.536 F3000 ; Travel to line 178
G0 Z0.0 ; Pen down
G1 X126.868 Y134.536 F1000
G1 X126.660 Y134.328 F1000
G1 X125.620 Y134.328 F1000
G1 X126.660 Y134.328 F1000
G1 X126.868 Y134.536 F1000
G0 Z3.0 ; Pen up

G0 X125.204 Y133.912 F3000 ; Travel to line 179
G0 Z0.0 ; Pen down
G1 X124.996 Y134.120 F1000
G0 Z3.0 ; Pen up

G0 X124.372 Y134.120 F3000 ; Travel to line 180
G0 Z0.0 ; Pen down
G1 X124.996 Y134.120 F1000
G1 X124.372 Y134.120 F1000
G0 Z3.0 ; Pen up

G0 X123.956 Y133.704 F3000 ; Travel to line 181
G0 Z0.0 ; Pen down
G1 X123.748 Y133.912 F1000
G0 Z3.0 ; Pen up

G0 X123.332 Y133.704 F3000 ; Travel to line 182
G0 Z0.0 ; Pen down
G1 X123.540 Y133.496 F1000
G0 Z3.0 ; Pen up

G0 X122.708 Y133.496 F3000 ; Travel to line 183
G0 Z0.0 ; Pen down
G1 X122.292 Y133.496 F1000
G1 X122.084 Y133.288 F1000
G1 X121.668 Y133.288 F1000
G1 X121.460 Y133.080 F1000
G1 X121.668 Y133.288 F1000
G1 X121.876 Y133.288 F1000
G1 X122.084 Y133.496 F1000
G0 Z3.0 ; Pen up

G0 X121.252 Y132.664 F3000 ; Travel to line 184
G0 Z0.0 ; Pen down
G1 X121.044 Y132.872 F1000
G0 Z3.0 ; Pen up

G0 X120.628 Y132.456 F3000 ; Travel to line 185
G0 Z0.0 ; Pen down
G1 X120.420 Y132.664 F1000
G0 Z3.0 ; Pen up

G0 X120.004 Y132.456 F3000 ; Travel to line 186
G0 Z0.0 ; Pen down
G1 X119.796 Y132.248 F1000
G1 X119.588 Y132.248 F1000
G1 X119.172 Y131.832 F1000
G1 X118.964 Y131.832 F1000
G1 X118.756 Y131.624 F1000
G1 X118.548 Y131.624 F1000
G1 X118.132 Y131.208 F1000
G1 X117.924 Y131.208 F1000
G1 X117.508 Y130.792 F1000
G1 X117.300 Y130.792 F1000
G1 X114.388 Y127.880 F1000
G1 X114.388 Y127.672 F1000
G1 X113.556 Y126.840 F1000
G1 X113.556 Y126.632 F1000
G1 X113.140 Y126.216 F1000
G1 X113.140 Y126.008 F1000
G1 X112.932 Y125.800 F1000
G1 X112.932 Y125.592 F1000
G1 X112.516 Y125.176 F1000
G1 X112.516 Y124.968 F1000
G1 X112.308 Y124.760 F1000
G1 X112.308 Y124.552 F1000
G1 X112.100 Y124.344 F1000
G1 X112.100 Y124.136 F1000
G1 X111.892 Y123.928 F1000
G1 X111.892 Y123.720 F1000
G1 X111.684 Y123.512 F1000
G1 X111.684 Y123.096 F1000
G1 X111.476 Y122.888 F1000
G1 X111.476 Y122.472 F1000
G1 X111.268 Y122.264 F1000
G1 X111.268 Y121.848 F1000
G1 X111.060 Y121.640 F1000
G1 X111.060 Y121.432 F1000
G1 X110.852 Y121.224 F1000
G1 X110.852 Y120.600 F1000
G1 X110.644 Y120.392 F1000
G1 X110.644 Y119.352 F1000
G1 X110.436 Y119.144 F1000
G1 X110.436 Y117.272 F1000
G1 X110.228 Y117.064 F1000
G1 X110.228 Y116.648 F1000
G1 X110.436 Y116.440 F1000
G1 X110.436 Y114.360 F1000
G1 X110.644 Y114.152 F1000
G1 X110.644 Y113.320 F1000
G1 X110.852 Y113.112 F1000
G1 X110.852 Y112.280 F1000
G1 X111.060 Y112.072 F1000
G1 X111.060 Y111.448 F1000
G1 X111.268 Y111.240 F1000
G1 X111.268 Y110.824 F1000
G1 X111.476 Y110.616 F1000
G1 X111.476 Y110.408 F1000
G1 X111.684 Y110.200 F1000
G1 X111.684 Y109.992 F1000
G1 X111.892 Y109.784 F1000
G1 X111.892 Y109.368 F1000
G1 X112.100 Y109.160 F1000
G1 X112.100 Y108.952 F1000
G1 X112.308 Y108.744 F1000
G1 X112.308 Y108.536 F1000
G1 X112.724 Y108.120 F1000
G1 X112.724 Y107.912 F1000
G1 X113.140 Y107.496 F1000
G1 X113.140 Y107.288 F1000
G1 X113.556 Y106.872 F1000
G1 X113.556 Y106.664 F1000
G1 X114.180 Y106.040 F1000
G1 X114.180 Y105.832 F1000
G1 X115.428 Y104.584 F1000
G1 X115.428 Y104.376 F1000
G1 X115.636 Y104.168 F1000
G1 X115.844 Y104.168 F1000
G1 X116.468 Y103.544 F1000
G1 X116.676 Y103.544 F1000
G1 X117.300 Y102.920 F1000
G1 X117.508 Y102.920 F1000
G1 X117.924 Y102.504 F1000
G1 X118.132 Y102.504 F1000
G1 X118.340 Y102.296 F1000
G1 X118.548 Y102.296 F1000
G1 X118.756 Y102.088 F1000
G1 X118.964 Y102.088 F1000
G1 X119.380 Y101.672 F1000
G1 X119.588 Y101.672 F1000
G1 X119.796 Y101.464 F1000
G1 X120.004 Y101.464 F1000
G1 X120.212 Y101.256 F1000
G1 X120.420 Y101.256 F1000
G1 X120.628 Y101.048 F1000
G1 X121.044 Y101.048 F1000
G1 X120.628 Y101.048 F1000
G1 X120.420 Y101.256 F1000
G1 X120.212 Y101.256 F1000
G1 X120.004 Y101.464 F1000
G1 X119.796 Y101.464 F1000
G1 X119.588 Y101.672 F1000
G1 X119.380 Y101.672 F1000
G1 X118.964 Y102.088 F1000
G1 X118.756 Y102.088 F1000
G1 X118.340 Y102.504 F1000
G1 X118.132 Y102.504 F1000
G1 X117.924 Y102.712 F1000
G1 X117.716 Y102.712 F1000
G1 X117.300 Y103.128 F1000
G1 X117.092 Y103.128 F1000
G1 X116.468 Y103.752 F1000
G1 X116.260 Y103.752 F1000
G1 X115.220 Y104.792 F1000
G1 X115.220 Y105.000 F1000
G1 X115.012 Y105.208 F1000
G1 X114.804 Y105.208 F1000
G1 X114.388 Y105.624 F1000
G1 X114.388 Y105.832 F1000
G1 X113.764 Y106.456 F1000
G1 X113.764 Y106.664 F1000
G1 X113.140 Y107.288 F1000
G1 X113.140 Y107.496 F1000
G1 X112.932 Y107.704 F1000
G1 X112.932 Y107.912 F1000
G1 X112.724 Y108.120 F1000
G1 X112.724 Y108.328 F1000
G1 X112.308 Y108.744 F1000
G1 X112.308 Y108.952 F1000
G1 X112.100 Y109.160 F1000
G1 X112.100 Y109.368 F1000
G1 X111.892 Y109.576 F1000
G1 X111.892 Y109.784 F1000
G1 X111.684 Y109.992 F1000
G1 X111.684 Y110.200 F1000
G1 X111.476 Y110.408 F1000
G1 X111.476 Y110.616 F1000
G1 X111.268 Y110.824 F1000
G1 X111.268 Y111.240 F1000
G1 X111.060 Y111.448 F1000
G1 X111.060 Y112.072 F1000
G1 X110.852 Y112.280 F1000
G1 X110.852 Y113.112 F1000
G1 X110.644 Y113.320 F1000
G1 X110.644 Y114.152 F1000
G1 X110.436 Y114.360 F1000
G1 X110.436 Y116.440 F1000
G1 X110.228 Y116.648 F1000
G1 X110.228 Y117.064 F1000
G1 X110.436 Y117.272 F1000
G1 X110.436 Y119.144 F1000
G1 X110.644 Y119.352 F1000
G1 X110.644 Y120.392 F1000
G1 X110.852 Y120.600 F1000
G1 X110.852 Y121.224 F1000
G1 X111.060 Y121.432 F1000
G1 X111.060 Y121.640 F1000
G1 X111.268 Y121.848 F1000
G1 X111.268 Y122.264 F1000
G1 X111.476 Y122.472 F1000
G1 X111.476 Y122.888 F1000
G1 X111.684 Y123.096 F1000
G1 X111.684 Y123.304 F1000
G1 X111.892 Y123.512 F1000
G1 X111.892 Y123.720 F1000
G1 X112.100 Y123.928 F1000
G1 X112.100 Y124.136 F1000
G1 X112.308 Y124.344 F1000
G1 X112.308 Y124.552 F1000
G1 X112.516 Y124.760 F1000
G1 X112.516 Y124.968 F1000
G1 X112.724 Y125.176 F1000
G1 X112.724 Y125.384 F1000
G1 X112.932 Y125.592 F1000
G1 X112.932 Y125.800 F1000
G1 X113.140 Y126.008 F1000
G1 X113.140 Y126.216 F1000
G1 X113.972 Y127.048 F1000
G1 X113.972 Y127.256 F1000
G1 X114.596 Y127.880 F1000
G1 X114.596 Y128.088 F1000
G1 X116.260 Y129.752 F1000
G1 X116.468 Y129.752 F1000
G1 X117.716 Y131.000 F1000
G1 X117.924 Y131.000 F1000
G1 X118.340 Y131.416 F1000
G1 X118.548 Y131.416 F1000
G1 X118.964 Y131.832 F1000
G1 X119.172 Y131.832 F1000
G1 X119.588 Y132.248 F1000
G1 X119.796 Y132.248 F1000
G0 Z3.0 ; Pen up

G0 X118.964 Y163.032 F3000 ; Travel to line 187
G0 Z0.0 ; Pen down
G1 X102.740 Y179.256 F1000
G0 Z3.0 ; Pen up

G0 X103.156 Y181.128 F3000 ; Travel to line 188
G0 Z0.0 ; Pen down
G1 X110.644 Y173.640 F1000
G0 Z3.0 ; Pen up

G0 X110.644 Y173.432 F3000 ; Travel to line 189
G0 Z0.0 ; Pen down
G1 X110.852 Y173.432 F1000
G0 Z3.0 ; Pen up

G0 X109.812 Y176.552 F3000 ; Travel to line 190
G0 Z0.0 ; Pen down
G1 X103.572 Y182.792 F1000
G0 Z3.0 ; Pen up

G0 X104.196 Y184.248 F3000 ; Travel to line 191
G0 Z0.0 ; Pen down
G1 X109.812 Y178.632 F1000
G0 Z3.0 ; Pen up

G0 X110.020 Y180.296 F3000 ; Travel to line 192
G0 Z0.0 ; Pen down
G1 X105.028 Y185.496 F1000
G0 Z3.0 ; Pen up

G0 X105.860 Y186.744 F3000 ; Travel to line 193
G0 Z0.0 ; Pen down
G1 X110.644 Y181.960 F1000
G0 Z3.0 ; Pen up

G0 X111.476 Y183.416 F3000 ; Travel to line 194
G0 Z0.0 ; Pen down
G1 X106.900 Y187.992 F1000
G0 Z3.0 ; Pen up

G0 X107.940 Y189.032 F3000 ; Travel to line 195
G0 Z0.0 ; Pen down
G1 X112.308 Y184.664 F1000
G0 Z3.0 ; Pen up

G0 X113.348 Y185.704 F3000 ; Travel to line 196
G0 Z0.0 ; Pen down
G1 X109.188 Y189.864 F1000
G0 Z3.0 ; Pen up

G0 X110.436 Y190.696 F3000 ; Travel to line 197
G0 Z0.0 ; Pen down
G1 X114.388 Y186.536 F1000
G0 Z3.0 ; Pen up

G0 X115.844 Y187.368 F3000 ; Travel to line 198
G0 Z0.0 ; Pen down
G1 X111.892 Y191.320 F1000
G0 Z3.0 ; Pen up

G0 X113.556 Y191.944 F3000 ; Travel to line 199
G0 Z0.0 ; Pen down
G1 X117.300 Y187.992 F1000
G0 Z3.0 ; Pen up

G0 X118.964 Y188.408 F3000 ; Travel to line 200
G0 Z0.0 ; Pen down
G1 X115.220 Y192.152 F1000
G0 Z3.0 ; Pen up

G0 X115.636 Y192.360 F3000 ; Travel to line 201
G0 Z0.0 ; Pen down
G1 X115.428 Y192.152 F1000
G1 X114.388 Y192.152 F1000
G1 X114.180 Y191.944 F1000
G1 X113.556 Y191.944 F1000
G1 X113.348 Y191.736 F1000
G1 X111.684 Y191.320 F1000
G1 X110.020 Y190.488 F1000
G1 X109.604 Y190.072 F1000
G1 X108.772 Y189.656 F1000
G1 X108.148 Y189.032 F1000
G1 X107.940 Y189.032 F1000
G1 X106.068 Y187.160 F1000
G1 X106.068 Y186.952 F1000
G1 X105.444 Y186.328 F1000
G1 X105.444 Y186.120 F1000
G1 X104.612 Y185.080 F1000
G1 X103.780 Y183.416 F1000
G1 X103.780 Y183.000 F1000
G1 X103.572 Y182.792 F1000
G1 X103.572 Y182.376 F1000
G1 X103.156 Y181.544 F1000
G1 X103.156 Y180.920 F1000
G1 X102.948 Y180.712 F1000
G1 X102.948 Y179.672 F1000
G1 X102.740 Y179.464 F1000
G1 X102.740 Y176.136 F1000
G1 X102.948 Y175.928 F1000
G1 X102.948 Y174.888 F1000
G1 X103.156 Y174.680 F1000
G1 X103.156 Y174.056 F1000
G1 X103.364 Y173.848 F1000
G1 X103.780 Y172.184 F1000
G1 X104.612 Y170.520 F1000
G1 X105.028 Y170.104 F1000
G1 X105.444 Y169.272 F1000
G1 X106.068 Y168.648 F1000
G1 X106.068 Y168.440 F1000
G1 X107.940 Y166.568 F1000
G1 X108.148 Y166.568 F1000
G1 X108.772 Y165.944 F1000
G1 X108.980 Y165.944 F1000
G1 X110.020 Y165.112 F1000
G1 X111.684 Y164.280 F1000
G1 X112.100 Y164.280 F1000
G1 X112.308 Y164.072 F1000
G1 X112.724 Y164.072 F1000
G1 X113.556 Y163.656 F1000
G1 X114.180 Y163.656 F1000
G1 X114.388 Y163.448 F1000
G1 X115.428 Y163.448 F1000
G1 X115.636 Y163.240 F1000
G1 X118.964 Y163.240 F1000
G1 X119.172 Y163.448 F1000
G1 X120.212 Y163.448 F1000
G1 X120.420 Y163.656 F1000
G1 X121.044 Y163.656 F1000
G1 X121.252 Y163.864 F1000
G1 X122.916 Y164.280 F1000
G1 X124.580 Y165.112 F1000
G1 X124.996 Y165.528 F1000
G1 X125.828 Y165.944 F1000
G1 X126.452 Y166.568 F1000
G1 X126.660 Y166.568 F1000
G1 X128.532 Y168.440 F1000
G1 X128.532 Y168.648 F1000
G1 X129.156 Y169.272 F1000
G1 X129.156 Y169.480 F1000
G1 X129.988 Y170.520 F1000
G1 X130.820 Y172.184 F1000
G1 X130.820 Y172.600 F1000
G1 X131.028 Y172.808 F1000
G1 X131.028 Y173.224 F1000
G1 X131.444 Y174.056 F1000
G1 X131.444 Y174.680 F1000
G1 X131.652 Y174.888 F1000
G1 X131.652 Y175.928 F1000
G1 X131.860 Y176.136 F1000
G1 X131.860 Y179.464 F1000
G1 X131.652 Y179.672 F1000
G1 X131.652 Y180.712 F1000
G1 X131.444 Y180.920 F1000
G1 X131.444 Y181.544 F1000
G1 X131.236 Y181.752 F1000
G1 X130.820 Y183.416 F1000
G1 X129.988 Y185.080 F1000
G1 X129.572 Y185.496 F1000
G1 X129.156 Y186.328 F1000
G1 X128.532 Y186.952 F1000
G1 X128.532 Y187.160 F1000
G1 X126.660 Y189.032 F1000
G1 X126.452 Y189.032 F1000
G1 X125.828 Y189.656 F1000
G1 X125.620 Y189.656 F1000
G1 X124.580 Y190.488 F1000
G1 X122.916 Y191.320 F1000
G1 X122.500 Y191.320 F1000
G1 X122.292 Y191.528 F1000
G1 X121.876 Y191.528 F1000
G1 X121.044 Y191.944 F1000
G1 X120.420 Y191.944 F1000
G1 X120.212 Y192.152 F1000
G1 X119.172 Y192.152 F1000
G1 X118.964 Y192.360 F1000
G1 X115.636 Y192.360 F1000
G0 Z3.0 ; Pen up

G0 X117.092 Y192.360 F3000 ; Travel to line 202
G0 Z0.0 ; Pen down
G1 X121.044 Y188.408 F1000
G0 Z3.0 ; Pen up

G0 X123.748 Y187.992 F3000 ; Travel to line 203
G0 Z0.0 ; Pen down
G1 X119.380 Y192.152 F1000
G0 Z3.0 ; Pen up

G0 X122.292 Y191.528 F3000 ; Travel to line 204
G0 Z0.0 ; Pen down
G1 X131.028 Y182.792 F1000
G0 Z3.0 ; Pen up

G0 X131.236 Y182.584 F3000 ; Travel to line 205
G0 Z0.0 ; Pen down
G1 X122.292 Y191.528 F1000
G0 Z3.0 ; Pen up

G0 X123.748 Y187.992 F3000 ; Travel to line 206
G0 Z0.0 ; Pen down
G1 X123.748 Y187.784 F1000
G0 Z3.0 ; Pen up

G0 X130.612 Y181.128 F3000 ; Travel to line 207
G0 Z0.0 ; Pen down
G1 X131.652 Y179.880 F1000
G0 Z3.0 ; Pen up

G0 X131.860 Y179.880 F3000 ; Travel to line 208
G0 Z0.0 ; Pen down
G1 X130.820 Y180.920 F1000
G0 Z3.0 ; Pen up

G0 X131.236 Y178.424 F3000 ; Travel to line 209
G0 Z0.0 ; Pen down
G1 X132.068 Y177.592 F1000
G0 Z3.0 ; Pen up

G0 X131.236 Y176.344 F3000 ; Travel to line 210
G0 Z0.0 ; Pen down
G1 X131.860 Y175.720 F1000
G0 Z3.0 ; Pen up

G0 X130.820 Y174.680 F3000 ; Travel to line 211
G0 Z0.0 ; Pen down
G1 X131.444 Y173.848 F1000
G0 Z3.0 ; Pen up

G0 X130.196 Y173.224 F3000 ; Travel to line 212
G0 Z0.0 ; Pen down
G1 X131.028 Y172.184 F1000
G0 Z3.0 ; Pen up

G0 X130.196 Y170.728 F3000 ; Travel to line 213
G0 Z0.0 ; Pen down
G1 X129.364 Y171.768 F1000
G0 Z3.0 ; Pen up

G0 X128.324 Y170.520 F3000 ; Travel to line 214
G0 Z0.0 ; Pen down
G1 X129.364 Y169.480 F1000
G0 Z3.0 ; Pen up

G0 X128.532 Y168.232 F3000 ; Travel to line 215
G0 Z0.0 ; Pen down
G1 X127.284 Y169.480 F1000
G0 Z3.0 ; Pen up

G0 X126.036 Y168.648 F3000 ; Travel to line 216
G0 Z0.0 ; Pen down
G1 X127.492 Y167.192 F1000
G0 Z3.0 ; Pen up

G0 X126.452 Y166.152 F3000 ; Travel to line 217
G0 Z0.0 ; Pen down
G1 X124.788 Y167.816 F1000
G0 Z3.0 ; Pen up

G0 X123.124 Y167.400 F3000 ; Travel to line 218
G0 Z0.0 ; Pen down
G1 X124.996 Y165.320 F1000
G0 Z3.0 ; Pen up

G0 X123.748 Y164.488 F3000 ; Travel to line 219
G0 Z0.0 ; Pen down
G1 X121.252 Y166.984 F1000
G0 Z3.0 ; Pen up

G0 X119.172 Y166.984 F3000 ; Travel to line 220
G0 Z0.0 ; Pen down
G1 X122.292 Y163.864 F1000
G0 Z3.0 ; Pen up

G0 X120.628 Y163.448 F3000 ; Travel to line 221
G0 Z0.0 ; Pen down
G1 X116.260 Y167.816 F1000
G0 Z3.0 ; Pen up

G0 X116.260 Y168.024 F3000 ; Travel to line 222
G0 Z0.0 ; Pen down
G1 X116.052 Y168.024 F1000
G0 Z3.0 ; Pen up

G0 X114.388 Y163.448 F3000 ; Travel to line 223
G0 Z0.0 ; Pen down
G1 X114.388 Y163.240 F1000
G0 Z3.0 ; Pen up

G0 X114.180 Y163.448 F3000 ; Travel to line 224
G0 Z0.0 ; Pen down
G1 X103.156 Y174.680 F1000
G0 Z3.0 ; Pen up

G0 X102.948 Y174.680 F3000 ; Travel to line 225
G0 Z0.0 ; Pen down
G1 X102.948 Y174.888 F1000
G0 Z3.0 ; Pen up

G0 X102.740 Y177.176 F3000 ; Travel to line 226
G0 Z0.0 ; Pen down
G1 X116.676 Y163.032 F1000
G0 Z3.0 ; Pen up

G0 X111.268 Y164.280 F3000 ; Travel to line 227
G0 Z0.0 ; Pen down
G1 X111.268 Y164.488 F1000
G0 Z3.0 ; Pen up

G0 X111.060 Y164.488 F3000 ; Travel to line 228
G0 Z0.0 ; Pen down
G1 X104.196 Y171.560 F1000
G0 Z3.0 ; Pen up

G0 X103.988 Y171.560 F3000 ; Travel to line 229
G0 Z0.0 ; Pen down
G1 X103.988 Y171.768 F1000
G0 Z3.0 ; Pen up

G0 X84.020 Y168.024 F3000 ; Travel to line 230
G0 Z0.0 ; Pen down
G1 X83.812 Y168.232 F1000
G0 Z3.0 ; Pen up

G0 X84.020 Y187.160 F3000 ; Travel to line 231
G0 Z0.0 ; Pen down
G1 X83.812 Y187.368 F1000
G0 Z3.0 ; Pen up

G0 X77.988 Y189.864 F3000 ; Travel to line 232
G0 Z0.0 ; Pen down
G1 X78.196 Y189.656 F1000
G1 X79.028 Y189.656 F1000
G1 X79.236 Y189.448 F1000
G1 X80.068 Y189.448 F1000
G1 X80.276 Y189.240 F1000
G1 X80.692 Y189.240 F1000
G1 X80.900 Y189.032 F1000
G1 X81.108 Y189.032 F1000
G1 X81.316 Y188.824 F1000
G1 X81.524 Y188.824 F1000
G1 X81.732 Y188.616 F1000
G1 X81.940 Y188.616 F1000
G1 X82.148 Y188.408 F1000
G1 X82.356 Y188.408 F1000
G1 X82.772 Y187.992 F1000
G1 X82.980 Y187.992 F1000
G1 X83.188 Y187.784 F1000
G1 X82.980 Y187.992 F1000
G1 X82.772 Y187.992 F1000
G1 X82.564 Y188.200 F1000
G1 X82.356 Y188.200 F1000
G1 X82.148 Y188.408 F1000
G1 X81.940 Y188.408 F1000
G1 X81.524 Y188.824 F1000
G1 X81.316 Y188.824 F1000
G1 X81.108 Y189.032 F1000
G1 X80.900 Y189.032 F1000
G1 X80.692 Y189.240 F1000
G1 X80.068 Y189.240 F1000
G1 X79.860 Y189.448 F1000
G1 X79.236 Y189.448 F1000
G1 X79.028 Y189.656 F1000
G1 X78.196 Y189.656 F1000
G1 X77.988 Y189.864 F1000
G1 X74.868 Y189.864 F1000
G1 X74.660 Y189.656 F1000
G1 X73.620 Y189.656 F1000
G1 X73.412 Y189.448 F1000
G1 X72.996 Y189.448 F1000
G1 X72.788 Y189.240 F1000
G1 X72.372 Y189.240 F1000
G1 X72.164 Y189.032 F1000
G1 X71.956 Y189.032 F1000
G1 X71.748 Y188.824 F1000
G1 X71.540 Y188.824 F1000
G1 X71.332 Y188.616 F1000
G1 X71.124 Y188.616 F1000
G1 X70.916 Y188.408 F1000
G1 X70.708 Y188.408 F1000
G1 X70.292 Y187.992 F1000
G1 X70.084 Y187.992 F1000
G1 X69.460 Y187.368 F1000
G1 X69.252 Y187.368 F1000
G1 X68.628 Y186.744 F1000
G1 X68.420 Y186.744 F1000
G1 X67.588 Y185.912 F1000
G1 X67.588 Y185.704 F1000
G1 X66.756 Y184.872 F1000
G1 X66.756 Y184.664 F1000
G1 X66.340 Y184.248 F1000
G1 X66.340 Y184.040 F1000
G1 X66.132 Y183.832 F1000
G1 X66.132 Y183.624 F1000
G1 X65.924 Y183.416 F1000
G1 X65.924 Y183.208 F1000
G1 X65.508 Y182.792 F1000
G1 X65.508 Y182.584 F1000
G1 X65.300 Y182.376 F1000
G1 X65.300 Y182.168 F1000
G1 X65.092 Y181.960 F1000
G1 X65.092 Y181.336 F1000
G1 X64.884 Y181.128 F1000
G1 X64.884 Y180.504 F1000
G1 X64.676 Y180.296 F1000
G1 X64.676 Y179.464 F1000
G1 X64.468 Y179.256 F1000
G1 X64.468 Y176.344 F1000
G1 X64.676 Y176.136 F1000
G1 X64.676 Y175.304 F1000
G1 X64.884 Y175.096 F1000
G1 X64.884 Y174.472 F1000
G1 X65.092 Y174.264 F1000
G1 X65.092 Y173.640 F1000
G1 X65.300 Y173.432 F1000
G1 X65.300 Y173.224 F1000
G1 X65.508 Y173.016 F1000
G1 X65.508 Y172.808 F1000
G1 X65.924 Y172.392 F1000
G1 X65.924 Y172.184 F1000
G1 X66.132 Y171.976 F1000
G1 X66.132 Y171.768 F1000
G1 X66.340 Y171.560 F1000
G1 X66.340 Y171.352 F1000
G1 X66.756 Y170.936 F1000
G1 X66.756 Y170.728 F1000
G1 X67.588 Y169.896 F1000
G1 X67.588 Y169.688 F1000
G1 X68.420 Y168.856 F1000
G1 X68.628 Y168.856 F1000
G1 X69.252 Y168.232 F1000
G1 X69.460 Y168.232 F1000
G1 X70.084 Y167.608 F1000
G1 X70.292 Y167.608 F1000
G1 X70.708 Y167.192 F1000
G1 X70.916 Y167.192 F1000
G1 X71.124 Y166.984 F1000
G1 X71.540 Y166.984 F1000
G1 X71.748 Y166.776 F1000
G1 X71.956 Y166.776 F1000
G1 X72.164 Y166.568 F1000
G1 X72.580 Y166.568 F1000
G1 X72.788 Y166.360 F1000
G1 X73.204 Y166.360 F1000
G1 X73.412 Y166.152 F1000
G1 X74.036 Y166.152 F1000
G1 X74.244 Y165.944 F1000
G1 X75.076 Y165.944 F1000
G1 X75.284 Y165.736 F1000
G1 X76.740 Y165.736 F1000
G1 X76.948 Y165.944 F1000
G1 X79.028 Y165.944 F1000
G1 X79.236 Y166.152 F1000
G1 X79.652 Y166.152 F1000
G1 X79.860 Y166.360 F1000
G1 X80.068 Y166.360 F1000
G1 X80.276 Y166.568 F1000
G1 X80.900 Y166.568 F1000
G1 X81.108 Y166.776 F1000
G1 X81.524 Y166.776 F1000
G1 X81.940 Y167.192 F1000
G1 X82.148 Y167.192 F1000
G1 X82.356 Y167.400 F1000
G1 X82.564 Y167.400 F1000
G1 X82.772 Y167.608 F1000
G1 X82.980 Y167.608 F1000
G1 X83.188 Y167.816 F1000
G1 X82.980 Y167.608 F1000
G1 X82.772 Y167.608 F1000
G1 X82.356 Y167.192 F1000
G1 X82.148 Y167.192 F1000
G1 X81.940 Y166.984 F1000
G1 X81.732 Y166.984 F1000
G1 X81.524 Y166.776 F1000
G1 X81.108 Y166.776 F1000
G1 X80.900 Y166.568 F1000
G1 X80.484 Y166.568 F1000
G1 X80.276 Y166.360 F1000
G1 X79.860 Y166.360 F1000
G1 X79.652 Y166.152 F1000
G1 X79.236 Y166.152 F1000
G1 X79.028 Y165.944 F1000
G1 X76.948 Y165.944 F1000
G1 X76.740 Y165.736 F1000
G1 X75.284 Y165.736 F1000
G1 X75.076 Y165.944 F1000
G1 X74.244 Y165.944 F1000
G1 X74.036 Y166.152 F1000
G1 X73.412 Y166.152 F1000
G1 X73.204 Y166.360 F1000
G1 X72.580 Y166.360 F1000
G1 X72.372 Y166.568 F1000
G1 X72.164 Y166.568 F1000
G1 X71.956 Y166.776 F1000
G1 X71.748 Y166.776 F1000
G1 X71.540 Y166.984 F1000
G1 X71.124 Y166.984 F1000
G1 X70.916 Y167.192 F1000
G1 X70.708 Y167.192 F1000
G1 X70.500 Y167.400 F1000
G1 X70.292 Y167.400 F1000
G1 X69.876 Y167.816 F1000
G1 X69.668 Y167.816 F1000
G1 X69.252 Y168.232 F1000
G1 X69.044 Y168.232 F1000
G1 X66.964 Y170.312 F1000
G1 X66.964 Y170.520 F1000
G1 X66.548 Y170.936 F1000
G1 X66.548 Y171.144 F1000
G1 X66.340 Y171.352 F1000
G1 X66.340 Y171.560 F1000
G1 X65.924 Y171.976 F1000
G1 X65.924 Y172.184 F1000
G1 X65.716 Y172.392 F1000
G1 X65.716 Y172.600 F1000
G1 X65.508 Y172.808 F1000
G1 X65.508 Y173.016 F1000
G1 X65.300 Y173.224 F1000
G1 X65.300 Y173.432 F1000
G1 X65.092 Y173.640 F1000
G1 X65.092 Y174.056 F1000
G1 X64.884 Y174.264 F1000
G1 X64.884 Y175.096 F1000
G1 X64.676 Y175.304 F1000
G1 X64.676 Y176.136 F1000
G1 X64.468 Y176.344 F1000
G1 X64.468 Y179.256 F1000
G1 X64.676 Y179.464 F1000
G1 X64.676 Y180.296 F1000
G1 X64.884 Y180.504 F1000
G1 X64.884 Y181.336 F1000
G1 X65.092 Y181.544 F1000
G1 X65.092 Y181.960 F1000
G1 X65.300 Y182.168 F1000
G1 X65.300 Y182.376 F1000
G1 X65.508 Y182.584 F1000
G1 X65.508 Y182.792 F1000
G1 X65.716 Y183.000 F1000
G1 X65.716 Y183.208 F1000
G1 X65.924 Y183.416 F1000
G1 X65.924 Y183.624 F1000
G1 X66.340 Y184.040 F1000
G1 X66.340 Y184.248 F1000
G1 X66.548 Y184.456 F1000
G1 X66.548 Y184.664 F1000
G1 X66.964 Y185.080 F1000
G1 X66.964 Y185.288 F1000
G1 X69.044 Y187.368 F1000
G1 X69.252 Y187.368 F1000
G1 X69.668 Y187.784 F1000
G1 X69.876 Y187.784 F1000
G1 X70.292 Y188.200 F1000
G1 X70.500 Y188.200 F1000
G1 X70.708 Y188.408 F1000
G1 X70.916 Y188.408 F1000
G1 X71.124 Y188.616 F1000
G1 X71.332 Y188.616 F1000
G1 X71.540 Y188.824 F1000
G1 X71.748 Y188.824 F1000
G1 X71.956 Y189.032 F1000
G1 X72.164 Y189.032 F1000
G1 X72.372 Y189.240 F1000
G1 X72.580 Y189.240 F1000
G1 X72.788 Y189.448 F1000
G1 X73.412 Y189.448 F1000
G1 X73.620 Y189.656 F1000
G1 X74.660 Y189.656 F1000
G1 X74.868 Y189.864 F1000
G0 Z3.0 ; Pen up

G0 X75.492 Y128.504 F3000 ; Travel to line 233
G0 Z0.0 ; Pen down
G1 X75.284 Y128.296 F1000
G1 X73.620 Y128.296 F1000
G1 X73.412 Y128.088 F1000
G1 X72.788 Y128.088 F1000
G1 X72.580 Y127.880 F1000
G1 X72.164 Y127.880 F1000
G1 X71.956 Y127.672 F1000
G1 X71.748 Y127.672 F1000
G1 X71.540 Y127.464 F1000
G1 X71.332 Y127.464 F1000
G1 X71.124 Y127.256 F1000
G1 X70.708 Y127.256 F1000
G1 X70.500 Y127.048 F1000
G1 X70.292 Y127.048 F1000
G1 X70.084 Y126.840 F1000
G1 X69.876 Y126.840 F1000
G1 X69.460 Y126.424 F1000
G1 X69.252 Y126.424 F1000
G1 X68.836 Y126.008 F1000
G1 X68.628 Y126.008 F1000
G1 X67.588 Y124.968 F1000
G1 X67.380 Y124.968 F1000
G1 X67.172 Y124.760 F1000
G1 X67.172 Y124.552 F1000
G1 X66.132 Y123.512 F1000
G1 X66.132 Y123.304 F1000
G1 X65.716 Y122.888 F1000
G1 X65.716 Y122.680 F1000
G1 X65.300 Y122.264 F1000
G1 X65.300 Y122.056 F1000
G1 X65.092 Y121.848 F1000
G1 X65.092 Y121.432 F1000
G1 X64.884 Y121.224 F1000
G1 X64.884 Y120.808 F1000
G1 X64.676 Y120.600 F1000
G1 X64.676 Y120.392 F1000
G1 X64.468 Y120.184 F1000
G1 X64.468 Y119.768 F1000
G1 X64.260 Y119.560 F1000
G1 X64.260 Y119.144 F1000
G1 X64.052 Y118.936 F1000
G1 X64.052 Y117.688 F1000
G1 X63.844 Y117.480 F1000
G1 X63.844 Y115.192 F1000
G1 X64.052 Y114.984 F1000
G1 X64.052 Y113.736 F1000
G1 X64.260 Y113.528 F1000
G1 X64.260 Y113.112 F1000
G1 X64.468 Y112.904 F1000
G1 X64.468 Y112.280 F1000
G1 X64.676 Y112.072 F1000
G1 X64.676 Y111.864 F1000
G1 X64.884 Y111.656 F1000
G1 X64.884 Y111.448 F1000
G1 X65.092 Y111.240 F1000
G1 X65.092 Y111.032 F1000
G1 X65.508 Y110.616 F1000
G1 X65.508 Y110.408 F1000
G1 X65.716 Y110.200 F1000
G1 X65.716 Y109.992 F1000
G1 X65.924 Y109.784 F1000
G1 X65.924 Y109.576 F1000
G1 X66.132 Y109.368 F1000
G1 X66.132 Y109.160 F1000
G1 X66.340 Y109.160 F1000
G1 X66.964 Y108.536 F1000
G1 X66.964 Y108.328 F1000
G1 X67.588 Y107.704 F1000
G1 X67.796 Y107.704 F1000
G1 X68.212 Y107.288 F1000
G1 X68.420 Y107.288 F1000
G1 X69.252 Y106.456 F1000
G1 X69.460 Y106.456 F1000
G1 X69.668 Y106.248 F1000
G1 X69.876 Y106.248 F1000
G1 X70.084 Y106.040 F1000
G1 X70.292 Y106.040 F1000
G1 X70.500 Y105.832 F1000
G1 X70.708 Y105.832 F1000
G1 X70.500 Y105.832 F1000
G1 X70.292 Y106.040 F1000
G1 X70.084 Y106.040 F1000
G1 X69.668 Y106.456 F1000
G1 X69.460 Y106.456 F1000
G1 X69.044 Y106.872 F1000
G1 X68.836 Y106.872 F1000
G1 X68.420 Y107.288 F1000
G1 X68.212 Y107.288 F1000
G1 X65.924 Y109.576 F1000
G1 X65.924 Y109.784 F1000
G1 X65.716 Y109.992 F1000
G1 X65.716 Y110.200 F1000
G1 X65.508 Y110.408 F1000
G1 X65.508 Y110.616 F1000
G1 X65.300 Y110.824 F1000
G1 X65.300 Y111.032 F1000
G1 X64.884 Y111.448 F1000
G1 X64.884 Y111.656 F1000
G1 X64.676 Y111.864 F1000
G1 X64.676 Y112.072 F1000
G1 X64.468 Y112.280 F1000
G1 X64.468 Y112.904 F1000
G1 X64.260 Y113.112 F1000
G1 X64.260 Y113.528 F1000
G1 X64.052 Y113.736 F1000
G1 X64.052 Y114.984 F1000
G1 X63.844 Y115.192 F1000
G1 X63.844 Y117.480 F1000
G1 X64.052 Y117.688 F1000
G1 X64.052 Y118.936 F1000
G1 X64.260 Y119.144 F1000
G1 X64.260 Y119.560 F1000
G1 X64.468 Y119.768 F1000
G1 X64.468 Y120.184 F1000
G1 X64.676 Y120.392 F1000
G1 X64.676 Y120.600 F1000
G1 X64.884 Y120.808 F1000
G1 X64.884 Y121.224 F1000
G1 X65.092 Y121.432 F1000
G1 X65.092 Y121.640 F1000
G1 X65.300 Y121.848 F1000
G1 X65.300 Y122.056 F1000
G1 X65.716 Y122.472 F1000
G1 X65.716 Y122.680 F1000
G1 X66.132 Y123.096 F1000
G1 X66.132 Y123.304 F1000
G1 X67.172 Y124.344 F1000
G1 X67.172 Y124.552 F1000
G1 X67.796 Y125.176 F1000
G1 X68.004 Y125.176 F1000
G1 X69.044 Y126.216 F1000
G1 X69.252 Y126.216 F1000
G1 X69.668 Y126.632 F1000
G1 X69.876 Y126.632 F1000
G1 X70.292 Y127.048 F1000
G1 X70.500 Y127.048 F1000
G1 X70.708 Y127.256 F1000
G1 X71.332 Y127.256 F1000
G1 X71.748 Y127.672 F1000
G1 X71.956 Y127.672 F1000
G1 X72.164 Y127.880 F1000
G1 X72.788 Y127.880 F1000
G1 X72.996 Y128.088 F1000
G1 X73.620 Y128.088 F1000
G1 X73.828 Y128.296 F1000
G1 X75.284 Y128.296 F1000
G1 X75.492 Y128.504 F1000
G1 X77.572 Y128.504 F1000
G1 X77.780 Y128.296 F1000
G1 X79.236 Y128.296 F1000
G1 X79.444 Y128.088 F1000
G1 X79.860 Y128.088 F1000
G1 X80.068 Y127.880 F1000
G1 X80.484 Y127.880 F1000
G1 X80.692 Y127.672 F1000
G1 X80.900 Y127.672 F1000
G1 X81.108 Y127.464 F1000
G1 X81.524 Y127.464 F1000
G1 X81.732 Y127.256 F1000
G1 X82.148 Y127.256 F1000
G1 X82.356 Y127.048 F1000
G1 X82.564 Y127.048 F1000
G1 X82.980 Y126.632 F1000
G1 X83.188 Y126.632 F1000
G1 X83.396 Y126.424 F1000
G1 X83.604 Y126.424 F1000
G1 X84.436 Y125.592 F1000
G1 X84.644 Y125.592 F1000
G1 X87.140 Y123.096 F1000
G1 X87.140 Y122.888 F1000
G1 X87.348 Y122.680 F1000
G1 X87.348 Y122.472 F1000
G1 X87.764 Y122.056 F1000
G1 X87.764 Y121.848 F1000
G1 X87.972 Y121.640 F1000
G1 X87.972 Y121.432 F1000
G1 X88.180 Y121.224 F1000
G1 X88.180 Y121.016 F1000
G1 X88.388 Y120.808 F1000
G1 X88.388 Y120.600 F1000
G1 X88.596 Y120.392 F1000
G1 X88.596 Y120.184 F1000
G1 X88.804 Y119.976 F1000
G1 X88.804 Y119.768 F1000
G1 X89.012 Y119.560 F1000
G1 X89.012 Y119.144 F1000
G1 X89.220 Y118.936 F1000
G1 X89.220 Y118.520 F1000
G1 X89.428 Y118.312 F1000
G1 X89.428 Y117.688 F1000
G1 X89.636 Y117.480 F1000
G1 X89.636 Y116.024 F1000
G1 X89.844 Y115.816 F1000
G1 X89.844 Y113.528 F1000
G1 X89.636 Y113.320 F1000
G1 X89.636 Y112.072 F1000
G1 X89.428 Y111.864 F1000
G1 X89.428 Y111.240 F1000
G1 X89.220 Y111.032 F1000
G1 X89.220 Y110.408 F1000
G1 X89.012 Y110.200 F1000
G1 X89.012 Y109.784 F1000
G1 X88.804 Y109.576 F1000
G1 X88.804 Y109.368 F1000
G1 X88.596 Y109.160 F1000
G1 X88.596 Y108.744 F1000
G1 X88.388 Y108.536 F1000
G1 X88.388 Y108.328 F1000
G1 X88.180 Y108.120 F1000
G1 X88.180 Y107.912 F1000
G1 X87.972 Y107.704 F1000
G1 X87.972 Y107.496 F1000
G1 X87.556 Y107.080 F1000
G1 X87.556 Y106.872 F1000
G1 X86.932 Y106.248 F1000
G1 X86.932 Y106.040 F1000
G1 X86.516 Y105.624 F1000
G1 X86.516 Y105.416 F1000
G1 X84.644 Y103.544 F1000
G1 X84.436 Y103.544 F1000
G1 X83.812 Y102.920 F1000
G1 X83.604 Y102.920 F1000
G1 X83.396 Y102.712 F1000
G1 X83.188 Y102.712 F1000
G1 X82.772 Y102.296 F1000
G1 X82.564 Y102.296 F1000
G1 X82.148 Y101.880 F1000
G1 X81.940 Y101.880 F1000
G1 X81.732 Y101.672 F1000
G1 X81.524 Y101.672 F1000
G1 X81.316 Y101.464 F1000
G1 X81.108 Y101.464 F1000
G1 X80.900 Y101.256 F1000
G1 X80.692 Y101.256 F1000
G1 X80.484 Y101.048 F1000
G1 X79.860 Y101.048 F1000
G1 X79.652 Y100.840 F1000
G1 X79.444 Y100.840 F1000
G1 X79.236 Y100.632 F1000
G1 X79.028 Y100.632 F1000
G1 X78.820 Y100.424 F1000
G1 X77.988 Y100.424 F1000
G1 X77.780 Y100.216 F1000
G1 X76.324 Y100.216 F1000
G1 X76.116 Y100.008 F1000
G1 X73.412 Y100.008 F1000
G1 X73.204 Y100.216 F1000
G1 X72.164 Y100.216 F1000
G1 X72.996 Y100.216 F1000
G1 X73.204 Y100.008 F1000
G1 X76.116 Y100.008 F1000
G1 X76.324 Y100.216 F1000
G1 X77.988 Y100.216 F1000
G1 X78.196 Y100.424 F1000
G1 X78.820 Y100.424 F1000
G1 X79.028 Y100.632 F1000
G1 X79.236 Y100.632 F1000
G1 X79.444 Y100.840 F1000
G1 X79.860 Y100.840 F1000
G1 X80.068 Y101.048 F1000
G1 X80.692 Y101.048 F1000
G1 X80.900 Y101.256 F1000
G1 X81.108 Y101.256 F1000
G1 X81.316 Y101.464 F1000
G1 X81.524 Y101.464 F1000
G1 X81.732 Y101.672 F1000
G1 X81.940 Y101.672 F1000
G1 X82.148 Y101.880 F1000
G1 X82.356 Y101.880 F1000
G1 X82.772 Y102.296 F1000
G1 X82.980 Y102.296 F1000
G1 X83.604 Y102.920 F1000
G1 X83.812 Y102.920 F1000
G1 X84.228 Y103.336 F1000
G1 X84.436 Y103.336 F1000
G1 X85.060 Y103.960 F1000
G1 X85.268 Y103.960 F1000
G1 X85.684 Y104.376 F1000
G1 X85.684 Y104.584 F1000
G1 X86.932 Y105.832 F1000
G1 X86.932 Y106.040 F1000
G1 X87.556 Y106.664 F1000
G1 X87.556 Y106.872 F1000
G1 X87.764 Y107.080 F1000
G1 X87.764 Y107.288 F1000
G1 X87.972 Y107.496 F1000
G1 X87.972 Y107.704 F1000
G1 X88.180 Y107.912 F1000
G1 X88.180 Y108.120 F1000
G1 X88.388 Y108.328 F1000
G1 X88.388 Y108.536 F1000
G1 X88.596 Y108.744 F1000
G1 X88.596 Y108.952 F1000
G1 X88.804 Y109.160 F1000
G1 X88.804 Y109.576 F1000
G1 X89.012 Y109.784 F1000
G1 X89.012 Y109.992 F1000
G1 X89.220 Y110.200 F1000
G1 X89.220 Y110.824 F1000
G1 X89.428 Y111.032 F1000
G1 X89.428 Y111.864 F1000
G1 X89.636 Y112.072 F1000
G1 X89.636 Y113.320 F1000
G1 X89.844 Y113.528 F1000
G1 X89.844 Y115.816 F1000
G1 X89.636 Y116.024 F1000
G1 X89.636 Y117.480 F1000
G1 X89.428 Y117.688 F1000
G1 X89.428 Y118.312 F1000
G1 X89.220 Y118.520 F1000
G1 X89.220 Y118.936 F1000
G1 X89.012 Y119.144 F1000
G1 X89.012 Y119.560 F1000
G1 X88.804 Y119.768 F1000
G1 X88.804 Y120.184 F1000
G1 X88.596 Y120.392 F1000
G1 X88.596 Y120.600 F1000
G1 X88.388 Y120.808 F1000
G1 X88.388 Y121.016 F1000
G1 X88.180 Y121.224 F1000
G1 X88.180 Y121.432 F1000
G1 X87.972 Y121.640 F1000
G1 X87.972 Y121.848 F1000
G1 X87.556 Y122.264 F1000
G1 X87.556 Y122.472 F1000
G1 X87.348 Y122.680 F1000
G1 X87.348 Y122.888 F1000
G1 X87.140 Y123.096 F1000
G1 X87.140 Y123.304 F1000
G1 X85.268 Y125.176 F1000
G1 X85.060 Y125.176 F1000
G1 X84.020 Y126.216 F1000
G1 X83.812 Y126.216 F1000
G1 X83.604 Y126.424 F1000
G1 X83.396 Y126.424 F1000
G1 X83.188 Y126.632 F1000
G1 X82.980 Y126.632 F1000
G1 X82.564 Y127.048 F1000
G1 X82.356 Y127.048 F1000
G1 X82.148 Y127.256 F1000
G1 X81.732 Y127.256 F1000
G1 X81.524 Y127.464 F1000
G1 X81.108 Y127.464 F1000
G1 X80.900 Y127.672 F1000
G1 X80.692 Y127.672 F1000
G1 X80.484 Y127.880 F1000
G1 X80.276 Y127.880 F1000
G1 X80.068 Y128.088 F1000
G1 X79.444 Y128.088 F1000
G1 X79.236 Y128.296 F1000
G1 X77.780 Y128.296 F1000
G1 X77.572 Y128.504 F1000
G0 Z3.0 ; Pen up

G0 X77.364 Y123.512 F3000 ; Travel to line 234
G0 Z0.0 ; Pen down
G1 X77.572 Y123.304 F1000
G1 X78.404 Y123.304 F1000
G1 X78.612 Y123.096 F1000
G1 X79.028 Y123.096 F1000
G1 X79.236 Y122.888 F1000
G1 X79.444 Y122.888 F1000
G1 X79.652 Y122.680 F1000
G1 X80.068 Y122.680 F1000
G1 X80.276 Y122.472 F1000
G1 X80.484 Y122.472 F1000
G1 X80.692 Y122.264 F1000
G1 X80.900 Y122.264 F1000
G1 X81.940 Y121.224 F1000
G1 X82.148 Y121.224 F1000
G1 X82.564 Y120.808 F1000
G1 X82.564 Y120.600 F1000
G1 X83.396 Y119.768 F1000
G1 X83.396 Y119.560 F1000
G1 X83.604 Y119.352 F1000
G1 X83.604 Y119.144 F1000
G1 X83.812 Y118.936 F1000
G1 X83.812 Y118.728 F1000
G1 X84.020 Y118.520 F1000
G1 X84.020 Y118.104 F1000
G1 X84.228 Y117.896 F1000
G1 X84.228 Y117.688 F1000
G1 X84.436 Y117.480 F1000
G1 X84.436 Y117.064 F1000
G1 X84.644 Y116.856 F1000
G1 X84.644 Y115.400 F1000
G1 X84.852 Y115.192 F1000
G1 X84.852 Y114.360 F1000
G1 X84.644 Y114.152 F1000
G1 X84.644 Y112.696 F1000
G1 X84.436 Y112.488 F1000
G1 X84.436 Y112.072 F1000
G1 X84.228 Y111.864 F1000
G1 X84.228 Y111.448 F1000
G1 X84.020 Y111.240 F1000
G1 X84.020 Y110.824 F1000
G1 X83.812 Y110.616 F1000
G1 X83.812 Y110.408 F1000
G1 X83.604 Y110.200 F1000
G1 X83.604 Y109.992 F1000
G1 X83.188 Y109.576 F1000
G1 X83.188 Y109.368 F1000
G1 X82.980 Y109.160 F1000
G1 X82.980 Y108.952 F1000
G1 X81.940 Y107.912 F1000
G1 X81.940 Y107.704 F1000
G1 X81.732 Y107.496 F1000
G1 X81.524 Y107.496 F1000
G1 X81.108 Y107.080 F1000
G1 X80.900 Y107.080 F1000
G1 X80.692 Y106.872 F1000
G1 X80.484 Y106.872 F1000
G1 X80.068 Y106.456 F1000
G1 X80.692 Y107.080 F1000
G1 X81.108 Y107.080 F1000
G1 X82.356 Y108.328 F1000
G1 X82.356 Y108.536 F1000
G1 X82.980 Y109.160 F1000
G1 X82.980 Y109.368 F1000
G1 X83.396 Y109.784 F1000
G1 X83.396 Y109.992 F1000
G1 X83.604 Y110.200 F1000
G1 X83.604 Y110.408 F1000
G1 X84.020 Y110.824 F1000
G1 X84.020 Y111.240 F1000
G1 X84.228 Y111.448 F1000
G1 X84.228 Y111.864 F1000
G1 X84.436 Y112.072 F1000
G1 X84.436 Y112.488 F1000
G1 X84.644 Y112.696 F1000
G1 X84.644 Y114.152 F1000
G1 X84.852 Y114.360 F1000
G1 X84.852 Y115.192 F1000
G1 X84.644 Y115.400 F1000
G1 X84.644 Y116.648 F1000
G1 X84.436 Y116.856 F1000
G1 X84.436 Y117.272 F1000
G1 X84.228 Y117.480 F1000
G1 X84.228 Y117.896 F1000
G1 X84.020 Y118.104 F1000
G1 X84.020 Y118.312 F1000
G1 X83.812 Y118.520 F1000
G1 X83.812 Y118.728 F1000
G1 X83.604 Y118.936 F1000
G1 X83.604 Y119.352 F1000
G1 X82.980 Y119.976 F1000
G1 X82.980 Y120.184 F1000
G1 X81.316 Y121.848 F1000
G1 X81.108 Y121.848 F1000
G1 X80.484 Y122.472 F1000
G1 X80.068 Y122.472 F1000
G1 X79.860 Y122.680 F1000
G1 X79.652 Y122.680 F1000
G1 X79.444 Y122.888 F1000
G1 X79.236 Y122.888 F1000
G1 X79.028 Y123.096 F1000
G1 X78.612 Y123.096 F1000
G1 X78.404 Y123.304 F1000
G1 X77.572 Y123.304 F1000
G1 X77.364 Y123.512 F1000
G1 X75.700 Y123.512 F1000
G1 X75.492 Y123.304 F1000
G1 X74.452 Y123.304 F1000
G1 X74.244 Y123.096 F1000
G1 X73.828 Y123.096 F1000
G1 X73.620 Y122.888 F1000
G1 X73.204 Y122.888 F1000
G1 X72.996 Y122.680 F1000
G1 X72.788 Y122.680 F1000
G1 X72.164 Y122.056 F1000
G1 X71.956 Y122.056 F1000
G1 X71.332 Y121.432 F1000
G1 X71.124 Y121.432 F1000
G1 X70.708 Y121.016 F1000
G1 X70.708 Y120.808 F1000
G1 X70.500 Y120.808 F1000
G1 X70.292 Y120.600 F1000
G1 X70.292 Y120.392 F1000
G1 X69.876 Y119.976 F1000
G1 X69.876 Y119.768 F1000
G1 X69.668 Y119.560 F1000
G1 X69.668 Y119.352 F1000
G1 X69.460 Y119.144 F1000
G1 X69.460 Y118.936 F1000
G1 X69.252 Y118.728 F1000
G1 X69.252 Y118.104 F1000
G1 X69.044 Y117.896 F1000
G1 X69.044 Y117.272 F1000
G1 X68.836 Y117.064 F1000
G1 X68.836 Y115.608 F1000
G1 X69.044 Y115.400 F1000
G1 X69.044 Y114.568 F1000
G1 X69.252 Y114.360 F1000
G1 X69.252 Y113.944 F1000
G1 X69.460 Y113.736 F1000
G1 X69.460 Y113.528 F1000
G1 X69.668 Y113.320 F1000
G1 X69.668 Y113.112 F1000
G1 X69.876 Y112.904 F1000
G1 X69.876 Y112.696 F1000
G1 X71.332 Y111.240 F1000
G1 X71.540 Y111.240 F1000
G1 X71.956 Y110.824 F1000
G1 X72.164 Y110.824 F1000
G1 X72.580 Y110.408 F1000
G1 X73.204 Y110.408 F1000
G1 X73.412 Y110.200 F1000
G1 X74.036 Y110.200 F1000
G1 X74.244 Y109.992 F1000
G1 X75.492 Y109.992 F1000
G1 X75.700 Y110.200 F1000
G1 X76.324 Y110.200 F1000
G1 X76.532 Y110.408 F1000
G1 X76.948 Y110.408 F1000
G1 X77.156 Y110.616 F1000
G1 X77.364 Y110.616 F1000
G1 X79.444 Y112.696 F1000
G1 X79.444 Y113.112 F1000
G1 X79.652 Y113.320 F1000
G1 X79.652 Y113.736 F1000
G1 X79.860 Y113.944 F1000
G1 X79.860 Y115.608 F1000
G1 X79.860 Y113.944 F1000
G1 X79.652 Y113.736 F1000
G1 X79.652 Y113.320 F1000
G1 X79.444 Y113.112 F1000
G1 X79.444 Y112.696 F1000
G1 X78.820 Y112.072 F1000
G1 X78.820 Y111.864 F1000
G1 X77.572 Y110.616 F1000
G1 X77.156 Y110.616 F1000
G1 X76.948 Y110.408 F1000
G1 X76.740 Y110.408 F1000
G1 X76.532 Y110.200 F1000
G1 X75.700 Y110.200 F1000
G1 X75.492 Y109.992 F1000
G1 X74.244 Y109.992 F1000
G1 X74.036 Y110.200 F1000
G1 X73.204 Y110.200 F1000
G1 X72.996 Y110.408 F1000
G1 X72.372 Y110.408 F1000
G1 X71.956 Y110.824 F1000
G1 X71.748 Y110.824 F1000
G1 X71.332 Y111.240 F1000
G1 X71.124 Y111.240 F1000
G1 X70.292 Y112.072 F1000
G1 X70.292 Y112.280 F1000
G1 X69.876 Y112.696 F1000
G1 X69.876 Y112.904 F1000
G1 X69.668 Y113.112 F1000
G1 X69.668 Y113.320 F1000
G1 X69.460 Y113.528 F1000
G1 X69.460 Y113.736 F1000
G1 X69.252 Y113.944 F1000
G1 X69.252 Y114.360 F1000
G1 X69.044 Y114.568 F1000
G1 X69.044 Y115.400 F1000
G1 X68.836 Y115.608 F1000
G1 X68.836 Y117.064 F1000
G1 X69.044 Y117.272 F1000
G1 X69.044 Y118.104 F1000
G1 X69.252 Y118.312 F1000
G1 X69.252 Y118.936 F1000
G1 X69.460 Y119.144 F1000
G1 X69.460 Y119.352 F1000
G1 X69.668 Y119.560 F1000
G1 X69.668 Y119.768 F1000
G1 X70.292 Y120.392 F1000
G1 X70.292 Y120.600 F1000
G1 X70.708 Y121.016 F1000
G1 X70.708 Y121.224 F1000
G1 X70.916 Y121.224 F1000
G1 X71.540 Y121.848 F1000
G1 X71.748 Y121.848 F1000
G1 X72.164 Y122.264 F1000
G1 X72.372 Y122.264 F1000
G1 X72.788 Y122.680 F1000
G1 X72.996 Y122.680 F1000
G1 X73.204 Y122.888 F1000
G1 X73.620 Y122.888 F1000
G1 X73.828 Y123.096 F1000
G1 X74.244 Y123.096 F1000
G1 X74.452 Y123.304 F1000
G1 X75.492 Y123.304 F1000
G1 X75.700 Y123.512 F1000
G0 Z3.0 ; Pen up

G0 X79.652 Y106.248 F3000 ; Travel to line 235
G0 Z0.0 ; Pen down
G1 X79.444 Y106.040 F1000
G1 X79.028 Y106.040 F1000
G1 X78.820 Y105.832 F1000
G1 X78.612 Y105.832 F1000
G1 X78.404 Y105.624 F1000
G1 X77.988 Y105.624 F1000
G1 X77.780 Y105.416 F1000
G1 X77.364 Y105.416 F1000
G1 X77.156 Y105.208 F1000
G1 X75.492 Y105.208 F1000
G1 X75.284 Y105.000 F1000
G1 X74.036 Y105.000 F1000
G1 X73.828 Y105.208 F1000
G1 X72.580 Y105.208 F1000
G1 X73.828 Y105.208 F1000
G1 X74.036 Y105.000 F1000
G1 X75.284 Y105.000 F1000
G1 X75.492 Y105.208 F1000
G1 X77.156 Y105.208 F1000
G1 X77.364 Y105.416 F1000
G1 X77.780 Y105.416 F1000
G1 X77.988 Y105.624 F1000
G1 X78.404 Y105.624 F1000
G1 X78.612 Y105.832 F1000
G1 X79.028 Y105.832 F1000
G1 X79.236 Y106.040 F1000
G1 X79.444 Y106.040 F1000
G0 Z3.0 ; Pen up

G0 X72.372 Y105.208 F3000 ; Travel to line 236
G0 Z0.0 ; Pen down
G1 X72.164 Y105.416 F1000
G0 Z3.0 ; Pen up

G0 X71.956 Y105.416 F3000 ; Travel to line 237
G0 Z0.0 ; Pen down
G1 X72.164 Y105.416 F1000
G1 X71.956 Y105.416 F1000
G0 Z3.0 ; Pen up

G0 X71.748 Y105.416 F3000 ; Travel to line 238
G0 Z0.0 ; Pen down
G1 X71.540 Y105.624 F1000
G0 Z3.0 ; Pen up

G0 X71.124 Y105.624 F3000 ; Travel to line 239
G0 Z0.0 ; Pen down
G1 X71.540 Y105.624 F1000
G1 X71.124 Y105.624 F1000
G0 Z3.0 ; Pen up

G0 X70.292 Y100.840 F3000 ; Travel to line 240
G0 Z0.0 ; Pen down
G1 X70.500 Y100.632 F1000
G1 X70.708 Y100.632 F1000
G1 X70.292 Y100.632 F1000
G1 X70.084 Y100.840 F1000
G1 X69.876 Y100.840 F1000
G0 Z3.0 ; Pen up

G0 X69.668 Y100.840 F3000 ; Travel to line 241
G0 Z0.0 ; Pen down
G1 X69.460 Y101.048 F1000
G0 Z3.0 ; Pen up

G0 X69.252 Y101.048 F3000 ; Travel to line 242
G0 Z0.0 ; Pen down
G1 X69.460 Y101.048 F1000
G1 X69.252 Y101.048 F1000
G0 Z3.0 ; Pen up

G0 X71.124 Y100.424 F3000 ; Travel to line 243
G0 Z0.0 ; Pen down
G1 X71.332 Y100.424 F1000
G1 X71.124 Y100.424 F1000
G0 Z3.0 ; Pen up

G0 X71.332 Y100.424 F3000 ; Travel to line 244
G0 Z0.0 ; Pen down
G1 X71.540 Y100.216 F1000
G0 Z3.0 ; Pen up

G0 X58.852 Y114.776 F3000 ; Travel to line 245
G0 Z0.0 ; Pen down
G1 X59.060 Y114.568 F1000
G1 X59.060 Y112.904 F1000
G1 X59.268 Y112.696 F1000
G1 X59.268 Y112.488 F1000
G1 X59.476 Y112.280 F1000
G1 X59.476 Y111.656 F1000
G1 X59.684 Y111.448 F1000
G1 X59.684 Y111.032 F1000
G1 X59.892 Y110.824 F1000
G1 X59.892 Y110.616 F1000
G1 X60.100 Y110.408 F1000
G1 X60.100 Y109.992 F1000
G1 X60.308 Y109.784 F1000
G1 X60.308 Y109.576 F1000
G1 X60.516 Y109.368 F1000
G1 X60.516 Y109.160 F1000
G1 X60.724 Y108.952 F1000
G1 X60.724 Y108.744 F1000
G1 X60.932 Y108.536 F1000
G1 X60.932 Y108.328 F1000
G1 X61.140 Y108.120 F1000
G1 X61.140 Y107.912 F1000
G1 X61.348 Y107.704 F1000
G1 X61.348 Y107.496 F1000
G1 X61.764 Y107.080 F1000
