; Blueprint to G-code
; Input: test_data/test_images_solid/test6_crescent_spiral.png
; Generated with blueprint2gcode.py
;
; Generation Parameters:
;   Paper size: A6 (105x148mm)
;   Orientation: portrait
;   Margin: 1.0mm
;   Z up: 3.0mm
;   Z down: 0.0mm
;   Feed rate: 1000mm/min
;   Travel rate: 3000mm/min
;   Join tolerance: 0.02mm
;   Min line length: 0.01mm
;   Simplify epsilon: 0.000001
;   Fill solid areas: True
;   Hatch spacing: 1.0px
;   Hatch angle: 45.0°
;   Crosshatch: False
;   Min solid area: 1.0px²
;   Invert colors: False

G21 ; Set units to millimeters
G90 ; Absolute positioning
G0 Z3.0 ; Pen up
G0 X0 Y0 ; Move to origin

G0 X22.836 Y40.216 F3000 ; Travel to line 1
G0 Z0.0 ; Pen down
G1 X22.733 Y40.319 F1000
G0 Z3.0 ; Pen up

G0 X22.939 Y40.422 F3000 ; Travel to line 2
G0 Z0.0 ; Pen down
G1 X23.042 Y40.319 F1000
G0 Z3.0 ; Pen up

G0 X23.866 Y39.907 F3000 ; Travel to line 3
G0 Z0.0 ; Pen down
G1 X23.969 Y39.804 F1000
G0 Z3.0 ; Pen up

G0 X23.866 Y40.937 F3000 ; Travel to line 4
G0 Z0.0 ; Pen down
G1 X23.763 Y41.040 F1000
G0 Z3.0 ; Pen up

G0 X24.484 Y41.658 F3000 ; Travel to line 5
G0 Z0.0 ; Pen down
G1 X24.278 Y41.864 F1000
G0 Z3.0 ; Pen up

G0 X24.896 Y42.688 F3000 ; Travel to line 6
G0 Z0.0 ; Pen down
G1 X24.484 Y43.100 F1000
G0 Z3.0 ; Pen up

G0 X25.205 Y43.718 F3000 ; Travel to line 7
G0 Z0.0 ; Pen down
G1 X25.720 Y43.203 F1000
G0 Z3.0 ; Pen up

G0 X26.235 Y44.130 F3000 ; Travel to line 8
G0 Z0.0 ; Pen down
G1 X26.956 Y43.409 F1000
G0 Z3.0 ; Pen up

G0 X27.780 Y43.924 F3000 ; Travel to line 9
G0 Z0.0 ; Pen down
G1 X29.737 Y42.070 F1000
G0 Z3.0 ; Pen up

G0 X29.737 Y40.628 F3000 ; Travel to line 10
G0 Z0.0 ; Pen down
G1 X29.943 Y40.422 F1000
G0 Z3.0 ; Pen up

G0 X29.634 Y39.907 F3000 ; Travel to line 11
G0 Z0.0 ; Pen down
G1 X29.737 Y39.804 F1000
G0 Z3.0 ; Pen up

G0 X30.561 Y40.422 F3000 ; Travel to line 12
G0 Z0.0 ; Pen down
G1 X30.664 Y40.319 F1000
G0 Z3.0 ; Pen up

G0 X30.767 Y40.319 F3000 ; Travel to line 13
G0 Z0.0 ; Pen down
G1 X30.870 Y40.216 F1000
G0 Z3.0 ; Pen up

G0 X29.222 Y43.924 F3000 ; Travel to line 14
G0 Z0.0 ; Pen down
G1 X28.810 Y44.439 F1000
G0 Z3.0 ; Pen up

G0 X29.325 Y45.263 F3000 ; Travel to line 15
G0 Z0.0 ; Pen down
G1 X29.840 Y44.851 F1000
G0 Z3.0 ; Pen up

G0 X30.458 Y45.469 F3000 ; Travel to line 16
G0 Z0.0 ; Pen down
G1 X30.046 Y45.881 F1000
G0 Z3.0 ; Pen up

G0 X31.076 Y46.293 F3000 ; Travel to line 17
G0 Z0.0 ; Pen down
G1 X31.488 Y45.881 F1000
G0 Z3.0 ; Pen up

G0 X32.518 Y46.293 F3000 ; Travel to line 18
G0 Z0.0 ; Pen down
G1 X33.136 Y45.675 F1000
G0 Z3.0 ; Pen up

G0 X31.900 Y47.014 F3000 ; Travel to line 19
G0 Z0.0 ; Pen down
G1 X31.797 Y47.014 F1000
G0 Z3.0 ; Pen up

G0 X31.797 Y47.117 F3000 ; Travel to line 20
G0 Z0.0 ; Pen down
G1 X30.870 Y48.044 F1000
G0 Z3.0 ; Pen up

G0 X31.591 Y48.765 F3000 ; Travel to line 21
G0 Z0.0 ; Pen down
G1 X31.076 Y49.280 F1000
G0 Z3.0 ; Pen up

G0 X31.488 Y50.104 F3000 ; Travel to line 22
G0 Z0.0 ; Pen down
G1 X32.003 Y49.692 F1000
G0 Z3.0 ; Pen up

G0 X32.621 Y50.413 F3000 ; Travel to line 23
G0 Z0.0 ; Pen down
G1 X32.209 Y50.825 F1000
G0 Z3.0 ; Pen up

G0 X33.239 Y51.237 F3000 ; Travel to line 24
G0 Z0.0 ; Pen down
G1 X33.548 Y51.031 F1000
G0 Z3.0 ; Pen up

G0 X34.166 Y51.340 F3000 ; Travel to line 25
G0 Z0.0 ; Pen down
G1 X34.372 Y51.134 F1000
G0 Z3.0 ; Pen up

G0 X34.681 Y51.237 F3000 ; Travel to line 26
G0 Z0.0 ; Pen down
G1 X34.784 Y51.134 F1000
G0 Z3.0 ; Pen up

G0 X34.887 Y51.237 F3000 ; Travel to line 27
G0 Z0.0 ; Pen down
G1 X34.578 Y51.237 F1000
G1 X34.475 Y51.340 F1000
G1 X33.445 Y51.340 F1000
G1 X33.342 Y51.237 F1000
G1 X33.033 Y51.237 F1000
G1 X32.209 Y50.825 F1000
G1 X31.385 Y50.001 F1000
G1 X31.385 Y49.898 F1000
G1 X31.179 Y49.692 F1000
G1 X31.179 Y49.486 F1000
G1 X30.973 Y49.177 F1000
G1 X30.973 Y48.868 F1000
G1 X30.870 Y48.765 F1000
G1 X30.870 Y47.735 F1000
G1 X30.973 Y47.632 F1000
G1 X30.973 Y47.323 F1000
G1 X31.179 Y47.014 F1000
G1 X31.179 Y46.808 F1000
G1 X31.385 Y46.602 F1000
G1 X31.385 Y46.499 F1000
G1 X31.076 Y46.293 F1000
G1 X30.767 Y46.293 F1000
G1 X29.943 Y45.881 F1000
G1 X29.119 Y45.057 F1000
G1 X29.119 Y44.954 F1000
G1 X28.913 Y44.748 F1000
G1 X28.913 Y44.542 F1000
G1 X28.707 Y44.233 F1000
G1 X28.707 Y43.924 F1000
G1 X28.501 Y43.615 F1000
G1 X28.398 Y43.615 F1000
G1 X28.192 Y43.821 F1000
G1 X27.986 Y43.821 F1000
G1 X27.677 Y44.027 F1000
G1 X27.368 Y44.027 F1000
G1 X27.265 Y44.130 F1000
G1 X26.235 Y44.130 F1000
G1 X26.132 Y44.027 F1000
G1 X25.823 Y44.027 F1000
G1 X25.514 Y43.821 F1000
G1 X25.308 Y43.821 F1000
G1 X25.102 Y43.615 F1000
G1 X24.999 Y43.615 F1000
G1 X24.793 Y43.924 F1000
G1 X24.793 Y44.233 F1000
G1 X24.381 Y45.057 F1000
G1 X23.557 Y45.881 F1000
G1 X23.454 Y45.881 F1000
G1 X23.248 Y46.087 F1000
G1 X23.042 Y46.087 F1000
G1 X22.733 Y46.293 F1000
G1 X22.424 Y46.293 F1000
G1 X22.321 Y46.396 F1000
G1 X21.291 Y46.396 F1000
G1 X21.188 Y46.293 F1000
G1 X20.879 Y46.293 F1000
G1 X20.570 Y46.087 F1000
G1 X20.364 Y46.087 F1000
G1 X20.158 Y45.881 F1000
G1 X20.055 Y45.881 F1000
G1 X19.231 Y45.057 F1000
G1 X19.025 Y44.645 F1000
G1 X19.540 Y45.263 F1000
G1 X19.643 Y45.263 F1000
G1 X19.952 Y45.572 F1000
G1 X20.570 Y45.881 F1000
G1 X20.879 Y45.881 F1000
G1 X20.982 Y45.984 F1000
G1 X22.012 Y45.984 F1000
G1 X22.115 Y45.881 F1000
G1 X22.424 Y45.881 F1000
G1 X23.042 Y45.572 F1000
G1 X23.763 Y44.954 F1000
G1 X23.763 Y44.851 F1000
G1 X24.072 Y44.542 F1000
G1 X24.381 Y43.924 F1000
G1 X24.381 Y43.615 F1000
G1 X24.484 Y43.512 F1000
G1 X24.484 Y42.482 F1000
G1 X24.381 Y42.379 F1000
G1 X24.381 Y42.070 F1000
G1 X24.072 Y41.452 F1000
G1 X23.763 Y41.143 F1000
G1 X23.763 Y41.040 F1000
G1 X23.145 Y40.525 F1000
G1 X23.557 Y40.731 F1000
G1 X23.763 Y40.422 F1000
G1 X23.763 Y40.113 F1000
G1 X23.763 Y40.937 F1000
G1 X24.381 Y41.555 F1000
G1 X24.793 Y42.379 F1000
G1 X24.793 Y42.688 F1000
G1 X25.205 Y43.100 F1000
G1 X25.823 Y43.409 F1000
G1 X26.132 Y43.409 F1000
G1 X26.235 Y43.512 F1000
G1 X27.265 Y43.512 F1000
G1 X27.368 Y43.409 F1000
G1 X27.677 Y43.409 F1000
G1 X28.295 Y43.100 F1000
G1 X28.604 Y42.791 F1000
G1 X28.707 Y42.791 F1000
G1 X29.325 Y42.070 F1000
G1 X29.634 Y41.452 F1000
G1 X29.634 Y41.143 F1000
G1 X29.737 Y41.040 F1000
G1 X29.737 Y40.113 F1000
G1 X29.737 Y40.422 F1000
G1 X29.943 Y40.731 F1000
G1 X30.355 Y40.525 F1000
G1 X29.840 Y40.937 F1000
G1 X29.840 Y41.555 F1000
G1 X29.737 Y41.658 F1000
G1 X29.737 Y41.967 F1000
G1 X29.531 Y42.276 F1000
G1 X29.531 Y42.482 F1000
G1 X29.016 Y43.100 F1000
G1 X29.119 Y43.924 F1000
G1 X29.428 Y44.542 F1000
G1 X29.737 Y44.851 F1000
G1 X29.737 Y44.954 F1000
G1 X30.458 Y45.572 F1000
G1 X31.076 Y45.881 F1000
G1 X31.385 Y45.881 F1000
G1 X31.488 Y45.984 F1000
G1 X32.518 Y45.984 F1000
G1 X32.621 Y45.881 F1000
G1 X32.930 Y45.881 F1000
G1 X33.548 Y45.572 F1000
G1 X33.857 Y45.263 F1000
G1 X33.960 Y45.263 F1000
G1 X34.475 Y44.645 F1000
G1 X34.269 Y45.057 F1000
G1 X34.578 Y45.263 F1000
G1 X34.887 Y45.263 F1000
G1 X34.063 Y45.263 F1000
G1 X33.136 Y46.087 F1000
G1 X32.930 Y46.087 F1000
G1 X32.621 Y46.293 F1000
G1 X32.312 Y46.293 F1000
G1 X31.900 Y46.705 F1000
G1 X31.591 Y47.323 F1000
G1 X31.591 Y47.632 F1000
G1 X31.488 Y47.735 F1000
G1 X31.488 Y48.765 F1000
G1 X31.591 Y48.868 F1000
G1 X31.591 Y49.177 F1000
G1 X31.900 Y49.795 F1000
G1 X32.209 Y50.104 F1000
G1 X32.209 Y50.207 F1000
G1 X32.930 Y50.825 F1000
G1 X33.548 Y51.134 F1000
G1 X33.857 Y51.134 F1000
G1 X33.960 Y51.237 F1000
G1 X34.887 Y51.237 F1000
G0 Z3.0 ; Pen up

G0 X35.093 Y51.134 F3000 ; Travel to line 28
G0 Z0.0 ; Pen down
G1 X35.196 Y51.031 F1000
G0 Z3.0 ; Pen up

G0 X35.093 Y45.366 F3000 ; Travel to line 29
G0 Z0.0 ; Pen down
G1 X35.196 Y45.263 F1000
G0 Z3.0 ; Pen up

G0 X34.578 Y44.439 F3000 ; Travel to line 30
G0 Z0.0 ; Pen down
G1 X34.681 Y44.336 F1000
G0 Z3.0 ; Pen up

G0 X34.681 Y44.233 F3000 ; Travel to line 31
G0 Z0.0 ; Pen down
G1 X34.784 Y44.130 F1000
G0 Z3.0 ; Pen up

G0 X24.896 Y44.130 F3000 ; Travel to line 32
G0 Z0.0 ; Pen down
G1 X22.630 Y46.293 F1000
G0 Z3.0 ; Pen up

G0 X21.600 Y45.881 F3000 ; Travel to line 33
G0 Z0.0 ; Pen down
G1 X21.188 Y46.293 F1000
G0 Z3.0 ; Pen up

G0 X20.364 Y45.675 F3000 ; Travel to line 34
G0 Z0.0 ; Pen down
G1 X20.158 Y45.881 F1000
G0 Z3.0 ; Pen up

G0 X19.437 Y45.263 F3000 ; Travel to line 35
G0 Z0.0 ; Pen down
G1 X19.540 Y45.160 F1000
G0 Z3.0 ; Pen up

G0 X18.922 Y44.439 F3000 ; Travel to line 36
G0 Z0.0 ; Pen down
G1 X19.025 Y44.336 F1000
G0 Z3.0 ; Pen up

G0 X18.819 Y44.233 F3000 ; Travel to line 37
G0 Z0.0 ; Pen down
G1 X18.922 Y44.130 F1000
G0 Z3.0 ; Pen up

G0 X14.390 Y71.631 F3000 ; Travel to line 38
G0 Z0.0 ; Pen down
G1 X14.287 Y71.734 F1000
G0 Z3.0 ; Pen up

G0 X14.184 Y71.734 F3000 ; Travel to line 39
G0 Z0.0 ; Pen down
G1 X14.287 Y71.734 F1000
G1 X14.184 Y71.734 F1000
G0 Z3.0 ; Pen up

G0 X13.772 Y71.940 F3000 ; Travel to line 40
G0 Z0.0 ; Pen down
G1 X13.875 Y71.837 F1000
G1 X13.978 Y71.837 F1000
G1 X13.772 Y71.837 F1000
G1 X13.669 Y71.940 F1000
G1 X13.566 Y71.940 F1000
G0 Z3.0 ; Pen up

G0 X13.463 Y71.940 F3000 ; Travel to line 41
G0 Z0.0 ; Pen down
G1 X13.360 Y72.043 F1000
G0 Z3.0 ; Pen up

G0 X13.257 Y72.043 F3000 ; Travel to line 42
G0 Z0.0 ; Pen down
G1 X13.360 Y72.043 F1000
G1 X13.257 Y72.043 F1000
G0 Z3.0 ; Pen up

G0 X14.184 Y74.309 F3000 ; Travel to line 43
G0 Z0.0 ; Pen down
G1 X14.390 Y74.309 F1000
G1 X14.184 Y74.309 F1000
G0 Z3.0 ; Pen up

G0 X14.390 Y74.309 F3000 ; Travel to line 44
G0 Z0.0 ; Pen down
G1 X14.493 Y74.206 F1000
G0 Z3.0 ; Pen up

G0 X14.596 Y74.206 F3000 ; Travel to line 45
G0 Z0.0 ; Pen down
G1 X14.699 Y74.206 F1000
G1 X14.596 Y74.206 F1000
G0 Z3.0 ; Pen up

G0 X14.699 Y74.206 F3000 ; Travel to line 46
G0 Z0.0 ; Pen down
G1 X14.802 Y74.103 F1000
G0 Z3.0 ; Pen up

G0 X18.304 Y74.515 F3000 ; Travel to line 47
G0 Z0.0 ; Pen down
G1 X18.201 Y74.515 F1000
G1 X18.098 Y74.412 F1000
G1 X17.892 Y74.412 F1000
G1 X17.789 Y74.309 F1000
G1 X17.583 Y74.309 F1000
G1 X17.480 Y74.206 F1000
G1 X17.274 Y74.206 F1000
G1 X17.171 Y74.103 F1000
G1 X16.347 Y74.103 F1000
G1 X16.244 Y74.000 F1000
G1 X15.626 Y74.000 F1000
G1 X15.523 Y74.103 F1000
G1 X14.905 Y74.103 F1000
G1 X15.523 Y74.103 F1000
G1 X15.626 Y74.000 F1000
G1 X16.244 Y74.000 F1000
G1 X16.347 Y74.103 F1000
G1 X17.171 Y74.103 F1000
G1 X17.274 Y74.206 F1000
G1 X17.480 Y74.206 F1000
G1 X17.583 Y74.309 F1000
G1 X17.789 Y74.309 F1000
G1 X17.892 Y74.412 F1000
G1 X17.995 Y74.412 F1000
G1 X18.098 Y74.515 F1000
G1 X18.304 Y74.515 F1000
G1 X18.407 Y74.618 F1000
G0 Z3.0 ; Pen up

G0 X17.274 Y83.167 F3000 ; Travel to line 48
G0 Z0.0 ; Pen down
G1 X17.377 Y83.064 F1000
G1 X17.789 Y83.064 F1000
G1 X17.892 Y82.961 F1000
G1 X18.098 Y82.961 F1000
G1 X18.201 Y82.858 F1000
G1 X18.304 Y82.858 F1000
G1 X18.407 Y82.755 F1000
G1 X18.613 Y82.755 F1000
G1 X18.716 Y82.652 F1000
G1 X18.819 Y82.652 F1000
G1 X18.922 Y82.549 F1000
G1 X19.025 Y82.549 F1000
G1 X19.540 Y82.034 F1000
G1 X19.643 Y82.034 F1000
G1 X19.849 Y81.828 F1000
G1 X19.849 Y81.725 F1000
G1 X20.261 Y81.313 F1000
G1 X20.261 Y81.210 F1000
G1 X20.364 Y81.107 F1000
G1 X20.364 Y81.004 F1000
G1 X20.467 Y80.901 F1000
G1 X20.467 Y80.798 F1000
G1 X20.570 Y80.695 F1000
G1 X20.570 Y80.489 F1000
G1 X20.673 Y80.386 F1000
G1 X20.673 Y80.283 F1000
G1 X20.776 Y80.180 F1000
G1 X20.776 Y79.974 F1000
G1 X20.879 Y79.871 F1000
G1 X20.879 Y79.150 F1000
G1 X20.982 Y79.047 F1000
G1 X20.982 Y78.635 F1000
G1 X20.879 Y78.532 F1000
G1 X20.879 Y77.811 F1000
G1 X20.776 Y77.708 F1000
G1 X20.776 Y77.502 F1000
G1 X20.673 Y77.399 F1000
G1 X20.673 Y77.193 F1000
G1 X20.570 Y77.090 F1000
G1 X20.570 Y76.884 F1000
G1 X20.467 Y76.781 F1000
G1 X20.467 Y76.678 F1000
G1 X20.364 Y76.575 F1000
G1 X20.364 Y76.472 F1000
G1 X20.158 Y76.266 F1000
G1 X20.158 Y76.163 F1000
G1 X20.055 Y76.060 F1000
G1 X20.055 Y75.957 F1000
G1 X19.540 Y75.442 F1000
G1 X19.540 Y75.339 F1000
G1 X19.437 Y75.236 F1000
G1 X19.334 Y75.236 F1000
G1 X19.128 Y75.030 F1000
G1 X19.025 Y75.030 F1000
G1 X18.922 Y74.927 F1000
G1 X18.819 Y74.927 F1000
G1 X18.613 Y74.721 F1000
G1 X18.922 Y75.030 F1000
G1 X19.128 Y75.030 F1000
G1 X19.746 Y75.648 F1000
G1 X19.746 Y75.751 F1000
G1 X20.055 Y76.060 F1000
G1 X20.055 Y76.163 F1000
G1 X20.261 Y76.369 F1000
G1 X20.261 Y76.472 F1000
G1 X20.364 Y76.575 F1000
G1 X20.364 Y76.678 F1000
G1 X20.570 Y76.884 F1000
G1 X20.570 Y77.090 F1000
G1 X20.673 Y77.193 F1000
G1 X20.673 Y77.399 F1000
G1 X20.776 Y77.502 F1000
G1 X20.776 Y77.708 F1000
G1 X20.879 Y77.811 F1000
G1 X20.879 Y78.532 F1000
G1 X20.982 Y78.635 F1000
G1 X20.982 Y79.047 F1000
G1 X20.879 Y79.150 F1000
G1 X20.879 Y79.768 F1000
G1 X20.776 Y79.871 F1000
G1 X20.776 Y80.077 F1000
G1 X20.673 Y80.180 F1000
G1 X20.673 Y80.386 F1000
G1 X20.570 Y80.489 F1000
G1 X20.570 Y80.592 F1000
G1 X20.467 Y80.695 F1000
G1 X20.467 Y80.798 F1000
G1 X20.364 Y80.901 F1000
G1 X20.364 Y81.107 F1000
G1 X20.055 Y81.416 F1000
G1 X20.055 Y81.519 F1000
G1 X19.231 Y82.343 F1000
G1 X19.128 Y82.343 F1000
G1 X18.819 Y82.652 F1000
G1 X18.613 Y82.652 F1000
G1 X18.510 Y82.755 F1000
G1 X18.407 Y82.755 F1000
G1 X18.304 Y82.858 F1000
G1 X18.201 Y82.858 F1000
G1 X18.098 Y82.961 F1000
G1 X17.892 Y82.961 F1000
G1 X17.789 Y83.064 F1000
G1 X17.377 Y83.064 F1000
G1 X17.274 Y83.167 F1000
G1 X16.450 Y83.167 F1000
G1 X16.347 Y83.064 F1000
G1 X15.832 Y83.064 F1000
G1 X15.729 Y82.961 F1000
G1 X15.523 Y82.961 F1000
G1 X15.420 Y82.858 F1000
G1 X15.214 Y82.858 F1000
G1 X15.111 Y82.755 F1000
G1 X15.008 Y82.755 F1000
G1 X14.699 Y82.446 F1000
G1 X14.596 Y82.446 F1000
G1 X14.287 Y82.137 F1000
G1 X14.184 Y82.137 F1000
G1 X13.978 Y81.931 F1000
G1 X13.978 Y81.828 F1000
G1 X13.875 Y81.828 F1000
G1 X13.772 Y81.725 F1000
G1 X13.772 Y81.622 F1000
G1 X13.566 Y81.416 F1000
G1 X13.566 Y81.313 F1000
G1 X13.463 Y81.210 F1000
G1 X13.463 Y81.107 F1000
G1 X13.360 Y81.004 F1000
G1 X13.360 Y80.901 F1000
G1 X13.257 Y80.798 F1000
G1 X13.257 Y80.489 F1000
G1 X13.154 Y80.386 F1000
G1 X13.154 Y80.077 F1000
G1 X13.051 Y79.974 F1000
G1 X13.051 Y79.253 F1000
G1 X13.154 Y79.150 F1000
G1 X13.154 Y78.738 F1000
G1 X13.257 Y78.635 F1000
G1 X13.257 Y78.429 F1000
G1 X13.360 Y78.326 F1000
G1 X13.360 Y78.223 F1000
G1 X13.463 Y78.120 F1000
G1 X13.463 Y78.017 F1000
G1 X13.566 Y77.914 F1000
G1 X13.566 Y77.811 F1000
G1 X14.287 Y77.090 F1000
G1 X14.390 Y77.090 F1000
G1 X14.596 Y76.884 F1000
G1 X14.699 Y76.884 F1000
G1 X14.905 Y76.678 F1000
G1 X15.214 Y76.678 F1000
G1 X15.317 Y76.575 F1000
G1 X15.626 Y76.575 F1000
G1 X15.729 Y76.472 F1000
G1 X16.347 Y76.472 F1000
G1 X16.450 Y76.575 F1000
G1 X16.759 Y76.575 F1000
G1 X16.862 Y76.678 F1000
G1 X17.068 Y76.678 F1000
G1 X17.171 Y76.781 F1000
G1 X17.274 Y76.781 F1000
G1 X18.304 Y77.811 F1000
G1 X18.304 Y78.017 F1000
G1 X18.407 Y78.120 F1000
G1 X18.407 Y78.326 F1000
G1 X18.510 Y78.429 F1000
G1 X18.510 Y79.253 F1000
G1 X18.510 Y78.429 F1000
G1 X18.407 Y78.326 F1000
G1 X18.407 Y78.120 F1000
G1 X18.304 Y78.017 F1000
G1 X18.304 Y77.811 F1000
G1 X17.995 Y77.502 F1000
G1 X17.995 Y77.399 F1000
G1 X17.377 Y76.781 F1000
G1 X17.171 Y76.781 F1000
G1 X17.068 Y76.678 F1000
G1 X16.965 Y76.678 F1000
G1 X16.862 Y76.575 F1000
G1 X16.450 Y76.575 F1000
G1 X16.347 Y76.472 F1000
G1 X15.729 Y76.472 F1000
G1 X15.626 Y76.575 F1000
G1 X15.214 Y76.575 F1000
G1 X15.111 Y76.678 F1000
G1 X14.802 Y76.678 F1000
G1 X14.596 Y76.884 F1000
G1 X14.493 Y76.884 F1000
G1 X14.287 Y77.090 F1000
G1 X14.184 Y77.090 F1000
G1 X13.772 Y77.502 F1000
G1 X13.772 Y77.605 F1000
G1 X13.566 Y77.811 F1000
G1 X13.566 Y77.914 F1000
G1 X13.463 Y78.017 F1000
G1 X13.463 Y78.120 F1000
G1 X13.360 Y78.223 F1000
G1 X13.360 Y78.326 F1000
G1 X13.257 Y78.429 F1000
G1 X13.257 Y78.635 F1000
G1 X13.154 Y78.738 F1000
G1 X13.154 Y79.150 F1000
G1 X13.051 Y79.253 F1000
G1 X13.051 Y79.974 F1000
G1 X13.154 Y80.077 F1000
G1 X13.154 Y80.489 F1000
G1 X13.257 Y80.592 F1000
G1 X13.257 Y80.901 F1000
G1 X13.360 Y81.004 F1000
G1 X13.360 Y81.107 F1000
G1 X13.463 Y81.210 F1000
G1 X13.463 Y81.313 F1000
G1 X13.772 Y81.622 F1000
G1 X13.772 Y81.725 F1000
G1 X13.978 Y81.931 F1000
G1 X13.978 Y82.034 F1000
G1 X14.081 Y82.034 F1000
G1 X14.390 Y82.343 F1000
G1 X14.493 Y82.343 F1000
G1 X14.699 Y82.549 F1000
G1 X14.802 Y82.549 F1000
G1 X15.008 Y82.755 F1000
G1 X15.111 Y82.755 F1000
G1 X15.214 Y82.858 F1000
G1 X15.420 Y82.858 F1000
G1 X15.523 Y82.961 F1000
G1 X15.729 Y82.961 F1000
G1 X15.832 Y83.064 F1000
G1 X16.347 Y83.064 F1000
G1 X16.450 Y83.167 F1000
G0 Z3.0 ; Pen up

G0 X16.347 Y85.639 F3000 ; Travel to line 49
G0 Z0.0 ; Pen down
G1 X16.244 Y85.536 F1000
G1 X15.420 Y85.536 F1000
G1 X15.317 Y85.433 F1000
G1 X15.008 Y85.433 F1000
G1 X14.905 Y85.330 F1000
G1 X14.699 Y85.330 F1000
G1 X14.596 Y85.227 F1000
G1 X14.493 Y85.227 F1000
G1 X14.390 Y85.124 F1000
G1 X14.287 Y85.124 F1000
G1 X14.184 Y85.021 F1000
G1 X13.978 Y85.021 F1000
G1 X13.875 Y84.918 F1000
G1 X13.772 Y84.918 F1000
G1 X13.669 Y84.815 F1000
G1 X13.566 Y84.815 F1000
G1 X13.360 Y84.609 F1000
G1 X13.257 Y84.609 F1000
G1 X13.051 Y84.403 F1000
G1 X12.948 Y84.403 F1000
G1 X12.433 Y83.888 F1000
G1 X12.330 Y83.888 F1000
G1 X12.227 Y83.785 F1000
G1 X12.227 Y83.682 F1000
G1 X11.712 Y83.167 F1000
G1 X11.712 Y83.064 F1000
G1 X11.506 Y82.858 F1000
G1 X11.506 Y82.755 F1000
G1 X11.300 Y82.549 F1000
G1 X11.300 Y82.446 F1000
G1 X11.197 Y82.343 F1000
G1 X11.197 Y82.137 F1000
G1 X11.094 Y82.034 F1000
G1 X11.094 Y81.828 F1000
G1 X10.991 Y81.725 F1000
G1 X10.991 Y81.622 F1000
G1 X10.888 Y81.519 F1000
G1 X10.888 Y81.313 F1000
G1 X10.785 Y81.210 F1000
G1 X10.785 Y81.004 F1000
G1 X10.682 Y80.901 F1000
G1 X10.682 Y80.283 F1000
G1 X10.579 Y80.180 F1000
G1 X10.579 Y79.047 F1000
G1 X10.682 Y78.944 F1000
G1 X10.682 Y78.326 F1000
G1 X10.785 Y78.223 F1000
G1 X10.785 Y78.017 F1000
G1 X10.888 Y77.914 F1000
G1 X10.888 Y77.605 F1000
G1 X10.991 Y77.502 F1000
G1 X10.991 Y77.399 F1000
G1 X11.094 Y77.296 F1000
G1 X11.094 Y77.193 F1000
G1 X11.197 Y77.090 F1000
G1 X11.197 Y76.987 F1000
G1 X11.403 Y76.781 F1000
G1 X11.403 Y76.678 F1000
G1 X11.506 Y76.575 F1000
G1 X11.506 Y76.472 F1000
G1 X11.609 Y76.369 F1000
G1 X11.609 Y76.266 F1000
G1 X11.712 Y76.163 F1000
G1 X11.712 Y76.060 F1000
G1 X11.815 Y76.060 F1000
G1 X12.124 Y75.751 F1000
G1 X12.124 Y75.648 F1000
G1 X12.433 Y75.339 F1000
G1 X12.536 Y75.339 F1000
G1 X12.742 Y75.133 F1000
G1 X12.845 Y75.133 F1000
G1 X13.257 Y74.721 F1000
G1 X13.360 Y74.721 F1000
G1 X13.463 Y74.618 F1000
G1 X13.566 Y74.618 F1000
G1 X13.669 Y74.515 F1000
G1 X13.772 Y74.515 F1000
G1 X13.875 Y74.412 F1000
G1 X13.978 Y74.412 F1000
G1 X13.875 Y74.412 F1000
G1 X13.772 Y74.515 F1000
G1 X13.669 Y74.515 F1000
G1 X13.463 Y74.721 F1000
G1 X13.360 Y74.721 F1000
G1 X13.154 Y74.927 F1000
G1 X13.051 Y74.927 F1000
G1 X12.845 Y75.133 F1000
G1 X12.742 Y75.133 F1000
G1 X11.609 Y76.266 F1000
G1 X11.609 Y76.369 F1000
G1 X11.506 Y76.472 F1000
G1 X11.506 Y76.575 F1000
G1 X11.403 Y76.678 F1000
G1 X11.403 Y76.781 F1000
G1 X11.300 Y76.884 F1000
G1 X11.300 Y76.987 F1000
G1 X11.094 Y77.193 F1000
G1 X11.094 Y77.296 F1000
G1 X10.991 Y77.399 F1000
G1 X10.991 Y77.502 F1000
G1 X10.888 Y77.605 F1000
G1 X10.888 Y77.914 F1000
G1 X10.785 Y78.017 F1000
G1 X10.785 Y78.223 F1000
G1 X10.682 Y78.326 F1000
G1 X10.682 Y78.944 F1000
G1 X10.579 Y79.047 F1000
G1 X10.579 Y80.180 F1000
G1 X10.682 Y80.283 F1000
G1 X10.682 Y80.901 F1000
G1 X10.785 Y81.004 F1000
G1 X10.785 Y81.210 F1000
G1 X10.888 Y81.313 F1000
G1 X10.888 Y81.519 F1000
G1 X10.991 Y81.622 F1000
G1 X10.991 Y81.725 F1000
G1 X11.094 Y81.828 F1000
G1 X11.094 Y82.034 F1000
G1 X11.197 Y82.137 F1000
G1 X11.197 Y82.240 F1000
G1 X11.300 Y82.343 F1000
G1 X11.300 Y82.446 F1000
G1 X11.506 Y82.652 F1000
G1 X11.506 Y82.755 F1000
G1 X11.712 Y82.961 F1000
G1 X11.712 Y83.064 F1000
G1 X12.227 Y83.579 F1000
G1 X12.227 Y83.682 F1000
G1 X12.536 Y83.991 F1000
G1 X12.639 Y83.991 F1000
G1 X13.154 Y84.506 F1000
G1 X13.257 Y84.506 F1000
G1 X13.463 Y84.712 F1000
G1 X13.566 Y84.712 F1000
G1 X13.772 Y84.918 F1000
G1 X13.875 Y84.918 F1000
G1 X13.978 Y85.021 F1000
G1 X14.287 Y85.021 F1000
G1 X14.493 Y85.227 F1000
G1 X14.596 Y85.227 F1000
G1 X14.699 Y85.330 F1000
G1 X15.008 Y85.330 F1000
G1 X15.111 Y85.433 F1000
G1 X15.420 Y85.433 F1000
G1 X15.523 Y85.536 F1000
G1 X16.244 Y85.536 F1000
G1 X16.347 Y85.639 F1000
G1 X17.377 Y85.639 F1000
G1 X17.480 Y85.536 F1000
G1 X18.201 Y85.536 F1000
G1 X18.304 Y85.433 F1000
G1 X18.510 Y85.433 F1000
G1 X18.613 Y85.330 F1000
G1 X18.819 Y85.330 F1000
G1 X18.922 Y85.227 F1000
G1 X19.025 Y85.227 F1000
G1 X19.128 Y85.124 F1000
G1 X19.334 Y85.124 F1000
G1 X19.437 Y85.021 F1000
G1 X19.643 Y85.021 F1000
G1 X19.746 Y84.918 F1000
G1 X19.849 Y84.918 F1000
G1 X20.055 Y84.712 F1000
G1 X20.158 Y84.712 F1000
G1 X20.261 Y84.609 F1000
G1 X20.364 Y84.609 F1000
G1 X20.776 Y84.197 F1000
G1 X20.879 Y84.197 F1000
G1 X22.115 Y82.961 F1000
G1 X22.115 Y82.858 F1000
G1 X22.218 Y82.755 F1000
G1 X22.218 Y82.652 F1000
G1 X22.424 Y82.446 F1000
G1 X22.424 Y82.343 F1000
G1 X22.527 Y82.240 F1000
G1 X22.527 Y82.137 F1000
G1 X22.630 Y82.034 F1000
G1 X22.630 Y81.931 F1000
G1 X22.733 Y81.828 F1000
G1 X22.733 Y81.725 F1000
G1 X22.836 Y81.622 F1000
G1 X22.836 Y81.519 F1000
G1 X22.939 Y81.416 F1000
G1 X22.939 Y81.313 F1000
G1 X23.042 Y81.210 F1000
G1 X23.042 Y81.004 F1000
G1 X23.145 Y80.901 F1000
G1 X23.145 Y80.695 F1000
G1 X23.248 Y80.592 F1000
G1 X23.248 Y80.283 F1000
G1 X23.351 Y80.180 F1000
G1 X23.351 Y79.459 F1000
G1 X23.454 Y79.356 F1000
G1 X23.454 Y78.223 F1000
G1 X23.351 Y78.120 F1000
G1 X23.351 Y77.502 F1000
G1 X23.248 Y77.399 F1000
G1 X23.248 Y77.090 F1000
G1 X23.145 Y76.987 F1000
G1 X23.145 Y76.678 F1000
G1 X23.042 Y76.575 F1000
G1 X23.042 Y76.369 F1000
G1 X22.939 Y76.266 F1000
G1 X22.939 Y76.163 F1000
G1 X22.836 Y76.060 F1000
G1 X22.836 Y75.854 F1000
G1 X22.733 Y75.751 F1000
G1 X22.733 Y75.648 F1000
G1 X22.630 Y75.545 F1000
G1 X22.630 Y75.442 F1000
G1 X22.527 Y75.339 F1000
G1 X22.527 Y75.236 F1000
G1 X22.321 Y75.030 F1000
G1 X22.321 Y74.927 F1000
G1 X22.012 Y74.618 F1000
G1 X22.012 Y74.515 F1000
G1 X21.806 Y74.309 F1000
G1 X21.806 Y74.206 F1000
G1 X20.879 Y73.279 F1000
G1 X20.776 Y73.279 F1000
G1 X20.467 Y72.970 F1000
G1 X20.364 Y72.970 F1000
G1 X20.261 Y72.867 F1000
G1 X20.158 Y72.867 F1000
G1 X19.952 Y72.661 F1000
G1 X19.849 Y72.661 F1000
G1 X19.643 Y72.455 F1000
G1 X19.540 Y72.455 F1000
G1 X19.437 Y72.352 F1000
G1 X19.334 Y72.352 F1000
G1 X19.231 Y72.249 F1000
G1 X19.128 Y72.249 F1000
G1 X19.025 Y72.146 F1000
G1 X18.922 Y72.146 F1000
G1 X18.819 Y72.043 F1000
G1 X18.510 Y72.043 F1000
G1 X18.407 Y71.940 F1000
G1 X18.304 Y71.940 F1000
G1 X18.201 Y71.837 F1000
G1 X18.098 Y71.837 F1000
G1 X17.995 Y71.734 F1000
G1 X17.583 Y71.734 F1000
G1 X17.480 Y71.631 F1000
G1 X16.759 Y71.631 F1000
G1 X16.656 Y71.528 F1000
G1 X15.317 Y71.528 F1000
G1 X15.214 Y71.631 F1000
G1 X14.699 Y71.631 F1000
G1 X15.111 Y71.631 F1000
G1 X15.214 Y71.528 F1000
G1 X16.656 Y71.528 F1000
G1 X16.759 Y71.631 F1000
G1 X17.583 Y71.631 F1000
G1 X17.686 Y71.734 F1000
G1 X17.995 Y71.734 F1000
G1 X18.098 Y71.837 F1000
G1 X18.201 Y71.837 F1000
G1 X18.304 Y71.940 F1000
G1 X18.510 Y71.940 F1000
G1 X18.613 Y72.043 F1000
G1 X18.922 Y72.043 F1000
G1 X19.025 Y72.146 F1000
G1 X19.128 Y72.146 F1000
G1 X19.231 Y72.249 F1000
G1 X19.334 Y72.249 F1000
G1 X19.437 Y72.352 F1000
G1 X19.540 Y72.352 F1000
G1 X19.643 Y72.455 F1000
G1 X19.746 Y72.455 F1000
G1 X19.952 Y72.661 F1000
G1 X20.055 Y72.661 F1000
G1 X20.364 Y72.970 F1000
G1 X20.467 Y72.970 F1000
G1 X20.673 Y73.176 F1000
G1 X20.776 Y73.176 F1000
G1 X21.085 Y73.485 F1000
G1 X21.188 Y73.485 F1000
G1 X21.394 Y73.691 F1000
G1 X21.394 Y73.794 F1000
G1 X22.012 Y74.412 F1000
G1 X22.012 Y74.515 F1000
G1 X22.321 Y74.824 F1000
G1 X22.321 Y74.927 F1000
G1 X22.424 Y75.030 F1000
G1 X22.424 Y75.133 F1000
G1 X22.527 Y75.236 F1000
G1 X22.527 Y75.339 F1000
G1 X22.630 Y75.442 F1000
G1 X22.630 Y75.545 F1000
G1 X22.733 Y75.648 F1000
G1 X22.733 Y75.751 F1000
G1 X22.836 Y75.854 F1000
G1 X22.836 Y75.957 F1000
G1 X22.939 Y76.060 F1000
G1 X22.939 Y76.266 F1000
G1 X23.042 Y76.369 F1000
G1 X23.042 Y76.472 F1000
G1 X23.145 Y76.575 F1000
G1 X23.145 Y76.884 F1000
G1 X23.248 Y76.987 F1000
G1 X23.248 Y77.399 F1000
G1 X23.351 Y77.502 F1000
G1 X23.351 Y78.120 F1000
G1 X23.454 Y78.223 F1000
G1 X23.454 Y79.356 F1000
G1 X23.351 Y79.459 F1000
G1 X23.351 Y80.180 F1000
G1 X23.248 Y80.283 F1000
G1 X23.248 Y80.592 F1000
G1 X23.145 Y80.695 F1000
G1 X23.145 Y80.901 F1000
G1 X23.042 Y81.004 F1000
G1 X23.042 Y81.210 F1000
G1 X22.939 Y81.313 F1000
G1 X22.939 Y81.519 F1000
G1 X22.836 Y81.622 F1000
G1 X22.836 Y81.725 F1000
G1 X22.733 Y81.828 F1000
G1 X22.733 Y81.931 F1000
G1 X22.630 Y82.034 F1000
G1 X22.630 Y82.137 F1000
G1 X22.527 Y82.240 F1000
G1 X22.527 Y82.343 F1000
G1 X22.321 Y82.549 F1000
G1 X22.321 Y82.652 F1000
G1 X22.218 Y82.755 F1000
G1 X22.218 Y82.858 F1000
G1 X22.115 Y82.961 F1000
G1 X22.115 Y83.064 F1000
G1 X21.188 Y83.991 F1000
G1 X21.085 Y83.991 F1000
G1 X20.570 Y84.506 F1000
G1 X20.467 Y84.506 F1000
G1 X20.364 Y84.609 F1000
G1 X20.261 Y84.609 F1000
G1 X20.158 Y84.712 F1000
G1 X20.055 Y84.712 F1000
G1 X19.849 Y84.918 F1000
G1 X19.746 Y84.918 F1000
G1 X19.643 Y85.021 F1000
G1 X19.437 Y85.021 F1000
G1 X19.334 Y85.124 F1000
G1 X19.128 Y85.124 F1000
G1 X19.025 Y85.227 F1000
G1 X18.922 Y85.227 F1000
G1 X18.819 Y85.330 F1000
G1 X18.716 Y85.330 F1000
G1 X18.613 Y85.433 F1000
G1 X18.304 Y85.433 F1000
G1 X18.201 Y85.536 F1000
G1 X17.480 Y85.536 F1000
G1 X17.377 Y85.639 F1000
G0 Z3.0 ; Pen up

G0 X8.107 Y79.459 F3000 ; Travel to line 50
G0 Z0.0 ; Pen down
G1 X8.107 Y78.841 F1000
G1 X8.210 Y78.738 F1000
G1 X8.210 Y77.914 F1000
G1 X8.313 Y77.811 F1000
G1 X8.313 Y77.605 F1000
G1 X8.416 Y77.502 F1000
G1 X8.416 Y77.193 F1000
G1 X8.519 Y77.090 F1000
G1 X8.519 Y76.987 F1000
G1 X8.622 Y76.884 F1000
G1 X8.622 Y76.678 F1000
G1 X8.725 Y76.575 F1000
G1 X8.725 Y76.472 F1000
G1 X8.828 Y76.369 F1000
G1 X8.828 Y76.266 F1000
G1 X8.931 Y76.163 F1000
G1 X8.931 Y76.060 F1000
G1 X9.034 Y75.957 F1000
G1 X9.034 Y75.751 F1000
G1 X9.137 Y75.648 F1000
G1 X9.137 Y75.545 F1000
G1 X9.343 Y75.339 F1000
G1 X9.343 Y75.236 F1000
G1 X9.549 Y75.030 F1000
G1 X9.549 Y74.927 F1000
G1 X9.652 Y74.824 F1000
G1 X9.652 Y74.721 F1000
G1 X10.270 Y74.103 F1000
G1 X10.270 Y74.000 F1000
G1 X10.888 Y73.382 F1000
G1 X10.991 Y73.382 F1000
G1 X11.300 Y73.073 F1000
G1 X11.403 Y73.073 F1000
G1 X11.609 Y72.867 F1000
G1 X11.712 Y72.867 F1000
G1 X11.918 Y72.661 F1000
G1 X12.021 Y72.661 F1000
G1 X12.124 Y72.558 F1000
G1 X12.227 Y72.558 F1000
G1 X12.330 Y72.455 F1000
G1 X12.433 Y72.455 F1000
G1 X12.639 Y72.249 F1000
G1 X12.742 Y72.249 F1000
G1 X12.845 Y72.146 F1000
G1 X13.051 Y72.146 F1000
G1 X12.948 Y72.146 F1000
G1 X12.845 Y72.249 F1000
G1 X12.742 Y72.249 F1000
G1 X12.639 Y72.352 F1000
G1 X12.536 Y72.352 F1000
G1 X12.433 Y72.455 F1000
G1 X12.330 Y72.455 F1000
G1 X12.227 Y72.558 F1000
G1 X12.124 Y72.558 F1000
G1 X11.918 Y72.764 F1000
G1 X11.815 Y72.764 F1000
G1 X11.506 Y73.073 F1000
G1 X11.403 Y73.073 F1000
G1 X11.300 Y73.176 F1000
G1 X11.197 Y73.176 F1000
G1 X9.858 Y74.515 F1000
G1 X9.858 Y74.618 F1000
G1 X9.549 Y74.927 F1000
G1 X9.549 Y75.030 F1000
G1 X9.343 Y75.236 F1000
G1 X9.343 Y75.339 F1000
G1 X9.240 Y75.442 F1000
G1 X9.240 Y75.545 F1000
G1 X9.137 Y75.648 F1000
G1 X9.137 Y75.751 F1000
G1 X9.034 Y75.854 F1000
G1 X9.034 Y75.957 F1000
G1 X8.931 Y76.060 F1000
G1 X8.931 Y76.163 F1000
G1 X8.828 Y76.266 F1000
G1 X8.828 Y76.369 F1000
G1 X8.725 Y76.472 F1000
G1 X8.725 Y76.678 F1000
G1 X8.622 Y76.781 F1000
G1 X8.622 Y76.884 F1000
G1 X8.519 Y76.987 F1000
G1 X8.519 Y77.193 F1000
G1 X8.416 Y77.296 F1000
G1 X8.416 Y77.605 F1000
G1 X8.313 Y77.708 F1000
G1 X8.313 Y77.811 F1000
G1 X8.210 Y77.914 F1000
G1 X8.210 Y78.738 F1000
G1 X8.107 Y78.841 F1000
G0 Z3.0 ; Pen up

G0 X15.832 Y103.767 F3000 ; Travel to line 51
G0 Z0.0 ; Pen down
G1 X14.493 Y105.003 F1000
G0 Z3.0 ; Pen up

G0 X13.772 Y104.385 F3000 ; Travel to line 52
G0 Z0.0 ; Pen down
G1 X10.888 Y107.372 F1000
G0 Z3.0 ; Pen up

G0 X12.227 Y107.372 F3000 ; Travel to line 53
G0 Z0.0 ; Pen down
G1 X10.270 Y109.329 F1000
G0 Z3.0 ; Pen up

G0 X10.270 Y109.329 F3000 ; Travel to line 54
G0 Z0.0 ; Pen down
G1 X12.330 Y107.269 F1000
G0 Z3.0 ; Pen up

G0 X11.609 Y109.432 F3000 ; Travel to line 55
G0 Z0.0 ; Pen down
G1 X10.270 Y110.771 F1000
G0 Z3.0 ; Pen up

G0 X10.579 Y111.904 F3000 ; Travel to line 56
G0 Z0.0 ; Pen down
G1 X11.609 Y110.771 F1000
G0 Z3.0 ; Pen up

G0 X11.918 Y112.007 F3000 ; Travel to line 57
G0 Z0.0 ; Pen down
G1 X10.991 Y112.934 F1000
G0 Z3.0 ; Pen up

G0 X11.506 Y113.758 F3000 ; Travel to line 58
G0 Z0.0 ; Pen down
G1 X12.330 Y112.831 F1000
G0 Z3.0 ; Pen up

G0 X12.948 Y113.758 F3000 ; Travel to line 59
G0 Z0.0 ; Pen down
G1 X12.124 Y114.479 F1000
G0 Z3.0 ; Pen up

G0 X12.948 Y115.097 F3000 ; Travel to line 60
G0 Z0.0 ; Pen down
G1 X13.669 Y114.376 F1000
G0 Z3.0 ; Pen up

G0 X14.493 Y114.994 F3000 ; Travel to line 61
G0 Z0.0 ; Pen down
G1 X13.875 Y115.715 F1000
G0 Z3.0 ; Pen up

G0 X14.802 Y116.024 F3000 ; Travel to line 62
G0 Z0.0 ; Pen down
G1 X15.420 Y115.406 F1000
G0 Z3.0 ; Pen up

G0 X15.729 Y116.230 F3000 ; Travel to line 63
G0 Z0.0 ; Pen down
G1 X15.626 Y116.127 F1000
G1 X15.111 Y116.127 F1000
G1 X15.008 Y116.024 F1000
G1 X14.699 Y116.024 F1000
G1 X14.596 Y115.921 F1000
G1 X14.390 Y115.921 F1000
G1 X14.081 Y115.715 F1000
G1 X13.875 Y115.715 F1000
G1 X13.463 Y115.509 F1000
G1 X13.257 Y115.303 F1000
G1 X12.845 Y115.097 F1000
G1 X12.536 Y114.788 F1000
G1 X12.433 Y114.788 F1000
G1 X11.712 Y114.067 F1000
G1 X11.712 Y113.964 F1000
G1 X11.403 Y113.655 F1000
G1 X11.403 Y113.552 F1000
G1 X10.991 Y113.037 F1000
G1 X10.785 Y112.625 F1000
G1 X10.785 Y112.419 F1000
G1 X10.579 Y112.110 F1000
G1 X10.579 Y111.904 F1000
G1 X10.476 Y111.801 F1000
G1 X10.476 Y111.492 F1000
G1 X10.373 Y111.389 F1000
G1 X10.373 Y110.874 F1000
G1 X10.270 Y110.771 F1000
G1 X10.270 Y109.329 F1000
G1 X10.373 Y109.226 F1000
G1 X10.373 Y108.711 F1000
G1 X10.476 Y108.608 F1000
G1 X10.476 Y108.299 F1000
G1 X10.579 Y108.196 F1000
G1 X10.579 Y107.990 F1000
G1 X10.785 Y107.681 F1000
G1 X10.785 Y107.475 F1000
G1 X10.991 Y107.063 F1000
G1 X11.197 Y106.857 F1000
G1 X11.403 Y106.445 F1000
G1 X11.712 Y106.136 F1000
G1 X11.712 Y106.033 F1000
G1 X12.433 Y105.312 F1000
G1 X12.536 Y105.312 F1000
G1 X12.845 Y105.003 F1000
G1 X12.948 Y105.003 F1000
G1 X13.463 Y104.591 F1000
G1 X13.875 Y104.385 F1000
G1 X14.081 Y104.385 F1000
G1 X14.390 Y104.179 F1000
G1 X14.596 Y104.179 F1000
G1 X14.699 Y104.076 F1000
G1 X15.008 Y104.076 F1000
G1 X15.111 Y103.973 F1000
G1 X15.626 Y103.973 F1000
G1 X15.729 Y103.870 F1000
G1 X17.171 Y103.870 F1000
G1 X17.274 Y103.973 F1000
G1 X17.789 Y103.973 F1000
G1 X17.892 Y104.076 F1000
G1 X18.201 Y104.076 F1000
G1 X18.819 Y104.385 F1000
G1 X19.025 Y104.385 F1000
G1 X20.158 Y105.106 F1000
G1 X19.231 Y104.591 F1000
G1 X18.613 Y104.488 F1000
G1 X18.510 Y104.385 F1000
G1 X18.098 Y104.385 F1000
G1 X17.995 Y104.282 F1000
G1 X16.553 Y104.282 F1000
G1 X16.450 Y104.385 F1000
G1 X16.038 Y104.385 F1000
G1 X15.935 Y104.488 F1000
G1 X15.317 Y104.591 F1000
G1 X13.978 Y105.312 F1000
G1 X12.845 Y106.342 F1000
G1 X12.845 Y106.445 F1000
G1 X12.330 Y107.063 F1000
G1 X11.815 Y108.093 F1000
G1 X11.712 Y108.711 F1000
G1 X11.609 Y108.814 F1000
G1 X11.609 Y109.226 F1000
G1 X11.506 Y109.329 F1000
G1 X11.506 Y110.771 F1000
G1 X11.609 Y110.874 F1000
G1 X11.609 Y111.286 F1000
G1 X11.712 Y111.389 F1000
G1 X11.815 Y112.007 F1000
G1 X12.330 Y113.037 F1000
G1 X12.845 Y113.655 F1000
G1 X12.845 Y113.758 F1000
G1 X13.566 Y114.479 F1000
G1 X13.669 Y114.479 F1000
G1 X14.287 Y114.994 F1000
G1 X15.317 Y115.509 F1000
G1 X15.935 Y115.612 F1000
G1 X16.038 Y115.715 F1000
G1 X16.450 Y115.715 F1000
G1 X16.553 Y115.818 F1000
G1 X17.995 Y115.818 F1000
G1 X18.098 Y115.715 F1000
G1 X18.510 Y115.715 F1000
G1 X18.613 Y115.612 F1000
G1 X19.231 Y115.509 F1000
G1 X20.158 Y114.994 F1000
G1 X19.437 Y115.509 F1000
G1 X19.025 Y115.715 F1000
G1 X18.819 Y115.715 F1000
G1 X18.510 Y115.921 F1000
G1 X18.304 Y115.921 F1000
G1 X18.201 Y116.024 F1000
G1 X17.892 Y116.024 F1000
G1 X17.789 Y116.127 F1000
G1 X17.274 Y116.127 F1000
G1 X17.171 Y116.230 F1000
G1 X15.729 Y116.230 F1000
G0 Z3.0 ; Pen up

G0 X16.038 Y116.230 F3000 ; Travel to line 64
G0 Z0.0 ; Pen down
G1 X16.553 Y115.715 F1000
G0 Z3.0 ; Pen up

G0 X17.583 Y116.127 F3000 ; Travel to line 65
G0 Z0.0 ; Pen down
G1 X17.995 Y115.715 F1000
G0 Z3.0 ; Pen up

G0 X19.128 Y115.612 F3000 ; Travel to line 66
G0 Z0.0 ; Pen down
G1 X19.643 Y115.200 F1000
G0 Z3.0 ; Pen up

G0 X20.055 Y115.097 F3000 ; Travel to line 67
G0 Z0.0 ; Pen down
G1 X20.261 Y114.891 F1000
G0 Z3.0 ; Pen up

G0 X20.467 Y114.788 F3000 ; Travel to line 68
G0 Z0.0 ; Pen down
G1 X20.570 Y114.685 F1000
G0 Z3.0 ; Pen up

G0 X20.467 Y105.312 F3000 ; Travel to line 69
G0 Z0.0 ; Pen down
G1 X20.570 Y105.209 F1000
G0 Z3.0 ; Pen up

G0 X20.158 Y105.106 F3000 ; Travel to line 70
G0 Z0.0 ; Pen down
G1 X20.158 Y105.003 F1000
G0 Z3.0 ; Pen up

G0 X19.540 Y104.488 F3000 ; Travel to line 71
G0 Z0.0 ; Pen down
G1 X19.334 Y104.694 F1000
G0 Z3.0 ; Pen up

G0 X19.231 Y104.591 F3000 ; Travel to line 72
G0 Z0.0 ; Pen down
G1 X19.334 Y104.488 F1000
G0 Z3.0 ; Pen up

G0 X18.304 Y104.076 F3000 ; Travel to line 73
G0 Z0.0 ; Pen down
G1 X18.098 Y104.385 F1000
G0 Z3.0 ; Pen up

G0 X17.171 Y103.767 F3000 ; Travel to line 74
G0 Z0.0 ; Pen down
G1 X16.656 Y104.282 F1000
G0 Z3.0 ; Pen up

G0 X30.355 Y107.166 F3000 ; Travel to line 75
G0 Z0.0 ; Pen down
G1 X30.355 Y107.269 F1000
G0 Z3.0 ; Pen up

G0 X30.458 Y107.166 F3000 ; Travel to line 76
G0 Z0.0 ; Pen down
G1 X34.166 Y103.355 F1000
G0 Z3.0 ; Pen up

G0 X34.269 Y103.355 F3000 ; Travel to line 77
G0 Z0.0 ; Pen down
G1 X34.269 Y103.252 F1000
G0 Z3.0 ; Pen up

G0 X36.123 Y102.840 F3000 ; Travel to line 78
G0 Z0.0 ; Pen down
G1 X29.943 Y109.123 F1000
G0 Z3.0 ; Pen up

G0 X29.840 Y110.565 F3000 ; Travel to line 79
G0 Z0.0 ; Pen down
G1 X37.668 Y102.737 F1000
G0 Z3.0 ; Pen up

G0 X38.801 Y102.943 F3000 ; Travel to line 80
G0 Z0.0 ; Pen down
G1 X36.741 Y105.003 F1000
G0 Z3.0 ; Pen up

G0 X38.492 Y104.694 F3000 ; Travel to line 81
G0 Z0.0 ; Pen down
G1 X39.934 Y103.355 F1000
G0 Z3.0 ; Pen up

G0 X40.861 Y103.870 F3000 ; Travel to line 82
G0 Z0.0 ; Pen down
G1 X39.831 Y104.797 F1000
G0 Z3.0 ; Pen up

G0 X40.758 Y105.209 F3000 ; Travel to line 83
G0 Z0.0 ; Pen down
G1 X41.685 Y104.385 F1000
G0 Z3.0 ; Pen up

G0 X42.406 Y105.106 F3000 ; Travel to line 84
G0 Z0.0 ; Pen down
G1 X41.685 Y105.724 F1000
G0 Z3.0 ; Pen up

G0 X42.509 Y106.445 F3000 ; Travel to line 85
G0 Z0.0 ; Pen down
G1 X43.024 Y105.930 F1000
G0 Z3.0 ; Pen up

G0 X43.539 Y106.754 F3000 ; Travel to line 86
G0 Z0.0 ; Pen down
G1 X43.127 Y107.269 F1000
G0 Z3.0 ; Pen up

G0 X43.539 Y108.093 F3000 ; Travel to line 87
G0 Z0.0 ; Pen down
G1 X43.951 Y107.784 F1000
G0 Z3.0 ; Pen up

G0 X44.260 Y108.917 F3000 ; Travel to line 88
G0 Z0.0 ; Pen down
G1 X43.848 Y109.226 F1000
G0 Z3.0 ; Pen up

G0 X44.363 Y110.256 F3000 ; Travel to line 89
G0 Z0.0 ; Pen down
G1 X43.951 Y110.668 F1000
G0 Z3.0 ; Pen up

G0 X44.054 Y111.904 F3000 ; Travel to line 90
G0 Z0.0 ; Pen down
G1 X43.024 Y113.037 F1000
G0 Z3.0 ; Pen up

G0 X43.024 Y112.934 F3000 ; Travel to line 91
G0 Z0.0 ; Pen down
G1 X44.157 Y111.904 F1000
G0 Z3.0 ; Pen up

G0 X41.582 Y114.376 F3000 ; Travel to line 92
G0 Z0.0 ; Pen down
G1 X38.904 Y117.054 F1000
G0 Z3.0 ; Pen up

G0 X38.904 Y117.054 F3000 ; Travel to line 93
G0 Z0.0 ; Pen down
G1 X41.582 Y114.479 F1000
G0 Z3.0 ; Pen up

G0 X39.213 Y115.303 F3000 ; Travel to line 94
G0 Z0.0 ; Pen down
G1 X37.256 Y117.260 F1000
G0 Z3.0 ; Pen up

G0 X36.226 Y117.260 F3000 ; Travel to line 95
G0 Z0.0 ; Pen down
G1 X36.123 Y117.157 F1000
G1 X35.608 Y117.157 F1000
G1 X35.505 Y117.054 F1000
G1 X35.196 Y117.054 F1000
G1 X35.093 Y116.951 F1000
G1 X34.269 Y116.745 F1000
G1 X33.445 Y116.333 F1000
G1 X33.239 Y116.127 F1000
G1 X32.827 Y115.921 F1000
G1 X32.518 Y115.612 F1000
G1 X32.415 Y115.612 F1000
G1 X31.488 Y114.685 F1000
G1 X31.488 Y114.582 F1000
G1 X31.179 Y114.273 F1000
G1 X31.179 Y114.170 F1000
G1 X30.767 Y113.655 F1000
G1 X30.355 Y112.831 F1000
G1 X30.355 Y112.625 F1000
G1 X30.252 Y112.522 F1000
G1 X30.252 Y112.316 F1000
G1 X30.046 Y111.904 F1000
G1 X30.046 Y111.595 F1000
G1 X29.943 Y111.492 F1000
G1 X29.943 Y110.977 F1000
G1 X29.840 Y110.874 F1000
G1 X29.840 Y109.226 F1000
G1 X29.943 Y109.123 F1000
G1 X29.943 Y108.608 F1000
G1 X30.046 Y108.505 F1000
G1 X30.046 Y108.196 F1000
G1 X30.149 Y108.093 F1000
G1 X30.355 Y107.269 F1000
G1 X30.767 Y106.445 F1000
G1 X30.973 Y106.239 F1000
G1 X31.179 Y105.827 F1000
G1 X31.488 Y105.518 F1000
G1 X31.488 Y105.415 F1000
G1 X32.415 Y104.488 F1000
G1 X32.518 Y104.488 F1000
G1 X32.827 Y104.179 F1000
G1 X32.930 Y104.179 F1000
G1 X33.445 Y103.767 F1000
G1 X34.269 Y103.355 F1000
G1 X34.475 Y103.355 F1000
G1 X34.578 Y103.252 F1000
G1 X34.784 Y103.252 F1000
G1 X35.196 Y103.046 F1000
G1 X35.505 Y103.046 F1000
G1 X35.608 Y102.943 F1000
G1 X36.123 Y102.943 F1000
G1 X36.226 Y102.840 F1000
G1 X37.874 Y102.840 F1000
G1 X37.977 Y102.943 F1000
G1 X38.492 Y102.943 F1000
G1 X38.595 Y103.046 F1000
G1 X38.904 Y103.046 F1000
G1 X39.007 Y103.149 F1000
G1 X39.831 Y103.355 F1000
G1 X40.655 Y103.767 F1000
G1 X40.861 Y103.973 F1000
G1 X41.273 Y104.179 F1000
G1 X41.582 Y104.488 F1000
G1 X41.685 Y104.488 F1000
G1 X42.612 Y105.415 F1000
G1 X42.612 Y105.518 F1000
G1 X42.921 Y105.827 F1000
G1 X42.921 Y105.930 F1000
G1 X43.333 Y106.445 F1000
G1 X43.745 Y107.269 F1000
G1 X43.745 Y107.475 F1000
G1 X43.848 Y107.578 F1000
G1 X43.848 Y107.784 F1000
G1 X44.054 Y108.196 F1000
G1 X44.054 Y108.505 F1000
G1 X44.157 Y108.608 F1000
G1 X44.157 Y109.123 F1000
G1 X44.260 Y109.226 F1000
G1 X44.260 Y110.874 F1000
G1 X44.157 Y110.977 F1000
G1 X44.157 Y111.492 F1000
G1 X44.054 Y111.595 F1000
G1 X44.054 Y111.904 F1000
G1 X43.951 Y112.007 F1000
G1 X43.745 Y112.831 F1000
G1 X43.333 Y113.655 F1000
G1 X43.127 Y113.861 F1000
G1 X42.921 Y114.273 F1000
G1 X42.612 Y114.582 F1000
G1 X42.612 Y114.685 F1000
G1 X41.685 Y115.612 F1000
G1 X41.582 Y115.612 F1000
G1 X41.273 Y115.921 F1000
G1 X41.170 Y115.921 F1000
G1 X40.655 Y116.333 F1000
G1 X39.831 Y116.745 F1000
G1 X39.625 Y116.745 F1000
G1 X39.522 Y116.848 F1000
G1 X39.316 Y116.848 F1000
G1 X38.904 Y117.054 F1000
G1 X38.595 Y117.054 F1000
G1 X38.492 Y117.157 F1000
G1 X37.977 Y117.157 F1000
G1 X37.874 Y117.260 F1000
G1 X36.226 Y117.260 F1000
G0 Z3.0 ; Pen up

G0 X35.917 Y117.157 F3000 ; Travel to line 96
G0 Z0.0 ; Pen down
G1 X37.874 Y115.303 F1000
G0 Z3.0 ; Pen up

G0 X36.741 Y114.994 F3000 ; Travel to line 97
G0 Z0.0 ; Pen down
G1 X34.784 Y116.848 F1000
G0 Z3.0 ; Pen up

G0 X33.857 Y116.539 F3000 ; Travel to line 98
G0 Z0.0 ; Pen down
G1 X35.814 Y114.479 F1000
G0 Z3.0 ; Pen up

G0 X34.990 Y113.861 F3000 ; Travel to line 99
G0 Z0.0 ; Pen down
G1 X32.930 Y115.921 F1000
G0 Z3.0 ; Pen up

G0 X32.106 Y115.303 F3000 ; Travel to line 100
G0 Z0.0 ; Pen down
G1 X34.372 Y113.140 F1000
G0 Z3.0 ; Pen up

G0 X33.857 Y112.213 F3000 ; Travel to line 101
G0 Z0.0 ; Pen down
G1 X31.488 Y114.582 F1000
G0 Z3.0 ; Pen up

G0 X30.870 Y113.758 F3000 ; Travel to line 102
G0 Z0.0 ; Pen down
G1 X33.445 Y111.286 F1000
G0 Z3.0 ; Pen up

G0 X33.342 Y109.947 F3000 ; Travel to line 103
G0 Z0.0 ; Pen down
G1 X30.355 Y112.831 F1000
G0 Z3.0 ; Pen up

G0 X30.046 Y111.801 F3000 ; Travel to line 104
G0 Z0.0 ; Pen down
G1 X33.651 Y108.196 F1000
G0 Z3.0 ; Pen up

G0 X49.410 Y109.432 F3000 ; Travel to line 105
G0 Z0.0 ; Pen down
G1 X57.032 Y101.707 F1000
G0 Z3.0 ; Pen up

G0 X58.474 Y101.707 F3000 ; Travel to line 106
G0 Z0.0 ; Pen down
G1 X49.410 Y110.874 F1000
G0 Z3.0 ; Pen up

G0 X49.616 Y112.007 F3000 ; Travel to line 107
G0 Z0.0 ; Pen down
G1 X59.710 Y102.016 F1000
G0 Z3.0 ; Pen up

G0 X60.740 Y102.325 F3000 ; Travel to line 108
G0 Z0.0 ; Pen down
G1 X50.028 Y113.140 F1000
G0 Z3.0 ; Pen up

G0 X50.440 Y114.067 F3000 ; Travel to line 109
G0 Z0.0 ; Pen down
G1 X56.517 Y107.990 F1000
G0 Z3.0 ; Pen up

G0 X56.002 Y109.947 F3000 ; Travel to line 110
G0 Z0.0 ; Pen down
G1 X50.955 Y114.891 F1000
G0 Z3.0 ; Pen up

G0 X51.676 Y115.715 F3000 ; Travel to line 111
G0 Z0.0 ; Pen down
G1 X56.208 Y111.183 F1000
G0 Z3.0 ; Pen up

G0 X56.620 Y112.110 F3000 ; Travel to line 112
G0 Z0.0 ; Pen down
G1 X52.397 Y116.333 F1000
G0 Z3.0 ; Pen up

G0 X53.118 Y116.951 F3000 ; Travel to line 113
G0 Z0.0 ; Pen down
G1 X57.135 Y112.934 F1000
G0 Z3.0 ; Pen up

G0 X57.959 Y113.552 F3000 ; Travel to line 114
G0 Z0.0 ; Pen down
G1 X54.045 Y117.466 F1000
G0 Z3.0 ; Pen up

G0 X55.075 Y117.878 F3000 ; Travel to line 115
G0 Z0.0 ; Pen down
G1 X58.886 Y114.067 F1000
G0 Z3.0 ; Pen up

G0 X60.019 Y114.273 F3000 ; Travel to line 116
G0 Z0.0 ; Pen down
G1 X56.105 Y118.187 F1000
G0 Z3.0 ; Pen up

G0 X56.826 Y118.290 F3000 ; Travel to line 117
G0 Z0.0 ; Pen down
G1 X56.723 Y118.187 F1000
G1 X56.105 Y118.187 F1000
G1 X56.002 Y118.084 F1000
G1 X55.281 Y117.981 F1000
G1 X55.178 Y117.878 F1000
G1 X54.663 Y117.775 F1000
G1 X53.427 Y117.157 F1000
G1 X53.221 Y116.951 F1000
G1 X52.809 Y116.745 F1000
G1 X52.500 Y116.436 F1000
G1 X52.397 Y116.436 F1000
G1 X51.264 Y115.303 F1000
G1 X51.264 Y115.200 F1000
G1 X50.955 Y114.891 F1000
G1 X50.955 Y114.788 F1000
G1 X50.543 Y114.273 F1000
G1 X49.925 Y113.037 F1000
G1 X49.925 Y112.831 F1000
G1 X49.719 Y112.419 F1000
G1 X49.719 Y112.110 F1000
G1 X49.616 Y112.007 F1000
G1 X49.616 Y111.698 F1000
G1 X49.513 Y111.595 F1000
G1 X49.513 Y110.977 F1000
G1 X49.410 Y110.874 F1000
G1 X49.410 Y109.226 F1000
G1 X49.513 Y109.123 F1000
G1 X49.513 Y108.505 F1000
G1 X49.616 Y108.402 F1000
G1 X49.719 Y107.681 F1000
G1 X49.822 Y107.578 F1000
G1 X49.925 Y107.063 F1000
G1 X50.543 Y105.827 F1000
G1 X50.749 Y105.621 F1000
G1 X50.955 Y105.209 F1000
G1 X51.264 Y104.900 F1000
G1 X51.264 Y104.797 F1000
G1 X52.397 Y103.664 F1000
G1 X52.500 Y103.664 F1000
G1 X52.809 Y103.355 F1000
G1 X52.912 Y103.355 F1000
G1 X53.427 Y102.943 F1000
G1 X54.663 Y102.325 F1000
G1 X54.869 Y102.325 F1000
G1 X55.281 Y102.119 F1000
G1 X55.590 Y102.119 F1000
G1 X55.693 Y102.016 F1000
G1 X56.002 Y102.016 F1000
G1 X56.105 Y101.913 F1000
G1 X56.723 Y101.913 F1000
G1 X56.826 Y101.810 F1000
G1 X58.474 Y101.810 F1000
G1 X58.577 Y101.913 F1000
G1 X59.195 Y101.913 F1000
G1 X59.298 Y102.016 F1000
G1 X60.019 Y102.119 F1000
G1 X60.122 Y102.222 F1000
G1 X60.637 Y102.325 F1000
G1 X61.873 Y102.943 F1000
G1 X62.079 Y103.149 F1000
G1 X62.491 Y103.355 F1000
G1 X62.800 Y103.664 F1000
G1 X62.903 Y103.664 F1000
G1 X64.036 Y104.797 F1000
G1 X64.036 Y104.900 F1000
G1 X64.345 Y105.209 F1000
G1 X64.345 Y105.312 F1000
G1 X64.757 Y105.827 F1000
G1 X65.375 Y107.063 F1000
G1 X65.375 Y107.269 F1000
G1 X65.581 Y107.681 F1000
G1 X65.581 Y107.990 F1000
G1 X65.684 Y108.093 F1000
G1 X65.684 Y108.402 F1000
G1 X65.787 Y108.505 F1000
G1 X65.787 Y109.123 F1000
G1 X65.890 Y109.226 F1000
G1 X65.890 Y110.874 F1000
G1 X65.787 Y110.977 F1000
G1 X65.787 Y111.595 F1000
G1 X65.684 Y111.698 F1000
G1 X65.581 Y112.419 F1000
G1 X65.478 Y112.522 F1000
G1 X65.375 Y113.037 F1000
G1 X64.757 Y114.273 F1000
G1 X64.551 Y114.479 F1000
G1 X64.345 Y114.891 F1000
G1 X64.036 Y115.200 F1000
G1 X64.036 Y115.303 F1000
G1 X62.903 Y116.436 F1000
G1 X62.800 Y116.436 F1000
G1 X62.491 Y116.745 F1000
G1 X62.388 Y116.745 F1000
G1 X61.873 Y117.157 F1000
G1 X60.637 Y117.775 F1000
G1 X60.431 Y117.775 F1000
G1 X60.019 Y117.981 F1000
G1 X59.710 Y117.981 F1000
G1 X59.607 Y118.084 F1000
G1 X59.298 Y118.084 F1000
G1 X59.195 Y118.187 F1000
G1 X58.577 Y118.187 F1000
G1 X58.474 Y118.290 F1000
G1 X56.826 Y118.290 F1000
G0 Z3.0 ; Pen up

G0 X57.444 Y118.290 F3000 ; Travel to line 118
G0 Z0.0 ; Pen down
G1 X61.770 Y113.964 F1000
G0 Z3.0 ; Pen up

G0 X64.242 Y111.595 F3000 ; Travel to line 119
G0 Z0.0 ; Pen down
G1 X65.993 Y109.844 F1000
G0 Z3.0 ; Pen up

G0 X65.890 Y108.505 F3000 ; Travel to line 120
G0 Z0.0 ; Pen down
G1 X64.551 Y109.844 F1000
G0 Z3.0 ; Pen up

G0 X64.345 Y108.711 F3000 ; Travel to line 121
G0 Z0.0 ; Pen down
G1 X65.581 Y107.475 F1000
G0 Z3.0 ; Pen up

G0 X65.169 Y106.445 F3000 ; Travel to line 122
G0 Z0.0 ; Pen down
G1 X63.830 Y107.784 F1000
G0 Z3.0 ; Pen up

G0 X63.212 Y106.960 F3000 ; Travel to line 123
G0 Z0.0 ; Pen down
G1 X64.654 Y105.518 F1000
G0 Z3.0 ; Pen up

G0 X64.036 Y104.694 F3000 ; Travel to line 124
G0 Z0.0 ; Pen down
G1 X62.388 Y106.342 F1000
G0 Z3.0 ; Pen up

G0 X61.358 Y105.930 F3000 ; Travel to line 125
G0 Z0.0 ; Pen down
G1 X63.315 Y103.973 F1000
G0 Z3.0 ; Pen up

G0 X62.594 Y103.355 F3000 ; Travel to line 126
G0 Z0.0 ; Pen down
G1 X60.122 Y105.724 F1000
G0 Z3.0 ; Pen up

G0 X58.165 Y106.239 F3000 ; Travel to line 127
G0 Z0.0 ; Pen down
G1 X61.667 Y102.737 F1000
G0 Z3.0 ; Pen up

G0 X55.384 Y102.016 F3000 ; Travel to line 128
G0 Z0.0 ; Pen down
G1 X49.719 Y107.784 F1000
G0 Z3.0 ; Pen up

G0 X51.264 Y104.797 F3000 ; Travel to line 129
G0 Z0.0 ; Pen down
G1 X51.264 Y104.694 F1000
G0 Z3.0 ; Pen up

G0 X51.367 Y104.694 F3000 ; Travel to line 130
G0 Z0.0 ; Pen down
G1 X51.367 Y104.591 F1000
G0 Z3.0 ; Pen up

G0 X51.470 Y104.591 F3000 ; Travel to line 131
G0 Z0.0 ; Pen down
G1 X51.470 Y104.488 F1000
G0 Z3.0 ; Pen up

G0 X51.779 Y104.282 F3000 ; Travel to line 132
G0 Z0.0 ; Pen down
G1 X51.779 Y104.179 F1000
G0 Z3.0 ; Pen up

G0 X51.882 Y104.179 F3000 ; Travel to line 133
G0 Z0.0 ; Pen down
G1 X51.882 Y104.076 F1000
G0 Z3.0 ; Pen up

G0 X51.985 Y104.076 F3000 ; Travel to line 134
G0 Z0.0 ; Pen down
G1 X51.985 Y103.973 F1000
G0 Z3.0 ; Pen up

G0 X52.294 Y103.767 F3000 ; Travel to line 135
G0 Z0.0 ; Pen down
G1 X52.294 Y103.664 F1000
G0 Z3.0 ; Pen up

G0 X52.397 Y103.664 F3000 ; Travel to line 136
G0 Z0.0 ; Pen down
G1 X52.397 Y103.561 F1000
G0 Z3.0 ; Pen up

G0 X65.890 Y111.389 F3000 ; Travel to line 137
G0 Z0.0 ; Pen down
G1 X58.989 Y118.187 F1000
G0 Z3.0 ; Pen up

G0 X61.049 Y117.569 F3000 ; Travel to line 138
G0 Z0.0 ; Pen down
G1 X65.169 Y113.449 F1000
G0 Z3.0 ; Pen up

G0 X65.169 Y113.449 F3000 ; Travel to line 139
G0 Z0.0 ; Pen down
G1 X61.049 Y117.569 F1000
G0 Z3.0 ; Pen up

G0 X61.152 Y117.466 F3000 ; Travel to line 140
G0 Z0.0 ; Pen down
G1 X65.272 Y113.449 F1000
G0 Z3.0 ; Pen up

G0 X73.615 Y108.196 F3000 ; Travel to line 141
G0 Z0.0 ; Pen down
G1 X74.336 Y107.578 F1000
G0 Z3.0 ; Pen up

G0 X75.057 Y108.196 F3000 ; Travel to line 142
G0 Z0.0 ; Pen down
G1 X74.336 Y109.020 F1000
G0 Z3.0 ; Pen up

G0 X75.057 Y109.535 F3000 ; Travel to line 143
G0 Z0.0 ; Pen down
G1 X75.881 Y108.711 F1000
G0 Z3.0 ; Pen up

G0 X77.014 Y109.123 F3000 ; Travel to line 144
G0 Z0.0 ; Pen down
G1 X75.984 Y110.050 F1000
G0 Z3.0 ; Pen up

G0 X77.014 Y110.462 F3000 ; Travel to line 145
G0 Z0.0 ; Pen down
G1 X78.250 Y109.226 F1000
G0 Z3.0 ; Pen up

G0 X78.353 Y110.565 F3000 ; Travel to line 146
G0 Z0.0 ; Pen down
G1 X80.001 Y108.917 F1000
G0 Z3.0 ; Pen up

G0 X80.001 Y110.256 F3000 ; Travel to line 147
G0 Z0.0 ; Pen down
G1 X83.709 Y106.651 F1000
G0 Z3.0 ; Pen up

G0 X83.400 Y105.621 F3000 ; Travel to line 148
G0 Z0.0 ; Pen down
G1 X84.018 Y105.003 F1000
G0 Z3.0 ; Pen up

G0 X83.709 Y103.870 F3000 ; Travel to line 149
G0 Z0.0 ; Pen down
G1 X83.915 Y103.664 F1000
G0 Z3.0 ; Pen up

G0 X83.709 Y103.458 F3000 ; Travel to line 150
G0 Z0.0 ; Pen down
G1 X83.812 Y103.355 F1000
G0 Z3.0 ; Pen up

G0 X83.606 Y103.046 F3000 ; Travel to line 151
G0 Z0.0 ; Pen down
G1 X83.709 Y102.943 F1000
G0 Z3.0 ; Pen up

G0 X83.606 Y103.046 F3000 ; Travel to line 152
G0 Z0.0 ; Pen down
G1 X83.606 Y102.943 F1000
G1 X83.606 Y103.046 F1000
G0 Z3.0 ; Pen up

G0 X73.718 Y106.754 F3000 ; Travel to line 153
G0 Z0.0 ; Pen down
G1 X73.100 Y107.269 F1000
G0 Z3.0 ; Pen up

G0 X72.791 Y106.548 F3000 ; Travel to line 154
G0 Z0.0 ; Pen down
G1 X72.688 Y105.724 F1000
G1 X72.585 Y105.621 F1000
G1 X72.585 Y104.179 F1000
G1 X72.688 Y104.076 F1000
G1 X72.791 Y103.252 F1000
G1 X72.791 Y104.591 F1000
G1 X72.894 Y104.694 F1000
G1 X72.894 Y105.106 F1000
G1 X72.997 Y105.209 F1000
G1 X73.203 Y106.033 F1000
G1 X73.409 Y106.445 F1000
G1 X73.821 Y106.960 F1000
G1 X73.821 Y107.063 F1000
G1 X74.542 Y107.887 F1000
G1 X74.645 Y107.887 F1000
G1 X75.057 Y108.299 F1000
G1 X75.160 Y108.299 F1000
G1 X75.675 Y108.711 F1000
G1 X76.087 Y108.917 F1000
G1 X76.911 Y109.123 F1000
G1 X77.014 Y109.226 F1000
G1 X77.426 Y109.226 F1000
G1 X77.529 Y109.329 F1000
G1 X78.971 Y109.329 F1000
G1 X79.074 Y109.226 F1000
G1 X79.486 Y109.226 F1000
G1 X79.589 Y109.123 F1000
G1 X80.413 Y108.917 F1000
G1 X80.825 Y108.711 F1000
G1 X81.340 Y108.299 F1000
G1 X81.443 Y108.299 F1000
G1 X81.855 Y107.887 F1000
G1 X81.958 Y107.887 F1000
G1 X82.679 Y107.063 F1000
G1 X82.679 Y106.960 F1000
G1 X82.885 Y106.754 F1000
G1 X83.297 Y106.033 F1000
G1 X83.297 Y105.827 F1000
G1 X83.400 Y105.724 F1000
G1 X83.400 Y105.518 F1000
G1 X83.606 Y105.106 F1000
G1 X83.606 Y104.694 F1000
G1 X83.709 Y104.591 F1000
G1 X83.709 Y103.252 F1000
G1 X83.812 Y104.076 F1000
G1 X83.915 Y104.179 F1000
G1 X83.915 Y105.621 F1000
G1 X83.812 Y105.724 F1000
G1 X83.812 Y106.136 F1000
G1 X83.709 Y106.239 F1000
G1 X83.606 Y106.857 F1000
G1 X83.091 Y107.887 F1000
G1 X82.576 Y108.505 F1000
G1 X82.576 Y108.608 F1000
G1 X81.958 Y109.226 F1000
G1 X81.855 Y109.226 F1000
G1 X81.237 Y109.741 F1000
G1 X79.898 Y110.359 F1000
G1 X79.074 Y110.462 F1000
G1 X78.971 Y110.565 F1000
G1 X77.529 Y110.565 F1000
G1 X77.426 Y110.462 F1000
G1 X77.014 Y110.462 F1000
G1 X76.911 Y110.359 F1000
G1 X76.293 Y110.256 F1000
G1 X75.263 Y109.741 F1000
G1 X74.645 Y109.226 F1000
G1 X74.542 Y109.226 F1000
G1 X73.924 Y108.608 F1000
G1 X73.924 Y108.505 F1000
G1 X73.409 Y107.887 F1000
G1 X72.791 Y106.548 F1000
G0 Z3.0 ; Pen up

G0 X72.791 Y106.239 F3000 ; Travel to line 155
G0 Z0.0 ; Pen down
G1 X73.203 Y105.724 F1000
G0 Z3.0 ; Pen up

G0 X72.585 Y105.106 F3000 ; Travel to line 156
G0 Z0.0 ; Pen down
G1 X72.997 Y104.694 F1000
G0 Z3.0 ; Pen up

G0 X72.688 Y103.870 F3000 ; Travel to line 157
G0 Z0.0 ; Pen down
G1 X72.894 Y103.664 F1000
G0 Z3.0 ; Pen up

G0 X72.791 Y103.458 F3000 ; Travel to line 158
G0 Z0.0 ; Pen down
G1 X72.894 Y103.355 F1000
G0 Z3.0 ; Pen up

G0 X72.894 Y103.046 F3000 ; Travel to line 159
G0 Z0.0 ; Pen down
G1 X72.997 Y102.943 F1000
G0 Z3.0 ; Pen up

G0 X72.894 Y103.046 F3000 ; Travel to line 160
G0 Z0.0 ; Pen down
G1 X72.894 Y102.943 F1000
G1 X72.894 Y103.046 F1000
G0 Z3.0 ; Pen up

G0 X72.379 Y86.772 F3000 ; Travel to line 161
G0 Z0.0 ; Pen down
G1 X72.482 Y86.669 F1000
G1 X72.997 Y86.669 F1000
G1 X73.100 Y86.566 F1000
G1 X73.718 Y86.566 F1000
G1 X73.821 Y86.463 F1000
G1 X74.130 Y86.463 F1000
G1 X74.233 Y86.360 F1000
G1 X74.439 Y86.360 F1000
G1 X74.542 Y86.257 F1000
G1 X74.748 Y86.257 F1000
G1 X74.851 Y86.154 F1000
G1 X75.057 Y86.154 F1000
G1 X75.160 Y86.051 F1000
G1 X75.263 Y86.051 F1000
G1 X75.366 Y85.948 F1000
G1 X75.469 Y85.948 F1000
G1 X75.572 Y85.845 F1000
G1 X75.778 Y85.845 F1000
G1 X75.881 Y85.742 F1000
G1 X76.087 Y85.742 F1000
G1 X76.190 Y85.639 F1000
G1 X76.293 Y85.639 F1000
G1 X76.396 Y85.536 F1000
G1 X76.499 Y85.536 F1000
G1 X76.602 Y85.433 F1000
G1 X76.705 Y85.433 F1000
G1 X76.911 Y85.227 F1000
G1 X77.014 Y85.227 F1000
G1 X77.323 Y84.918 F1000
G1 X77.426 Y84.918 F1000
G1 X77.529 Y84.815 F1000
G1 X77.632 Y84.815 F1000
G1 X77.735 Y84.712 F1000
G1 X77.838 Y84.712 F1000
G1 X78.044 Y84.506 F1000
G1 X78.147 Y84.506 F1000
G1 X79.589 Y83.064 F1000
G1 X79.589 Y82.961 F1000
G1 X80.104 Y82.446 F1000
G1 X80.104 Y82.343 F1000
G1 X80.413 Y82.034 F1000
G1 X80.413 Y81.931 F1000
G1 X80.722 Y81.622 F1000
G1 X80.722 Y81.519 F1000
G1 X80.825 Y81.416 F1000
G1 X80.825 Y81.313 F1000
G1 X80.928 Y81.210 F1000
G1 X80.928 Y81.107 F1000
G1 X81.031 Y81.004 F1000
G1 X81.031 Y80.901 F1000
G1 X81.237 Y80.695 F1000
G1 X81.237 Y80.592 F1000
G1 X81.340 Y80.489 F1000
G1 X81.340 Y80.386 F1000
G1 X81.443 Y80.283 F1000
G1 X81.443 Y79.974 F1000
G1 X81.546 Y79.871 F1000
G1 X81.546 Y79.768 F1000
G1 X81.649 Y79.665 F1000
G1 X81.649 Y79.562 F1000
G1 X81.752 Y79.459 F1000
G1 X81.752 Y79.356 F1000
G1 X81.855 Y79.253 F1000
G1 X81.855 Y78.841 F1000
G1 X81.958 Y78.738 F1000
G1 X81.958 Y78.326 F1000
G1 X82.061 Y78.223 F1000
G1 X82.061 Y78.017 F1000
G1 X82.164 Y77.914 F1000
G1 X82.164 Y77.502 F1000
G1 X82.267 Y77.399 F1000
G1 X82.267 Y76.369 F1000
G1 X82.370 Y76.266 F1000
G1 X82.370 Y75.545 F1000
G1 X82.370 Y76.266 F1000
G1 X82.267 Y76.369 F1000
G1 X82.267 Y77.296 F1000
G1 X82.164 Y77.399 F1000
G1 X82.164 Y77.914 F1000
G1 X82.061 Y78.017 F1000
G1 X82.061 Y78.223 F1000
G1 X81.958 Y78.326 F1000
G1 X81.958 Y78.738 F1000
G1 X81.855 Y78.841 F1000
G1 X81.855 Y79.150 F1000
G1 X81.752 Y79.253 F1000
G1 X81.752 Y79.459 F1000
G1 X81.649 Y79.562 F1000
G1 X81.649 Y79.665 F1000
G1 X81.546 Y79.768 F1000
G1 X81.546 Y79.871 F1000
G1 X81.443 Y79.974 F1000
G1 X81.443 Y80.283 F1000
G1 X81.340 Y80.386 F1000
G1 X81.340 Y80.489 F1000
G1 X81.237 Y80.592 F1000
G1 X81.237 Y80.695 F1000
G1 X81.031 Y80.901 F1000
G1 X81.031 Y81.004 F1000
G1 X80.928 Y81.107 F1000
G1 X80.928 Y81.210 F1000
G1 X80.722 Y81.416 F1000
G1 X80.722 Y81.519 F1000
G1 X80.619 Y81.622 F1000
G1 X80.619 Y81.725 F1000
G1 X80.413 Y81.931 F1000
G1 X80.413 Y82.034 F1000
G1 X80.001 Y82.446 F1000
G1 X80.001 Y82.549 F1000
G1 X79.383 Y83.167 F1000
G1 X79.383 Y83.270 F1000
G1 X78.456 Y84.197 F1000
G1 X78.353 Y84.197 F1000
G1 X78.044 Y84.506 F1000
G1 X77.941 Y84.506 F1000
G1 X77.735 Y84.712 F1000
G1 X77.632 Y84.712 F1000
G1 X77.426 Y84.918 F1000
G1 X77.323 Y84.918 F1000
G1 X77.117 Y85.124 F1000
G1 X77.014 Y85.124 F1000
G1 X76.911 Y85.227 F1000
G1 X76.808 Y85.227 F1000
G1 X76.602 Y85.433 F1000
G1 X76.499 Y85.433 F1000
G1 X76.293 Y85.639 F1000
G1 X76.087 Y85.639 F1000
G1 X75.984 Y85.742 F1000
G1 X75.778 Y85.742 F1000
G1 X75.675 Y85.845 F1000
G1 X75.572 Y85.845 F1000
G1 X75.469 Y85.948 F1000
G1 X75.366 Y85.948 F1000
G1 X75.263 Y86.051 F1000
G1 X75.160 Y86.051 F1000
G1 X75.057 Y86.154 F1000
G1 X74.748 Y86.154 F1000
G1 X74.645 Y86.257 F1000
G1 X74.439 Y86.257 F1000
G1 X74.336 Y86.360 F1000
G1 X74.130 Y86.360 F1000
G1 X74.027 Y86.463 F1000
G1 X73.821 Y86.463 F1000
G1 X73.718 Y86.566 F1000
G1 X73.100 Y86.566 F1000
G1 X72.997 Y86.669 F1000
G1 X72.482 Y86.669 F1000
G1 X72.379 Y86.772 F1000
G1 X71.246 Y86.772 F1000
G1 X71.143 Y86.669 F1000
G1 X69.907 Y86.669 F1000
G1 X69.804 Y86.566 F1000
G1 X69.598 Y86.566 F1000
G1 X69.495 Y86.463 F1000
G1 X69.186 Y86.463 F1000
G1 X69.392 Y86.463 F1000
G1 X69.495 Y86.566 F1000
G1 X69.804 Y86.566 F1000
G1 X69.907 Y86.669 F1000
G1 X71.143 Y86.669 F1000
G1 X71.246 Y86.772 F1000
G0 Z3.0 ; Pen up

G0 X68.877 Y86.360 F3000 ; Travel to line 162
G0 Z0.0 ; Pen down
G1 X68.568 Y86.360 F1000
G1 X68.465 Y86.257 F1000
G1 X68.259 Y86.257 F1000
G1 X68.156 Y86.154 F1000
G1 X67.950 Y86.154 F1000
G1 X67.847 Y86.051 F1000
G1 X67.744 Y86.051 F1000
G1 X67.641 Y85.948 F1000
G1 X67.538 Y85.948 F1000
G1 X67.435 Y85.845 F1000
G1 X67.332 Y85.845 F1000
G1 X67.229 Y85.742 F1000
G1 X67.126 Y85.742 F1000
G1 X67.023 Y85.639 F1000
G1 X66.817 Y85.639 F1000
G1 X66.714 Y85.536 F1000
G1 X66.611 Y85.536 F1000
G1 X66.508 Y85.433 F1000
G1 X66.405 Y85.433 F1000
G1 X66.302 Y85.330 F1000
G1 X66.199 Y85.330 F1000
G1 X65.890 Y85.021 F1000
G1 X65.787 Y85.021 F1000
G1 X65.581 Y84.815 F1000
G1 X65.478 Y84.815 F1000
G1 X65.272 Y84.609 F1000
G1 X65.169 Y84.609 F1000
G1 X64.345 Y83.785 F1000
G1 X64.242 Y83.785 F1000
G1 X63.830 Y83.373 F1000
G1 X63.830 Y83.270 F1000
G1 X63.109 Y82.549 F1000
G1 X63.109 Y82.446 F1000
G1 X63.006 Y82.343 F1000
G1 X63.006 Y82.240 F1000
G1 X62.800 Y82.034 F1000
G1 X62.800 Y81.931 F1000
G1 X62.594 Y81.725 F1000
G1 X62.594 Y81.622 F1000
G1 X62.388 Y81.416 F1000
G1 X62.388 Y81.313 F1000
G1 X62.285 Y81.210 F1000
G1 X62.285 Y81.107 F1000
G1 X62.182 Y81.004 F1000
G1 X62.182 Y80.901 F1000
G1 X62.079 Y80.798 F1000
G1 X62.079 Y80.592 F1000
G1 X61.976 Y80.489 F1000
G1 X61.976 Y80.283 F1000
G1 X61.873 Y80.180 F1000
G1 X61.873 Y80.077 F1000
G1 X61.770 Y79.974 F1000
G1 X61.770 Y79.768 F1000
G1 X61.667 Y79.665 F1000
G1 X61.667 Y79.459 F1000
G1 X61.564 Y79.356 F1000
G1 X61.564 Y79.150 F1000
G1 X61.461 Y79.047 F1000
G1 X61.461 Y78.841 F1000
G1 X61.358 Y78.738 F1000
G1 X61.358 Y78.223 F1000
G1 X61.255 Y78.120 F1000
G1 X61.255 Y77.605 F1000
G1 X61.152 Y77.502 F1000
G1 X61.152 Y76.163 F1000
G1 X61.255 Y76.060 F1000
G1 X61.255 Y75.030 F1000
G1 X61.358 Y74.927 F1000
G1 X61.358 Y74.515 F1000
G1 X61.461 Y74.412 F1000
G1 X61.461 Y74.103 F1000
G1 X61.564 Y74.000 F1000
G1 X61.564 Y73.794 F1000
G1 X61.667 Y73.691 F1000
G1 X61.667 Y73.588 F1000
G1 X61.770 Y73.485 F1000
G1 X61.770 Y73.279 F1000
G1 X61.873 Y73.176 F1000
G1 X61.873 Y72.970 F1000
G1 X61.976 Y72.867 F1000
G1 X61.976 Y72.764 F1000
G1 X62.079 Y72.661 F1000
G1 X62.079 Y72.558 F1000
G1 X62.182 Y72.455 F1000
G1 X62.182 Y72.352 F1000
G1 X62.285 Y72.249 F1000
G1 X62.285 Y72.146 F1000
G1 X62.388 Y72.043 F1000
G1 X62.388 Y71.940 F1000
G1 X62.491 Y71.837 F1000
G1 X62.491 Y71.734 F1000
G1 X62.697 Y71.528 F1000
G1 X62.697 Y71.425 F1000
G1 X63.006 Y71.116 F1000
G1 X63.006 Y71.013 F1000
G1 X63.109 Y70.910 F1000
G1 X63.109 Y70.807 F1000
G1 X64.860 Y69.056 F1000
G1 X64.963 Y69.056 F1000
G1 X65.272 Y68.747 F1000
G1 X65.375 Y68.747 F1000
G1 X65.478 Y68.644 F1000
G1 X65.581 Y68.644 F1000
G1 X65.787 Y68.438 F1000
G1 X65.890 Y68.438 F1000
G1 X65.993 Y68.335 F1000
G1 X66.096 Y68.335 F1000
G1 X66.199 Y68.232 F1000
G1 X66.302 Y68.232 F1000
G1 X66.508 Y68.026 F1000
G1 X66.714 Y68.026 F1000
G1 X66.817 Y67.923 F1000
G1 X66.920 Y67.923 F1000
G1 X67.023 Y67.820 F1000
G1 X67.229 Y67.820 F1000
G1 X67.332 Y67.717 F1000
G1 X67.435 Y67.717 F1000
G1 X67.538 Y67.614 F1000
G1 X67.744 Y67.614 F1000
G1 X67.847 Y67.511 F1000
G1 X68.259 Y67.511 F1000
G1 X68.362 Y67.408 F1000
G1 X68.774 Y67.408 F1000
G1 X68.877 Y67.305 F1000
G1 X69.392 Y67.305 F1000
G1 X69.495 Y67.202 F1000
G1 X71.658 Y67.202 F1000
G1 X71.761 Y67.305 F1000
G1 X72.276 Y67.305 F1000
G1 X72.379 Y67.408 F1000
G1 X72.688 Y67.408 F1000
G1 X72.791 Y67.511 F1000
G1 X72.997 Y67.511 F1000
G1 X73.100 Y67.614 F1000
G1 X73.306 Y67.614 F1000
G1 X73.409 Y67.717 F1000
G1 X73.615 Y67.717 F1000
G1 X73.718 Y67.820 F1000
G1 X73.821 Y67.820 F1000
G1 X73.924 Y67.923 F1000
G1 X74.027 Y67.923 F1000
G1 X74.130 Y68.026 F1000
G1 X74.233 Y68.026 F1000
G1 X74.336 Y68.129 F1000
G1 X74.542 Y68.129 F1000
G1 X74.645 Y68.232 F1000
G1 X74.748 Y68.232 F1000
G1 X74.851 Y68.335 F1000
G1 X74.954 Y68.335 F1000
G1 X75.160 Y68.541 F1000
G1 X75.263 Y68.541 F1000
G1 X75.469 Y68.747 F1000
G1 X75.572 Y68.747 F1000
G1 X76.087 Y69.262 F1000
G1 X76.190 Y69.262 F1000
G1 X77.117 Y70.189 F1000
G1 X77.117 Y70.292 F1000
G1 X77.426 Y70.601 F1000
G1 X77.426 Y70.704 F1000
G1 X77.735 Y71.013 F1000
G1 X77.735 Y71.116 F1000
G1 X77.941 Y71.322 F1000
G1 X77.941 Y71.425 F1000
G1 X78.147 Y71.631 F1000
G1 X78.147 Y71.734 F1000
G1 X78.250 Y71.837 F1000
G1 X78.250 Y71.940 F1000
G1 X78.353 Y72.043 F1000
G1 X78.353 Y72.249 F1000
G1 X78.456 Y72.352 F1000
G1 X78.456 Y72.455 F1000
G1 X78.559 Y72.558 F1000
G1 X78.559 Y72.764 F1000
G1 X78.662 Y72.867 F1000
G1 X78.662 Y73.176 F1000
G1 X78.765 Y73.279 F1000
G1 X78.765 Y73.382 F1000
G1 X78.868 Y73.485 F1000
G1 X78.868 Y73.794 F1000
G1 X78.971 Y73.897 F1000
G1 X78.971 Y74.721 F1000
G1 X79.074 Y74.824 F1000
G1 X79.074 Y76.575 F1000
G1 X78.971 Y76.678 F1000
G1 X78.971 Y77.090 F1000
G1 X78.868 Y77.193 F1000
G1 X78.868 Y77.605 F1000
G1 X78.765 Y77.708 F1000
G1 X78.765 Y78.017 F1000
G1 X78.662 Y78.120 F1000
G1 X78.662 Y78.429 F1000
G1 X78.559 Y78.532 F1000
G1 X78.559 Y78.635 F1000
G1 X78.456 Y78.738 F1000
G1 X78.456 Y78.841 F1000
G1 X78.353 Y78.944 F1000
G1 X78.353 Y79.047 F1000
G1 X78.250 Y79.150 F1000
G1 X78.250 Y79.253 F1000
G1 X78.147 Y79.356 F1000
G1 X78.147 Y79.459 F1000
G1 X78.044 Y79.562 F1000
G1 X78.044 Y79.665 F1000
G1 X77.838 Y79.871 F1000
G1 X77.838 Y79.974 F1000
G1 X77.529 Y80.283 F1000
G1 X77.529 Y80.386 F1000
G1 X77.220 Y80.695 F1000
G1 X77.220 Y80.798 F1000
G1 X76.602 Y81.416 F1000
G1 X76.499 Y81.416 F1000
G1 X76.190 Y81.725 F1000
G1 X76.087 Y81.725 F1000
G1 X75.778 Y82.034 F1000
G1 X75.675 Y82.034 F1000
G1 X75.366 Y82.343 F1000
G1 X75.263 Y82.343 F1000
G1 X75.057 Y82.549 F1000
G1 X74.954 Y82.549 F1000
G1 X74.851 Y82.652 F1000
G1 X74.748 Y82.652 F1000
G1 X74.645 Y82.755 F1000
G1 X74.542 Y82.755 F1000
G1 X74.439 Y82.858 F1000
G1 X74.336 Y82.858 F1000
G1 X74.233 Y82.961 F1000
G1 X74.027 Y82.961 F1000
G1 X73.924 Y83.064 F1000
G1 X73.615 Y83.064 F1000
G1 X73.512 Y83.167 F1000
G1 X73.409 Y83.167 F1000
G1 X73.306 Y83.270 F1000
G1 X72.997 Y83.270 F1000
G1 X72.894 Y83.373 F1000
G1 X72.070 Y83.373 F1000
G1 X71.967 Y83.476 F1000
G1 X70.731 Y83.476 F1000
G1 X70.628 Y83.373 F1000
G1 X70.319 Y83.373 F1000
G1 X70.216 Y83.270 F1000
G1 X69.907 Y83.270 F1000
G1 X69.804 Y83.167 F1000
G1 X69.392 Y83.167 F1000
G1 X69.289 Y83.064 F1000
G1 X69.186 Y83.064 F1000
G1 X69.083 Y82.961 F1000
G1 X68.980 Y82.961 F1000
G1 X68.877 Y82.858 F1000
G1 X68.568 Y82.858 F1000
G1 X68.465 Y82.755 F1000
G1 X68.362 Y82.755 F1000
G1 X68.259 Y82.652 F1000
G1 X68.156 Y82.652 F1000
G1 X67.950 Y82.446 F1000
G1 X67.847 Y82.446 F1000
G1 X67.641 Y82.240 F1000
G1 X67.538 Y82.240 F1000
G1 X67.332 Y82.034 F1000
G1 X67.229 Y82.034 F1000
G1 X66.920 Y81.725 F1000
G1 X66.817 Y81.725 F1000
G1 X65.993 Y80.901 F1000
G1 X65.993 Y80.798 F1000
G1 X65.787 Y80.592 F1000
G1 X65.787 Y80.489 F1000
G1 X65.478 Y80.180 F1000
G1 X65.478 Y80.077 F1000
G1 X65.375 Y79.974 F1000
G1 X65.375 Y79.871 F1000
G1 X65.169 Y79.665 F1000
G1 X65.169 Y79.562 F1000
G1 X65.066 Y79.459 F1000
G1 X65.066 Y79.253 F1000
G1 X64.963 Y79.150 F1000
G1 X64.963 Y78.944 F1000
G1 X64.860 Y78.841 F1000
G1 X64.860 Y78.738 F1000
G1 X64.757 Y78.635 F1000
G1 X64.757 Y78.429 F1000
G1 X64.654 Y78.326 F1000
G1 X64.654 Y78.017 F1000
G1 X64.551 Y77.914 F1000
G1 X64.551 Y77.502 F1000
G1 X64.448 Y77.399 F1000
G1 X64.448 Y75.854 F1000
G1 X64.551 Y75.751 F1000
G1 X64.551 Y75.442 F1000
G1 X64.654 Y75.339 F1000
G1 X64.654 Y75.030 F1000
G1 X64.757 Y74.927 F1000
G1 X64.757 Y74.618 F1000
G1 X64.860 Y74.515 F1000
G1 X64.860 Y74.412 F1000
G1 X64.963 Y74.309 F1000
G1 X64.963 Y74.206 F1000
G1 X65.066 Y74.103 F1000
G1 X65.066 Y74.000 F1000
G1 X65.169 Y73.897 F1000
G1 X65.169 Y73.794 F1000
G1 X65.272 Y73.691 F1000
G1 X65.272 Y73.588 F1000
G1 X65.375 Y73.485 F1000
G1 X65.375 Y73.382 F1000
G1 X65.478 Y73.279 F1000
G1 X65.478 Y73.176 F1000
G1 X65.787 Y72.867 F1000
G1 X65.787 Y72.764 F1000
G1 X66.817 Y71.734 F1000
G1 X66.920 Y71.734 F1000
G1 X67.229 Y71.425 F1000
G1 X67.332 Y71.425 F1000
G1 X67.538 Y71.219 F1000
G1 X67.641 Y71.219 F1000
G1 X67.744 Y71.116 F1000
G1 X67.847 Y71.116 F1000
G1 X68.053 Y70.910 F1000
G1 X68.259 Y70.910 F1000
G1 X68.362 Y70.807 F1000
G1 X68.671 Y70.807 F1000
G1 X68.774 Y70.704 F1000
G1 X68.980 Y70.704 F1000
G1 X69.083 Y70.601 F1000
G1 X69.392 Y70.601 F1000
G1 X69.495 Y70.498 F1000
G1 X71.452 Y70.498 F1000
G1 X71.555 Y70.601 F1000
G1 X71.761 Y70.601 F1000
G1 X71.864 Y70.704 F1000
G1 X72.276 Y70.704 F1000
G1 X72.379 Y70.807 F1000
G1 X72.482 Y70.807 F1000
G1 X72.585 Y70.910 F1000
G1 X72.791 Y70.910 F1000
G1 X72.894 Y71.013 F1000
G1 X72.997 Y71.013 F1000
G1 X73.100 Y71.116 F1000
G1 X73.203 Y71.116 F1000
G1 X73.306 Y71.219 F1000
G1 X73.409 Y71.219 F1000
G1 X73.615 Y71.425 F1000
G1 X73.718 Y71.425 F1000
G1 X74.851 Y72.558 F1000
G1 X74.851 Y72.661 F1000
G1 X75.057 Y72.867 F1000
G1 X75.057 Y72.970 F1000
G1 X75.160 Y73.073 F1000
G1 X75.160 Y73.176 F1000
G1 X75.366 Y73.382 F1000
G1 X75.366 Y73.485 F1000
G1 X75.469 Y73.588 F1000
G1 X75.469 Y73.794 F1000
G1 X75.572 Y73.897 F1000
G1 X75.572 Y74.103 F1000
G1 X75.675 Y74.206 F1000
G1 X75.675 Y74.721 F1000
G1 X75.778 Y74.824 F1000
G1 X75.778 Y76.472 F1000
G1 X75.675 Y76.575 F1000
G1 X75.675 Y77.090 F1000
G1 X75.572 Y77.193 F1000
G1 X75.572 Y77.296 F1000
G1 X75.469 Y77.399 F1000
G1 X75.469 Y77.502 F1000
G1 X75.366 Y77.605 F1000
G1 X75.366 Y77.708 F1000
G1 X75.263 Y77.811 F1000
G1 X75.263 Y77.914 F1000
G1 X75.160 Y78.017 F1000
G1 X75.160 Y78.120 F1000
G1 X74.645 Y78.635 F1000
G1 X74.645 Y78.738 F1000
G1 X74.130 Y79.253 F1000
G1 X74.027 Y79.253 F1000
G1 X73.821 Y79.459 F1000
G1 X73.718 Y79.459 F1000
G1 X73.512 Y79.665 F1000
G1 X73.409 Y79.665 F1000
G1 X73.306 Y79.768 F1000
G1 X73.203 Y79.768 F1000
G1 X73.100 Y79.871 F1000
G1 X72.997 Y79.871 F1000
G1 X72.894 Y79.974 F1000
G1 X72.688 Y79.974 F1000
G1 X72.585 Y80.077 F1000
G1 X72.173 Y80.077 F1000
G1 X72.070 Y80.180 F1000
G1 X70.937 Y80.180 F1000
G1 X70.834 Y80.077 F1000
G1 X70.525 Y80.077 F1000
G1 X70.422 Y79.974 F1000
G1 X70.216 Y79.974 F1000
G1 X70.113 Y79.871 F1000
G1 X70.010 Y79.871 F1000
G1 X69.907 Y79.768 F1000
G1 X69.804 Y79.768 F1000
G1 X69.701 Y79.665 F1000
G1 X69.598 Y79.665 F1000
G1 X69.495 Y79.562 F1000
G1 X69.392 Y79.562 F1000
G1 X69.083 Y79.253 F1000
G1 X68.980 Y79.253 F1000
G1 X68.774 Y79.047 F1000
G1 X68.774 Y78.944 F1000
G1 X68.259 Y78.429 F1000
G1 X68.259 Y78.326 F1000
G1 X68.156 Y78.223 F1000
G1 X68.156 Y78.120 F1000
G1 X68.053 Y78.017 F1000
G1 X68.053 Y77.914 F1000
G1 X67.950 Y77.811 F1000
G1 X67.950 Y77.502 F1000
G1 X67.847 Y77.399 F1000
G1 X67.847 Y77.296 F1000
G1 X67.744 Y77.193 F1000
G1 X67.744 Y76.163 F1000
G1 X67.847 Y76.060 F1000
G1 X67.847 Y75.751 F1000
G1 X67.950 Y75.648 F1000
G1 X67.950 Y75.545 F1000
G1 X68.053 Y75.442 F1000
G1 X68.053 Y75.236 F1000
G1 X68.156 Y75.133 F1000
G1 X68.156 Y75.030 F1000
G1 X68.671 Y74.515 F1000
G1 X68.671 Y74.412 F1000
G1 X68.877 Y74.206 F1000
G1 X68.980 Y74.206 F1000
G1 X69.083 Y74.103 F1000
G1 X69.289 Y74.103 F1000
G1 X69.495 Y73.897 F1000
G1 X69.598 Y73.897 F1000
G1 X69.701 Y73.794 F1000
G1 X69.907 Y73.794 F1000
G1 X70.010 Y73.691 F1000
G1 X70.834 Y73.691 F1000
G1 X70.937 Y73.794 F1000
G1 X71.143 Y73.794 F1000
G1 X71.246 Y73.897 F1000
G1 X71.452 Y73.897 F1000
G1 X71.555 Y74.000 F1000
G1 X71.658 Y74.000 F1000
G1 X72.379 Y74.721 F1000
G1 X72.379 Y74.824 F1000
G1 X72.482 Y74.927 F1000
G1 X72.482 Y75.133 F1000
G1 X72.585 Y75.236 F1000
G1 X72.585 Y76.163 F1000
G1 X72.585 Y75.133 F1000
G1 X72.482 Y75.030 F1000
G1 X72.482 Y74.824 F1000
G1 X72.379 Y74.721 F1000
G1 X72.379 Y74.618 F1000
G1 X71.864 Y74.103 F1000
G1 X71.761 Y74.103 F1000
G1 X71.555 Y73.897 F1000
G1 X71.349 Y73.897 F1000
G1 X71.246 Y73.794 F1000
G1 X70.937 Y73.794 F1000
G1 X70.834 Y73.691 F1000
G1 X70.010 Y73.691 F1000
G1 X69.907 Y73.794 F1000
G1 X69.701 Y73.794 F1000
G1 X69.598 Y73.897 F1000
G1 X69.392 Y73.897 F1000
G1 X69.186 Y74.103 F1000
G1 X68.980 Y74.103 F1000
G1 X68.362 Y74.721 F1000
G1 X68.362 Y74.824 F1000
G1 X68.156 Y75.030 F1000
G1 X68.156 Y75.133 F1000
G1 X68.053 Y75.236 F1000
G1 X68.053 Y75.339 F1000
G1 X67.950 Y75.442 F1000
G1 X67.950 Y75.648 F1000
G1 X67.847 Y75.751 F1000
G1 X67.847 Y76.060 F1000
G1 X67.744 Y76.163 F1000
G1 X67.744 Y77.193 F1000
G1 X67.847 Y77.296 F1000
G1 X67.847 Y77.399 F1000
G1 X67.950 Y77.502 F1000
G1 X67.950 Y77.811 F1000
G1 X68.053 Y77.914 F1000
G1 X68.053 Y78.017 F1000
G1 X68.156 Y78.120 F1000
G1 X68.156 Y78.223 F1000
G1 X68.259 Y78.326 F1000
G1 X68.259 Y78.429 F1000
G1 X68.362 Y78.532 F1000
G1 X68.362 Y78.635 F1000
G1 X68.877 Y79.150 F1000
G1 X68.877 Y79.253 F1000
G1 X68.980 Y79.253 F1000
G1 X69.083 Y79.356 F1000
G1 X69.186 Y79.356 F1000
G1 X69.495 Y79.665 F1000
G1 X69.598 Y79.665 F1000
G1 X69.701 Y79.768 F1000
G1 X69.804 Y79.768 F1000
G1 X69.907 Y79.871 F1000
G1 X70.010 Y79.871 F1000
G1 X70.113 Y79.974 F1000
G1 X70.422 Y79.974 F1000
G1 X70.525 Y80.077 F1000
G1 X70.834 Y80.077 F1000
G1 X70.937 Y80.180 F1000
G1 X72.070 Y80.180 F1000
G1 X72.173 Y80.077 F1000
G1 X72.585 Y80.077 F1000
G1 X72.688 Y79.974 F1000
G1 X72.894 Y79.974 F1000
G1 X72.997 Y79.871 F1000
G1 X73.100 Y79.871 F1000
G1 X73.203 Y79.768 F1000
G1 X73.409 Y79.768 F1000
G1 X73.615 Y79.562 F1000
G1 X73.718 Y79.562 F1000
G1 X73.924 Y79.356 F1000
G1 X74.027 Y79.356 F1000
G1 X74.954 Y78.429 F1000
G1 X74.954 Y78.326 F1000
G1 X75.160 Y78.120 F1000
G1 X75.160 Y78.017 F1000
G1 X75.366 Y77.811 F1000
G1 X75.366 Y77.708 F1000
G1 X75.469 Y77.605 F1000
G1 X75.469 Y77.399 F1000
G1 X75.572 Y77.296 F1000
G1 X75.572 Y77.193 F1000
G1 X75.675 Y77.090 F1000
G1 X75.675 Y76.575 F1000
G1 X75.778 Y76.472 F1000
G1 X75.778 Y74.824 F1000
G1 X75.675 Y74.721 F1000
G1 X75.675 Y74.206 F1000
G1 X75.572 Y74.103 F1000
G1 X75.572 Y73.897 F1000
G1 X75.469 Y73.794 F1000
G1 X75.469 Y73.588 F1000
G1 X75.366 Y73.485 F1000
G1 X75.366 Y73.382 F1000
G1 X75.160 Y73.176 F1000
G1 X75.160 Y73.073 F1000
G1 X75.057 Y72.970 F1000
G1 X75.057 Y72.867 F1000
G1 X74.954 Y72.764 F1000
G1 X74.954 Y72.661 F1000
G1 X74.542 Y72.249 F1000
G1 X74.542 Y72.146 F1000
G1 X74.130 Y71.734 F1000
G1 X74.027 Y71.734 F1000
G1 X73.615 Y71.322 F1000
G1 X73.512 Y71.322 F1000
G1 X73.409 Y71.219 F1000
G1 X73.306 Y71.219 F1000
G1 X73.203 Y71.116 F1000
G1 X73.100 Y71.116 F1000
G1 X72.997 Y71.013 F1000
G1 X72.894 Y71.013 F1000
G1 X72.791 Y70.910 F1000
G1 X72.585 Y70.910 F1000
G1 X72.482 Y70.807 F1000
G1 X72.379 Y70.807 F1000
G1 X72.276 Y70.704 F1000
G1 X71.967 Y70.704 F1000
G1 X71.864 Y70.601 F1000
G1 X71.555 Y70.601 F1000
G1 X71.452 Y70.498 F1000
G1 X69.392 Y70.498 F1000
G1 X69.289 Y70.601 F1000
G1 X69.083 Y70.601 F1000
G1 X68.980 Y70.704 F1000
G1 X68.671 Y70.704 F1000
G1 X68.568 Y70.807 F1000
G1 X68.362 Y70.807 F1000
G1 X68.259 Y70.910 F1000
G1 X68.053 Y70.910 F1000
G1 X67.847 Y71.116 F1000
G1 X67.641 Y71.116 F1000
G1 X67.435 Y71.322 F1000
G1 X67.332 Y71.322 F1000
G1 X67.126 Y71.528 F1000
G1 X67.023 Y71.528 F1000
G1 X66.611 Y71.940 F1000
G1 X66.508 Y71.940 F1000
G1 X66.302 Y72.146 F1000
G1 X66.302 Y72.249 F1000
G1 X66.199 Y72.352 F1000
G1 X66.096 Y72.352 F1000
G1 X65.993 Y72.455 F1000
G1 X65.993 Y72.558 F1000
G1 X65.787 Y72.764 F1000
G1 X65.787 Y72.867 F1000
G1 X65.375 Y73.279 F1000
G1 X65.375 Y73.485 F1000
G1 X65.169 Y73.691 F1000
G1 X65.169 Y73.794 F1000
G1 X65.066 Y73.897 F1000
G1 X65.066 Y74.000 F1000
G1 X64.963 Y74.103 F1000
G1 X64.963 Y74.309 F1000
G1 X64.860 Y74.412 F1000
G1 X64.860 Y74.515 F1000
G1 X64.757 Y74.618 F1000
G1 X64.757 Y74.927 F1000
G1 X64.654 Y75.030 F1000
G1 X64.654 Y75.339 F1000
G1 X64.551 Y75.442 F1000
G1 X64.551 Y75.751 F1000
G1 X64.448 Y75.854 F1000
G1 X64.448 Y77.502 F1000
G1 X64.551 Y77.605 F1000
G1 X64.551 Y77.914 F1000
G1 X64.654 Y78.017 F1000
G1 X64.654 Y78.326 F1000
G1 X64.757 Y78.429 F1000
G1 X64.757 Y78.635 F1000
G1 X64.860 Y78.738 F1000
G1 X64.860 Y78.841 F1000
G1 X64.963 Y78.944 F1000
G1 X64.963 Y79.150 F1000
G1 X65.066 Y79.253 F1000
G1 X65.066 Y79.459 F1000
G1 X65.169 Y79.562 F1000
G1 X65.169 Y79.665 F1000
G1 X65.375 Y79.871 F1000
G1 X65.375 Y79.974 F1000
G1 X65.478 Y80.077 F1000
G1 X65.478 Y80.180 F1000
G1 X65.684 Y80.386 F1000
G1 X65.684 Y80.489 F1000
G1 X65.890 Y80.695 F1000
G1 X65.890 Y80.798 F1000
G1 X67.023 Y81.931 F1000
G1 X67.126 Y81.931 F1000
G1 X67.332 Y82.137 F1000
G1 X67.435 Y82.137 F1000
G1 X67.641 Y82.343 F1000
G1 X67.744 Y82.343 F1000
G1 X67.847 Y82.446 F1000
G1 X67.950 Y82.446 F1000
G1 X68.156 Y82.652 F1000
G1 X68.259 Y82.652 F1000
G1 X68.362 Y82.755 F1000
G1 X68.465 Y82.755 F1000
G1 X68.568 Y82.858 F1000
G1 X68.774 Y82.858 F1000
G1 X68.877 Y82.961 F1000
G1 X68.980 Y82.961 F1000
G1 X69.083 Y83.064 F1000
G1 X69.289 Y83.064 F1000
G1 X69.392 Y83.167 F1000
G1 X69.804 Y83.167 F1000
G1 X69.907 Y83.270 F1000
G1 X70.216 Y83.270 F1000
G1 X70.319 Y83.373 F1000
G1 X70.628 Y83.373 F1000
G1 X70.731 Y83.476 F1000
G1 X71.967 Y83.476 F1000
G1 X72.070 Y83.373 F1000
G1 X72.894 Y83.373 F1000
G1 X72.997 Y83.270 F1000
G1 X73.306 Y83.270 F1000
G1 X73.409 Y83.167 F1000
G1 X73.615 Y83.167 F1000
G1 X73.718 Y83.064 F1000
G1 X73.924 Y83.064 F1000
G1 X74.027 Y82.961 F1000
G1 X74.233 Y82.961 F1000
G1 X74.336 Y82.858 F1000
G1 X74.439 Y82.858 F1000
G1 X74.542 Y82.755 F1000
G1 X74.645 Y82.755 F1000
G1 X74.748 Y82.652 F1000
G1 X74.851 Y82.652 F1000
G1 X74.954 Y82.549 F1000
G1 X75.057 Y82.549 F1000
G1 X75.160 Y82.446 F1000
G1 X75.263 Y82.446 F1000
G1 X75.469 Y82.240 F1000
G1 X75.572 Y82.240 F1000
G1 X75.881 Y81.931 F1000
G1 X75.984 Y81.931 F1000
G1 X76.293 Y81.622 F1000
G1 X76.396 Y81.622 F1000
G1 X77.323 Y80.695 F1000
G1 X77.323 Y80.592 F1000
G1 X77.632 Y80.283 F1000
G1 X77.632 Y80.180 F1000
G1 X77.941 Y79.871 F1000
G1 X77.941 Y79.768 F1000
G1 X78.147 Y79.562 F1000
G1 X78.147 Y79.459 F1000
G1 X78.250 Y79.356 F1000
G1 X78.250 Y79.150 F1000
G1 X78.353 Y79.047 F1000
G1 X78.353 Y78.944 F1000
G1 X78.456 Y78.841 F1000
G1 X78.456 Y78.738 F1000
G1 X78.559 Y78.635 F1000
G1 X78.559 Y78.532 F1000
G1 X78.662 Y78.429 F1000
G1 X78.662 Y78.120 F1000
G1 X78.765 Y78.017 F1000
G1 X78.765 Y77.811 F1000
G1 X78.868 Y77.708 F1000
G1 X78.868 Y77.296 F1000
G1 X78.971 Y77.193 F1000
G1 X78.971 Y76.781 F1000
G1 X79.074 Y76.678 F1000
G1 X79.074 Y74.824 F1000
G1 X78.971 Y74.721 F1000
G1 X78.971 Y73.897 F1000
G1 X78.868 Y73.794 F1000
G1 X78.868 Y73.485 F1000
G1 X78.765 Y73.382 F1000
G1 X78.765 Y73.176 F1000
G1 X78.662 Y73.073 F1000
G1 X78.662 Y72.764 F1000
G1 X78.559 Y72.661 F1000
G1 X78.559 Y72.558 F1000
G1 X78.456 Y72.455 F1000
G1 X78.456 Y72.352 F1000
G1 X78.353 Y72.249 F1000
G1 X78.353 Y72.043 F1000
G1 X78.250 Y71.940 F1000
G1 X78.250 Y71.837 F1000
G1 X78.147 Y71.734 F1000
G1 X78.147 Y71.631 F1000
G1 X78.044 Y71.528 F1000
G1 X78.044 Y71.425 F1000
G1 X77.735 Y71.116 F1000
G1 X77.735 Y71.013 F1000
G1 X77.529 Y70.807 F1000
G1 X77.529 Y70.704 F1000
G1 X77.323 Y70.498 F1000
G1 X77.323 Y70.395 F1000
G1 X76.911 Y69.983 F1000
G1 X76.911 Y69.880 F1000
G1 X76.808 Y69.777 F1000
G1 X76.705 Y69.777 F1000
G1 X75.984 Y69.056 F1000
G1 X75.881 Y69.056 F1000
G1 X75.572 Y68.747 F1000
G1 X75.469 Y68.747 F1000
G1 X75.263 Y68.541 F1000
G1 X75.160 Y68.541 F1000
G1 X74.954 Y68.335 F1000
G1 X74.851 Y68.335 F1000
G1 X74.748 Y68.232 F1000
G1 X74.645 Y68.232 F1000
G1 X74.542 Y68.129 F1000
G1 X74.439 Y68.129 F1000
G1 X74.336 Y68.026 F1000
G1 X74.233 Y68.026 F1000
G1 X74.130 Y67.923 F1000
G1 X73.924 Y67.923 F1000
G1 X73.821 Y67.820 F1000
G1 X73.718 Y67.820 F1000
G1 X73.615 Y67.717 F1000
G1 X73.409 Y67.717 F1000
G1 X73.306 Y67.614 F1000
G1 X73.203 Y67.614 F1000
G1 X73.100 Y67.511 F1000
G1 X72.894 Y67.511 F1000
G1 X72.791 Y67.408 F1000
G1 X72.379 Y67.408 F1000
G1 X72.276 Y67.305 F1000
G1 X71.761 Y67.305 F1000
G1 X71.658 Y67.202 F1000
G1 X69.495 Y67.202 F1000
G1 X69.392 Y67.305 F1000
G1 X68.877 Y67.305 F1000
G1 X68.774 Y67.408 F1000
G1 X68.362 Y67.408 F1000
G1 X68.259 Y67.511 F1000
G1 X67.744 Y67.511 F1000
G1 X67.641 Y67.614 F1000
G1 X67.435 Y67.614 F1000
G1 X67.332 Y67.717 F1000
G1 X67.229 Y67.717 F1000
G1 X67.126 Y67.820 F1000
G1 X66.920 Y67.820 F1000
G1 X66.817 Y67.923 F1000
G1 X66.714 Y67.923 F1000
G1 X66.611 Y68.026 F1000
G1 X66.508 Y68.026 F1000
G1 X66.302 Y68.232 F1000
G1 X66.199 Y68.232 F1000
G1 X66.096 Y68.335 F1000
G1 X65.890 Y68.335 F1000
G1 X65.787 Y68.438 F1000
G1 X65.684 Y68.438 F1000
G1 X65.478 Y68.644 F1000
G1 X65.375 Y68.644 F1000
G1 X64.963 Y69.056 F1000
G1 X64.860 Y69.056 F1000
G1 X63.006 Y70.910 F1000
G1 X63.006 Y71.013 F1000
G1 X62.903 Y71.116 F1000
G1 X62.903 Y71.219 F1000
G1 X62.697 Y71.425 F1000
G1 X62.697 Y71.528 F1000
G1 X62.491 Y71.734 F1000
G1 X62.491 Y71.837 F1000
G1 X62.388 Y71.940 F1000
G1 X62.388 Y72.043 F1000
G1 X62.285 Y72.146 F1000
G1 X62.285 Y72.249 F1000
G1 X62.182 Y72.352 F1000
G1 X62.182 Y72.455 F1000
G1 X62.079 Y72.558 F1000
G1 X62.079 Y72.661 F1000
G1 X61.976 Y72.764 F1000
G1 X61.976 Y72.867 F1000
G1 X61.873 Y72.970 F1000
G1 X61.873 Y73.176 F1000
G1 X61.770 Y73.279 F1000
G1 X61.770 Y73.485 F1000
G1 X61.667 Y73.588 F1000
G1 X61.667 Y73.691 F1000
G1 X61.564 Y73.794 F1000
G1 X61.564 Y74.000 F1000
G1 X61.461 Y74.103 F1000
G1 X61.461 Y74.309 F1000
G1 X61.358 Y74.412 F1000
G1 X61.358 Y74.824 F1000
G1 X61.255 Y74.927 F1000
G1 X61.255 Y76.060 F1000
G1 X61.152 Y76.163 F1000
G1 X61.152 Y77.605 F1000
G1 X61.255 Y77.708 F1000
G1 X61.255 Y78.223 F1000
G1 X61.358 Y78.326 F1000
G1 X61.358 Y78.738 F1000
G1 X61.461 Y78.841 F1000
G1 X61.461 Y79.047 F1000
G1 X61.564 Y79.150 F1000
G1 X61.564 Y79.356 F1000
G1 X61.667 Y79.459 F1000
G1 X61.667 Y79.665 F1000
G1 X61.770 Y79.768 F1000
G1 X61.770 Y79.974 F1000
G1 X61.873 Y80.077 F1000
G1 X61.873 Y80.180 F1000
G1 X61.976 Y80.283 F1000
G1 X61.976 Y80.489 F1000
G1 X62.079 Y80.592 F1000
G1 X62.079 Y80.798 F1000
G1 X62.182 Y80.901 F1000
G1 X62.182 Y81.004 F1000
G1 X62.285 Y81.107 F1000
G1 X62.285 Y81.210 F1000
G1 X62.388 Y81.313 F1000
G1 X62.388 Y81.416 F1000
G1 X62.594 Y81.622 F1000
G1 X62.594 Y81.725 F1000
G1 X62.697 Y81.828 F1000
G1 X62.697 Y81.931 F1000
G1 X62.903 Y82.137 F1000
G1 X62.903 Y82.240 F1000
G1 X63.006 Y82.343 F1000
G1 X63.006 Y82.446 F1000
G1 X63.315 Y82.755 F1000
G1 X63.315 Y82.858 F1000
G1 X64.654 Y84.197 F1000
G1 X64.757 Y84.197 F1000
G1 X65.169 Y84.609 F1000
G1 X65.272 Y84.609 F1000
G1 X65.684 Y85.021 F1000
G1 X65.787 Y85.021 F1000
G1 X65.890 Y85.124 F1000
G1 X65.993 Y85.124 F1000
G1 X66.199 Y85.330 F1000
G1 X66.302 Y85.330 F1000
G1 X66.405 Y85.433 F1000
G1 X66.508 Y85.433 F1000
G1 X66.611 Y85.536 F1000
G1 X66.714 Y85.536 F1000
G1 X66.817 Y85.639 F1000
G1 X66.920 Y85.639 F1000
G1 X67.023 Y85.742 F1000
G1 X67.126 Y85.742 F1000
G1 X67.229 Y85.845 F1000
G1 X67.332 Y85.845 F1000
G1 X67.435 Y85.948 F1000
G1 X67.538 Y85.948 F1000
G1 X67.641 Y86.051 F1000
G1 X67.847 Y86.051 F1000
G1 X67.950 Y86.154 F1000
G1 X68.156 Y86.154 F1000
G1 X68.259 Y86.257 F1000
G1 X68.465 Y86.257 F1000
G1 X68.568 Y86.360 F1000
G0 Z3.0 ; Pen up

G0 X46.938 Y87.596 F3000 ; Travel to line 163
G0 Z0.0 ; Pen down
G1 X47.041 Y87.596 F1000
G1 X47.144 Y87.493 F1000
G1 X47.247 Y87.493 F1000
G1 X47.350 Y87.390 F1000
G1 X47.453 Y87.390 F1000
G1 X47.556 Y87.287 F1000
G1 X47.659 Y87.287 F1000
G1 X47.865 Y87.081 F1000
G1 X47.968 Y87.081 F1000
G1 X48.174 Y86.875 F1000
G1 X48.277 Y86.875 F1000
G1 X48.483 Y86.669 F1000
G1 X48.586 Y86.669 F1000
G1 X48.895 Y86.360 F1000
G1 X48.998 Y86.360 F1000
G1 X49.719 Y85.639 F1000
G1 X49.719 Y85.536 F1000
G1 X50.543 Y84.712 F1000
G1 X50.543 Y84.609 F1000
G1 X50.646 Y84.506 F1000
G1 X50.646 Y84.403 F1000
G1 X50.955 Y84.094 F1000
G1 X50.955 Y83.991 F1000
G1 X51.058 Y83.888 F1000
G1 X51.058 Y83.785 F1000
G1 X51.161 Y83.682 F1000
G1 X51.161 Y83.579 F1000
G1 X51.264 Y83.476 F1000
G1 X51.264 Y83.373 F1000
G1 X51.367 Y83.270 F1000
G1 X51.367 Y83.167 F1000
G1 X51.470 Y83.064 F1000
G1 X51.470 Y82.961 F1000
G1 X51.573 Y82.858 F1000
G1 X51.573 Y82.755 F1000
G1 X51.676 Y82.652 F1000
G1 X51.676 Y82.549 F1000
G1 X51.779 Y82.446 F1000
G1 X51.779 Y82.240 F1000
G1 X51.882 Y82.137 F1000
G1 X51.882 Y81.931 F1000
G1 X51.985 Y81.828 F1000
G1 X51.985 Y81.622 F1000
G1 X52.088 Y81.519 F1000
G1 X52.088 Y81.210 F1000
G1 X52.191 Y81.107 F1000
G1 X52.191 Y80.695 F1000
G1 X52.294 Y80.592 F1000
G1 X52.294 Y80.386 F1000
G1 X52.397 Y80.283 F1000
G1 X52.397 Y79.459 F1000
G1 X52.397 Y80.283 F1000
G1 X52.294 Y80.386 F1000
G1 X52.294 Y80.592 F1000
G1 X52.191 Y80.695 F1000
G1 X52.191 Y81.107 F1000
G1 X52.088 Y81.210 F1000
G1 X52.088 Y81.519 F1000
G1 X51.985 Y81.622 F1000
G1 X51.985 Y81.828 F1000
G1 X51.882 Y81.931 F1000
G1 X51.882 Y82.137 F1000
G1 X51.779 Y82.240 F1000
G1 X51.779 Y82.446 F1000
G1 X51.676 Y82.549 F1000
G1 X51.676 Y82.652 F1000
G1 X51.573 Y82.755 F1000
G1 X51.573 Y82.858 F1000
G1 X51.470 Y82.961 F1000
G1 X51.470 Y83.064 F1000
G1 X51.264 Y83.270 F1000
G1 X51.264 Y83.476 F1000
G1 X51.161 Y83.579 F1000
G1 X51.161 Y83.682 F1000
G1 X50.955 Y83.888 F1000
G1 X50.955 Y83.991 F1000
G1 X50.852 Y84.094 F1000
G1 X50.852 Y84.197 F1000
G1 X50.543 Y84.506 F1000
G1 X50.543 Y84.609 F1000
G1 X50.234 Y84.918 F1000
G1 X50.234 Y85.021 F1000
G1 X48.895 Y86.360 F1000
G1 X48.792 Y86.360 F1000
G1 X48.380 Y86.772 F1000
G1 X48.277 Y86.772 F1000
G1 X48.071 Y86.978 F1000
G1 X47.968 Y86.978 F1000
G1 X47.762 Y87.184 F1000
G1 X47.659 Y87.184 F1000
G1 X47.453 Y87.390 F1000
G1 X47.350 Y87.390 F1000
G1 X47.247 Y87.493 F1000
G1 X47.144 Y87.493 F1000
G1 X47.041 Y87.596 F1000
G1 X46.938 Y87.596 F1000
G1 X46.835 Y87.699 F1000
G0 Z3.0 ; Pen up

G0 X46.732 Y87.699 F3000 ; Travel to line 164
G0 Z0.0 ; Pen down
G1 X46.629 Y87.802 F1000
G0 Z3.0 ; Pen up

G0 X46.526 Y87.802 F3000 ; Travel to line 165
G0 Z0.0 ; Pen down
G1 X46.423 Y87.905 F1000
G0 Z3.0 ; Pen up

G0 X46.217 Y87.905 F3000 ; Travel to line 166
G0 Z0.0 ; Pen down
G1 X46.114 Y88.008 F1000
G0 Z3.0 ; Pen up

G0 X46.011 Y88.008 F3000 ; Travel to line 167
G0 Z0.0 ; Pen down
G1 X45.908 Y88.111 F1000
G0 Z3.0 ; Pen up

G0 X45.805 Y88.111 F3000 ; Travel to line 168
G0 Z0.0 ; Pen down
G1 X45.908 Y88.111 F1000
G1 X45.805 Y88.111 F1000
G0 Z3.0 ; Pen up

G0 X45.702 Y88.111 F3000 ; Travel to line 169
G0 Z0.0 ; Pen down
G1 X45.599 Y88.214 F1000
G0 Z3.0 ; Pen up

G0 X45.496 Y88.214 F3000 ; Travel to line 170
G0 Z0.0 ; Pen down
G1 X45.599 Y88.214 F1000
G1 X45.496 Y88.214 F1000
G0 Z3.0 ; Pen up

G0 X45.290 Y88.317 F3000 ; Travel to line 171
G0 Z0.0 ; Pen down
G1 X44.878 Y88.317 F1000
G0 Z3.0 ; Pen up

G0 X44.878 Y88.317 F3000 ; Travel to line 172
G0 Z0.0 ; Pen down
G1 X45.290 Y88.317 F1000
G1 X44.878 Y88.317 F1000
G0 Z3.0 ; Pen up

G0 X44.775 Y88.317 F3000 ; Travel to line 173
G0 Z0.0 ; Pen down
G1 X44.672 Y88.420 F1000
G0 Z3.0 ; Pen up

G0 X44.363 Y88.420 F3000 ; Travel to line 174
G0 Z0.0 ; Pen down
G1 X44.672 Y88.420 F1000
G1 X44.363 Y88.420 F1000
G0 Z3.0 ; Pen up

G0 X44.157 Y88.523 F3000 ; Travel to line 175
G0 Z0.0 ; Pen down
G1 X43.745 Y88.523 F1000
G0 Z3.0 ; Pen up

G0 X43.745 Y88.523 F3000 ; Travel to line 176
G0 Z0.0 ; Pen down
G1 X44.157 Y88.523 F1000
G1 X43.745 Y88.523 F1000
G0 Z3.0 ; Pen up

G0 X43.539 Y88.626 F3000 ; Travel to line 177
G0 Z0.0 ; Pen down
G1 X41.788 Y88.626 F1000
G1 X41.685 Y88.523 F1000
G1 X41.170 Y88.523 F1000
G1 X41.685 Y88.523 F1000
G1 X41.788 Y88.626 F1000
G0 Z3.0 ; Pen up

G0 X40.964 Y88.317 F3000 ; Travel to line 178
G0 Z0.0 ; Pen down
G1 X40.861 Y88.420 F1000
G0 Z3.0 ; Pen up

G0 X40.552 Y88.420 F3000 ; Travel to line 179
G0 Z0.0 ; Pen down
G1 X40.861 Y88.420 F1000
G1 X40.552 Y88.420 F1000
G0 Z3.0 ; Pen up

G0 X40.346 Y88.214 F3000 ; Travel to line 180
G0 Z0.0 ; Pen down
G1 X40.243 Y88.317 F1000
G0 Z3.0 ; Pen up

G0 X40.037 Y88.214 F3000 ; Travel to line 181
G0 Z0.0 ; Pen down
G1 X40.140 Y88.111 F1000
G0 Z3.0 ; Pen up

G0 X39.728 Y88.111 F3000 ; Travel to line 182
G0 Z0.0 ; Pen down
G1 X39.522 Y88.111 F1000
G1 X39.419 Y88.008 F1000
G1 X39.213 Y88.008 F1000
G1 X39.110 Y87.905 F1000
G1 X39.213 Y88.008 F1000
G1 X39.316 Y88.008 F1000
G1 X39.419 Y88.111 F1000
G0 Z3.0 ; Pen up

G0 X39.007 Y87.699 F3000 ; Travel to line 183
G0 Z0.0 ; Pen down
G1 X38.904 Y87.802 F1000
G0 Z3.0 ; Pen up

G0 X38.698 Y87.596 F3000 ; Travel to line 184
G0 Z0.0 ; Pen down
G1 X38.595 Y87.699 F1000
G0 Z3.0 ; Pen up

G0 X38.389 Y87.596 F3000 ; Travel to line 185
G0 Z0.0 ; Pen down
G1 X38.286 Y87.493 F1000
G1 X38.183 Y87.493 F1000
G1 X37.977 Y87.287 F1000
G1 X37.874 Y87.287 F1000
G1 X37.771 Y87.184 F1000
G1 X37.668 Y87.184 F1000
G1 X37.462 Y86.978 F1000
G1 X37.359 Y86.978 F1000
G1 X37.153 Y86.772 F1000
G1 X37.050 Y86.772 F1000
G1 X35.608 Y85.330 F1000
G1 X35.608 Y85.227 F1000
G1 X35.196 Y84.815 F1000
G1 X35.196 Y84.712 F1000
G1 X34.990 Y84.506 F1000
G1 X34.990 Y84.403 F1000
G1 X34.887 Y84.300 F1000
G1 X34.887 Y84.197 F1000
G1 X34.681 Y83.991 F1000
G1 X34.681 Y83.888 F1000
G1 X34.578 Y83.785 F1000
G1 X34.578 Y83.682 F1000
G1 X34.475 Y83.579 F1000
G1 X34.475 Y83.476 F1000
G1 X34.372 Y83.373 F1000
G1 X34.372 Y83.270 F1000
G1 X34.269 Y83.167 F1000
G1 X34.269 Y82.961 F1000
G1 X34.166 Y82.858 F1000
G1 X34.166 Y82.652 F1000
G1 X34.063 Y82.549 F1000
G1 X34.063 Y82.343 F1000
G1 X33.960 Y82.240 F1000
G1 X33.960 Y82.137 F1000
G1 X33.857 Y82.034 F1000
G1 X33.857 Y81.725 F1000
G1 X33.754 Y81.622 F1000
G1 X33.754 Y81.107 F1000
G1 X33.651 Y81.004 F1000
G1 X33.651 Y80.077 F1000
G1 X33.548 Y79.974 F1000
G1 X33.548 Y79.768 F1000
G1 X33.651 Y79.665 F1000
G1 X33.651 Y78.635 F1000
G1 X33.754 Y78.532 F1000
G1 X33.754 Y78.120 F1000
G1 X33.857 Y78.017 F1000
G1 X33.857 Y77.605 F1000
G1 X33.960 Y77.502 F1000
G1 X33.960 Y77.193 F1000
G1 X34.063 Y77.090 F1000
G1 X34.063 Y76.884 F1000
G1 X34.166 Y76.781 F1000
G1 X34.166 Y76.678 F1000
G1 X34.269 Y76.575 F1000
G1 X34.269 Y76.472 F1000
G1 X34.372 Y76.369 F1000
G1 X34.372 Y76.163 F1000
G1 X34.475 Y76.060 F1000
G1 X34.475 Y75.957 F1000
G1 X34.578 Y75.854 F1000
G1 X34.578 Y75.751 F1000
G1 X34.784 Y75.545 F1000
G1 X34.784 Y75.442 F1000
G1 X34.990 Y75.236 F1000
G1 X34.990 Y75.133 F1000
G1 X35.196 Y74.927 F1000
G1 X35.196 Y74.824 F1000
G1 X35.505 Y74.515 F1000
G1 X35.505 Y74.412 F1000
G1 X36.123 Y73.794 F1000
G1 X36.123 Y73.691 F1000
G1 X36.226 Y73.588 F1000
G1 X36.329 Y73.588 F1000
G1 X36.638 Y73.279 F1000
G1 X36.741 Y73.279 F1000
G1 X37.050 Y72.970 F1000
G1 X37.153 Y72.970 F1000
G1 X37.359 Y72.764 F1000
G1 X37.462 Y72.764 F1000
G1 X37.565 Y72.661 F1000
G1 X37.668 Y72.661 F1000
G1 X37.771 Y72.558 F1000
G1 X37.874 Y72.558 F1000
G1 X38.080 Y72.352 F1000
G1 X38.183 Y72.352 F1000
G1 X38.286 Y72.249 F1000
G1 X38.389 Y72.249 F1000
G1 X38.492 Y72.146 F1000
G1 X38.595 Y72.146 F1000
G1 X38.698 Y72.043 F1000
G1 X38.904 Y72.043 F1000
G1 X38.698 Y72.043 F1000
G1 X38.595 Y72.146 F1000
G1 X38.492 Y72.146 F1000
G1 X38.389 Y72.249 F1000
G1 X38.286 Y72.249 F1000
G1 X38.183 Y72.352 F1000
G1 X38.080 Y72.352 F1000
G1 X37.874 Y72.558 F1000
G1 X37.771 Y72.558 F1000
G1 X37.565 Y72.764 F1000
G1 X37.462 Y72.764 F1000
G1 X37.359 Y72.867 F1000
G1 X37.256 Y72.867 F1000
G1 X37.050 Y73.073 F1000
G1 X36.947 Y73.073 F1000
G1 X36.638 Y73.382 F1000
G1 X36.535 Y73.382 F1000
G1 X36.020 Y73.897 F1000
G1 X36.020 Y74.000 F1000
G1 X35.917 Y74.103 F1000
G1 X35.814 Y74.103 F1000
G1 X35.608 Y74.309 F1000
G1 X35.608 Y74.412 F1000
G1 X35.299 Y74.721 F1000
G1 X35.299 Y74.824 F1000
G1 X34.990 Y75.133 F1000
G1 X34.990 Y75.236 F1000
G1 X34.887 Y75.339 F1000
G1 X34.887 Y75.442 F1000
G1 X34.784 Y75.545 F1000
G1 X34.784 Y75.648 F1000
G1 X34.578 Y75.854 F1000
G1 X34.578 Y75.957 F1000
G1 X34.475 Y76.060 F1000
G1 X34.475 Y76.163 F1000
G1 X34.372 Y76.266 F1000
G1 X34.372 Y76.369 F1000
G1 X34.269 Y76.472 F1000
G1 X34.269 Y76.575 F1000
G1 X34.166 Y76.678 F1000
G1 X34.166 Y76.781 F1000
G1 X34.063 Y76.884 F1000
G1 X34.063 Y77.090 F1000
G1 X33.960 Y77.193 F1000
G1 X33.960 Y77.502 F1000
G1 X33.857 Y77.605 F1000
G1 X33.857 Y78.017 F1000
G1 X33.754 Y78.120 F1000
G1 X33.754 Y78.532 F1000
G1 X33.651 Y78.635 F1000
G1 X33.651 Y79.665 F1000
G1 X33.548 Y79.768 F1000
G1 X33.548 Y79.974 F1000
G1 X33.651 Y80.077 F1000
G1 X33.651 Y81.004 F1000
G1 X33.754 Y81.107 F1000
G1 X33.754 Y81.622 F1000
G1 X33.857 Y81.725 F1000
G1 X33.857 Y82.034 F1000
G1 X33.960 Y82.137 F1000
G1 X33.960 Y82.240 F1000
G1 X34.063 Y82.343 F1000
G1 X34.063 Y82.549 F1000
G1 X34.166 Y82.652 F1000
G1 X34.166 Y82.858 F1000
G1 X34.269 Y82.961 F1000
G1 X34.269 Y83.064 F1000
G1 X34.372 Y83.167 F1000
G1 X34.372 Y83.270 F1000
G1 X34.475 Y83.373 F1000
G1 X34.475 Y83.476 F1000
G1 X34.578 Y83.579 F1000
G1 X34.578 Y83.682 F1000
G1 X34.681 Y83.785 F1000
G1 X34.681 Y83.888 F1000
G1 X34.784 Y83.991 F1000
G1 X34.784 Y84.094 F1000
G1 X34.887 Y84.197 F1000
G1 X34.887 Y84.300 F1000
G1 X34.990 Y84.403 F1000
G1 X34.990 Y84.506 F1000
G1 X35.402 Y84.918 F1000
G1 X35.402 Y85.021 F1000
G1 X35.711 Y85.330 F1000
G1 X35.711 Y85.433 F1000
G1 X36.535 Y86.257 F1000
G1 X36.638 Y86.257 F1000
G1 X37.256 Y86.875 F1000
G1 X37.359 Y86.875 F1000
G1 X37.565 Y87.081 F1000
G1 X37.668 Y87.081 F1000
G1 X37.874 Y87.287 F1000
G1 X37.977 Y87.287 F1000
G1 X38.183 Y87.493 F1000
G1 X38.286 Y87.493 F1000
G0 Z3.0 ; Pen up

G0 X40.655 Y84.712 F3000 ; Travel to line 186
G0 Z0.0 ; Pen down
G1 X40.552 Y84.609 F1000
G1 X40.449 Y84.609 F1000
G1 X40.346 Y84.506 F1000
G1 X40.243 Y84.506 F1000
G1 X40.140 Y84.403 F1000
G1 X40.037 Y84.403 F1000
G1 X39.831 Y84.197 F1000
G1 X39.728 Y84.197 F1000
G1 X39.522 Y83.991 F1000
G1 X39.419 Y83.991 F1000
G1 X39.213 Y83.785 F1000
G1 X39.110 Y83.785 F1000
G1 X38.183 Y82.858 F1000
G1 X38.183 Y82.755 F1000
G1 X38.080 Y82.652 F1000
G1 X38.080 Y82.549 F1000
G1 X37.874 Y82.343 F1000
G1 X37.874 Y82.240 F1000
G1 X37.771 Y82.137 F1000
G1 X37.771 Y82.034 F1000
G1 X37.668 Y81.931 F1000
G1 X37.668 Y81.725 F1000
G1 X37.565 Y81.622 F1000
G1 X37.565 Y81.519 F1000
G1 X37.462 Y81.416 F1000
G1 X37.462 Y81.313 F1000
G1 X37.359 Y81.210 F1000
G1 X37.359 Y80.798 F1000
G1 X37.256 Y80.695 F1000
G1 X37.256 Y80.489 F1000
G1 X37.153 Y80.386 F1000
G1 X37.153 Y79.150 F1000
G1 X37.256 Y79.047 F1000
G1 X37.256 Y78.841 F1000
G1 X37.359 Y78.738 F1000
G1 X37.359 Y78.532 F1000
G1 X37.462 Y78.429 F1000
G1 X37.462 Y78.223 F1000
G1 X37.565 Y78.120 F1000
G1 X37.565 Y77.914 F1000
G1 X37.668 Y77.811 F1000
G1 X37.668 Y77.708 F1000
G1 X37.771 Y77.605 F1000
G1 X37.771 Y77.399 F1000
G1 X37.874 Y77.296 F1000
G1 X37.874 Y77.193 F1000
G1 X38.183 Y76.884 F1000
G1 X38.183 Y76.781 F1000
G1 X38.904 Y76.060 F1000
G1 X39.007 Y76.060 F1000
G1 X39.316 Y75.751 F1000
G1 X39.419 Y75.751 F1000
G1 X39.522 Y75.648 F1000
G1 X39.625 Y75.648 F1000
G1 X39.728 Y75.545 F1000
G1 X39.831 Y75.545 F1000
G1 X39.934 Y75.442 F1000
G1 X40.140 Y75.442 F1000
G1 X40.243 Y75.339 F1000
G1 X40.655 Y75.339 F1000
G1 X40.758 Y75.236 F1000
G1 X42.509 Y75.236 F1000
G1 X42.612 Y75.339 F1000
G1 X42.921 Y75.339 F1000
G1 X43.024 Y75.442 F1000
G1 X43.127 Y75.442 F1000
G1 X43.230 Y75.545 F1000
G1 X43.333 Y75.545 F1000
G1 X43.436 Y75.648 F1000
G1 X43.539 Y75.648 F1000
G1 X43.642 Y75.751 F1000
G1 X43.745 Y75.751 F1000
G1 X44.054 Y76.060 F1000
G1 X44.157 Y76.060 F1000
G1 X44.260 Y76.163 F1000
G1 X44.260 Y76.266 F1000
G1 X44.363 Y76.369 F1000
G1 X44.466 Y76.369 F1000
G1 X44.569 Y76.472 F1000
G1 X44.569 Y76.575 F1000
G1 X44.672 Y76.678 F1000
G1 X44.672 Y76.781 F1000
G1 X44.878 Y76.987 F1000
G1 X44.878 Y77.090 F1000
G1 X44.981 Y77.193 F1000
G1 X44.981 Y77.296 F1000
G1 X45.084 Y77.399 F1000
G1 X45.084 Y77.605 F1000
G1 X45.187 Y77.708 F1000
G1 X45.187 Y78.120 F1000
G1 X45.290 Y78.223 F1000
G1 X45.290 Y79.562 F1000
G1 X45.290 Y78.223 F1000
G1 X45.187 Y78.120 F1000
G1 X45.187 Y77.811 F1000
G1 X45.084 Y77.708 F1000
G1 X45.084 Y77.399 F1000
G1 X44.981 Y77.296 F1000
G1 X44.981 Y77.193 F1000
G1 X44.878 Y77.090 F1000
G1 X44.878 Y76.987 F1000
G1 X44.672 Y76.781 F1000
G1 X44.672 Y76.678 F1000
G1 X43.848 Y75.854 F1000
G1 X43.745 Y75.854 F1000
G1 X43.539 Y75.648 F1000
G1 X43.436 Y75.648 F1000
G1 X43.333 Y75.545 F1000
G1 X43.230 Y75.545 F1000
G1 X43.127 Y75.442 F1000
G1 X43.024 Y75.442 F1000
G1 X42.921 Y75.339 F1000
G1 X42.612 Y75.339 F1000
G1 X42.509 Y75.236 F1000
G1 X40.758 Y75.236 F1000
G1 X40.655 Y75.339 F1000
G1 X40.243 Y75.339 F1000
G1 X40.140 Y75.442 F1000
G1 X40.037 Y75.442 F1000
G1 X39.934 Y75.545 F1000
G1 X39.728 Y75.545 F1000
G1 X39.625 Y75.648 F1000
G1 X39.522 Y75.648 F1000
G1 X39.213 Y75.957 F1000
G1 X39.110 Y75.957 F1000
G1 X38.904 Y76.163 F1000
G1 X38.801 Y76.163 F1000
G1 X38.183 Y76.781 F1000
G1 X38.183 Y76.884 F1000
G1 X38.080 Y76.987 F1000
G1 X38.080 Y77.090 F1000
G1 X37.874 Y77.296 F1000
G1 X37.874 Y77.399 F1000
G1 X37.771 Y77.502 F1000
G1 X37.771 Y77.605 F1000
G1 X37.668 Y77.708 F1000
G1 X37.668 Y77.811 F1000
G1 X37.565 Y77.914 F1000
G1 X37.565 Y78.120 F1000
G1 X37.462 Y78.223 F1000
G1 X37.462 Y78.429 F1000
G1 X37.359 Y78.532 F1000
G1 X37.359 Y78.738 F1000
G1 X37.256 Y78.841 F1000
G1 X37.256 Y79.150 F1000
G1 X37.153 Y79.253 F1000
G1 X37.153 Y80.386 F1000
G1 X37.256 Y80.489 F1000
G1 X37.256 Y80.695 F1000
G1 X37.359 Y80.798 F1000
G1 X37.359 Y81.210 F1000
G1 X37.462 Y81.313 F1000
G1 X37.462 Y81.416 F1000
G1 X37.565 Y81.519 F1000
G1 X37.565 Y81.622 F1000
G1 X37.668 Y81.725 F1000
G1 X37.668 Y81.931 F1000
G1 X37.771 Y82.034 F1000
G1 X37.771 Y82.137 F1000
G1 X37.874 Y82.240 F1000
G1 X37.874 Y82.343 F1000
G1 X38.080 Y82.549 F1000
G1 X38.080 Y82.652 F1000
G1 X38.492 Y83.064 F1000
G1 X38.492 Y83.167 F1000
G1 X38.698 Y83.373 F1000
G1 X38.801 Y83.373 F1000
G1 X39.419 Y83.991 F1000
G1 X39.522 Y83.991 F1000
G1 X39.728 Y84.197 F1000
G1 X39.831 Y84.197 F1000
G1 X40.037 Y84.403 F1000
G1 X40.140 Y84.403 F1000
G1 X40.243 Y84.506 F1000
G1 X40.346 Y84.506 F1000
G1 X40.449 Y84.609 F1000
G1 X40.552 Y84.609 F1000
G1 X40.655 Y84.712 F1000
G1 X40.758 Y84.712 F1000
G0 Z3.0 ; Pen up

G0 X42.612 Y85.124 F3000 ; Travel to line 187
G0 Z0.0 ; Pen down
G1 X42.509 Y85.021 F1000
G1 X41.891 Y85.021 F1000
G1 X41.788 Y84.918 F1000
G1 X41.479 Y84.918 F1000
G1 X41.376 Y84.815 F1000
G1 X41.067 Y84.815 F1000
G1 X41.376 Y84.815 F1000
G1 X41.479 Y84.918 F1000
G1 X41.788 Y84.918 F1000
G1 X41.891 Y85.021 F1000
G1 X42.509 Y85.021 F1000
G1 X42.612 Y85.124 F1000
G1 X42.715 Y85.124 F1000
G1 X42.818 Y85.021 F1000
G1 X43.539 Y85.021 F1000
G1 X43.642 Y84.918 F1000
G1 X43.951 Y84.918 F1000
G1 X44.054 Y84.815 F1000
G1 X44.260 Y84.815 F1000
G1 X44.363 Y84.712 F1000
G1 X44.672 Y84.712 F1000
G1 X44.775 Y84.609 F1000
G1 X44.981 Y84.609 F1000
G1 X45.084 Y84.506 F1000
G1 X45.187 Y84.506 F1000
G1 X45.393 Y84.300 F1000
G1 X45.599 Y84.300 F1000
G1 X45.496 Y84.300 F1000
G1 X45.393 Y84.403 F1000
G1 X45.290 Y84.403 F1000
G1 X45.084 Y84.609 F1000
G1 X44.775 Y84.609 F1000
G1 X44.672 Y84.712 F1000
G1 X44.466 Y84.712 F1000
G1 X44.363 Y84.815 F1000
G1 X44.054 Y84.815 F1000
G1 X43.951 Y84.918 F1000
G1 X43.642 Y84.918 F1000
G1 X43.539 Y85.021 F1000
G1 X42.818 Y85.021 F1000
G1 X42.715 Y85.124 F1000
G0 Z3.0 ; Pen up

G0 X45.805 Y84.197 F3000 ; Travel to line 188
G0 Z0.0 ; Pen down
G1 X46.114 Y83.888 F1000
G1 X46.217 Y83.888 F1000
G1 X46.423 Y83.682 F1000
G1 X46.526 Y83.682 F1000
G1 X47.453 Y82.755 F1000
G1 X47.453 Y82.652 F1000
G1 X47.659 Y82.446 F1000
G1 X47.659 Y82.343 F1000
G1 X47.865 Y82.137 F1000
G1 X47.865 Y82.034 F1000
G1 X48.071 Y81.828 F1000
G1 X48.071 Y81.725 F1000
G1 X48.174 Y81.622 F1000
G1 X48.174 Y81.519 F1000
G1 X48.277 Y81.416 F1000
G1 X48.277 Y81.210 F1000
G1 X48.380 Y81.107 F1000
G1 X48.380 Y81.004 F1000
G1 X48.483 Y80.901 F1000
G1 X48.483 Y80.798 F1000
G1 X48.586 Y80.695 F1000
G1 X48.586 Y80.386 F1000
G1 X48.689 Y80.283 F1000
G1 X48.689 Y80.077 F1000
G1 X48.792 Y79.974 F1000
G1 X48.792 Y79.150 F1000
G1 X48.895 Y79.047 F1000
G1 X48.895 Y78.429 F1000
G1 X48.792 Y78.326 F1000
G1 X48.792 Y77.399 F1000
G1 X48.689 Y77.296 F1000
G1 X48.689 Y76.884 F1000
G1 X48.586 Y76.781 F1000
G1 X48.586 Y76.575 F1000
G1 X48.483 Y76.472 F1000
G1 X48.483 Y76.266 F1000
G1 X48.380 Y76.163 F1000
G1 X48.380 Y76.060 F1000
G1 X48.277 Y75.957 F1000
G1 X48.277 Y75.751 F1000
G1 X48.174 Y75.648 F1000
G1 X48.174 Y75.545 F1000
G1 X47.968 Y75.339 F1000
G1 X47.968 Y75.236 F1000
G1 X47.865 Y75.133 F1000
G1 X47.865 Y75.030 F1000
G1 X47.762 Y74.927 F1000
G1 X47.762 Y74.824 F1000
G1 X47.247 Y74.309 F1000
G1 X47.247 Y74.206 F1000
G1 X46.011 Y72.970 F1000
G1 X45.908 Y72.970 F1000
G1 X45.805 Y72.867 F1000
G1 X45.702 Y72.867 F1000
G1 X45.496 Y72.661 F1000
G1 X45.393 Y72.661 F1000
G1 X45.187 Y72.455 F1000
G1 X45.084 Y72.455 F1000
G1 X44.981 Y72.352 F1000
G1 X44.878 Y72.352 F1000
G1 X44.775 Y72.249 F1000
G1 X44.672 Y72.249 F1000
G1 X44.569 Y72.146 F1000
G1 X44.466 Y72.146 F1000
G1 X44.363 Y72.043 F1000
G1 X44.054 Y72.043 F1000
G1 X43.951 Y71.940 F1000
G1 X43.848 Y71.940 F1000
G1 X43.951 Y71.940 F1000
G1 X44.054 Y72.043 F1000
G1 X44.363 Y72.043 F1000
G1 X44.466 Y72.146 F1000
G1 X44.569 Y72.146 F1000
G1 X44.672 Y72.249 F1000
G1 X44.878 Y72.249 F1000
G1 X44.981 Y72.352 F1000
G1 X45.084 Y72.352 F1000
G1 X45.187 Y72.455 F1000
G1 X45.290 Y72.455 F1000
G1 X45.702 Y72.867 F1000
G1 X45.805 Y72.867 F1000
G1 X45.908 Y72.970 F1000
G1 X46.011 Y72.970 F1000
G1 X46.217 Y73.176 F1000
G1 X46.320 Y73.176 F1000
G1 X47.144 Y74.000 F1000
G1 X47.144 Y74.103 F1000
G1 X47.659 Y74.618 F1000
G1 X47.659 Y74.721 F1000
G1 X47.762 Y74.824 F1000
G1 X47.762 Y74.927 F1000
G1 X47.968 Y75.133 F1000
G1 X47.968 Y75.236 F1000
G1 X48.071 Y75.339 F1000
G1 X48.071 Y75.442 F1000
G1 X48.174 Y75.545 F1000
G1 X48.174 Y75.648 F1000
G1 X48.277 Y75.751 F1000
G1 X48.277 Y75.854 F1000
G1 X48.380 Y75.957 F1000
G1 X48.380 Y76.163 F1000
G1 X48.483 Y76.266 F1000
G1 X48.483 Y76.369 F1000
G1 X48.586 Y76.472 F1000
G1 X48.586 Y76.781 F1000
G1 X48.689 Y76.884 F1000
G1 X48.689 Y77.193 F1000
G1 X48.792 Y77.296 F1000
G1 X48.792 Y78.326 F1000
G1 X48.895 Y78.429 F1000
G1 X48.895 Y79.047 F1000
G1 X48.792 Y79.150 F1000
G1 X48.792 Y79.974 F1000
G1 X48.689 Y80.077 F1000
G1 X48.689 Y80.283 F1000
G1 X48.586 Y80.386 F1000
G1 X48.586 Y80.695 F1000
G1 X48.483 Y80.798 F1000
G1 X48.483 Y81.004 F1000
G1 X48.380 Y81.107 F1000
G1 X48.380 Y81.210 F1000
G1 X48.277 Y81.313 F1000
G1 X48.277 Y81.416 F1000
G1 X48.174 Y81.519 F1000
G1 X48.174 Y81.725 F1000
G1 X48.071 Y81.828 F1000
G1 X48.071 Y81.931 F1000
G1 X47.865 Y82.137 F1000
G1 X47.865 Y82.240 F1000
G1 X47.659 Y82.446 F1000
G1 X47.659 Y82.549 F1000
G1 X47.144 Y83.064 F1000
G1 X47.144 Y83.167 F1000
G1 X46.732 Y83.579 F1000
G1 X46.629 Y83.579 F1000
G1 X46.423 Y83.785 F1000
G1 X46.320 Y83.785 F1000
G1 X46.114 Y83.991 F1000
G1 X46.011 Y83.991 F1000
G0 Z3.0 ; Pen up

G0 X43.642 Y71.837 F3000 ; Travel to line 189
G0 Z0.0 ; Pen down
G1 X43.745 Y71.734 F1000
G0 Z3.0 ; Pen up

G0 X43.539 Y71.837 F3000 ; Travel to line 190
G0 Z0.0 ; Pen down
G1 X43.642 Y71.837 F1000
G1 X43.539 Y71.837 F1000
G0 Z3.0 ; Pen up

G0 X43.230 Y71.734 F3000 ; Travel to line 191
G0 Z0.0 ; Pen down
G1 X39.934 Y71.734 F1000
G0 Z3.0 ; Pen up

G0 X39.831 Y71.837 F3000 ; Travel to line 192
G0 Z0.0 ; Pen down
G1 X39.625 Y71.837 F1000
G0 Z3.0 ; Pen up

G0 X39.625 Y71.837 F3000 ; Travel to line 193
G0 Z0.0 ; Pen down
G1 X39.831 Y71.837 F1000
G1 X40.140 Y71.631 F1000
G1 X40.964 Y71.631 F1000
G1 X41.067 Y71.528 F1000
G1 X42.097 Y71.528 F1000
G1 X42.200 Y71.631 F1000
G1 X43.024 Y71.631 F1000
G1 X43.230 Y71.734 F1000
G1 X42.715 Y71.734 F1000
G1 X42.612 Y71.631 F1000
G1 X40.449 Y71.631 F1000
G1 X40.346 Y71.734 F1000
G1 X39.934 Y71.734 F1000
G1 X39.831 Y71.837 F1000
G1 X39.625 Y71.837 F1000
G0 Z3.0 ; Pen up

G0 X39.419 Y71.837 F3000 ; Travel to line 194
G0 Z0.0 ; Pen down
G1 X39.316 Y71.940 F1000
G0 Z3.0 ; Pen up

G0 X39.213 Y71.940 F3000 ; Travel to line 195
G0 Z0.0 ; Pen down
G1 X39.316 Y71.940 F1000
G1 X39.213 Y71.940 F1000
G0 Z3.0 ; Pen up

G0 X40.140 Y71.631 F3000 ; Travel to line 196
G0 Z0.0 ; Pen down
G1 X43.024 Y71.631 F1000
G0 Z3.0 ; Pen up

G0 X42.097 Y71.528 F3000 ; Travel to line 197
G0 Z0.0 ; Pen down
G1 X41.067 Y71.528 F1000
G0 Z3.0 ; Pen up

G0 X59.607 Y52.267 F3000 ; Travel to line 198
G0 Z0.0 ; Pen down
G1 X59.504 Y52.164 F1000
G1 X59.401 Y52.164 F1000
G1 X59.298 Y52.061 F1000
G1 X59.195 Y52.061 F1000
G1 X58.989 Y51.855 F1000
G1 X58.886 Y51.855 F1000
G1 X58.680 Y51.649 F1000
G1 X58.577 Y51.649 F1000
G1 X58.371 Y51.443 F1000
G1 X58.268 Y51.443 F1000
G1 X57.959 Y51.134 F1000
G1 X57.856 Y51.134 F1000
G1 X57.650 Y50.928 F1000
G1 X57.650 Y50.825 F1000
G1 X57.032 Y50.207 F1000
G1 X57.032 Y50.104 F1000
G1 X56.517 Y49.589 F1000
G1 X56.517 Y49.486 F1000
G1 X56.311 Y49.280 F1000
G1 X56.311 Y49.177 F1000
G1 X56.208 Y49.074 F1000
G1 X56.208 Y48.971 F1000
G1 X56.105 Y48.868 F1000
G1 X56.105 Y48.662 F1000
G1 X56.002 Y48.559 F1000
G1 X56.002 Y48.456 F1000
G1 X55.899 Y48.353 F1000
G1 X55.899 Y48.044 F1000
G1 X55.796 Y47.941 F1000
G1 X55.796 Y47.838 F1000
G1 X55.693 Y47.735 F1000
G1 X55.693 Y47.529 F1000
G1 X55.590 Y47.426 F1000
G1 X55.590 Y47.117 F1000
G1 X55.487 Y47.014 F1000
G1 X55.487 Y46.396 F1000
G1 X55.384 Y46.293 F1000
G1 X55.384 Y44.542 F1000
G1 X55.487 Y44.439 F1000
G1 X55.487 Y44.130 F1000
G1 X55.590 Y44.027 F1000
G1 X55.590 Y43.615 F1000
G1 X55.693 Y43.512 F1000
G1 X55.693 Y43.306 F1000
G1 X55.796 Y43.203 F1000
G1 X55.796 Y42.997 F1000
G1 X55.899 Y42.894 F1000
G1 X55.899 Y42.791 F1000
G1 X56.002 Y42.688 F1000
G1 X56.002 Y42.585 F1000
G1 X56.105 Y42.482 F1000
G1 X56.105 Y42.379 F1000
G1 X56.208 Y42.276 F1000
G1 X56.208 Y42.173 F1000
G1 X56.311 Y42.070 F1000
G1 X56.311 Y41.967 F1000
G1 X56.414 Y41.864 F1000
G1 X56.414 Y41.761 F1000
G1 X56.517 Y41.658 F1000
G1 X56.517 Y41.555 F1000
G1 X56.723 Y41.349 F1000
G1 X56.723 Y41.246 F1000
G1 X57.135 Y40.834 F1000
G1 X57.135 Y40.731 F1000
G1 X57.959 Y39.907 F1000
G1 X58.062 Y39.907 F1000
G1 X58.165 Y39.804 F1000
G1 X58.062 Y39.907 F1000
G1 X57.959 Y39.907 F1000
G1 X57.135 Y40.731 F1000
G1 X57.135 Y40.834 F1000
G1 X56.929 Y41.040 F1000
G1 X56.929 Y41.143 F1000
G1 X56.620 Y41.452 F1000
G1 X56.620 Y41.555 F1000
G1 X56.517 Y41.658 F1000
G1 X56.517 Y41.761 F1000
G1 X56.414 Y41.864 F1000
G1 X56.414 Y41.967 F1000
G1 X56.311 Y42.070 F1000
G1 X56.311 Y42.173 F1000
G1 X56.208 Y42.276 F1000
G1 X56.208 Y42.379 F1000
G1 X56.105 Y42.482 F1000
G1 X56.105 Y42.585 F1000
G1 X56.002 Y42.688 F1000
G1 X56.002 Y42.791 F1000
G1 X55.899 Y42.894 F1000
G1 X55.899 Y42.997 F1000
G1 X55.796 Y43.100 F1000
G1 X55.796 Y43.203 F1000
G1 X55.693 Y43.306 F1000
G1 X55.693 Y43.615 F1000
G1 X55.590 Y43.718 F1000
G1 X55.590 Y44.027 F1000
G1 X55.487 Y44.130 F1000
G1 X55.487 Y44.439 F1000
G1 X55.384 Y44.542 F1000
G1 X55.384 Y46.293 F1000
G1 X55.487 Y46.396 F1000
G1 X55.487 Y47.014 F1000
G1 X55.590 Y47.117 F1000
G1 X55.590 Y47.426 F1000
G1 X55.693 Y47.529 F1000
G1 X55.693 Y47.632 F1000
G1 X55.796 Y47.735 F1000
G1 X55.796 Y47.941 F1000
G1 X55.899 Y48.044 F1000
G1 X55.899 Y48.250 F1000
G1 X56.002 Y48.353 F1000
G1 X56.002 Y48.559 F1000
G1 X56.105 Y48.662 F1000
G1 X56.105 Y48.765 F1000
G1 X56.208 Y48.868 F1000
G1 X56.208 Y48.971 F1000
G1 X56.311 Y49.074 F1000
G1 X56.311 Y49.177 F1000
G1 X56.414 Y49.280 F1000
G1 X56.414 Y49.383 F1000
G1 X56.517 Y49.486 F1000
G1 X56.517 Y49.589 F1000
G1 X57.135 Y50.207 F1000
G1 X57.135 Y50.310 F1000
G1 X58.165 Y51.340 F1000
G1 X58.268 Y51.340 F1000
G1 X58.577 Y51.649 F1000
G1 X58.680 Y51.649 F1000
G1 X58.886 Y51.855 F1000
G1 X58.989 Y51.855 F1000
G1 X59.092 Y51.958 F1000
G1 X59.195 Y51.958 F1000
