; Blueprint to G-code
; Input: test_images_solid/test2_mixed_solid_outline.png
; Generated with blueprint2gcode.py

G21 ; Set units to millimeters
G90 ; Absolute positioning
G0 Z3.0 ; Pen up
G0 X0 Y0 ; Move to origin

G0 X35.504 Y39.625 F3000 ; Travel to line 1
G0 Z0.0 ; Pen down
G1 X35.246 Y39.883 F1000
G0 Z3.0 ; Pen up

G0 X35.761 Y39.625 F3000 ; Travel to line 2
G0 Z0.0 ; Pen down
G1 X34.989 Y40.398 F1000
G0 Z3.0 ; Pen up

G0 X34.731 Y40.913 F3000 ; Travel to line 3
G0 Z0.0 ; Pen down
G1 X36.019 Y39.625 F1000
G0 Z3.0 ; Pen up

G0 X36.276 Y39.625 F3000 ; Travel to line 4
G0 Z0.0 ; Pen down
G1 X34.474 Y41.428 F1000
G0 Z3.0 ; Pen up

G0 X33.959 Y42.458 F3000 ; Travel to line 5
G0 Z0.0 ; Pen down
G1 X36.791 Y39.625 F1000
G0 Z3.0 ; Pen up

G0 X37.049 Y39.625 F3000 ; Travel to line 6
G0 Z0.0 ; Pen down
G1 X33.701 Y42.973 F1000
G0 Z3.0 ; Pen up

G0 X33.315 Y43.745 F3000 ; Travel to line 7
G0 Z0.0 ; Pen down
G1 X37.435 Y39.625 F1000
G0 Z3.0 ; Pen up

G0 X37.821 Y39.625 F3000 ; Travel to line 8
G0 Z0.0 ; Pen down
G1 X32.929 Y44.517 F1000
G0 Z3.0 ; Pen up

G0 X32.543 Y45.290 F3000 ; Travel to line 9
G0 Z0.0 ; Pen down
G1 X38.207 Y39.625 F1000
G0 Z3.0 ; Pen up

G0 X38.594 Y39.625 F3000 ; Travel to line 10
G0 Z0.0 ; Pen down
G1 X32.156 Y46.062 F1000
G0 Z3.0 ; Pen up

G0 X31.899 Y46.578 F3000 ; Travel to line 11
G0 Z0.0 ; Pen down
G1 X38.851 Y39.625 F1000
G0 Z3.0 ; Pen up

G0 X39.237 Y39.625 F3000 ; Travel to line 12
G0 Z0.0 ; Pen down
G1 X31.512 Y47.350 F1000
G0 Z3.0 ; Pen up

G0 X31.126 Y48.123 F3000 ; Travel to line 13
G0 Z0.0 ; Pen down
G1 X39.624 Y39.625 F1000
G0 Z3.0 ; Pen up

G0 X40.010 Y39.625 F3000 ; Travel to line 14
G0 Z0.0 ; Pen down
G1 X30.740 Y48.895 F1000
G0 Z3.0 ; Pen up

G0 X30.354 Y49.668 F3000 ; Travel to line 15
G0 Z0.0 ; Pen down
G1 X40.396 Y39.625 F1000
G0 Z3.0 ; Pen up

G0 X40.654 Y39.625 F3000 ; Travel to line 16
G0 Z0.0 ; Pen down
G1 X30.096 Y50.183 F1000
G0 Z3.0 ; Pen up

G0 X29.581 Y51.212 F3000 ; Travel to line 17
G0 Z0.0 ; Pen down
G1 X41.169 Y39.625 F1000
G0 Z3.0 ; Pen up

G0 X41.426 Y39.625 F3000 ; Travel to line 18
G0 Z0.0 ; Pen down
G1 X29.324 Y51.727 F1000
G0 Z3.0 ; Pen up

G0 X28.938 Y52.500 F3000 ; Travel to line 19
G0 Z0.0 ; Pen down
G1 X41.812 Y39.625 F1000
G0 Z3.0 ; Pen up

G0 X42.199 Y39.625 F3000 ; Travel to line 20
G0 Z0.0 ; Pen down
G1 X29.195 Y52.629 F1000
G0 Z3.0 ; Pen up

G0 X29.453 Y52.629 F3000 ; Travel to line 21
G0 Z0.0 ; Pen down
G1 X42.456 Y39.625 F1000
G0 Z3.0 ; Pen up

G0 X42.971 Y39.625 F3000 ; Travel to line 22
G0 Z0.0 ; Pen down
G1 X29.710 Y52.886 F1000
G0 Z3.0 ; Pen up

G0 X29.968 Y52.886 F3000 ; Travel to line 23
G0 Z0.0 ; Pen down
G1 X43.229 Y39.625 F1000
G0 Z3.0 ; Pen up

G0 X43.615 Y39.625 F3000 ; Travel to line 24
G0 Z0.0 ; Pen down
G1 X30.225 Y53.015 F1000
G0 Z3.0 ; Pen up

G0 X30.483 Y53.144 F3000 ; Travel to line 25
G0 Z0.0 ; Pen down
G1 X44.001 Y39.625 F1000
G0 Z3.0 ; Pen up

G0 X44.388 Y39.625 F3000 ; Travel to line 26
G0 Z0.0 ; Pen down
G1 X30.740 Y53.273 F1000
G0 Z3.0 ; Pen up

G0 X30.998 Y53.401 F3000 ; Travel to line 27
G0 Z0.0 ; Pen down
G1 X44.774 Y39.625 F1000
G0 Z3.0 ; Pen up

G0 X45.031 Y39.625 F3000 ; Travel to line 28
G0 Z0.0 ; Pen down
G1 X31.126 Y53.530 F1000
G0 Z3.0 ; Pen up

G0 X31.512 Y53.659 F3000 ; Travel to line 29
G0 Z0.0 ; Pen down
G1 X45.546 Y39.625 F1000
G0 Z3.0 ; Pen up

G0 X45.804 Y39.625 F3000 ; Travel to line 30
G0 Z0.0 ; Pen down
G1 X31.641 Y53.788 F1000
G0 Z3.0 ; Pen up

G0 X31.899 Y53.916 F3000 ; Travel to line 31
G0 Z0.0 ; Pen down
G1 X46.190 Y39.625 F1000
G0 Z3.0 ; Pen up

G0 X46.576 Y39.625 F3000 ; Travel to line 32
G0 Z0.0 ; Pen down
G1 X32.156 Y54.045 F1000
G0 Z3.0 ; Pen up

G0 X32.285 Y54.174 F3000 ; Travel to line 33
G0 Z0.0 ; Pen down
G1 X46.834 Y39.625 F1000
G0 Z3.0 ; Pen up

G0 X47.349 Y39.625 F3000 ; Travel to line 34
G0 Z0.0 ; Pen down
G1 X32.671 Y54.303 F1000
G0 Z3.0 ; Pen up

G0 X32.800 Y54.431 F3000 ; Travel to line 35
G0 Z0.0 ; Pen down
G1 X47.606 Y39.625 F1000
G0 Z3.0 ; Pen up

G0 X47.992 Y39.625 F3000 ; Travel to line 36
G0 Z0.0 ; Pen down
G1 X33.058 Y54.560 F1000
G0 Z3.0 ; Pen up

G0 X33.315 Y54.689 F3000 ; Travel to line 37
G0 Z0.0 ; Pen down
G1 X48.250 Y39.754 F1000
G0 Z3.0 ; Pen up

G0 X48.379 Y40.011 F3000 ; Travel to line 38
G0 Z0.0 ; Pen down
G1 X33.573 Y54.818 F1000
G0 Z3.0 ; Pen up

G0 X33.830 Y54.946 F3000 ; Travel to line 39
G0 Z0.0 ; Pen down
G1 X48.508 Y40.269 F1000
G0 Z3.0 ; Pen up

G0 X48.636 Y40.398 F3000 ; Travel to line 40
G0 Z0.0 ; Pen down
G1 X34.088 Y54.946 F1000
G0 Z3.0 ; Pen up

G0 X34.345 Y55.204 F3000 ; Travel to line 41
G0 Z0.0 ; Pen down
G1 X48.765 Y40.784 F1000
G0 Z3.0 ; Pen up

G0 X48.894 Y40.913 F3000 ; Travel to line 42
G0 Z0.0 ; Pen down
G1 X34.602 Y55.204 F1000
G0 Z3.0 ; Pen up

G0 X34.860 Y55.333 F3000 ; Travel to line 43
G0 Z0.0 ; Pen down
G1 X49.023 Y41.170 F1000
G0 Z3.0 ; Pen up

G0 X49.151 Y41.428 F3000 ; Travel to line 44
G0 Z0.0 ; Pen down
G1 X35.117 Y55.461 F1000
G0 Z3.0 ; Pen up

G0 X35.246 Y55.590 F3000 ; Travel to line 45
G0 Z0.0 ; Pen down
G1 X49.151 Y41.685 F1000
G0 Z3.0 ; Pen up

G0 X49.409 Y41.943 F3000 ; Travel to line 46
G0 Z0.0 ; Pen down
G1 X35.633 Y55.719 F1000
G0 Z3.0 ; Pen up

G0 X35.761 Y55.848 F3000 ; Travel to line 47
G0 Z0.0 ; Pen down
G1 X49.409 Y42.200 F1000
G0 Z3.0 ; Pen up

G0 X49.538 Y42.458 F3000 ; Travel to line 48
G0 Z0.0 ; Pen down
G1 X36.019 Y55.976 F1000
G0 Z3.0 ; Pen up

G0 X36.276 Y56.105 F3000 ; Travel to line 49
G0 Z0.0 ; Pen down
G1 X49.666 Y42.715 F1000
G0 Z3.0 ; Pen up

G0 X49.795 Y42.844 F3000 ; Travel to line 50
G0 Z0.0 ; Pen down
G1 X36.405 Y56.234 F1000
G0 Z3.0 ; Pen up

G0 X36.791 Y56.363 F3000 ; Travel to line 51
G0 Z0.0 ; Pen down
G1 X49.924 Y43.230 F1000
G0 Z3.0 ; Pen up

G0 X50.053 Y43.359 F3000 ; Travel to line 52
G0 Z0.0 ; Pen down
G1 X36.920 Y56.491 F1000
G0 Z3.0 ; Pen up

G0 X37.178 Y56.620 F3000 ; Travel to line 53
G0 Z0.0 ; Pen down
G1 X50.181 Y43.616 F1000
G0 Z3.0 ; Pen up

G0 X50.310 Y43.874 F3000 ; Travel to line 54
G0 Z0.0 ; Pen down
G1 X37.435 Y56.749 F1000
G0 Z3.0 ; Pen up

G0 X37.692 Y56.878 F3000 ; Travel to line 55
G0 Z0.0 ; Pen down
G1 X50.439 Y44.131 F1000
G0 Z3.0 ; Pen up

G0 X50.568 Y44.389 F3000 ; Travel to line 56
G0 Z0.0 ; Pen down
G1 X37.950 Y57.006 F1000
G0 Z3.0 ; Pen up

G0 X38.207 Y57.006 F3000 ; Travel to line 57
G0 Z0.0 ; Pen down
G1 X50.696 Y44.517 F1000
G0 Z3.0 ; Pen up

G0 X50.825 Y44.904 F3000 ; Travel to line 58
G0 Z0.0 ; Pen down
G1 X38.465 Y57.264 F1000
G0 Z3.0 ; Pen up

G0 X38.722 Y57.264 F3000 ; Travel to line 59
G0 Z0.0 ; Pen down
G1 X50.954 Y45.032 F1000
G0 Z3.0 ; Pen up

G0 X51.083 Y45.290 F3000 ; Travel to line 60
G0 Z0.0 ; Pen down
G1 X38.980 Y57.392 F1000
G0 Z3.0 ; Pen up

G0 X39.237 Y57.521 F3000 ; Travel to line 61
G0 Z0.0 ; Pen down
G1 X51.211 Y45.547 F1000
G0 Z3.0 ; Pen up

G0 X51.211 Y45.805 F3000 ; Travel to line 62
G0 Z0.0 ; Pen down
G1 X39.366 Y57.650 F1000
G0 Z3.0 ; Pen up

G0 X39.752 Y57.779 F3000 ; Travel to line 63
G0 Z0.0 ; Pen down
G1 X51.469 Y46.062 F1000
G0 Z3.0 ; Pen up

G0 X51.469 Y46.320 F3000 ; Travel to line 64
G0 Z0.0 ; Pen down
G1 X39.881 Y57.907 F1000
G0 Z3.0 ; Pen up

G0 X40.139 Y58.036 F3000 ; Travel to line 65
G0 Z0.0 ; Pen down
G1 X51.598 Y46.578 F1000
G0 Z3.0 ; Pen up

G0 X51.726 Y46.835 F3000 ; Travel to line 66
G0 Z0.0 ; Pen down
G1 X40.396 Y58.165 F1000
G0 Z3.0 ; Pen up

G0 X40.654 Y58.294 F3000 ; Travel to line 67
G0 Z0.0 ; Pen down
G1 X51.855 Y47.093 F1000
G0 Z3.0 ; Pen up

G0 X51.984 Y47.350 F3000 ; Travel to line 68
G0 Z0.0 ; Pen down
G1 X40.911 Y58.422 F1000
G0 Z3.0 ; Pen up

G0 X41.040 Y58.551 F3000 ; Travel to line 69
G0 Z0.0 ; Pen down
G1 X52.113 Y47.479 F1000
G0 Z3.0 ; Pen up

G0 X52.241 Y47.865 F3000 ; Travel to line 70
G0 Z0.0 ; Pen down
G1 X41.426 Y58.680 F1000
G0 Z3.0 ; Pen up

G0 X41.555 Y58.809 F3000 ; Travel to line 71
G0 Z0.0 ; Pen down
G1 X52.370 Y47.994 F1000
G0 Z3.0 ; Pen up

G0 X52.499 Y48.251 F3000 ; Travel to line 72
G0 Z0.0 ; Pen down
G1 X41.812 Y58.938 F1000
G0 Z3.0 ; Pen up

G0 X42.585 Y58.551 F3000 ; Travel to line 73
G0 Z0.0 ; Pen down
G1 X52.627 Y48.509 F1000
G0 Z3.0 ; Pen up

G0 X52.756 Y48.638 F3000 ; Travel to line 74
G0 Z0.0 ; Pen down
G1 X43.100 Y58.294 F1000
G0 Z3.0 ; Pen up

G0 X44.130 Y57.779 F3000 ; Travel to line 75
G0 Z0.0 ; Pen down
G1 X52.885 Y49.024 F1000
G0 Z3.0 ; Pen up

G0 X53.014 Y49.153 F3000 ; Travel to line 76
G0 Z0.0 ; Pen down
G1 X44.645 Y57.521 F1000
G0 Z3.0 ; Pen up

G0 X45.418 Y57.135 F3000 ; Travel to line 77
G0 Z0.0 ; Pen down
G1 X53.142 Y49.410 F1000
G0 Z3.0 ; Pen up

G0 X53.271 Y49.668 F3000 ; Travel to line 78
G0 Z0.0 ; Pen down
G1 X46.190 Y56.749 F1000
G0 Z3.0 ; Pen up

G0 X46.962 Y56.363 F3000 ; Travel to line 79
G0 Z0.0 ; Pen down
G1 X53.400 Y49.925 F1000
G0 Z3.0 ; Pen up

G0 X53.529 Y50.183 F3000 ; Travel to line 80
G0 Z0.0 ; Pen down
G1 X47.735 Y55.976 F1000
G0 Z3.0 ; Pen up

G0 X48.250 Y55.719 F3000 ; Travel to line 81
G0 Z0.0 ; Pen down
G1 X53.529 Y50.440 F1000
G0 Z3.0 ; Pen up

G0 X53.657 Y50.697 F3000 ; Travel to line 82
G0 Z0.0 ; Pen down
G1 X49.023 Y55.333 F1000
G0 Z3.0 ; Pen up

G0 X49.795 Y54.946 F3000 ; Travel to line 83
G0 Z0.0 ; Pen down
G1 X53.786 Y50.955 F1000
G0 Z3.0 ; Pen up

G0 X53.915 Y51.212 F3000 ; Travel to line 84
G0 Z0.0 ; Pen down
G1 X50.568 Y54.560 F1000
G0 Z3.0 ; Pen up

G0 X51.340 Y54.174 F3000 ; Travel to line 85
G0 Z0.0 ; Pen down
G1 X54.044 Y51.470 F1000
G0 Z3.0 ; Pen up

G0 X54.172 Y51.599 F3000 ; Travel to line 86
G0 Z0.0 ; Pen down
G1 X51.855 Y53.916 F1000
G0 Z3.0 ; Pen up

G0 X52.885 Y53.401 F3000 ; Travel to line 87
G0 Z0.0 ; Pen down
G1 X54.301 Y51.985 F1000
G0 Z3.0 ; Pen up

G0 X54.430 Y52.114 F3000 ; Travel to line 88
G0 Z0.0 ; Pen down
G1 X53.400 Y53.144 F1000
G0 Z3.0 ; Pen up

G0 X54.172 Y52.758 F3000 ; Travel to line 89
G0 Z0.0 ; Pen down
G1 X54.559 Y52.371 F1000
G0 Z3.0 ; Pen up

G0 X54.688 Y62.800 F3000 ; Travel to line 90
G0 Z0.0 ; Pen down
G1 X54.172 Y63.186 F1000
G0 Z3.0 ; Pen up

G0 X54.044 Y63.186 F3000 ; Travel to line 91
G0 Z0.0 ; Pen down
G1 X54.430 Y62.800 F1000
G0 Z3.0 ; Pen up

G0 X54.172 Y62.800 F3000 ; Travel to line 92
G0 Z0.0 ; Pen down
G1 X53.786 Y63.186 F1000
G0 Z3.0 ; Pen up

G0 X53.529 Y63.186 F3000 ; Travel to line 93
G0 Z0.0 ; Pen down
G1 X54.044 Y62.800 F1000
G0 Z3.0 ; Pen up

G0 X53.915 Y62.800 F3000 ; Travel to line 94
G0 Z0.0 ; Pen down
G1 X53.400 Y63.186 F1000
G0 Z3.0 ; Pen up

G0 X53.271 Y63.186 F3000 ; Travel to line 95
G0 Z0.0 ; Pen down
G1 X53.657 Y62.800 F1000
G0 Z3.0 ; Pen up

G0 X53.400 Y62.800 F3000 ; Travel to line 96
G0 Z0.0 ; Pen down
G1 X53.014 Y63.186 F1000
G0 Z3.0 ; Pen up

G0 X52.885 Y63.186 F3000 ; Travel to line 97
G0 Z0.0 ; Pen down
G1 X53.271 Y62.800 F1000
G0 Z3.0 ; Pen up

G0 X53.014 Y62.800 F3000 ; Travel to line 98
G0 Z0.0 ; Pen down
G1 X52.627 Y63.186 F1000
G0 Z3.0 ; Pen up

G0 X52.499 Y63.186 F3000 ; Travel to line 99
G0 Z0.0 ; Pen down
G1 X52.885 Y62.800 F1000
G0 Z3.0 ; Pen up

G0 X52.756 Y62.800 F3000 ; Travel to line 100
G0 Z0.0 ; Pen down
G1 X52.370 Y63.186 F1000
G0 Z3.0 ; Pen up

G0 X52.113 Y63.186 F3000 ; Travel to line 101
G0 Z0.0 ; Pen down
G1 X52.499 Y62.800 F1000
G0 Z3.0 ; Pen up

G0 X52.370 Y62.800 F3000 ; Travel to line 102
G0 Z0.0 ; Pen down
G1 X51.855 Y63.186 F1000
G0 Z3.0 ; Pen up

G0 X51.726 Y63.186 F3000 ; Travel to line 103
G0 Z0.0 ; Pen down
G1 X52.113 Y62.800 F1000
G0 Z3.0 ; Pen up

G0 X51.984 Y62.800 F3000 ; Travel to line 104
G0 Z0.0 ; Pen down
G1 X51.598 Y63.186 F1000
G0 Z3.0 ; Pen up

G0 X51.340 Y63.186 F3000 ; Travel to line 105
G0 Z0.0 ; Pen down
G1 X51.726 Y62.800 F1000
G0 Z3.0 ; Pen up

G0 X51.598 Y62.800 F3000 ; Travel to line 106
G0 Z0.0 ; Pen down
G1 X51.211 Y63.186 F1000
G0 Z3.0 ; Pen up

G0 X50.954 Y63.186 F3000 ; Travel to line 107
G0 Z0.0 ; Pen down
G1 X51.340 Y62.800 F1000
G0 Z3.0 ; Pen up

G0 X51.211 Y62.800 F3000 ; Travel to line 108
G0 Z0.0 ; Pen down
G1 X50.825 Y63.186 F1000
G0 Z3.0 ; Pen up

G0 X50.568 Y63.186 F3000 ; Travel to line 109
G0 Z0.0 ; Pen down
G1 X50.954 Y62.800 F1000
G0 Z3.0 ; Pen up

G0 X50.825 Y62.800 F3000 ; Travel to line 110
G0 Z0.0 ; Pen down
G1 X50.439 Y63.186 F1000
G0 Z3.0 ; Pen up

G0 X50.310 Y63.186 F3000 ; Travel to line 111
G0 Z0.0 ; Pen down
G1 X50.696 Y62.800 F1000
G0 Z3.0 ; Pen up

G0 X50.568 Y62.800 F3000 ; Travel to line 112
G0 Z0.0 ; Pen down
G1 X50.181 Y63.186 F1000
G0 Z3.0 ; Pen up

G0 X49.924 Y63.186 F3000 ; Travel to line 113
G0 Z0.0 ; Pen down
G1 X50.310 Y62.800 F1000
G0 Z3.0 ; Pen up

G0 X50.181 Y62.800 F3000 ; Travel to line 114
G0 Z0.0 ; Pen down
G1 X49.795 Y63.186 F1000
G0 Z3.0 ; Pen up

G0 X49.538 Y63.186 F3000 ; Travel to line 115
G0 Z0.0 ; Pen down
G1 X49.924 Y62.800 F1000
G0 Z3.0 ; Pen up

G0 X49.795 Y62.800 F3000 ; Travel to line 116
G0 Z0.0 ; Pen down
G1 X49.409 Y63.186 F1000
G0 Z3.0 ; Pen up

G0 X49.280 Y63.186 F3000 ; Travel to line 117
G0 Z0.0 ; Pen down
G1 X49.666 Y62.800 F1000
G0 Z3.0 ; Pen up

G0 X49.409 Y62.800 F3000 ; Travel to line 118
G0 Z0.0 ; Pen down
G1 X49.023 Y63.186 F1000
G0 Z3.0 ; Pen up

G0 X48.894 Y63.186 F3000 ; Travel to line 119
G0 Z0.0 ; Pen down
G1 X49.280 Y62.800 F1000
G0 Z3.0 ; Pen up

G0 X49.023 Y62.800 F3000 ; Travel to line 120
G0 Z0.0 ; Pen down
G1 X48.765 Y63.186 F1000
G0 Z3.0 ; Pen up

G0 X48.508 Y63.186 F3000 ; Travel to line 121
G0 Z0.0 ; Pen down
G1 X48.894 Y62.800 F1000
G0 Z3.0 ; Pen up

G0 X48.765 Y62.800 F3000 ; Travel to line 122
G0 Z0.0 ; Pen down
G1 X48.379 Y63.186 F1000
G0 Z3.0 ; Pen up

G0 X48.250 Y63.186 F3000 ; Travel to line 123
G0 Z0.0 ; Pen down
G1 X48.636 Y62.800 F1000
G0 Z3.0 ; Pen up

G0 X48.379 Y62.800 F3000 ; Travel to line 124
G0 Z0.0 ; Pen down
G1 X47.992 Y63.186 F1000
G0 Z3.0 ; Pen up

G0 X47.864 Y63.186 F3000 ; Travel to line 125
G0 Z0.0 ; Pen down
G1 X48.250 Y62.800 F1000
G0 Z3.0 ; Pen up

G0 X47.992 Y62.800 F3000 ; Travel to line 126
G0 Z0.0 ; Pen down
G1 X47.735 Y63.186 F1000
G0 Z3.0 ; Pen up

G0 X47.477 Y63.186 F3000 ; Travel to line 127
G0 Z0.0 ; Pen down
G1 X47.864 Y62.800 F1000
G0 Z3.0 ; Pen up

G0 X47.735 Y62.800 F3000 ; Travel to line 128
G0 Z0.0 ; Pen down
G1 X47.349 Y63.186 F1000
G0 Z3.0 ; Pen up

G0 X47.220 Y63.186 F3000 ; Travel to line 129
G0 Z0.0 ; Pen down
G1 X47.606 Y62.800 F1000
G0 Z3.0 ; Pen up

G0 X47.349 Y62.800 F3000 ; Travel to line 130
G0 Z0.0 ; Pen down
G1 X47.091 Y63.186 F1000
G0 Z3.0 ; Pen up

G0 X46.834 Y63.186 F3000 ; Travel to line 131
G0 Z0.0 ; Pen down
G1 X47.220 Y62.800 F1000
G0 Z3.0 ; Pen up

G0 X47.091 Y62.800 F3000 ; Travel to line 132
G0 Z0.0 ; Pen down
G1 X46.705 Y63.186 F1000
G0 Z3.0 ; Pen up

G0 X46.576 Y63.186 F3000 ; Travel to line 133
G0 Z0.0 ; Pen down
G1 X46.834 Y62.800 F1000
G0 Z3.0 ; Pen up

G0 X46.705 Y62.800 F3000 ; Travel to line 134
G0 Z0.0 ; Pen down
G1 X46.319 Y63.186 F1000
G0 Z3.0 ; Pen up

G0 X46.190 Y63.186 F3000 ; Travel to line 135
G0 Z0.0 ; Pen down
G1 X46.576 Y62.800 F1000
G0 Z3.0 ; Pen up

G0 X46.447 Y62.800 F3000 ; Travel to line 136
G0 Z0.0 ; Pen down
G1 X46.061 Y63.186 F1000
G0 Z3.0 ; Pen up

G0 X45.932 Y63.186 F3000 ; Travel to line 137
G0 Z0.0 ; Pen down
G1 X46.190 Y62.800 F1000
G0 Z3.0 ; Pen up

G0 X46.061 Y62.800 F3000 ; Travel to line 138
G0 Z0.0 ; Pen down
G1 X45.675 Y63.186 F1000
G0 Z3.0 ; Pen up

G0 X45.546 Y63.186 F3000 ; Travel to line 139
G0 Z0.0 ; Pen down
G1 X45.932 Y62.800 F1000
G0 Z3.0 ; Pen up

G0 X45.804 Y62.800 F3000 ; Travel to line 140
G0 Z0.0 ; Pen down
G1 X45.418 Y63.186 F1000
G0 Z3.0 ; Pen up

G0 X45.289 Y63.186 F3000 ; Travel to line 141
G0 Z0.0 ; Pen down
G1 X45.675 Y62.800 F1000
G0 Z3.0 ; Pen up

G0 X45.418 Y62.800 F3000 ; Travel to line 142
G0 Z0.0 ; Pen down
G1 X45.160 Y63.186 F1000
G0 Z3.0 ; Pen up

G0 X44.903 Y63.186 F3000 ; Travel to line 143
G0 Z0.0 ; Pen down
G1 X45.289 Y62.800 F1000
G0 Z3.0 ; Pen up

G0 X45.160 Y62.800 F3000 ; Travel to line 144
G0 Z0.0 ; Pen down
G1 X44.774 Y63.186 F1000
G0 Z3.0 ; Pen up

G0 X44.645 Y63.186 F3000 ; Travel to line 145
G0 Z0.0 ; Pen down
G1 X45.031 Y62.800 F1000
G0 Z3.0 ; Pen up

G0 X44.903 Y62.800 F3000 ; Travel to line 146
G0 Z0.0 ; Pen down
G1 X44.516 Y63.186 F1000
G0 Z3.0 ; Pen up

G0 X44.388 Y63.186 F3000 ; Travel to line 147
G0 Z0.0 ; Pen down
G1 X44.645 Y62.800 F1000
G0 Z3.0 ; Pen up

G0 X44.516 Y62.800 F3000 ; Travel to line 148
G0 Z0.0 ; Pen down
G1 X44.259 Y63.186 F1000
G0 Z3.0 ; Pen up

G0 X44.001 Y63.186 F3000 ; Travel to line 149
G0 Z0.0 ; Pen down
G1 X44.388 Y62.800 F1000
G0 Z3.0 ; Pen up

G0 X44.259 Y62.800 F3000 ; Travel to line 150
G0 Z0.0 ; Pen down
G1 X43.873 Y63.186 F1000
G0 Z3.0 ; Pen up

G0 X43.744 Y63.186 F3000 ; Travel to line 151
G0 Z0.0 ; Pen down
G1 X44.001 Y62.800 F1000
G0 Z3.0 ; Pen up

G0 X43.873 Y62.800 F3000 ; Travel to line 152
G0 Z0.0 ; Pen down
G1 X43.615 Y63.186 F1000
G0 Z3.0 ; Pen up

G0 X43.486 Y63.186 F3000 ; Travel to line 153
G0 Z0.0 ; Pen down
G1 X43.744 Y62.800 F1000
G0 Z3.0 ; Pen up

G0 X43.615 Y62.800 F3000 ; Travel to line 154
G0 Z0.0 ; Pen down
G1 X43.229 Y63.186 F1000
G0 Z3.0 ; Pen up

G0 X43.100 Y63.186 F3000 ; Travel to line 155
G0 Z0.0 ; Pen down
G1 X43.486 Y62.800 F1000
G0 Z3.0 ; Pen up

G0 X42.971 Y62.800 F3000 ; Travel to line 156
G0 Z0.0 ; Pen down
G1 X42.714 Y63.186 F1000
G0 Z3.0 ; Pen up

G0 X42.585 Y63.186 F3000 ; Travel to line 157
G0 Z0.0 ; Pen down
G1 X42.843 Y62.800 F1000
G0 Z3.0 ; Pen up

G0 X42.714 Y62.800 F3000 ; Travel to line 158
G0 Z0.0 ; Pen down
G1 X42.456 Y63.186 F1000
G0 Z3.0 ; Pen up

G0 X42.199 Y63.186 F3000 ; Travel to line 159
G0 Z0.0 ; Pen down
G1 X42.585 Y62.800 F1000
G0 Z3.0 ; Pen up

G0 X42.456 Y62.800 F3000 ; Travel to line 160
G0 Z0.0 ; Pen down
G1 X42.070 Y63.186 F1000
G0 Z3.0 ; Pen up

G0 X41.941 Y63.186 F3000 ; Travel to line 161
G0 Z0.0 ; Pen down
G1 X42.199 Y62.800 F1000
G1 X42.199 Y62.800 F1000
G1 X41.812 Y63.186 F1000
G0 Z3.0 ; Pen up

G0 X41.684 Y63.186 F3000 ; Travel to line 162
G0 Z0.0 ; Pen down
G1 X41.941 Y62.800 F1000
G0 Z3.0 ; Pen up

G0 X41.812 Y62.800 F3000 ; Travel to line 163
G0 Z0.0 ; Pen down
G1 X41.555 Y63.186 F1000
G0 Z3.0 ; Pen up

G0 X41.426 Y63.186 F3000 ; Travel to line 164
G0 Z0.0 ; Pen down
G1 X41.684 Y62.800 F1000
G0 Z3.0 ; Pen up

G0 X41.555 Y62.800 F3000 ; Travel to line 165
G0 Z0.0 ; Pen down
G1 X41.297 Y63.186 F1000
G0 Z3.0 ; Pen up

G0 X41.169 Y63.186 F3000 ; Travel to line 166
G0 Z0.0 ; Pen down
G1 X41.426 Y62.800 F1000
G0 Z3.0 ; Pen up

G0 X41.297 Y62.800 F3000 ; Travel to line 167
G0 Z0.0 ; Pen down
G1 X41.040 Y63.186 F1000
G0 Z3.0 ; Pen up

G0 X40.911 Y63.186 F3000 ; Travel to line 168
G0 Z0.0 ; Pen down
G1 X41.169 Y62.800 F1000
G0 Z3.0 ; Pen up

G0 X41.040 Y62.800 F3000 ; Travel to line 169
G0 Z0.0 ; Pen down
G1 X40.654 Y63.186 F1000
G0 Z3.0 ; Pen up

G0 X40.525 Y63.186 F3000 ; Travel to line 170
G0 Z0.0 ; Pen down
G1 X40.911 Y62.800 F1000
G0 Z3.0 ; Pen up

G0 X40.782 Y62.800 F3000 ; Travel to line 171
G0 Z0.0 ; Pen down
G1 X40.396 Y63.186 F1000
G0 Z3.0 ; Pen up

G0 X40.267 Y63.186 F3000 ; Travel to line 172
G0 Z0.0 ; Pen down
G1 X40.654 Y62.800 F1000
G0 Z3.0 ; Pen up

G0 X40.396 Y62.800 F3000 ; Travel to line 173
G0 Z0.0 ; Pen down
G1 X40.139 Y63.186 F1000
G0 Z3.0 ; Pen up

G0 X40.010 Y63.186 F3000 ; Travel to line 174
G0 Z0.0 ; Pen down
G1 X40.267 Y62.800 F1000
G0 Z3.0 ; Pen up

G0 X40.139 Y62.800 F3000 ; Travel to line 175
G0 Z0.0 ; Pen down
G1 X39.881 Y63.186 F1000
G0 Z3.0 ; Pen up

G0 X39.752 Y63.186 F3000 ; Travel to line 176
G0 Z0.0 ; Pen down
G1 X40.010 Y62.800 F1000
G0 Z3.0 ; Pen up

G0 X39.881 Y62.800 F3000 ; Travel to line 177
G0 Z0.0 ; Pen down
G1 X39.624 Y63.186 F1000
G0 Z3.0 ; Pen up

G0 X39.495 Y63.186 F3000 ; Travel to line 178
G0 Z0.0 ; Pen down
G1 X39.752 Y62.800 F1000
G0 Z3.0 ; Pen up

G0 X39.624 Y62.800 F3000 ; Travel to line 179
G0 Z0.0 ; Pen down
G1 X39.366 Y63.186 F1000
G0 Z3.0 ; Pen up

G0 X39.237 Y63.186 F3000 ; Travel to line 180
G0 Z0.0 ; Pen down
G1 X39.495 Y62.800 F1000
G0 Z3.0 ; Pen up

G0 X39.366 Y62.800 F3000 ; Travel to line 181
G0 Z0.0 ; Pen down
G1 X39.109 Y63.186 F1000
G0 Z3.0 ; Pen up

G0 X38.980 Y63.186 F3000 ; Travel to line 182
G0 Z0.0 ; Pen down
G1 X39.237 Y62.800 F1000
G0 Z3.0 ; Pen up

G0 X39.109 Y62.800 F3000 ; Travel to line 183
G0 Z0.0 ; Pen down
G1 X38.851 Y63.186 F1000
G0 Z3.0 ; Pen up

G0 X38.722 Y63.186 F3000 ; Travel to line 184
G0 Z0.0 ; Pen down
G1 X38.980 Y62.800 F1000
G0 Z3.0 ; Pen up

G0 X38.851 Y62.800 F3000 ; Travel to line 185
G0 Z0.0 ; Pen down
G1 X38.594 Y63.186 F1000
G0 Z3.0 ; Pen up

G0 X38.465 Y63.186 F3000 ; Travel to line 186
G0 Z0.0 ; Pen down
G1 X38.722 Y62.800 F1000
G0 Z3.0 ; Pen up

G0 X38.594 Y62.800 F3000 ; Travel to line 187
G0 Z0.0 ; Pen down
G1 X38.336 Y63.186 F1000
G0 Z3.0 ; Pen up

G0 X38.207 Y63.186 F3000 ; Travel to line 188
G0 Z0.0 ; Pen down
G1 X38.465 Y62.800 F1000
G0 Z3.0 ; Pen up

G0 X38.336 Y62.800 F3000 ; Travel to line 189
G0 Z0.0 ; Pen down
G1 X37.950 Y63.186 F1000
G1 X37.950 Y63.186 F1000
G1 X38.207 Y62.800 F1000
G0 Z3.0 ; Pen up

G0 X38.079 Y62.800 F3000 ; Travel to line 190
G0 Z0.0 ; Pen down
G1 X37.821 Y63.186 F1000
G0 Z3.0 ; Pen up

G0 X37.692 Y63.186 F3000 ; Travel to line 191
G0 Z0.0 ; Pen down
G1 X37.950 Y62.800 F1000
G0 Z3.0 ; Pen up

G0 X37.821 Y62.800 F3000 ; Travel to line 192
G0 Z0.0 ; Pen down
G1 X37.564 Y63.186 F1000
G0 Z3.0 ; Pen up

G0 X37.435 Y63.186 F3000 ; Travel to line 193
G0 Z0.0 ; Pen down
G1 X37.692 Y62.800 F1000
G0 Z3.0 ; Pen up

G0 X37.564 Y62.800 F3000 ; Travel to line 194
G0 Z0.0 ; Pen down
G1 X37.306 Y63.186 F1000
G0 Z3.0 ; Pen up

G0 X37.178 Y63.186 F3000 ; Travel to line 195
G0 Z0.0 ; Pen down
G1 X37.435 Y62.800 F1000
G0 Z3.0 ; Pen up

G0 X37.306 Y62.800 F3000 ; Travel to line 196
G0 Z0.0 ; Pen down
G1 X37.049 Y63.186 F1000
G0 Z3.0 ; Pen up

G0 X36.920 Y63.186 F3000 ; Travel to line 197
G0 Z0.0 ; Pen down
G1 X37.178 Y62.800 F1000
G0 Z3.0 ; Pen up

G0 X37.049 Y62.800 F3000 ; Travel to line 198
G0 Z0.0 ; Pen down
G1 X36.791 Y63.186 F1000
G0 Z3.0 ; Pen up

G0 X36.663 Y63.186 F3000 ; Travel to line 199
G0 Z0.0 ; Pen down
G1 X36.920 Y62.800 F1000
G0 Z3.0 ; Pen up

G0 X36.663 Y62.800 F3000 ; Travel to line 200
G0 Z0.0 ; Pen down
G1 X36.405 Y63.186 F1000
G0 Z3.0 ; Pen up

G0 X36.276 Y63.186 F3000 ; Travel to line 201
G0 Z0.0 ; Pen down
G1 X36.405 Y62.800 F1000
G0 Z3.0 ; Pen up

G0 X36.276 Y62.800 F3000 ; Travel to line 202
G0 Z0.0 ; Pen down
G1 X36.019 Y63.186 F1000
G0 Z3.0 ; Pen up

G0 X35.761 Y63.186 F3000 ; Travel to line 203
G0 Z0.0 ; Pen down
G1 X36.019 Y62.800 F1000
G0 Z3.0 ; Pen up

G0 X35.890 Y62.800 F3000 ; Travel to line 204
G0 Z0.0 ; Pen down
G1 X35.633 Y63.186 F1000
G0 Z3.0 ; Pen up

G0 X35.375 Y63.186 F3000 ; Travel to line 205
G0 Z0.0 ; Pen down
G1 X35.633 Y62.800 F1000
G0 Z3.0 ; Pen up

G0 X35.504 Y62.800 F3000 ; Travel to line 206
G0 Z0.0 ; Pen down
G1 X35.246 Y63.186 F1000
G0 Z3.0 ; Pen up

G0 X35.117 Y63.186 F3000 ; Travel to line 207
G0 Z0.0 ; Pen down
G1 X35.375 Y62.800 F1000
G0 Z3.0 ; Pen up

G0 X35.117 Y62.800 F3000 ; Travel to line 208
G0 Z0.0 ; Pen down
G1 X34.860 Y63.186 F1000
G0 Z3.0 ; Pen up

G0 X34.731 Y63.186 F3000 ; Travel to line 209
G0 Z0.0 ; Pen down
G1 X34.989 Y62.800 F1000
G0 Z3.0 ; Pen up

G0 X34.731 Y62.800 F3000 ; Travel to line 210
G0 Z0.0 ; Pen down
G1 X34.474 Y63.186 F1000
G0 Z3.0 ; Pen up

G0 X34.345 Y63.186 F3000 ; Travel to line 211
G0 Z0.0 ; Pen down
G1 X34.602 Y62.800 F1000
G0 Z3.0 ; Pen up

G0 X34.474 Y62.800 F3000 ; Travel to line 212
G0 Z0.0 ; Pen down
G1 X34.216 Y63.186 F1000
G0 Z3.0 ; Pen up

G0 X33.959 Y63.186 F3000 ; Travel to line 213
G0 Z0.0 ; Pen down
G1 X34.216 Y62.800 F1000
G0 Z3.0 ; Pen up

G0 X33.959 Y62.800 F3000 ; Travel to line 214
G0 Z0.0 ; Pen down
G1 X33.830 Y63.186 F1000
G0 Z3.0 ; Pen up

G0 X33.573 Y63.186 F3000 ; Travel to line 215
G0 Z0.0 ; Pen down
G1 X33.830 Y62.800 F1000
G0 Z3.0 ; Pen up

G0 X33.701 Y62.800 F3000 ; Travel to line 216
G0 Z0.0 ; Pen down
G1 X33.444 Y63.186 F1000
G0 Z3.0 ; Pen up

G0 X33.315 Y63.186 F3000 ; Travel to line 217
G0 Z0.0 ; Pen down
G1 X33.573 Y62.800 F1000
G0 Z3.0 ; Pen up

G0 X33.444 Y62.800 F3000 ; Travel to line 218
G0 Z0.0 ; Pen down
G1 X33.186 Y63.186 F1000
G0 Z3.0 ; Pen up

G0 X33.058 Y63.186 F3000 ; Travel to line 219
G0 Z0.0 ; Pen down
G1 X33.315 Y62.800 F1000
G0 Z3.0 ; Pen up

G0 X33.186 Y62.800 F3000 ; Travel to line 220
G0 Z0.0 ; Pen down
G1 X32.929 Y63.186 F1000
G0 Z3.0 ; Pen up

G0 X32.800 Y63.186 F3000 ; Travel to line 221
G0 Z0.0 ; Pen down
G1 X33.058 Y62.800 F1000
G0 Z3.0 ; Pen up

G0 X32.800 Y62.800 F3000 ; Travel to line 222
G0 Z0.0 ; Pen down
G1 X32.543 Y63.186 F1000
G1 X32.543 Y63.186 F1000
G1 X32.671 Y62.800 F1000
G1 X32.671 Y62.800 F1000
G1 X32.414 Y63.186 F1000
G0 Z3.0 ; Pen up

G0 X32.156 Y63.186 F3000 ; Travel to line 223
G0 Z0.0 ; Pen down
G1 X32.414 Y62.800 F1000
G0 Z3.0 ; Pen up

G0 X32.285 Y62.800 F3000 ; Travel to line 224
G0 Z0.0 ; Pen down
G1 X32.028 Y63.186 F1000
G0 Z3.0 ; Pen up

G0 X31.899 Y63.186 F3000 ; Travel to line 225
G0 Z0.0 ; Pen down
G1 X32.156 Y62.800 F1000
G0 Z3.0 ; Pen up

G0 X32.028 Y62.800 F3000 ; Travel to line 226
G0 Z0.0 ; Pen down
G1 X31.770 Y63.186 F1000
G0 Z3.0 ; Pen up

G0 X31.641 Y63.186 F3000 ; Travel to line 227
G0 Z0.0 ; Pen down
G1 X31.899 Y62.800 F1000
G0 Z3.0 ; Pen up

G0 X31.770 Y62.800 F3000 ; Travel to line 228
G0 Z0.0 ; Pen down
G1 X31.512 Y63.186 F1000
G0 Z3.0 ; Pen up

G0 X31.384 Y63.186 F3000 ; Travel to line 229
G0 Z0.0 ; Pen down
G1 X31.641 Y62.800 F1000
G0 Z3.0 ; Pen up

G0 X31.512 Y62.800 F3000 ; Travel to line 230
G0 Z0.0 ; Pen down
G1 X31.255 Y63.186 F1000
G0 Z3.0 ; Pen up

G0 X31.126 Y63.186 F3000 ; Travel to line 231
G0 Z0.0 ; Pen down
G1 X31.384 Y62.800 F1000
G0 Z3.0 ; Pen up

G0 X31.126 Y62.800 F3000 ; Travel to line 232
G0 Z0.0 ; Pen down
G1 X30.869 Y63.186 F1000
G1 X30.869 Y63.186 F1000
G1 X30.998 Y62.800 F1000
G1 X30.998 Y62.800 F1000
G1 X30.740 Y63.186 F1000
G0 Z3.0 ; Pen up

G0 X30.740 Y62.800 F3000 ; Travel to line 233
G0 Z0.0 ; Pen down
G1 X30.483 Y63.186 F1000
G1 X30.483 Y63.186 F1000
G1 X30.611 Y62.800 F1000
G0 Z3.0 ; Pen up

G0 X30.483 Y62.800 F3000 ; Travel to line 234
G0 Z0.0 ; Pen down
G1 X30.225 Y63.186 F1000
G0 Z3.0 ; Pen up

G0 X30.225 Y62.800 F3000 ; Travel to line 235
G0 Z0.0 ; Pen down
G1 X30.096 Y63.186 F1000
G1 X30.096 Y63.186 F1000
G1 X30.354 Y62.800 F1000
G0 Z3.0 ; Pen up

G0 X30.096 Y62.800 F3000 ; Travel to line 236
G0 Z0.0 ; Pen down
G1 X29.839 Y63.186 F1000
G0 Z3.0 ; Pen up

G0 X29.710 Y63.186 F3000 ; Travel to line 237
G0 Z0.0 ; Pen down
G1 X29.968 Y62.800 F1000
G0 Z3.0 ; Pen up

G0 X29.839 Y62.800 F3000 ; Travel to line 238
G0 Z0.0 ; Pen down
G1 X29.581 Y63.186 F1000
G0 Z3.0 ; Pen up

G0 X29.453 Y63.186 F3000 ; Travel to line 239
G0 Z0.0 ; Pen down
G1 X29.710 Y62.800 F1000
G0 Z3.0 ; Pen up

G0 X29.324 Y62.800 F3000 ; Travel to line 240
G0 Z0.0 ; Pen down
G1 X29.066 Y63.186 F1000
G0 Z3.0 ; Pen up

G0 X29.195 Y63.186 F3000 ; Travel to line 241
G0 Z0.0 ; Pen down
G1 X29.453 Y62.800 F1000
G1 X29.453 Y62.800 F1000
G1 X29.324 Y63.186 F1000
G0 Z3.0 ; Pen up

G0 X28.938 Y63.186 F3000 ; Travel to line 242
G0 Z0.0 ; Pen down
G1 X29.066 Y62.800 F1000
G1 X29.066 Y62.800 F1000
G1 X28.809 Y63.186 F1000
G0 Z3.0 ; Pen up

G0 X28.809 Y62.800 F3000 ; Travel to line 243
G0 Z0.0 ; Pen down
G1 X28.551 Y63.186 F1000
G1 X28.551 Y63.186 F1000
G1 X28.680 Y62.800 F1000
G1 X28.680 Y62.800 F1000
G1 X28.422 Y63.186 F1000
G0 Z3.0 ; Pen up

G0 X28.165 Y63.186 F3000 ; Travel to line 244
G0 Z0.0 ; Pen down
G1 X28.422 Y62.800 F1000
G1 X28.422 Y62.800 F1000
G1 X28.165 Y63.186 F1000
G0 Z3.0 ; Pen up

G0 X28.165 Y62.800 F3000 ; Travel to line 245
G0 Z0.0 ; Pen down
G1 X27.907 Y63.186 F1000
G1 X27.907 Y63.186 F1000
G1 X28.036 Y62.800 F1000
G0 Z3.0 ; Pen up

G0 X27.907 Y62.800 F3000 ; Travel to line 246
G0 Z0.0 ; Pen down
G1 X27.650 Y63.186 F1000
G0 Z3.0 ; Pen up

G0 X27.264 Y63.186 F3000 ; Travel to line 247
G0 Z0.0 ; Pen down
G1 X27.521 Y62.800 F1000
G0 Z3.0 ; Pen up

G0 X27.393 Y62.800 F3000 ; Travel to line 248
G0 Z0.0 ; Pen down
G1 X27.135 Y63.186 F1000
G0 Z3.0 ; Pen up

G0 X27.006 Y63.186 F3000 ; Travel to line 249
G0 Z0.0 ; Pen down
G1 X27.264 Y62.800 F1000
G0 Z3.0 ; Pen up

G0 X27.135 Y62.800 F3000 ; Travel to line 250
G0 Z0.0 ; Pen down
G1 X26.878 Y63.186 F1000
G0 Z3.0 ; Pen up

G0 X26.749 Y63.186 F3000 ; Travel to line 251
G0 Z0.0 ; Pen down
G1 X27.006 Y62.800 F1000
G0 Z3.0 ; Pen up

G0 X26.878 Y62.800 F3000 ; Travel to line 252
G0 Z0.0 ; Pen down
G1 X26.620 Y63.186 F1000
G0 Z3.0 ; Pen up

G0 X26.491 Y63.186 F3000 ; Travel to line 253
G0 Z0.0 ; Pen down
G1 X26.749 Y62.800 F1000
G0 Z3.0 ; Pen up

G0 X26.620 Y62.800 F3000 ; Travel to line 254
G0 Z0.0 ; Pen down
G1 X26.363 Y63.186 F1000
G0 Z3.0 ; Pen up

G0 X26.234 Y63.186 F3000 ; Travel to line 255
G0 Z0.0 ; Pen down
G1 X26.491 Y62.800 F1000
G0 Z3.0 ; Pen up

G0 X26.105 Y62.800 F3000 ; Travel to line 256
G0 Z0.0 ; Pen down
G1 X25.848 Y63.186 F1000
G0 Z3.0 ; Pen up

G0 X25.976 Y63.186 F3000 ; Travel to line 257
G0 Z0.0 ; Pen down
G1 X26.234 Y62.800 F1000
G1 X26.234 Y62.800 F1000
G1 X26.105 Y63.186 F1000
G0 Z3.0 ; Pen up

G0 X25.719 Y63.186 F3000 ; Travel to line 258
G0 Z0.0 ; Pen down
G1 X25.976 Y62.800 F1000
G0 Z3.0 ; Pen up

G0 X25.848 Y62.800 F3000 ; Travel to line 259
G0 Z0.0 ; Pen down
G1 X25.590 Y63.186 F1000
G0 Z3.0 ; Pen up

G0 X25.461 Y63.186 F3000 ; Travel to line 260
G0 Z0.0 ; Pen down
G1 X25.590 Y62.800 F1000
G1 X25.590 Y62.800 F1000
G1 X25.332 Y63.186 F1000
G0 Z3.0 ; Pen up

G0 X25.204 Y63.186 F3000 ; Travel to line 261
G0 Z0.0 ; Pen down
G1 X25.461 Y62.800 F1000
G0 Z3.0 ; Pen up

G0 X25.332 Y62.800 F3000 ; Travel to line 262
G0 Z0.0 ; Pen down
G1 X25.075 Y63.186 F1000
G0 Z3.0 ; Pen up

G0 X24.946 Y63.186 F3000 ; Travel to line 263
G0 Z0.0 ; Pen down
G1 X25.204 Y62.800 F1000
G0 Z3.0 ; Pen up

G0 X24.818 Y62.800 F3000 ; Travel to line 264
G0 Z0.0 ; Pen down
G1 X24.560 Y63.186 F1000
G0 Z3.0 ; Pen up

G0 X24.689 Y63.186 F3000 ; Travel to line 265
G0 Z0.0 ; Pen down
G1 X24.946 Y62.800 F1000
G1 X24.946 Y62.800 F1000
G1 X24.818 Y63.186 F1000
G0 Z3.0 ; Pen up

G0 X24.431 Y63.186 F3000 ; Travel to line 266
G0 Z0.0 ; Pen down
G1 X24.689 Y62.800 F1000
G0 Z3.0 ; Pen up

G0 X24.560 Y62.800 F3000 ; Travel to line 267
G0 Z0.0 ; Pen down
G1 X24.303 Y63.186 F1000
G0 Z3.0 ; Pen up

G0 X24.174 Y63.186 F3000 ; Travel to line 268
G0 Z0.0 ; Pen down
G1 X24.431 Y62.800 F1000
G0 Z3.0 ; Pen up

G0 X24.303 Y62.800 F3000 ; Travel to line 269
G0 Z0.0 ; Pen down
G1 X24.045 Y63.186 F1000
G0 Z3.0 ; Pen up

G0 X23.916 Y63.186 F3000 ; Travel to line 270
G0 Z0.0 ; Pen down
G1 X24.045 Y62.800 F1000
G1 X24.045 Y62.800 F1000
G1 X23.788 Y63.186 F1000
G0 Z3.0 ; Pen up

G0 X23.659 Y63.186 F3000 ; Travel to line 271
G0 Z0.0 ; Pen down
G1 X23.916 Y62.800 F1000
G0 Z3.0 ; Pen up

G0 X23.788 Y62.800 F3000 ; Travel to line 272
G0 Z0.0 ; Pen down
G1 X23.530 Y63.186 F1000
G0 Z3.0 ; Pen up

G0 X23.401 Y63.186 F3000 ; Travel to line 273
G0 Z0.0 ; Pen down
G1 X23.659 Y62.800 F1000
G0 Z3.0 ; Pen up

G0 X23.530 Y62.800 F3000 ; Travel to line 274
G0 Z0.0 ; Pen down
G1 X23.273 Y63.186 F1000
G0 Z3.0 ; Pen up

G0 X23.144 Y63.186 F3000 ; Travel to line 275
G0 Z0.0 ; Pen down
G1 X23.401 Y62.800 F1000
G0 Z3.0 ; Pen up

G0 X23.273 Y62.800 F3000 ; Travel to line 276
G0 Z0.0 ; Pen down
G1 X23.015 Y63.186 F1000
G0 Z3.0 ; Pen up

G0 X22.886 Y63.186 F3000 ; Travel to line 277
G0 Z0.0 ; Pen down
G1 X23.144 Y62.800 F1000
G0 Z3.0 ; Pen up

G0 X23.015 Y62.800 F3000 ; Travel to line 278
G0 Z0.0 ; Pen down
G1 X22.758 Y63.186 F1000
G0 Z3.0 ; Pen up

G0 X22.629 Y63.186 F3000 ; Travel to line 279
G0 Z0.0 ; Pen down
G1 X22.886 Y62.800 F1000
G0 Z3.0 ; Pen up

G0 X22.758 Y62.800 F3000 ; Travel to line 280
G0 Z0.0 ; Pen down
G1 X22.500 Y63.186 F1000
G0 Z3.0 ; Pen up

G0 X22.371 Y63.186 F3000 ; Travel to line 281
G0 Z0.0 ; Pen down
G1 X22.629 Y62.800 F1000
G0 Z3.0 ; Pen up

G0 X22.500 Y62.800 F3000 ; Travel to line 282
G0 Z0.0 ; Pen down
G1 X22.242 Y63.186 F1000
G1 X22.242 Y63.186 F1000
G1 X22.371 Y62.800 F1000
G0 Z3.0 ; Pen up

G0 X22.242 Y62.800 F3000 ; Travel to line 283
G0 Z0.0 ; Pen down
G1 X21.985 Y63.186 F1000
G1 X21.985 Y63.186 F1000
G1 X22.114 Y62.800 F1000
G0 Z3.0 ; Pen up

G0 X21.985 Y62.800 F3000 ; Travel to line 284
G0 Z0.0 ; Pen down
G1 X21.727 Y63.186 F1000
G1 X21.727 Y63.186 F1000
G1 X21.856 Y62.800 F1000
G1 X21.856 Y62.800 F1000
G1 X21.599 Y63.186 F1000
G0 Z3.0 ; Pen up

G0 X21.599 Y62.800 F3000 ; Travel to line 285
G0 Z0.0 ; Pen down
G1 X21.341 Y63.186 F1000
G1 X21.341 Y63.186 F1000
G1 X21.470 Y62.800 F1000
G0 Z3.0 ; Pen up

G0 X21.341 Y62.800 F3000 ; Travel to line 286
G0 Z0.0 ; Pen down
G1 X21.084 Y63.186 F1000
G1 X21.084 Y63.186 F1000
G1 X21.212 Y62.800 F1000
G1 X21.212 Y62.800 F1000
G1 X20.955 Y63.186 F1000
G0 Z3.0 ; Pen up

G0 X20.826 Y63.186 F3000 ; Travel to line 287
G0 Z0.0 ; Pen down
G1 X20.955 Y62.800 F1000
G1 X20.955 Y62.800 F1000
G1 X20.697 Y63.186 F1000
G0 Z3.0 ; Pen up

G0 X20.311 Y62.800 F3000 ; Travel to line 288
G0 Z0.0 ; Pen down
G1 X19.925 Y63.573 F1000
G0 Z3.0 ; Pen up

G0 X19.925 Y63.701 F3000 ; Travel to line 289
G0 Z0.0 ; Pen down
G1 X20.440 Y62.800 F1000
G1 X20.440 Y62.800 F1000
G1 X19.925 Y63.959 F1000
G0 Z3.0 ; Pen up

G0 X19.925 Y64.216 F3000 ; Travel to line 290
G0 Z0.0 ; Pen down
G1 X20.697 Y62.800 F1000
G1 X20.697 Y62.800 F1000
G1 X19.925 Y64.345 F1000
G0 Z3.0 ; Pen up

G0 X19.925 Y64.602 F3000 ; Travel to line 291
G0 Z0.0 ; Pen down
G1 X20.311 Y63.830 F1000
G0 Z3.0 ; Pen up

G0 X20.311 Y63.959 F3000 ; Travel to line 292
G0 Z0.0 ; Pen down
G1 X19.925 Y64.860 F1000
G0 Z3.0 ; Pen up

G0 X19.925 Y65.118 F3000 ; Travel to line 293
G0 Z0.0 ; Pen down
G1 X20.311 Y64.345 F1000
G0 Z3.0 ; Pen up

G0 X20.311 Y64.474 F3000 ; Travel to line 294
G0 Z0.0 ; Pen down
G1 X19.925 Y65.246 F1000
G0 Z3.0 ; Pen up

G0 X19.925 Y65.375 F3000 ; Travel to line 295
G0 Z0.0 ; Pen down
G1 X20.311 Y64.602 F1000
G0 Z3.0 ; Pen up

G0 X20.311 Y64.989 F3000 ; Travel to line 296
G0 Z0.0 ; Pen down
G1 X19.925 Y65.761 F1000
G0 Z3.0 ; Pen up

G0 X19.925 Y65.890 F3000 ; Travel to line 297
G0 Z0.0 ; Pen down
G1 X20.311 Y65.118 F1000
G0 Z3.0 ; Pen up

G0 X20.311 Y65.375 F3000 ; Travel to line 298
G0 Z0.0 ; Pen down
G1 X19.925 Y66.148 F1000
G0 Z3.0 ; Pen up

G0 X19.925 Y66.276 F3000 ; Travel to line 299
G0 Z0.0 ; Pen down
G1 X20.311 Y65.504 F1000
G0 Z3.0 ; Pen up

G0 X20.311 Y65.633 F3000 ; Travel to line 300
G0 Z0.0 ; Pen down
G1 X19.925 Y66.534 F1000
G0 Z3.0 ; Pen up

G0 X19.925 Y66.791 F3000 ; Travel to line 301
G0 Z0.0 ; Pen down
G1 X20.311 Y66.019 F1000
G0 Z3.0 ; Pen up

G0 X20.311 Y66.148 F3000 ; Travel to line 302
G0 Z0.0 ; Pen down
G1 X19.925 Y66.920 F1000
G0 Z3.0 ; Pen up

G0 X19.925 Y67.177 F3000 ; Travel to line 303
G0 Z0.0 ; Pen down
G1 X20.311 Y66.405 F1000
G0 Z3.0 ; Pen up

G0 X20.311 Y66.534 F3000 ; Travel to line 304
G0 Z0.0 ; Pen down
G1 X19.925 Y67.435 F1000
G0 Z3.0 ; Pen up

G0 X19.925 Y67.564 F3000 ; Travel to line 305
G0 Z0.0 ; Pen down
G1 X20.311 Y66.791 F1000
G0 Z3.0 ; Pen up

G0 X20.311 Y67.049 F3000 ; Travel to line 306
G0 Z0.0 ; Pen down
G1 X19.925 Y67.821 F1000
G0 Z3.0 ; Pen up

G0 X19.925 Y67.950 F3000 ; Travel to line 307
G0 Z0.0 ; Pen down
G1 X20.311 Y67.177 F1000
G0 Z3.0 ; Pen up

G0 X20.311 Y67.435 F3000 ; Travel to line 308
G0 Z0.0 ; Pen down
G1 X19.925 Y68.207 F1000
G0 Z3.0 ; Pen up

G0 X19.925 Y68.465 F3000 ; Travel to line 309
G0 Z0.0 ; Pen down
G1 X20.311 Y67.692 F1000
G0 Z3.0 ; Pen up

G0 X20.311 Y67.950 F3000 ; Travel to line 310
G0 Z0.0 ; Pen down
G1 X19.925 Y68.722 F1000
G0 Z3.0 ; Pen up

G0 X19.925 Y68.851 F3000 ; Travel to line 311
G0 Z0.0 ; Pen down
G1 X20.311 Y68.079 F1000
G0 Z3.0 ; Pen up

G0 X20.311 Y68.207 F3000 ; Travel to line 312
G0 Z0.0 ; Pen down
G1 X19.925 Y68.980 F1000
G0 Z3.0 ; Pen up

G0 X20.311 Y68.980 F3000 ; Travel to line 313
G0 Z0.0 ; Pen down
G1 X19.925 Y69.752 F1000
G0 Z3.0 ; Pen up

G0 X19.925 Y69.881 F3000 ; Travel to line 314
G0 Z0.0 ; Pen down
G1 X20.311 Y69.109 F1000
G0 Z3.0 ; Pen up

G0 X20.311 Y69.237 F3000 ; Travel to line 315
G0 Z0.0 ; Pen down
G1 X19.925 Y70.010 F1000
G0 Z3.0 ; Pen up

G0 X19.925 Y70.396 F3000 ; Travel to line 316
G0 Z0.0 ; Pen down
G1 X20.311 Y69.624 F1000
G0 Z3.0 ; Pen up

G0 X20.311 Y69.752 F3000 ; Travel to line 317
G0 Z0.0 ; Pen down
G1 X19.925 Y70.525 F1000
G1 X19.925 Y70.525 F1000
G1 X19.925 Y62.800 F1000
G1 X19.925 Y62.800 F1000
G1 X27.650 Y62.800 F1000
G1 X27.650 Y62.800 F1000
G1 X27.521 Y63.186 F1000
G1 X27.521 Y63.186 F1000
G1 X27.779 Y62.800 F1000
G0 Z3.0 ; Pen up

G0 X27.779 Y65.504 F3000 ; Travel to line 318
G0 Z0.0 ; Pen down
G1 X22.629 Y73.873 F1000
G0 Z3.0 ; Pen up

G0 X22.629 Y73.744 F3000 ; Travel to line 319
G0 Z0.0 ; Pen down
G1 X27.650 Y65.504 F1000
G0 Z3.0 ; Pen up

G0 X27.521 Y65.504 F3000 ; Travel to line 320
G0 Z0.0 ; Pen down
G1 X22.629 Y73.486 F1000
G0 Z3.0 ; Pen up

G0 X22.629 Y73.358 F3000 ; Travel to line 321
G0 Z0.0 ; Pen down
G1 X27.393 Y65.504 F1000
G0 Z3.0 ; Pen up

G0 X27.006 Y65.504 F3000 ; Travel to line 322
G0 Z0.0 ; Pen down
G1 X22.629 Y72.714 F1000
G0 Z3.0 ; Pen up

G0 X22.629 Y72.843 F3000 ; Travel to line 323
G0 Z0.0 ; Pen down
G1 X27.135 Y65.504 F1000
G1 X27.135 Y65.504 F1000
G1 X22.629 Y73.100 F1000
G0 Z3.0 ; Pen up

G0 X22.629 Y72.456 F3000 ; Travel to line 324
G0 Z0.0 ; Pen down
G1 X26.878 Y65.504 F1000
G0 Z3.0 ; Pen up

G0 X26.749 Y65.504 F3000 ; Travel to line 325
G0 Z0.0 ; Pen down
G1 X22.629 Y72.328 F1000
G0 Z3.0 ; Pen up

G0 X22.629 Y71.941 F3000 ; Travel to line 326
G0 Z0.0 ; Pen down
G1 X26.491 Y65.504 F1000
G1 X26.491 Y65.504 F1000
G1 X22.629 Y71.812 F1000
G0 Z3.0 ; Pen up

G0 X22.629 Y71.555 F3000 ; Travel to line 327
G0 Z0.0 ; Pen down
G1 X26.234 Y65.504 F1000
G0 Z3.0 ; Pen up

G0 X25.590 Y65.504 F3000 ; Travel to line 328
G0 Z0.0 ; Pen down
G1 X22.629 Y70.525 F1000
G0 Z3.0 ; Pen up

G0 X22.629 Y70.396 F3000 ; Travel to line 329
G0 Z0.0 ; Pen down
G1 X25.461 Y65.504 F1000
G1 X25.461 Y65.504 F1000
G1 X22.629 Y70.267 F1000
G0 Z3.0 ; Pen up

G0 X22.629 Y69.881 F3000 ; Travel to line 330
G0 Z0.0 ; Pen down
G1 X25.204 Y65.504 F1000
G1 X25.204 Y65.504 F1000
G1 X22.629 Y69.752 F1000
G0 Z3.0 ; Pen up

G0 X22.629 Y69.495 F3000 ; Travel to line 331
G0 Z0.0 ; Pen down
G1 X24.946 Y65.504 F1000
G0 Z3.0 ; Pen up

G0 X24.818 Y65.504 F3000 ; Travel to line 332
G0 Z0.0 ; Pen down
G1 X22.629 Y69.366 F1000
G0 Z3.0 ; Pen up

G0 X22.629 Y68.980 F3000 ; Travel to line 333
G0 Z0.0 ; Pen down
G1 X24.689 Y65.504 F1000
G0 Z3.0 ; Pen up

G0 X24.303 Y65.504 F3000 ; Travel to line 334
G0 Z0.0 ; Pen down
G1 X22.629 Y68.465 F1000
G0 Z3.0 ; Pen up

G0 X22.629 Y68.722 F3000 ; Travel to line 335
G0 Z0.0 ; Pen down
G1 X24.560 Y65.504 F1000
G1 X24.560 Y65.504 F1000
G1 X22.629 Y68.851 F1000
G0 Z3.0 ; Pen up

G0 X22.629 Y68.207 F3000 ; Travel to line 336
G0 Z0.0 ; Pen down
G1 X24.174 Y65.504 F1000
G0 Z3.0 ; Pen up

G0 X24.045 Y65.504 F3000 ; Travel to line 337
G0 Z0.0 ; Pen down
G1 X22.629 Y67.950 F1000
G0 Z3.0 ; Pen up

G0 X22.629 Y67.821 F3000 ; Travel to line 338
G0 Z0.0 ; Pen down
G1 X23.916 Y65.504 F1000
G1 X23.916 Y65.504 F1000
G1 X22.629 Y67.692 F1000
G0 Z3.0 ; Pen up

G0 X22.629 Y67.306 F3000 ; Travel to line 339
G0 Z0.0 ; Pen down
G1 X23.659 Y65.504 F1000
G1 X23.659 Y65.504 F1000
G1 X22.629 Y67.177 F1000
G0 Z3.0 ; Pen up

G0 X22.629 Y66.920 F3000 ; Travel to line 340
G0 Z0.0 ; Pen down
G1 X23.401 Y65.504 F1000
G0 Z3.0 ; Pen up

G0 X22.629 Y65.633 F3000 ; Travel to line 341
G0 Z0.0 ; Pen down
G1 X22.758 Y65.504 F1000
G1 X22.758 Y65.504 F1000
G1 X22.629 Y65.890 F1000
G0 Z3.0 ; Pen up

G0 X22.629 Y66.148 F3000 ; Travel to line 342
G0 Z0.0 ; Pen down
G1 X23.015 Y65.504 F1000
G1 X23.015 Y65.504 F1000
G1 X22.629 Y66.276 F1000
G0 Z3.0 ; Pen up

G0 X22.629 Y66.663 F3000 ; Travel to line 343
G0 Z0.0 ; Pen down
G1 X23.273 Y65.504 F1000
G1 X23.273 Y65.504 F1000
G1 X22.629 Y66.791 F1000
G0 Z3.0 ; Pen up

G0 X20.311 Y68.594 F3000 ; Travel to line 344
G0 Z0.0 ; Pen down
G1 X19.925 Y69.366 F1000
G0 Z3.0 ; Pen up

G0 X19.925 Y69.495 F3000 ; Travel to line 345
G0 Z0.0 ; Pen down
G1 X20.311 Y68.722 F1000
G0 Z3.0 ; Pen up

G0 X20.311 Y70.010 F3000 ; Travel to line 346
G0 Z0.0 ; Pen down
G1 X19.925 Y70.782 F1000
G0 Z3.0 ; Pen up

G0 X19.925 Y70.911 F3000 ; Travel to line 347
G0 Z0.0 ; Pen down
G1 X20.311 Y70.139 F1000
G0 Z3.0 ; Pen up

G0 X20.311 Y70.525 F3000 ; Travel to line 348
G0 Z0.0 ; Pen down
G1 X19.925 Y71.169 F1000
G0 Z3.0 ; Pen up

G0 X19.925 Y71.426 F3000 ; Travel to line 349
G0 Z0.0 ; Pen down
G1 X20.311 Y70.654 F1000
G0 Z3.0 ; Pen up

G0 X20.311 Y70.782 F3000 ; Travel to line 350
G0 Z0.0 ; Pen down
G1 X19.925 Y71.555 F1000
G0 Z3.0 ; Pen up

G0 X19.925 Y71.812 F3000 ; Travel to line 351
G0 Z0.0 ; Pen down
G1 X20.311 Y71.040 F1000
G0 Z3.0 ; Pen up

G0 X20.311 Y71.169 F3000 ; Travel to line 352
G0 Z0.0 ; Pen down
G1 X19.925 Y71.941 F1000
G0 Z3.0 ; Pen up

G0 X19.925 Y72.199 F3000 ; Travel to line 353
G0 Z0.0 ; Pen down
G1 X20.311 Y71.555 F1000
G0 Z3.0 ; Pen up

G0 X20.311 Y71.684 F3000 ; Travel to line 354
G0 Z0.0 ; Pen down
G1 X19.925 Y72.456 F1000
G0 Z3.0 ; Pen up

G0 X19.925 Y72.585 F3000 ; Travel to line 355
G0 Z0.0 ; Pen down
G1 X20.311 Y71.812 F1000
G0 Z3.0 ; Pen up

G0 X20.311 Y72.070 F3000 ; Travel to line 356
G0 Z0.0 ; Pen down
G1 X19.925 Y72.843 F1000
G0 Z3.0 ; Pen up

G0 X19.925 Y72.971 F3000 ; Travel to line 357
G0 Z0.0 ; Pen down
G1 X20.311 Y72.199 F1000
G0 Z3.0 ; Pen up

G0 X20.311 Y72.585 F3000 ; Travel to line 358
G0 Z0.0 ; Pen down
G1 X19.925 Y73.229 F1000
G0 Z3.0 ; Pen up

G0 X19.925 Y73.486 F3000 ; Travel to line 359
G0 Z0.0 ; Pen down
G1 X20.311 Y72.714 F1000
G0 Z3.0 ; Pen up

G0 X20.311 Y72.843 F3000 ; Travel to line 360
G0 Z0.0 ; Pen down
G1 X19.925 Y73.615 F1000
G0 Z3.0 ; Pen up

G0 X19.925 Y73.873 F3000 ; Travel to line 361
G0 Z0.0 ; Pen down
G1 X20.311 Y73.100 F1000
G0 Z3.0 ; Pen up

G0 X20.311 Y73.229 F3000 ; Travel to line 362
G0 Z0.0 ; Pen down
G1 X19.925 Y74.001 F1000
G0 Z3.0 ; Pen up

G0 X19.925 Y74.259 F3000 ; Travel to line 363
G0 Z0.0 ; Pen down
G1 X20.311 Y73.615 F1000
G0 Z3.0 ; Pen up

G0 X20.311 Y73.744 F3000 ; Travel to line 364
G0 Z0.0 ; Pen down
G1 X19.925 Y74.388 F1000
G0 Z3.0 ; Pen up

G0 X19.925 Y74.774 F3000 ; Travel to line 365
G0 Z0.0 ; Pen down
G1 X20.311 Y74.001 F1000
G0 Z3.0 ; Pen up

G0 X20.311 Y74.130 F3000 ; Travel to line 366
G0 Z0.0 ; Pen down
G1 X19.925 Y74.903 F1000
G0 Z3.0 ; Pen up

G0 X19.925 Y75.031 F3000 ; Travel to line 367
G0 Z0.0 ; Pen down
G1 X20.311 Y74.259 F1000
G0 Z3.0 ; Pen up

G0 X20.311 Y74.645 F3000 ; Travel to line 368
G0 Z0.0 ; Pen down
G1 X19.925 Y75.289 F1000
G0 Z3.0 ; Pen up

G0 X19.925 Y75.418 F3000 ; Travel to line 369
G0 Z0.0 ; Pen down
G1 X20.311 Y74.774 F1000
G0 Z3.0 ; Pen up

G0 X20.311 Y75.031 F3000 ; Travel to line 370
G0 Z0.0 ; Pen down
G1 X19.925 Y75.804 F1000
G0 Z3.0 ; Pen up

G0 X19.925 Y75.933 F3000 ; Travel to line 371
G0 Z0.0 ; Pen down
G1 X20.311 Y75.160 F1000
G0 Z3.0 ; Pen up

G0 X20.311 Y75.289 F3000 ; Travel to line 372
G0 Z0.0 ; Pen down
G1 X19.925 Y76.061 F1000
G0 Z3.0 ; Pen up

G0 X19.925 Y76.319 F3000 ; Travel to line 373
G0 Z0.0 ; Pen down
G1 X20.311 Y75.546 F1000
G0 Z3.0 ; Pen up

G0 X20.311 Y75.804 F3000 ; Travel to line 374
G0 Z0.0 ; Pen down
G1 X19.925 Y76.448 F1000
G0 Z3.0 ; Pen up

G0 X19.925 Y76.705 F3000 ; Travel to line 375
G0 Z0.0 ; Pen down
G1 X20.311 Y76.061 F1000
G0 Z3.0 ; Pen up

G0 X20.311 Y76.190 F3000 ; Travel to line 376
G0 Z0.0 ; Pen down
G1 X19.925 Y76.963 F1000
G0 Z3.0 ; Pen up

G0 X19.925 Y77.220 F3000 ; Travel to line 377
G0 Z0.0 ; Pen down
G1 X20.311 Y76.448 F1000
G0 Z3.0 ; Pen up

G0 X20.311 Y76.576 F3000 ; Travel to line 378
G0 Z0.0 ; Pen down
G1 X19.925 Y77.349 F1000
G0 Z3.0 ; Pen up

G0 X19.925 Y77.478 F3000 ; Travel to line 379
G0 Z0.0 ; Pen down
G1 X20.311 Y76.705 F1000
G0 Z3.0 ; Pen up

G0 X20.311 Y77.091 F3000 ; Travel to line 380
G0 Z0.0 ; Pen down
G1 X19.925 Y77.735 F1000
G0 Z3.0 ; Pen up

G0 X19.925 Y77.864 F3000 ; Travel to line 381
G0 Z0.0 ; Pen down
G1 X20.311 Y77.220 F1000
G0 Z3.0 ; Pen up

G0 X20.311 Y77.478 F3000 ; Travel to line 382
G0 Z0.0 ; Pen down
G1 X19.925 Y78.250 F1000
G0 Z3.0 ; Pen up

G0 X19.925 Y78.379 F3000 ; Travel to line 383
G0 Z0.0 ; Pen down
G1 X20.311 Y77.606 F1000
G0 Z3.0 ; Pen up

G0 X20.311 Y77.735 F3000 ; Travel to line 384
G0 Z0.0 ; Pen down
G1 X19.925 Y78.508 F1000
G0 Z3.0 ; Pen up

G0 X19.925 Y78.765 F3000 ; Travel to line 385
G0 Z0.0 ; Pen down
G1 X20.311 Y77.993 F1000
G0 Z3.0 ; Pen up

G0 X20.311 Y78.250 F3000 ; Travel to line 386
G0 Z0.0 ; Pen down
G1 X19.925 Y78.894 F1000
G0 Z3.0 ; Pen up

G0 X19.925 Y79.151 F3000 ; Travel to line 387
G0 Z0.0 ; Pen down
G1 X20.311 Y78.508 F1000
G0 Z3.0 ; Pen up

G0 X20.311 Y78.636 F3000 ; Travel to line 388
G0 Z0.0 ; Pen down
G1 X19.925 Y79.280 F1000
G0 Z3.0 ; Pen up

G0 X19.925 Y79.666 F3000 ; Travel to line 389
G0 Z0.0 ; Pen down
G1 X20.311 Y78.894 F1000
G0 Z3.0 ; Pen up

G0 X20.311 Y79.023 F3000 ; Travel to line 390
G0 Z0.0 ; Pen down
G1 X19.925 Y79.795 F1000
G0 Z3.0 ; Pen up

G0 X19.925 Y79.924 F3000 ; Travel to line 391
G0 Z0.0 ; Pen down
G1 X20.311 Y79.151 F1000
G0 Z3.0 ; Pen up

G0 X20.311 Y79.538 F3000 ; Travel to line 392
G0 Z0.0 ; Pen down
G1 X19.925 Y80.181 F1000
G0 Z3.0 ; Pen up

G0 X19.925 Y80.310 F3000 ; Travel to line 393
G0 Z0.0 ; Pen down
G1 X20.311 Y79.666 F1000
G0 Z3.0 ; Pen up

G0 X20.311 Y79.924 F3000 ; Travel to line 394
G0 Z0.0 ; Pen down
G1 X19.925 Y80.567 F1000
G0 Z3.0 ; Pen up

G0 X19.925 Y80.825 F3000 ; Travel to line 395
G0 Z0.0 ; Pen down
G1 X20.311 Y80.053 F1000
G0 Z3.0 ; Pen up

G0 X20.311 Y80.181 F3000 ; Travel to line 396
G0 Z0.0 ; Pen down
G1 X19.925 Y80.954 F1000
G0 Z3.0 ; Pen up

G0 X19.925 Y81.211 F3000 ; Travel to line 397
G0 Z0.0 ; Pen down
G1 X20.311 Y80.439 F1000
G0 Z3.0 ; Pen up

G0 X20.311 Y80.696 F3000 ; Travel to line 398
G0 Z0.0 ; Pen down
G1 X19.925 Y81.340 F1000
G0 Z3.0 ; Pen up

G0 X19.925 Y81.597 F3000 ; Travel to line 399
G0 Z0.0 ; Pen down
G1 X20.311 Y80.954 F1000
G0 Z3.0 ; Pen up

G0 X20.311 Y81.082 F3000 ; Travel to line 400
G0 Z0.0 ; Pen down
G1 X19.925 Y81.726 F1000
G0 Z3.0 ; Pen up

G0 X19.925 Y81.855 F3000 ; Travel to line 401
G0 Z0.0 ; Pen down
G1 X20.311 Y81.211 F1000
G0 Z3.0 ; Pen up

G0 X20.311 Y81.469 F3000 ; Travel to line 402
G0 Z0.0 ; Pen down
G1 X19.925 Y82.241 F1000
G0 Z3.0 ; Pen up

G0 X19.925 Y82.370 F3000 ; Travel to line 403
G0 Z0.0 ; Pen down
G1 X20.311 Y81.597 F1000
G0 Z3.0 ; Pen up

G0 X20.311 Y81.855 F3000 ; Travel to line 404
G0 Z0.0 ; Pen down
G1 X19.925 Y82.627 F1000
G0 Z3.0 ; Pen up

G0 X19.925 Y82.756 F3000 ; Travel to line 405
G0 Z0.0 ; Pen down
G1 X20.311 Y82.112 F1000
G0 Z3.0 ; Pen up

G0 X20.311 Y82.370 F3000 ; Travel to line 406
G0 Z0.0 ; Pen down
G1 X19.925 Y83.014 F1000
G0 Z3.0 ; Pen up

G0 X19.925 Y83.142 F3000 ; Travel to line 407
G0 Z0.0 ; Pen down
G1 X20.311 Y82.499 F1000
G0 Z3.0 ; Pen up

G0 X20.311 Y82.627 F3000 ; Travel to line 408
G0 Z0.0 ; Pen down
G1 X19.925 Y83.271 F1000
G0 Z3.0 ; Pen up

G0 X19.925 Y83.657 F3000 ; Travel to line 409
G0 Z0.0 ; Pen down
G1 X20.311 Y82.885 F1000
G0 Z3.0 ; Pen up

G0 X20.311 Y83.014 F3000 ; Travel to line 410
G0 Z0.0 ; Pen down
G1 X19.925 Y83.786 F1000
G0 Z3.0 ; Pen up

G0 X19.925 Y84.044 F3000 ; Travel to line 411
G0 Z0.0 ; Pen down
G1 X20.311 Y83.271 F1000
G0 Z3.0 ; Pen up

G0 X20.311 Y83.529 F3000 ; Travel to line 412
G0 Z0.0 ; Pen down
G1 X19.925 Y84.172 F1000
G0 Z3.0 ; Pen up

G0 X19.925 Y84.301 F3000 ; Travel to line 413
G0 Z0.0 ; Pen down
G1 X20.311 Y83.657 F1000
G0 Z3.0 ; Pen up

G0 X20.311 Y83.915 F3000 ; Travel to line 414
G0 Z0.0 ; Pen down
G1 X19.925 Y84.559 F1000
G0 Z3.0 ; Pen up

G0 X19.925 Y84.688 F3000 ; Travel to line 415
G0 Z0.0 ; Pen down
G1 X20.311 Y84.044 F1000
G0 Z3.0 ; Pen up

G0 X20.311 Y84.301 F3000 ; Travel to line 416
G0 Z0.0 ; Pen down
G1 X19.925 Y84.945 F1000
G0 Z3.0 ; Pen up

G0 X19.925 Y85.203 F3000 ; Travel to line 417
G0 Z0.0 ; Pen down
G1 X20.311 Y84.559 F1000
G0 Z3.0 ; Pen up

G0 X20.311 Y84.816 F3000 ; Travel to line 418
G0 Z0.0 ; Pen down
G1 X19.925 Y85.460 F1000
G0 Z3.0 ; Pen up

G0 X19.925 Y85.718 F3000 ; Travel to line 419
G0 Z0.0 ; Pen down
G1 X20.311 Y84.945 F1000
G0 Z3.0 ; Pen up

G0 X20.311 Y85.203 F3000 ; Travel to line 420
G0 Z0.0 ; Pen down
G1 X19.925 Y85.846 F1000
G0 Z3.0 ; Pen up

G0 X19.925 Y85.975 F3000 ; Travel to line 421
G0 Z0.0 ; Pen down
G1 X19.925 Y93.700 F1000
G1 X19.925 Y93.700 F1000
G1 X20.440 Y93.185 F1000
G0 Z3.0 ; Pen up

G0 X20.311 Y93.185 F3000 ; Travel to line 422
G0 Z0.0 ; Pen down
G1 X19.925 Y93.571 F1000
G1 X19.925 Y93.571 F1000
G1 X20.311 Y93.185 F1000
G1 X20.311 Y93.185 F1000
G1 X19.925 Y93.571 F1000
G0 Z3.0 ; Pen up

G0 X19.925 Y93.700 F3000 ; Travel to line 423
G0 Z0.0 ; Pen down
G1 X20.440 Y93.185 F1000
G1 X20.440 Y93.185 F1000
G1 X19.925 Y93.700 F1000
G1 X19.925 Y93.700 F1000
G1 X27.650 Y93.700 F1000
G1 X27.650 Y93.700 F1000
G1 X28.294 Y93.314 F1000
G0 Z3.0 ; Pen up

G0 X28.551 Y93.314 F3000 ; Travel to line 424
G0 Z0.0 ; Pen down
G1 X27.779 Y93.700 F1000
G0 Z3.0 ; Pen up

G0 X27.393 Y93.700 F3000 ; Travel to line 425
G0 Z0.0 ; Pen down
G1 X28.036 Y93.314 F1000
G0 Z3.0 ; Pen up

G0 X27.779 Y93.314 F3000 ; Travel to line 426
G0 Z0.0 ; Pen down
G1 X27.135 Y93.700 F1000
G0 Z3.0 ; Pen up

G0 X26.878 Y93.700 F3000 ; Travel to line 427
G0 Z0.0 ; Pen down
G1 X27.521 Y93.314 F1000
G0 Z3.0 ; Pen up

G0 X27.393 Y93.314 F3000 ; Travel to line 428
G0 Z0.0 ; Pen down
G1 X26.620 Y93.700 F1000
G0 Z3.0 ; Pen up

G0 X26.491 Y93.700 F3000 ; Travel to line 429
G0 Z0.0 ; Pen down
G1 X27.135 Y93.314 F1000
G0 Z3.0 ; Pen up

G0 X26.878 Y93.314 F3000 ; Travel to line 430
G0 Z0.0 ; Pen down
G1 X26.234 Y93.700 F1000
G0 Z3.0 ; Pen up

G0 X25.976 Y93.700 F3000 ; Travel to line 431
G0 Z0.0 ; Pen down
G1 X26.749 Y93.314 F1000
G0 Z3.0 ; Pen up

G0 X26.363 Y93.314 F3000 ; Travel to line 432
G0 Z0.0 ; Pen down
G1 X25.719 Y93.700 F1000
G0 Z3.0 ; Pen up

G0 X25.590 Y93.700 F3000 ; Travel to line 433
G0 Z0.0 ; Pen down
G1 X26.234 Y93.314 F1000
G0 Z3.0 ; Pen up

G0 X26.105 Y93.314 F3000 ; Travel to line 434
G0 Z0.0 ; Pen down
G1 X25.461 Y93.700 F1000
G0 Z3.0 ; Pen up

G0 X25.075 Y93.700 F3000 ; Travel to line 435
G0 Z0.0 ; Pen down
G1 X25.719 Y93.314 F1000
G1 X25.719 Y93.314 F1000
G1 X25.075 Y93.700 F1000
G0 Z3.0 ; Pen up

G0 X24.818 Y93.700 F3000 ; Travel to line 436
G0 Z0.0 ; Pen down
G1 X25.461 Y93.314 F1000
G1 X25.461 Y93.314 F1000
G1 X24.946 Y93.700 F1000
G1 X24.946 Y93.700 F1000
G1 X25.590 Y93.314 F1000
G0 Z3.0 ; Pen up

G0 X24.818 Y93.314 F3000 ; Travel to line 437
G0 Z0.0 ; Pen down
G1 X24.174 Y93.700 F1000
G1 X24.174 Y93.700 F1000
G1 X24.689 Y93.314 F1000
G0 Z3.0 ; Pen up

G0 X24.560 Y93.314 F3000 ; Travel to line 438
G0 Z0.0 ; Pen down
G1 X23.916 Y93.700 F1000
G1 X23.916 Y93.700 F1000
G1 X24.431 Y93.314 F1000
G1 X24.431 Y93.314 F1000
G1 X23.788 Y93.700 F1000
G1 X23.788 Y93.700 F1000
G1 X24.303 Y93.314 F1000
G1 X24.303 Y93.314 F1000
G1 X23.659 Y93.700 F1000
G1 X23.659 Y93.700 F1000
G1 X24.174 Y93.314 F1000
G1 X24.174 Y93.314 F1000
G1 X23.530 Y93.700 F1000
G1 X23.530 Y93.700 F1000
G1 X24.045 Y93.314 F1000
G1 X24.045 Y93.314 F1000
G1 X23.401 Y93.700 F1000
G1 X23.401 Y93.700 F1000
G1 X23.916 Y93.314 F1000
G1 X23.916 Y93.314 F1000
G1 X23.273 Y93.700 F1000
G1 X23.273 Y93.700 F1000
G1 X23.788 Y93.314 F1000
G1 X23.788 Y93.314 F1000
G1 X23.273 Y93.700 F1000
G0 Z3.0 ; Pen up

G0 X23.144 Y93.700 F3000 ; Travel to line 439
G0 Z0.0 ; Pen down
G1 X23.659 Y93.314 F1000
G1 X23.659 Y93.314 F1000
G1 X23.144 Y93.700 F1000
G0 Z3.0 ; Pen up

G0 X23.015 Y93.700 F3000 ; Travel to line 440
G0 Z0.0 ; Pen down
G1 X23.530 Y93.314 F1000
G1 X23.530 Y93.314 F1000
G1 X23.015 Y93.700 F1000
G0 Z3.0 ; Pen up

G0 X22.886 Y93.700 F3000 ; Travel to line 441
G0 Z0.0 ; Pen down
G1 X23.401 Y93.314 F1000
G1 X23.401 Y93.314 F1000
G1 X22.886 Y93.700 F1000
G0 Z3.0 ; Pen up

G0 X22.758 Y93.700 F3000 ; Travel to line 442
G0 Z0.0 ; Pen down
G1 X23.273 Y93.314 F1000
G1 X23.273 Y93.314 F1000
G1 X22.758 Y93.700 F1000
G0 Z3.0 ; Pen up

G0 X22.629 Y93.700 F3000 ; Travel to line 443
G0 Z0.0 ; Pen down
G1 X23.144 Y93.314 F1000
G1 X23.144 Y93.314 F1000
G1 X22.629 Y93.700 F1000
G1 X22.629 Y93.700 F1000
G1 X23.144 Y93.314 F1000
G0 Z3.0 ; Pen up

G0 X22.500 Y93.700 F3000 ; Travel to line 444
G0 Z0.0 ; Pen down
G1 X23.015 Y93.314 F1000
G1 X23.015 Y93.314 F1000
G1 X22.500 Y93.700 F1000
G0 Z3.0 ; Pen up

G0 X22.371 Y93.700 F3000 ; Travel to line 445
G0 Z0.0 ; Pen down
G1 X22.886 Y93.314 F1000
G1 X22.886 Y93.314 F1000
G1 X22.371 Y93.700 F1000
G0 Z3.0 ; Pen up

G0 X22.242 Y93.700 F3000 ; Travel to line 446
G0 Z0.0 ; Pen down
G1 X22.758 Y93.314 F1000
G1 X22.758 Y93.314 F1000
G1 X22.242 Y93.700 F1000
G0 Z3.0 ; Pen up

G0 X22.114 Y93.700 F3000 ; Travel to line 447
G0 Z0.0 ; Pen down
G1 X22.629 Y93.314 F1000
G1 X22.629 Y93.314 F1000
G1 X22.114 Y93.700 F1000
G1 X22.114 Y93.700 F1000
G1 X22.500 Y93.314 F1000
G1 X22.500 Y93.314 F1000
G1 X21.985 Y93.700 F1000
G1 X21.985 Y93.700 F1000
G1 X22.371 Y93.314 F1000
G1 X22.371 Y93.314 F1000
G1 X21.856 Y93.700 F1000
G0 Z3.0 ; Pen up

G0 X21.599 Y93.700 F3000 ; Travel to line 448
G0 Z0.0 ; Pen down
G1 X22.114 Y93.314 F1000
G1 X22.114 Y93.314 F1000
G1 X21.599 Y93.700 F1000
G0 Z3.0 ; Pen up

G0 X21.470 Y93.700 F3000 ; Travel to line 449
G0 Z0.0 ; Pen down
G1 X21.985 Y93.314 F1000
G1 X21.985 Y93.314 F1000
G1 X21.470 Y93.700 F1000
G1 X21.470 Y93.700 F1000
G1 X21.856 Y93.314 F1000
G1 X21.856 Y93.314 F1000
G1 X21.341 Y93.700 F1000
G1 X21.341 Y93.700 F1000
G1 X21.727 Y93.314 F1000
G1 X21.727 Y93.314 F1000
G1 X21.212 Y93.700 F1000
G0 Z3.0 ; Pen up

G0 X21.084 Y93.700 F3000 ; Travel to line 450
G0 Z0.0 ; Pen down
G1 X21.470 Y93.314 F1000
G1 X21.470 Y93.314 F1000
G1 X20.955 Y93.700 F1000
G1 X20.955 Y93.700 F1000
G1 X21.341 Y93.314 F1000
G1 X21.341 Y93.314 F1000
G1 X20.826 Y93.700 F1000
G1 X20.826 Y93.700 F1000
G1 X21.212 Y93.314 F1000
G1 X21.212 Y93.314 F1000
G1 X20.826 Y93.700 F1000
G0 Z3.0 ; Pen up

G0 X20.697 Y93.700 F3000 ; Travel to line 451
G0 Z0.0 ; Pen down
G1 X21.084 Y93.314 F1000
G1 X21.084 Y93.314 F1000
G1 X20.697 Y93.700 F1000
G0 Z3.0 ; Pen up

G0 X20.569 Y93.700 F3000 ; Travel to line 452
G0 Z0.0 ; Pen down
G1 X20.955 Y93.314 F1000
G1 X20.955 Y93.314 F1000
G1 X20.440 Y93.700 F1000
G1 X20.440 Y93.700 F1000
G1 X20.826 Y93.314 F1000
G1 X20.826 Y93.314 F1000
G1 X20.440 Y93.700 F1000
G0 Z3.0 ; Pen up

G0 X20.311 Y93.700 F3000 ; Travel to line 453
G0 Z0.0 ; Pen down
G1 X20.697 Y93.314 F1000
G1 X20.697 Y93.314 F1000
G1 X20.311 Y93.700 F1000
G1 X20.311 Y93.700 F1000
G1 X20.697 Y93.314 F1000
G0 Z3.0 ; Pen up

G0 X20.569 Y93.314 F3000 ; Travel to line 454
G0 Z0.0 ; Pen down
G1 X20.054 Y93.700 F1000
G1 X20.054 Y93.700 F1000
G1 X20.440 Y93.314 F1000
G1 X20.440 Y93.314 F1000
G1 X20.054 Y93.700 F1000
G0 Z3.0 ; Pen up

G0 X20.183 Y93.700 F3000 ; Travel to line 455
G0 Z0.0 ; Pen down
G1 X20.569 Y93.314 F1000
G1 X20.569 Y93.314 F1000
G1 X20.183 Y93.700 F1000
G0 Z3.0 ; Pen up

G0 X19.925 Y93.442 F3000 ; Travel to line 456
G0 Z0.0 ; Pen down
G1 X20.311 Y93.056 F1000
G1 X20.311 Y93.056 F1000
G1 X19.925 Y93.442 F1000
G1 X19.925 Y93.442 F1000
G1 X20.311 Y93.056 F1000
G0 Z3.0 ; Pen up

G0 X19.925 Y93.056 F3000 ; Travel to line 457
G0 Z0.0 ; Pen down
G1 X20.311 Y92.670 F1000
G1 X20.311 Y92.670 F1000
G1 X19.925 Y93.185 F1000
G1 X19.925 Y93.185 F1000
G1 X20.311 Y92.799 F1000
G1 X20.311 Y92.799 F1000
G1 X19.925 Y93.185 F1000
G0 Z3.0 ; Pen up

G0 X19.925 Y93.314 F3000 ; Travel to line 458
G0 Z0.0 ; Pen down
G1 X20.311 Y92.928 F1000
G1 X20.311 Y92.928 F1000
G1 X19.925 Y93.314 F1000
G0 Z3.0 ; Pen up

G0 X19.925 Y92.928 F3000 ; Travel to line 459
G0 Z0.0 ; Pen down
G1 X20.311 Y92.541 F1000
G1 X20.311 Y92.541 F1000
G1 X19.925 Y92.928 F1000
G1 X19.925 Y92.928 F1000
G1 X20.311 Y92.413 F1000
G1 X20.311 Y92.413 F1000
G1 X19.925 Y92.799 F1000
G1 X19.925 Y92.799 F1000
G1 X20.311 Y92.284 F1000
G1 X20.311 Y92.284 F1000
G1 X19.925 Y92.670 F1000
G0 Z3.0 ; Pen up

G0 X19.925 Y92.413 F3000 ; Travel to line 460
G0 Z0.0 ; Pen down
G1 X20.311 Y92.026 F1000
G1 X20.311 Y92.026 F1000
G1 X19.925 Y92.413 F1000
G1 X19.925 Y92.413 F1000
G1 X20.311 Y91.898 F1000
G1 X20.311 Y91.898 F1000
G1 X19.925 Y92.284 F1000
G1 X19.925 Y92.284 F1000
G1 X20.311 Y91.769 F1000
G1 X20.311 Y91.769 F1000
G1 X19.925 Y92.284 F1000
G0 Z3.0 ; Pen up

G0 X19.925 Y92.155 F3000 ; Travel to line 461
G0 Z0.0 ; Pen down
G1 X20.311 Y91.640 F1000
G1 X20.311 Y91.640 F1000
G1 X19.925 Y92.155 F1000
G0 Z3.0 ; Pen up

G0 X19.925 Y92.026 F3000 ; Travel to line 462
G0 Z0.0 ; Pen down
G1 X20.311 Y91.511 F1000
G1 X20.311 Y91.511 F1000
G1 X19.925 Y92.026 F1000
G1 X19.925 Y92.026 F1000
G1 X20.311 Y91.640 F1000
G0 Z3.0 ; Pen up

G0 X19.925 Y91.640 F3000 ; Travel to line 463
G0 Z0.0 ; Pen down
G1 X20.311 Y91.125 F1000
G1 X20.311 Y91.125 F1000
G1 X19.925 Y91.640 F1000
G1 X19.925 Y91.640 F1000
G1 X20.311 Y91.254 F1000
G0 Z3.0 ; Pen up

G0 X20.311 Y90.868 F3000 ; Travel to line 464
G0 Z0.0 ; Pen down
G1 X19.925 Y91.254 F1000
G1 X19.925 Y91.254 F1000
G1 X20.311 Y90.739 F1000
G1 X20.311 Y90.739 F1000
G1 X19.925 Y91.254 F1000
G0 Z3.0 ; Pen up

G0 X19.925 Y91.125 F3000 ; Travel to line 465
G0 Z0.0 ; Pen down
G1 X20.311 Y90.610 F1000
G1 X20.311 Y90.610 F1000
G1 X19.925 Y91.125 F1000
G0 Z3.0 ; Pen up

G0 X19.925 Y90.996 F3000 ; Travel to line 466
G0 Z0.0 ; Pen down
G1 X20.311 Y90.481 F1000
G1 X20.311 Y90.481 F1000
G1 X19.925 Y90.996 F1000
G0 Z3.0 ; Pen up

G0 X19.925 Y90.868 F3000 ; Travel to line 467
G0 Z0.0 ; Pen down
G1 X20.311 Y90.353 F1000
G1 X20.311 Y90.353 F1000
G1 X19.925 Y90.868 F1000
G0 Z3.0 ; Pen up

G0 X19.925 Y90.739 F3000 ; Travel to line 468
G0 Z0.0 ; Pen down
G1 X20.311 Y90.224 F1000
G1 X20.311 Y90.224 F1000
G1 X19.925 Y90.739 F1000
G1 X19.925 Y90.739 F1000
G1 X20.311 Y90.095 F1000
G1 X20.311 Y90.095 F1000
G1 X19.925 Y90.610 F1000
G1 X19.925 Y90.610 F1000
G1 X20.311 Y89.966 F1000
G1 X20.311 Y89.966 F1000
G1 X19.925 Y90.481 F1000
G1 X19.925 Y90.481 F1000
G1 X20.311 Y89.838 F1000
G1 X20.311 Y89.838 F1000
G1 X19.925 Y90.353 F1000
G1 X19.925 Y90.353 F1000
G1 X20.311 Y89.709 F1000
G1 X20.311 Y89.709 F1000
G1 X19.925 Y90.224 F1000
G1 X19.925 Y90.224 F1000
G1 X20.311 Y89.580 F1000
G1 X20.311 Y89.580 F1000
G1 X19.925 Y90.095 F1000
G1 X19.925 Y90.095 F1000
G1 X20.311 Y89.451 F1000
G1 X20.311 Y89.451 F1000
G1 X19.925 Y89.966 F1000
G1 X19.925 Y89.966 F1000
G1 X20.311 Y89.323 F1000
G1 X20.311 Y89.323 F1000
G1 X19.925 Y89.838 F1000
G1 X19.925 Y89.838 F1000
G1 X20.311 Y89.194 F1000
G1 X20.311 Y89.194 F1000
G1 X19.925 Y89.709 F1000
G1 X19.925 Y89.709 F1000
G1 X20.311 Y89.065 F1000
G1 X20.311 Y89.065 F1000
G1 X19.925 Y89.580 F1000
G1 X19.925 Y89.580 F1000
G1 X20.311 Y88.936 F1000
G1 X20.311 Y88.936 F1000
G1 X19.925 Y89.451 F1000
G1 X19.925 Y89.451 F1000
G1 X20.311 Y88.808 F1000
G1 X20.311 Y88.808 F1000
G1 X19.925 Y89.323 F1000
G1 X19.925 Y89.323 F1000
G1 X20.311 Y88.679 F1000
G0 Z3.0 ; Pen up

G0 X20.311 Y88.550 F3000 ; Travel to line 469
G0 Z0.0 ; Pen down
G1 X19.925 Y89.065 F1000
G1 X19.925 Y89.065 F1000
G1 X20.311 Y88.421 F1000
G0 Z3.0 ; Pen up

G0 X19.925 Y88.421 F3000 ; Travel to line 470
G0 Z0.0 ; Pen down
G1 X20.311 Y87.778 F1000
G0 Z3.0 ; Pen up

G0 X20.311 Y87.906 F3000 ; Travel to line 471
G0 Z0.0 ; Pen down
G1 X19.925 Y88.550 F1000
G0 Z3.0 ; Pen up

G0 X19.925 Y88.679 F3000 ; Travel to line 472
G0 Z0.0 ; Pen down
G1 X20.311 Y88.035 F1000
G1 X20.311 Y88.035 F1000
G1 X19.925 Y88.679 F1000
G0 Z3.0 ; Pen up

G0 X19.925 Y88.808 F3000 ; Travel to line 473
G0 Z0.0 ; Pen down
G1 X20.311 Y88.164 F1000
G1 X20.311 Y88.164 F1000
G1 X19.925 Y88.808 F1000
G0 Z3.0 ; Pen up

G0 X19.925 Y88.936 F3000 ; Travel to line 474
G0 Z0.0 ; Pen down
G1 X20.311 Y88.293 F1000
G1 X20.311 Y88.293 F1000
G1 X19.925 Y88.936 F1000
G0 Z3.0 ; Pen up

G0 X19.925 Y89.194 F3000 ; Travel to line 475
G0 Z0.0 ; Pen down
G1 X20.311 Y88.550 F1000
G1 X20.311 Y88.550 F1000
G1 X19.925 Y89.194 F1000
G0 Z3.0 ; Pen up

G0 X19.925 Y88.035 F3000 ; Travel to line 476
G0 Z0.0 ; Pen down
G1 X20.311 Y87.391 F1000
G0 Z3.0 ; Pen up

G0 X20.311 Y87.263 F3000 ; Travel to line 477
G0 Z0.0 ; Pen down
G1 X19.925 Y87.906 F1000
G0 Z3.0 ; Pen up

G0 X19.925 Y87.778 F3000 ; Travel to line 478
G0 Z0.0 ; Pen down
G1 X20.311 Y87.134 F1000
G0 Z3.0 ; Pen up

G0 X20.311 Y86.748 F3000 ; Travel to line 479
G0 Z0.0 ; Pen down
G1 X19.925 Y87.391 F1000
G0 Z3.0 ; Pen up

G0 X19.925 Y87.263 F3000 ; Travel to line 480
G0 Z0.0 ; Pen down
G1 X20.311 Y86.619 F1000
G0 Z3.0 ; Pen up

G0 X19.925 Y86.619 F3000 ; Travel to line 481
G0 Z0.0 ; Pen down
G1 X20.311 Y85.975 F1000
G0 Z3.0 ; Pen up

G0 X20.311 Y86.104 F3000 ; Travel to line 482
G0 Z0.0 ; Pen down
G1 X19.925 Y86.748 F1000
G0 Z3.0 ; Pen up

G0 X19.925 Y87.005 F3000 ; Travel to line 483
G0 Z0.0 ; Pen down
G1 X20.311 Y86.233 F1000
G0 Z3.0 ; Pen up

G0 X19.925 Y86.361 F3000 ; Travel to line 484
G0 Z0.0 ; Pen down
G1 X20.311 Y85.589 F1000
G0 Z3.0 ; Pen up

G0 X20.311 Y85.460 F3000 ; Travel to line 485
G0 Z0.0 ; Pen down
G1 X19.925 Y86.104 F1000
G0 Z3.0 ; Pen up

G0 X22.629 Y86.104 F3000 ; Travel to line 486
G0 Z0.0 ; Pen down
G1 X37.564 Y65.504 F1000
G0 Z3.0 ; Pen up

G0 X37.692 Y65.504 F3000 ; Travel to line 487
G0 Z0.0 ; Pen down
G1 X22.629 Y86.233 F1000
G1 X22.629 Y86.233 F1000
G1 X37.821 Y65.504 F1000
G0 Z3.0 ; Pen up

G0 X37.950 Y65.504 F3000 ; Travel to line 488
G0 Z0.0 ; Pen down
G1 X22.629 Y86.361 F1000
G1 X22.629 Y86.361 F1000
G1 X38.079 Y65.504 F1000
G0 Z3.0 ; Pen up

G0 X38.207 Y65.504 F3000 ; Travel to line 489
G0 Z0.0 ; Pen down
G1 X22.629 Y86.490 F1000
G0 Z3.0 ; Pen up

G0 X22.629 Y86.876 F3000 ; Travel to line 490
G0 Z0.0 ; Pen down
G1 X38.851 Y65.504 F1000
G0 Z3.0 ; Pen up

G0 X38.980 Y65.504 F3000 ; Travel to line 491
G0 Z0.0 ; Pen down
G1 X22.629 Y87.005 F1000
G1 X22.629 Y87.005 F1000
G1 X39.109 Y65.504 F1000
G0 Z3.0 ; Pen up

G0 X39.237 Y65.504 F3000 ; Travel to line 492
G0 Z0.0 ; Pen down
G1 X22.629 Y87.134 F1000
G1 X22.629 Y87.134 F1000
G1 X39.366 Y65.504 F1000
G0 Z3.0 ; Pen up

G0 X39.495 Y65.504 F3000 ; Travel to line 493
G0 Z0.0 ; Pen down
G1 X22.629 Y87.263 F1000
G1 X22.629 Y87.263 F1000
G1 X39.624 Y65.504 F1000
G0 Z3.0 ; Pen up

G0 X39.752 Y65.504 F3000 ; Travel to line 494
G0 Z0.0 ; Pen down
G1 X22.629 Y87.391 F1000
G0 Z3.0 ; Pen up

G0 X22.629 Y87.906 F3000 ; Travel to line 495
G0 Z0.0 ; Pen down
G1 X40.654 Y65.504 F1000
G0 Z3.0 ; Pen up

G0 X40.782 Y65.504 F3000 ; Travel to line 496
G0 Z0.0 ; Pen down
G1 X22.629 Y88.035 F1000
G1 X22.629 Y88.035 F1000
G1 X41.040 Y65.504 F1000
G1 X41.040 Y65.504 F1000
G1 X22.629 Y88.164 F1000
G1 X22.629 Y88.164 F1000
G1 X41.297 Y65.504 F1000
G0 Z3.0 ; Pen up

G0 X41.426 Y65.504 F3000 ; Travel to line 497
G0 Z0.0 ; Pen down
G1 X22.629 Y88.293 F1000
G1 X22.629 Y88.293 F1000
G1 X41.555 Y65.504 F1000
G0 Z3.0 ; Pen up

G0 X41.684 Y65.504 F3000 ; Travel to line 498
G0 Z0.0 ; Pen down
G1 X22.629 Y88.421 F1000
G1 X22.629 Y88.421 F1000
G1 X41.812 Y65.504 F1000
G0 Z3.0 ; Pen up

G0 X41.941 Y65.504 F3000 ; Travel to line 499
G0 Z0.0 ; Pen down
G1 X22.629 Y88.550 F1000
G1 X22.629 Y88.550 F1000
G1 X42.070 Y65.504 F1000
G0 Z3.0 ; Pen up

G0 X42.199 Y65.504 F3000 ; Travel to line 500
G0 Z0.0 ; Pen down
G1 X22.629 Y88.679 F1000
G1 X22.629 Y88.679 F1000
G1 X42.328 Y65.504 F1000
G0 Z3.0 ; Pen up

G0 X42.585 Y65.504 F3000 ; Travel to line 501
G0 Z0.0 ; Pen down
G1 X22.629 Y88.808 F1000
G0 Z3.0 ; Pen up

G0 X22.629 Y88.936 F3000 ; Travel to line 502
G0 Z0.0 ; Pen down
G1 X42.714 Y65.504 F1000
G0 Z3.0 ; Pen up

G0 X42.843 Y65.504 F3000 ; Travel to line 503
G0 Z0.0 ; Pen down
G1 X22.629 Y88.936 F1000
G1 X22.629 Y88.936 F1000
G1 X42.971 Y65.504 F1000
G0 Z3.0 ; Pen up

G0 X43.100 Y65.504 F3000 ; Travel to line 504
G0 Z0.0 ; Pen down
G1 X22.629 Y89.065 F1000
G1 X22.629 Y89.065 F1000
G1 X43.229 Y65.504 F1000
G0 Z3.0 ; Pen up

G0 X43.358 Y65.504 F3000 ; Travel to line 505
G0 Z0.0 ; Pen down
G1 X22.629 Y89.194 F1000
G1 X22.629 Y89.194 F1000
G1 X43.486 Y65.504 F1000
G0 Z3.0 ; Pen up

G0 X43.744 Y65.504 F3000 ; Travel to line 506
G0 Z0.0 ; Pen down
G1 X22.629 Y89.323 F1000
G1 X22.629 Y89.323 F1000
G1 X43.873 Y65.504 F1000
G0 Z3.0 ; Pen up

G0 X44.001 Y65.504 F3000 ; Travel to line 507
G0 Z0.0 ; Pen down
G1 X22.629 Y89.451 F1000
G1 X22.629 Y89.451 F1000
G1 X44.130 Y65.504 F1000
G0 Z3.0 ; Pen up

G0 X44.259 Y65.504 F3000 ; Travel to line 508
G0 Z0.0 ; Pen down
G1 X22.629 Y89.580 F1000
G1 X22.629 Y89.580 F1000
G1 X44.388 Y65.504 F1000
G0 Z3.0 ; Pen up

G0 X44.645 Y65.504 F3000 ; Travel to line 509
G0 Z0.0 ; Pen down
G1 X22.629 Y89.709 F1000
G1 X22.629 Y89.709 F1000
G1 X44.774 Y65.504 F1000
G0 Z3.0 ; Pen up

G0 X44.903 Y65.504 F3000 ; Travel to line 510
G0 Z0.0 ; Pen down
G1 X22.629 Y89.838 F1000
G1 X22.629 Y89.838 F1000
G1 X45.031 Y65.504 F1000
G0 Z3.0 ; Pen up

G0 X45.289 Y65.504 F3000 ; Travel to line 511
G0 Z0.0 ; Pen down
G1 X22.629 Y89.966 F1000
G1 X22.629 Y89.966 F1000
G1 X45.418 Y65.504 F1000
G0 Z3.0 ; Pen up

G0 X45.546 Y65.504 F3000 ; Travel to line 512
G0 Z0.0 ; Pen down
G1 X22.629 Y90.095 F1000
G1 X22.629 Y90.095 F1000
G1 X45.675 Y65.504 F1000
G0 Z3.0 ; Pen up

G0 X45.804 Y65.504 F3000 ; Travel to line 513
G0 Z0.0 ; Pen down
G1 X22.629 Y90.224 F1000
G1 X22.629 Y90.224 F1000
G1 X46.061 Y65.504 F1000
G0 Z3.0 ; Pen up

G0 X46.190 Y65.504 F3000 ; Travel to line 514
G0 Z0.0 ; Pen down
G1 X22.629 Y90.353 F1000
G1 X22.629 Y90.353 F1000
G1 X46.319 Y65.504 F1000
G0 Z3.0 ; Pen up

G0 X46.447 Y65.504 F3000 ; Travel to line 515
G0 Z0.0 ; Pen down
G1 X22.629 Y90.481 F1000
G1 X22.629 Y90.481 F1000
G1 X46.705 Y65.504 F1000
G0 Z3.0 ; Pen up

G0 X46.834 Y65.504 F3000 ; Travel to line 516
G0 Z0.0 ; Pen down
G1 X22.629 Y90.610 F1000
G0 Z3.0 ; Pen up

G0 X22.629 Y90.996 F3000 ; Travel to line 517
G0 Z0.0 ; Pen down
G1 X47.992 Y65.504 F1000
G0 Z3.0 ; Pen up

G0 X47.864 Y65.504 F3000 ; Travel to line 518
G0 Z0.0 ; Pen down
G1 X22.629 Y90.868 F1000
G1 X22.629 Y90.868 F1000
G1 X47.606 Y65.504 F1000
G0 Z3.0 ; Pen up

G0 X47.477 Y65.504 F3000 ; Travel to line 519
G0 Z0.0 ; Pen down
G1 X22.629 Y90.739 F1000
G1 X22.629 Y90.739 F1000
G1 X47.349 Y65.504 F1000
G0 Z3.0 ; Pen up

G0 X47.220 Y65.504 F3000 ; Travel to line 520
G0 Z0.0 ; Pen down
G1 X22.629 Y90.610 F1000
G1 X22.629 Y90.610 F1000
G1 X46.962 Y65.504 F1000
G0 Z3.0 ; Pen up

G0 X48.121 Y65.504 F3000 ; Travel to line 521
G0 Z0.0 ; Pen down
G1 X22.629 Y90.996 F1000
G1 X22.629 Y90.996 F1000
G1 X48.250 Y65.504 F1000
G0 Z3.0 ; Pen up

G0 X48.508 Y65.504 F3000 ; Travel to line 522
G0 Z0.0 ; Pen down
G1 X22.758 Y90.996 F1000
G1 X22.758 Y90.996 F1000
G1 X48.636 Y65.504 F1000
G0 Z3.0 ; Pen up

G0 X48.894 Y65.504 F3000 ; Travel to line 523
G0 Z0.0 ; Pen down
G1 X22.886 Y90.996 F1000
G1 X22.886 Y90.996 F1000
G1 X49.023 Y65.504 F1000
G0 Z3.0 ; Pen up

G0 X49.151 Y65.504 F3000 ; Travel to line 524
G0 Z0.0 ; Pen down
G1 X23.015 Y90.996 F1000
G1 X23.015 Y90.996 F1000
G1 X49.280 Y65.504 F1000
G0 Z3.0 ; Pen up

G0 X49.538 Y65.504 F3000 ; Travel to line 525
G0 Z0.0 ; Pen down
G1 X23.144 Y90.996 F1000
G1 X23.144 Y90.996 F1000
G1 X49.666 Y65.504 F1000
G0 Z3.0 ; Pen up

G0 X49.924 Y65.504 F3000 ; Travel to line 526
G0 Z0.0 ; Pen down
G1 X23.273 Y90.996 F1000
G0 Z3.0 ; Pen up

G0 X25.332 Y90.996 F3000 ; Travel to line 527
G0 Z0.0 ; Pen down
G1 X56.104 Y65.504 F1000
G0 Z3.0 ; Pen up

G0 X55.975 Y65.504 F3000 ; Travel to line 528
G0 Z0.0 ; Pen down
G1 X25.204 Y90.996 F1000
G1 X25.204 Y90.996 F1000
G1 X55.718 Y65.504 F1000
G0 Z3.0 ; Pen up

G0 X55.589 Y65.504 F3000 ; Travel to line 529
G0 Z0.0 ; Pen down
G1 X25.075 Y90.996 F1000
G1 X25.075 Y90.996 F1000
G1 X55.331 Y65.504 F1000
G0 Z3.0 ; Pen up

G0 X55.203 Y65.504 F3000 ; Travel to line 530
G0 Z0.0 ; Pen down
G1 X24.946 Y90.996 F1000
G1 X24.946 Y90.996 F1000
G1 X54.945 Y65.504 F1000
G0 Z3.0 ; Pen up

G0 X54.688 Y65.504 F3000 ; Travel to line 531
G0 Z0.0 ; Pen down
G1 X24.818 Y90.996 F1000
G1 X24.818 Y90.996 F1000
G1 X54.559 Y65.504 F1000
G0 Z3.0 ; Pen up

G0 X54.430 Y65.504 F3000 ; Travel to line 532
G0 Z0.0 ; Pen down
G1 X24.689 Y90.996 F1000
G1 X24.689 Y90.996 F1000
G1 X54.172 Y65.504 F1000
G0 Z3.0 ; Pen up

G0 X53.915 Y65.504 F3000 ; Travel to line 533
G0 Z0.0 ; Pen down
G1 X24.560 Y90.996 F1000
G1 X24.560 Y90.996 F1000
G1 X53.786 Y65.504 F1000
G0 Z3.0 ; Pen up

G0 X53.529 Y65.504 F3000 ; Travel to line 534
G0 Z0.0 ; Pen down
G1 X24.431 Y90.996 F1000
G1 X24.431 Y90.996 F1000
G1 X53.400 Y65.504 F1000
G0 Z3.0 ; Pen up

G0 X53.271 Y65.504 F3000 ; Travel to line 535
G0 Z0.0 ; Pen down
G1 X24.303 Y90.996 F1000
G1 X24.303 Y90.996 F1000
G1 X53.014 Y65.504 F1000
G0 Z3.0 ; Pen up

G0 X52.756 Y65.504 F3000 ; Travel to line 536
G0 Z0.0 ; Pen down
G1 X24.174 Y90.996 F1000
G1 X24.174 Y90.996 F1000
G1 X52.627 Y65.504 F1000
G0 Z3.0 ; Pen up

G0 X52.370 Y65.504 F3000 ; Travel to line 537
G0 Z0.0 ; Pen down
G1 X24.045 Y90.996 F1000
G1 X24.045 Y90.996 F1000
G1 X52.241 Y65.504 F1000
G0 Z3.0 ; Pen up

G0 X52.113 Y65.504 F3000 ; Travel to line 538
G0 Z0.0 ; Pen down
G1 X23.916 Y90.996 F1000
G1 X23.916 Y90.996 F1000
G1 X51.855 Y65.504 F1000
G0 Z3.0 ; Pen up

G0 X51.726 Y65.504 F3000 ; Travel to line 539
G0 Z0.0 ; Pen down
G1 X23.788 Y90.996 F1000
G1 X23.788 Y90.996 F1000
G1 X51.469 Y65.504 F1000
G0 Z3.0 ; Pen up

G0 X51.340 Y65.504 F3000 ; Travel to line 540
G0 Z0.0 ; Pen down
G1 X23.659 Y90.996 F1000
G1 X23.659 Y90.996 F1000
G1 X51.083 Y65.504 F1000
G0 Z3.0 ; Pen up

G0 X50.954 Y65.504 F3000 ; Travel to line 541
G0 Z0.0 ; Pen down
G1 X23.530 Y90.996 F1000
G1 X23.530 Y90.996 F1000
G1 X50.825 Y65.504 F1000
G0 Z3.0 ; Pen up

G0 X50.568 Y65.504 F3000 ; Travel to line 542
G0 Z0.0 ; Pen down
G1 X23.401 Y90.996 F1000
G1 X23.401 Y90.996 F1000
G1 X50.439 Y65.504 F1000
G0 Z3.0 ; Pen up

G0 X50.181 Y65.504 F3000 ; Travel to line 543
G0 Z0.0 ; Pen down
G1 X23.273 Y90.996 F1000
G1 X23.273 Y90.996 F1000
G1 X50.053 Y65.504 F1000
G0 Z3.0 ; Pen up

G0 X54.430 Y63.186 F3000 ; Travel to line 544
G0 Z0.0 ; Pen down
G1 X54.816 Y62.800 F1000
G0 Z3.0 ; Pen up

G0 X55.074 Y62.800 F3000 ; Travel to line 545
G0 Z0.0 ; Pen down
G1 X54.559 Y63.186 F1000
G0 Z3.0 ; Pen up

G0 X54.816 Y63.186 F3000 ; Travel to line 546
G0 Z0.0 ; Pen down
G1 X55.331 Y62.800 F1000
G0 Z3.0 ; Pen up

G0 X55.460 Y62.800 F3000 ; Travel to line 547
G0 Z0.0 ; Pen down
G1 X54.945 Y63.186 F1000
G0 Z3.0 ; Pen up

G0 X55.203 Y63.186 F3000 ; Travel to line 548
G0 Z0.0 ; Pen down
G1 X55.589 Y62.800 F1000
G0 Z3.0 ; Pen up

G0 X55.846 Y62.800 F3000 ; Travel to line 549
G0 Z0.0 ; Pen down
G1 X55.331 Y63.186 F1000
G0 Z3.0 ; Pen up

G0 X55.589 Y63.186 F3000 ; Travel to line 550
G0 Z0.0 ; Pen down
G1 X56.104 Y62.800 F1000
G0 Z3.0 ; Pen up

G0 X56.233 Y62.800 F3000 ; Travel to line 551
G0 Z0.0 ; Pen down
G1 X55.846 Y63.186 F1000
G0 Z3.0 ; Pen up

G0 X55.975 Y63.186 F3000 ; Travel to line 552
G0 Z0.0 ; Pen down
G1 X56.361 Y62.800 F1000
G0 Z3.0 ; Pen up

G0 X56.619 Y62.800 F3000 ; Travel to line 553
G0 Z0.0 ; Pen down
G1 X56.233 Y63.186 F1000
G0 Z3.0 ; Pen up

G0 X56.361 Y63.186 F3000 ; Travel to line 554
G0 Z0.0 ; Pen down
G1 X56.876 Y62.800 F1000
G0 Z3.0 ; Pen up

G0 X57.134 Y62.800 F3000 ; Travel to line 555
G0 Z0.0 ; Pen down
G1 X56.619 Y63.186 F1000
G0 Z3.0 ; Pen up

G0 X56.876 Y63.186 F3000 ; Travel to line 556
G0 Z0.0 ; Pen down
G1 X57.263 Y62.800 F1000
G0 Z3.0 ; Pen up

G0 X57.520 Y62.800 F3000 ; Travel to line 557
G0 Z0.0 ; Pen down
G1 X57.005 Y63.186 F1000
G0 Z3.0 ; Pen up

G0 X57.263 Y63.186 F3000 ; Travel to line 558
G0 Z0.0 ; Pen down
G1 X57.778 Y62.800 F1000
G0 Z3.0 ; Pen up

G0 X57.906 Y62.800 F3000 ; Travel to line 559
G0 Z0.0 ; Pen down
G1 X57.391 Y63.186 F1000
G0 Z3.0 ; Pen up

G0 X57.649 Y63.186 F3000 ; Travel to line 560
G0 Z0.0 ; Pen down
G1 X58.164 Y62.800 F1000
G0 Z3.0 ; Pen up

G0 X58.293 Y62.800 F3000 ; Travel to line 561
G0 Z0.0 ; Pen down
G1 X57.906 Y63.186 F1000
G0 Z3.0 ; Pen up

G0 X58.035 Y63.186 F3000 ; Travel to line 562
G0 Z0.0 ; Pen down
G1 X58.550 Y62.800 F1000
G0 Z3.0 ; Pen up

G0 X58.808 Y62.800 F3000 ; Travel to line 563
G0 Z0.0 ; Pen down
G1 X58.293 Y63.186 F1000
G0 Z3.0 ; Pen up

G0 X58.421 Y63.186 F3000 ; Travel to line 564
G0 Z0.0 ; Pen down
G1 X58.936 Y62.800 F1000
G0 Z3.0 ; Pen up

G0 X59.194 Y62.800 F3000 ; Travel to line 565
G0 Z0.0 ; Pen down
G1 X58.679 Y63.186 F1000
G0 Z3.0 ; Pen up

G0 X58.936 Y63.186 F3000 ; Travel to line 566
G0 Z0.0 ; Pen down
G1 X59.451 Y62.800 F1000
G0 Z3.0 ; Pen up

G0 X59.709 Y62.800 F3000 ; Travel to line 567
G0 Z0.0 ; Pen down
G1 X59.194 Y63.186 F1000
G0 Z3.0 ; Pen up

G0 X59.451 Y63.186 F3000 ; Travel to line 568
G0 Z0.0 ; Pen down
G1 X59.837 Y62.800 F1000
G0 Z3.0 ; Pen up

G0 X60.095 Y62.800 F3000 ; Travel to line 569
G0 Z0.0 ; Pen down
G1 X59.580 Y63.186 F1000
G0 Z3.0 ; Pen up

G0 X59.837 Y63.186 F3000 ; Travel to line 570
G0 Z0.0 ; Pen down
G1 X60.224 Y62.800 F1000
G0 Z3.0 ; Pen up

G0 X60.481 Y62.800 F3000 ; Travel to line 571
G0 Z0.0 ; Pen down
G1 X59.966 Y63.186 F1000
G0 Z3.0 ; Pen up

G0 X60.224 Y63.186 F3000 ; Travel to line 572
G0 Z0.0 ; Pen down
G1 X60.739 Y62.800 F1000
G0 Z3.0 ; Pen up

G0 X60.996 Y62.800 F3000 ; Travel to line 573
G0 Z0.0 ; Pen down
G1 X60.481 Y63.186 F1000
G0 Z3.0 ; Pen up

G0 X60.739 Y63.186 F3000 ; Travel to line 574
G0 Z0.0 ; Pen down
G1 X61.254 Y62.800 F1000
G0 Z3.0 ; Pen up

G0 X61.511 Y62.800 F3000 ; Travel to line 575
G0 Z0.0 ; Pen down
G1 X60.996 Y63.186 F1000
G0 Z3.0 ; Pen up

G0 X61.125 Y63.186 F3000 ; Travel to line 576
G0 Z0.0 ; Pen down
G1 X61.640 Y62.800 F1000
G0 Z3.0 ; Pen up

G0 X61.898 Y62.800 F3000 ; Travel to line 577
G0 Z0.0 ; Pen down
G1 X61.383 Y63.186 F1000
G0 Z3.0 ; Pen up

G0 X61.640 Y63.186 F3000 ; Travel to line 578
G0 Z0.0 ; Pen down
G1 X62.155 Y62.800 F1000
G0 Z3.0 ; Pen up

G0 X62.413 Y62.800 F3000 ; Travel to line 579
G0 Z0.0 ; Pen down
G1 X61.898 Y63.186 F1000
G0 Z3.0 ; Pen up

G0 X62.155 Y63.186 F3000 ; Travel to line 580
G0 Z0.0 ; Pen down
G1 X62.670 Y62.800 F1000
G0 Z3.0 ; Pen up

G0 X62.799 Y62.800 F3000 ; Travel to line 581
G0 Z0.0 ; Pen down
G1 X62.284 Y63.186 F1000
G0 Z3.0 ; Pen up

G0 X62.541 Y63.186 F3000 ; Travel to line 582
G0 Z0.0 ; Pen down
G1 X63.056 Y62.800 F1000
G0 Z3.0 ; Pen up

G0 X63.314 Y62.800 F3000 ; Travel to line 583
G0 Z0.0 ; Pen down
G1 X62.799 Y63.186 F1000
G0 Z3.0 ; Pen up

G0 X63.056 Y63.186 F3000 ; Travel to line 584
G0 Z0.0 ; Pen down
G1 X63.571 Y62.800 F1000
G0 Z3.0 ; Pen up

G0 X63.700 Y62.929 F3000 ; Travel to line 585
G0 Z0.0 ; Pen down
G1 X63.185 Y63.315 F1000
G0 Z3.0 ; Pen up

G0 X63.314 Y63.315 F3000 ; Travel to line 586
G0 Z0.0 ; Pen down
G1 X63.700 Y63.058 F1000
G0 Z3.0 ; Pen up

G0 X63.700 Y63.315 F3000 ; Travel to line 587
G0 Z0.0 ; Pen down
G1 X63.314 Y63.573 F1000
G0 Z3.0 ; Pen up

G0 X63.314 Y63.701 F3000 ; Travel to line 588
G0 Z0.0 ; Pen down
G1 X63.700 Y63.444 F1000
G0 Z3.0 ; Pen up

G0 X63.700 Y63.573 F3000 ; Travel to line 589
G0 Z0.0 ; Pen down
G1 X63.314 Y63.830 F1000
G0 Z3.0 ; Pen up

G0 X63.314 Y64.088 F3000 ; Travel to line 590
G0 Z0.0 ; Pen down
G1 X63.700 Y63.830 F1000
G0 Z3.0 ; Pen up

G0 X63.700 Y63.959 F3000 ; Travel to line 591
G0 Z0.0 ; Pen down
G1 X63.314 Y64.216 F1000
G0 Z3.0 ; Pen up

G0 X63.314 Y64.474 F3000 ; Travel to line 592
G0 Z0.0 ; Pen down
G1 X63.700 Y64.216 F1000
G0 Z3.0 ; Pen up

G0 X63.700 Y64.345 F3000 ; Travel to line 593
G0 Z0.0 ; Pen down
G1 X63.314 Y64.602 F1000
G0 Z3.0 ; Pen up

G0 X63.314 Y64.731 F3000 ; Travel to line 594
G0 Z0.0 ; Pen down
G1 X63.700 Y64.474 F1000
G0 Z3.0 ; Pen up

G0 X63.700 Y64.731 F3000 ; Travel to line 595
G0 Z0.0 ; Pen down
G1 X63.314 Y64.989 F1000
G0 Z3.0 ; Pen up

G0 X63.314 Y65.118 F3000 ; Travel to line 596
G0 Z0.0 ; Pen down
G1 X63.700 Y64.860 F1000
G0 Z3.0 ; Pen up

G0 X63.700 Y64.989 F3000 ; Travel to line 597
G0 Z0.0 ; Pen down
G1 X63.314 Y65.375 F1000
G0 Z3.0 ; Pen up

G0 X63.314 Y65.504 F3000 ; Travel to line 598
G0 Z0.0 ; Pen down
G1 X63.700 Y65.118 F1000
G0 Z3.0 ; Pen up

G0 X63.700 Y65.375 F3000 ; Travel to line 599
G0 Z0.0 ; Pen down
G1 X63.314 Y65.633 F1000
G0 Z3.0 ; Pen up

G0 X63.314 Y65.761 F3000 ; Travel to line 600
G0 Z0.0 ; Pen down
G1 X63.700 Y65.504 F1000
G0 Z3.0 ; Pen up

G0 X63.700 Y65.761 F3000 ; Travel to line 601
G0 Z0.0 ; Pen down
G1 X63.314 Y66.019 F1000
G0 Z3.0 ; Pen up

G0 X63.314 Y66.148 F3000 ; Travel to line 602
G0 Z0.0 ; Pen down
G1 X63.700 Y65.890 F1000
G0 Z3.0 ; Pen up

G0 X63.700 Y66.019 F3000 ; Travel to line 603
G0 Z0.0 ; Pen down
G1 X63.314 Y66.405 F1000
G0 Z3.0 ; Pen up

G0 X63.314 Y66.534 F3000 ; Travel to line 604
G0 Z0.0 ; Pen down
G1 X63.700 Y66.276 F1000
G0 Z3.0 ; Pen up

G0 X63.700 Y66.405 F3000 ; Travel to line 605
G0 Z0.0 ; Pen down
G1 X63.314 Y66.663 F1000
G0 Z3.0 ; Pen up

G0 X63.314 Y66.791 F3000 ; Travel to line 606
G0 Z0.0 ; Pen down
G1 X63.700 Y66.534 F1000
G0 Z3.0 ; Pen up

G0 X63.700 Y66.791 F3000 ; Travel to line 607
G0 Z0.0 ; Pen down
G1 X63.314 Y67.049 F1000
G0 Z3.0 ; Pen up

G0 X63.314 Y67.177 F3000 ; Travel to line 608
G0 Z0.0 ; Pen down
G1 X63.700 Y66.920 F1000
G0 Z3.0 ; Pen up

G0 X63.700 Y67.049 F3000 ; Travel to line 609
G0 Z0.0 ; Pen down
G1 X63.314 Y67.306 F1000
G0 Z3.0 ; Pen up

G0 X63.314 Y67.435 F3000 ; Travel to line 610
G0 Z0.0 ; Pen down
G1 X63.700 Y67.177 F1000
G0 Z3.0 ; Pen up

G0 X63.700 Y67.435 F3000 ; Travel to line 611
G0 Z0.0 ; Pen down
G1 X63.314 Y67.692 F1000
G0 Z3.0 ; Pen up

G0 X63.314 Y67.821 F3000 ; Travel to line 612
G0 Z0.0 ; Pen down
G1 X63.700 Y67.564 F1000
G0 Z3.0 ; Pen up

G0 X63.700 Y67.692 F3000 ; Travel to line 613
G0 Z0.0 ; Pen down
G1 X63.314 Y67.950 F1000
G0 Z3.0 ; Pen up

G0 X63.314 Y68.207 F3000 ; Travel to line 614
G0 Z0.0 ; Pen down
G1 X63.700 Y67.950 F1000
G0 Z3.0 ; Pen up

G0 X63.700 Y68.079 F3000 ; Travel to line 615
G0 Z0.0 ; Pen down
G1 X63.314 Y68.336 F1000
G0 Z3.0 ; Pen up

G0 X63.314 Y68.594 F3000 ; Travel to line 616
G0 Z0.0 ; Pen down
G1 X63.700 Y68.336 F1000
G0 Z3.0 ; Pen up

G0 X63.700 Y68.465 F3000 ; Travel to line 617
G0 Z0.0 ; Pen down
G1 X63.314 Y68.722 F1000
G0 Z3.0 ; Pen up

G0 X63.314 Y68.980 F3000 ; Travel to line 618
G0 Z0.0 ; Pen down
G1 X63.700 Y68.722 F1000
G0 Z3.0 ; Pen up

G0 X63.700 Y68.980 F3000 ; Travel to line 619
G0 Z0.0 ; Pen down
G1 X63.314 Y69.237 F1000
G0 Z3.0 ; Pen up

G0 X63.314 Y69.366 F3000 ; Travel to line 620
G0 Z0.0 ; Pen down
G1 X63.700 Y69.109 F1000
G0 Z3.0 ; Pen up

G0 X63.700 Y69.366 F3000 ; Travel to line 621
G0 Z0.0 ; Pen down
G1 X63.314 Y69.624 F1000
G0 Z3.0 ; Pen up

G0 X63.314 Y69.881 F3000 ; Travel to line 622
G0 Z0.0 ; Pen down
G1 X63.700 Y69.624 F1000
G0 Z3.0 ; Pen up

G0 X63.700 Y69.752 F3000 ; Travel to line 623
G0 Z0.0 ; Pen down
G1 X63.314 Y70.010 F1000
G0 Z3.0 ; Pen up

G0 X63.314 Y70.267 F3000 ; Travel to line 624
G0 Z0.0 ; Pen down
G1 X63.700 Y70.010 F1000
G0 Z3.0 ; Pen up

G0 X63.700 Y70.267 F3000 ; Travel to line 625
G0 Z0.0 ; Pen down
G1 X63.314 Y70.525 F1000
G0 Z3.0 ; Pen up

G0 X63.314 Y70.782 F3000 ; Travel to line 626
G0 Z0.0 ; Pen down
G1 X63.700 Y70.525 F1000
G0 Z3.0 ; Pen up

G0 X63.700 Y70.654 F3000 ; Travel to line 627
G0 Z0.0 ; Pen down
G1 X63.314 Y70.911 F1000
G0 Z3.0 ; Pen up

G0 X63.314 Y71.169 F3000 ; Travel to line 628
G0 Z0.0 ; Pen down
G1 X63.700 Y70.911 F1000
G0 Z3.0 ; Pen up

G0 X63.700 Y71.040 F3000 ; Travel to line 629
G0 Z0.0 ; Pen down
G1 X63.314 Y71.297 F1000
G0 Z3.0 ; Pen up

G0 X63.314 Y71.555 F3000 ; Travel to line 630
G0 Z0.0 ; Pen down
G1 X63.700 Y71.297 F1000
G0 Z3.0 ; Pen up

G0 X63.700 Y71.555 F3000 ; Travel to line 631
G0 Z0.0 ; Pen down
G1 X63.314 Y71.812 F1000
G0 Z3.0 ; Pen up

G0 X63.314 Y71.941 F3000 ; Travel to line 632
G0 Z0.0 ; Pen down
G1 X63.700 Y71.684 F1000
G0 Z3.0 ; Pen up

G0 X63.700 Y71.941 F3000 ; Travel to line 633
G0 Z0.0 ; Pen down
G1 X63.314 Y72.199 F1000
G0 Z3.0 ; Pen up

G0 X63.314 Y72.328 F3000 ; Travel to line 634
G0 Z0.0 ; Pen down
G1 X63.700 Y72.070 F1000
G0 Z3.0 ; Pen up

G0 X63.700 Y72.328 F3000 ; Travel to line 635
G0 Z0.0 ; Pen down
G1 X63.314 Y72.585 F1000
G0 Z3.0 ; Pen up

G0 X63.314 Y72.843 F3000 ; Travel to line 636
G0 Z0.0 ; Pen down
G1 X63.700 Y72.585 F1000
G0 Z3.0 ; Pen up

G0 X63.700 Y72.714 F3000 ; Travel to line 637
G0 Z0.0 ; Pen down
G1 X63.314 Y72.971 F1000
G0 Z3.0 ; Pen up

G0 X63.314 Y73.229 F3000 ; Travel to line 638
G0 Z0.0 ; Pen down
G1 X63.700 Y72.971 F1000
G0 Z3.0 ; Pen up

G0 X63.700 Y73.100 F3000 ; Travel to line 639
G0 Z0.0 ; Pen down
G1 X63.314 Y73.358 F1000
G0 Z3.0 ; Pen up

G0 X63.314 Y73.615 F3000 ; Travel to line 640
G0 Z0.0 ; Pen down
G1 X63.700 Y73.358 F1000
G0 Z3.0 ; Pen up

G0 X63.700 Y73.615 F3000 ; Travel to line 641
G0 Z0.0 ; Pen down
G1 X63.314 Y73.744 F1000
G0 Z3.0 ; Pen up

G0 X63.314 Y74.001 F3000 ; Travel to line 642
G0 Z0.0 ; Pen down
G1 X63.700 Y73.744 F1000
G0 Z3.0 ; Pen up

G0 X63.700 Y74.001 F3000 ; Travel to line 643
G0 Z0.0 ; Pen down
G1 X63.314 Y74.259 F1000
G0 Z3.0 ; Pen up

G0 X63.314 Y74.388 F3000 ; Travel to line 644
G0 Z0.0 ; Pen down
G1 X63.700 Y74.130 F1000
G0 Z3.0 ; Pen up

G0 X63.700 Y74.388 F3000 ; Travel to line 645
G0 Z0.0 ; Pen down
G1 X63.314 Y74.645 F1000
G0 Z3.0 ; Pen up

G0 X63.314 Y74.774 F3000 ; Travel to line 646
G0 Z0.0 ; Pen down
G1 X63.700 Y74.516 F1000
G0 Z3.0 ; Pen up

G0 X63.700 Y74.774 F3000 ; Travel to line 647
G0 Z0.0 ; Pen down
G1 X63.314 Y75.031 F1000
G0 Z3.0 ; Pen up

G0 X63.314 Y75.160 F3000 ; Travel to line 648
G0 Z0.0 ; Pen down
G1 X63.700 Y75.031 F1000
G0 Z3.0 ; Pen up

G0 X63.700 Y75.160 F3000 ; Travel to line 649
G0 Z0.0 ; Pen down
G1 X63.314 Y75.418 F1000
G0 Z3.0 ; Pen up

G0 X63.314 Y75.675 F3000 ; Travel to line 650
G0 Z0.0 ; Pen down
G1 X63.700 Y75.418 F1000
G0 Z3.0 ; Pen up

G0 X63.700 Y75.546 F3000 ; Travel to line 651
G0 Z0.0 ; Pen down
G1 X63.314 Y75.804 F1000
G0 Z3.0 ; Pen up

G0 X63.314 Y75.933 F3000 ; Travel to line 652
G0 Z0.0 ; Pen down
G1 X63.700 Y75.675 F1000
G0 Z3.0 ; Pen up

G0 X63.700 Y75.933 F3000 ; Travel to line 653
G0 Z0.0 ; Pen down
G1 X63.314 Y76.190 F1000
G0 Z3.0 ; Pen up

G0 X63.314 Y76.319 F3000 ; Travel to line 654
G0 Z0.0 ; Pen down
G1 X63.700 Y76.061 F1000
G0 Z3.0 ; Pen up

G0 X63.700 Y76.319 F3000 ; Travel to line 655
G0 Z0.0 ; Pen down
G1 X63.314 Y76.576 F1000
G0 Z3.0 ; Pen up

G0 X63.314 Y76.705 F3000 ; Travel to line 656
G0 Z0.0 ; Pen down
G1 X63.700 Y76.576 F1000
G0 Z3.0 ; Pen up

G0 X63.700 Y76.705 F3000 ; Travel to line 657
G0 Z0.0 ; Pen down
G1 X63.314 Y76.963 F1000
G0 Z3.0 ; Pen up

G0 X63.314 Y77.091 F3000 ; Travel to line 658
G0 Z0.0 ; Pen down
G1 X63.700 Y76.963 F1000
G0 Z3.0 ; Pen up

G0 X63.700 Y77.091 F3000 ; Travel to line 659
G0 Z0.0 ; Pen down
G1 X63.314 Y77.349 F1000
G0 Z3.0 ; Pen up

G0 X63.314 Y77.478 F3000 ; Travel to line 660
G0 Z0.0 ; Pen down
G1 X63.700 Y77.349 F1000
G0 Z3.0 ; Pen up

G0 X63.700 Y77.478 F3000 ; Travel to line 661
G0 Z0.0 ; Pen down
G1 X63.185 Y77.735 F1000
G0 Z3.0 ; Pen up

G0 X63.314 Y77.864 F3000 ; Travel to line 662
G0 Z0.0 ; Pen down
G1 X64.344 Y77.349 F1000
G0 Z3.0 ; Pen up

G0 X64.601 Y77.478 F3000 ; Travel to line 663
G0 Z0.0 ; Pen down
G1 X65.374 Y77.091 F1000
G0 Z3.0 ; Pen up

G0 X65.245 Y77.349 F3000 ; Travel to line 664
G0 Z0.0 ; Pen down
G1 X66.017 Y76.963 F1000
G0 Z3.0 ; Pen up

G0 X65.760 Y77.220 F3000 ; Travel to line 665
G0 Z0.0 ; Pen down
G1 X66.532 Y76.834 F1000
G0 Z3.0 ; Pen up

G0 X66.532 Y76.963 F3000 ; Travel to line 666
G0 Z0.0 ; Pen down
G1 X67.305 Y76.576 F1000
G0 Z3.0 ; Pen up

G0 X67.305 Y76.834 F3000 ; Travel to line 667
G0 Z0.0 ; Pen down
G1 X68.335 Y76.319 F1000
G0 Z3.0 ; Pen up

G0 X68.206 Y76.576 F3000 ; Travel to line 668
G0 Z0.0 ; Pen down
G1 X68.979 Y76.190 F1000
G0 Z3.0 ; Pen up

G0 X68.721 Y76.448 F3000 ; Travel to line 669
G0 Z0.0 ; Pen down
G1 X69.494 Y76.061 F1000
G0 Z3.0 ; Pen up

G0 X69.365 Y76.319 F3000 ; Travel to line 670
G0 Z0.0 ; Pen down
G1 X70.395 Y75.804 F1000
G0 Z3.0 ; Pen up

G0 X70.781 Y75.933 F3000 ; Travel to line 671
G0 Z0.0 ; Pen down
G1 X71.554 Y75.546 F1000
G0 Z3.0 ; Pen up

G0 X71.811 Y75.675 F3000 ; Travel to line 672
G0 Z0.0 ; Pen down
G1 X72.584 Y75.289 F1000
G0 Z3.0 ; Pen up

G0 X72.455 Y75.546 F3000 ; Travel to line 673
G0 Z0.0 ; Pen down
G1 X73.485 Y75.031 F1000
G0 Z3.0 ; Pen up

G0 X73.227 Y75.289 F3000 ; Travel to line 674
G0 Z0.0 ; Pen down
G1 X74.000 Y74.903 F1000
G0 Z3.0 ; Pen up

G0 X72.069 Y75.418 F3000 ; Travel to line 675
G0 Z0.0 ; Pen down
G1 X71.296 Y75.804 F1000
G0 Z3.0 ; Pen up

G0 X70.910 Y75.675 F3000 ; Travel to line 676
G0 Z0.0 ; Pen down
G1 X69.880 Y76.190 F1000
G0 Z3.0 ; Pen up

G0 X67.820 Y76.448 F3000 ; Travel to line 677
G0 Z0.0 ; Pen down
G1 X66.790 Y76.963 F1000
G0 Z3.0 ; Pen up

G0 X64.859 Y77.220 F3000 ; Travel to line 678
G0 Z0.0 ; Pen down
G1 X64.086 Y77.606 F1000
G0 Z3.0 ; Pen up

G0 X63.700 Y77.864 F3000 ; Travel to line 679
G0 Z0.0 ; Pen down
G1 X63.314 Y78.121 F1000
G0 Z3.0 ; Pen up

G0 X63.314 Y78.250 F3000 ; Travel to line 680
G0 Z0.0 ; Pen down
G1 X63.700 Y77.993 F1000
G0 Z3.0 ; Pen up

G0 X63.700 Y78.250 F3000 ; Travel to line 681
G0 Z0.0 ; Pen down
G1 X63.314 Y78.508 F1000
G0 Z3.0 ; Pen up

G0 X63.314 Y78.636 F3000 ; Travel to line 682
G0 Z0.0 ; Pen down
G1 X63.700 Y78.379 F1000
G0 Z3.0 ; Pen up

G0 X63.700 Y78.636 F3000 ; Travel to line 683
G0 Z0.0 ; Pen down
G1 X63.314 Y78.894 F1000
G0 Z3.0 ; Pen up

G0 X63.314 Y79.023 F3000 ; Travel to line 684
G0 Z0.0 ; Pen down
G1 X63.700 Y78.765 F1000
G0 Z3.0 ; Pen up

G0 X63.700 Y78.894 F3000 ; Travel to line 685
G0 Z0.0 ; Pen down
G1 X63.314 Y79.151 F1000
G0 Z3.0 ; Pen up

G0 X63.700 Y79.151 F3000 ; Travel to line 686
G0 Z0.0 ; Pen down
G1 X63.056 Y79.666 F1000
G1 X63.056 Y79.666 F1000
G1 X63.700 Y79.280 F1000
G0 Z3.0 ; Pen up

G0 X63.700 Y79.538 F3000 ; Travel to line 687
G0 Z0.0 ; Pen down
G1 X63.185 Y79.795 F1000
G0 Z3.0 ; Pen up

G0 X63.185 Y79.924 F3000 ; Travel to line 688
G0 Z0.0 ; Pen down
G1 X63.700 Y79.666 F1000
G0 Z3.0 ; Pen up

G0 X63.700 Y79.924 F3000 ; Travel to line 689
G0 Z0.0 ; Pen down
G1 X63.314 Y80.181 F1000
G0 Z3.0 ; Pen up

G0 X63.314 Y80.310 F3000 ; Travel to line 690
G0 Z0.0 ; Pen down
G1 X63.700 Y80.053 F1000
G0 Z3.0 ; Pen up

G0 X63.829 Y80.181 F3000 ; Travel to line 691
G0 Z0.0 ; Pen down
G1 X63.314 Y80.439 F1000
G0 Z3.0 ; Pen up

G0 X63.314 Y80.696 F3000 ; Travel to line 692
G0 Z0.0 ; Pen down
G1 X63.958 Y80.310 F1000
G0 Z3.0 ; Pen up

G0 X64.215 Y80.310 F3000 ; Travel to line 693
G0 Z0.0 ; Pen down
G1 X63.314 Y80.825 F1000
G0 Z3.0 ; Pen up

G0 X63.314 Y80.954 F3000 ; Travel to line 694
G0 Z0.0 ; Pen down
G1 X63.700 Y80.825 F1000
G0 Z3.0 ; Pen up

G0 X63.700 Y80.954 F3000 ; Travel to line 695
G0 Z0.0 ; Pen down
G1 X63.314 Y81.082 F1000
G0 Z3.0 ; Pen up

G0 X63.314 Y81.340 F3000 ; Travel to line 696
G0 Z0.0 ; Pen down
G1 X63.700 Y81.082 F1000
G0 Z3.0 ; Pen up

G0 X63.700 Y81.340 F3000 ; Travel to line 697
G0 Z0.0 ; Pen down
G1 X63.314 Y81.469 F1000
G0 Z3.0 ; Pen up

G0 X63.314 Y81.597 F3000 ; Travel to line 698
G0 Z0.0 ; Pen down
G1 X63.700 Y81.469 F1000
G0 Z3.0 ; Pen up

G0 X63.700 Y81.726 F3000 ; Travel to line 699
G0 Z0.0 ; Pen down
G1 X63.314 Y81.855 F1000
G0 Z3.0 ; Pen up

G0 X63.314 Y81.984 F3000 ; Travel to line 700
G0 Z0.0 ; Pen down
G1 X63.700 Y81.855 F1000
G0 Z3.0 ; Pen up

G0 X63.700 Y81.984 F3000 ; Travel to line 701
G0 Z0.0 ; Pen down
G1 X63.314 Y82.241 F1000
G0 Z3.0 ; Pen up

G0 X63.314 Y82.370 F3000 ; Travel to line 702
G0 Z0.0 ; Pen down
G1 X63.700 Y82.112 F1000
G0 Z3.0 ; Pen up

G0 X63.700 Y82.370 F3000 ; Travel to line 703
G0 Z0.0 ; Pen down
G1 X63.314 Y82.499 F1000
G0 Z3.0 ; Pen up

G0 X63.314 Y82.756 F3000 ; Travel to line 704
G0 Z0.0 ; Pen down
G1 X63.700 Y82.499 F1000
G0 Z3.0 ; Pen up

G0 X63.700 Y82.627 F3000 ; Travel to line 705
G0 Z0.0 ; Pen down
G1 X63.314 Y82.885 F1000
G0 Z3.0 ; Pen up

G0 X63.700 Y82.885 F3000 ; Travel to line 706
G0 Z0.0 ; Pen down
G1 X63.314 Y83.142 F1000
G1 X63.314 Y83.142 F1000
G1 X63.700 Y83.014 F1000
G0 Z3.0 ; Pen up

G0 X63.700 Y83.142 F3000 ; Travel to line 707
G0 Z0.0 ; Pen down
G1 X63.314 Y83.400 F1000
G0 Z3.0 ; Pen up

G0 X63.314 Y83.529 F3000 ; Travel to line 708
G0 Z0.0 ; Pen down
G1 X63.700 Y83.400 F1000
G0 Z3.0 ; Pen up

G0 X63.700 Y83.529 F3000 ; Travel to line 709
G0 Z0.0 ; Pen down
G1 X63.314 Y83.657 F1000
G0 Z3.0 ; Pen up

G0 X63.314 Y83.915 F3000 ; Travel to line 710
G0 Z0.0 ; Pen down
G1 X63.700 Y83.657 F1000
G0 Z3.0 ; Pen up

G0 X63.700 Y83.786 F3000 ; Travel to line 711
G0 Z0.0 ; Pen down
G1 X63.314 Y84.044 F1000
G0 Z3.0 ; Pen up

G0 X63.314 Y84.301 F3000 ; Travel to line 712
G0 Z0.0 ; Pen down
G1 X63.700 Y84.044 F1000
G0 Z3.0 ; Pen up

G0 X63.700 Y84.172 F3000 ; Travel to line 713
G0 Z0.0 ; Pen down
G1 X63.314 Y84.430 F1000
G0 Z3.0 ; Pen up

G0 X63.314 Y84.559 F3000 ; Travel to line 714
G0 Z0.0 ; Pen down
G1 X63.700 Y84.301 F1000
G0 Z3.0 ; Pen up

G0 X63.700 Y84.559 F3000 ; Travel to line 715
G0 Z0.0 ; Pen down
G1 X63.314 Y84.688 F1000
G0 Z3.0 ; Pen up

G0 X63.314 Y84.816 F3000 ; Travel to line 716
G0 Z0.0 ; Pen down
G1 X63.700 Y84.688 F1000
G0 Z3.0 ; Pen up

G0 X63.700 Y84.816 F3000 ; Travel to line 717
G0 Z0.0 ; Pen down
G1 X63.314 Y85.074 F1000
G0 Z3.0 ; Pen up

G0 X63.314 Y85.203 F3000 ; Travel to line 718
G0 Z0.0 ; Pen down
G1 X63.700 Y84.945 F1000
G0 Z3.0 ; Pen up

G0 X63.700 Y85.074 F3000 ; Travel to line 719
G0 Z0.0 ; Pen down
G1 X63.314 Y85.331 F1000
G0 Z3.0 ; Pen up

G0 X63.314 Y85.460 F3000 ; Travel to line 720
G0 Z0.0 ; Pen down
G1 X63.700 Y85.331 F1000
G0 Z3.0 ; Pen up

G0 X63.700 Y85.460 F3000 ; Travel to line 721
G0 Z0.0 ; Pen down
G1 X63.314 Y85.589 F1000
G0 Z3.0 ; Pen up

G0 X63.314 Y85.846 F3000 ; Travel to line 722
G0 Z0.0 ; Pen down
G1 X63.700 Y85.589 F1000
G0 Z3.0 ; Pen up

G0 X63.700 Y85.718 F3000 ; Travel to line 723
G0 Z0.0 ; Pen down
G1 X63.314 Y85.975 F1000
G0 Z3.0 ; Pen up

G0 X63.314 Y86.104 F3000 ; Travel to line 724
G0 Z0.0 ; Pen down
G1 X63.700 Y85.846 F1000
G0 Z3.0 ; Pen up

G0 X63.700 Y86.104 F3000 ; Travel to line 725
G0 Z0.0 ; Pen down
G1 X63.314 Y86.233 F1000
G0 Z3.0 ; Pen up

G0 X63.314 Y86.361 F3000 ; Travel to line 726
G0 Z0.0 ; Pen down
G1 X63.700 Y86.233 F1000
G0 Z3.0 ; Pen up

G0 X63.700 Y86.361 F3000 ; Travel to line 727
G0 Z0.0 ; Pen down
G1 X63.314 Y86.619 F1000
G0 Z3.0 ; Pen up

G0 X63.314 Y86.748 F3000 ; Travel to line 728
G0 Z0.0 ; Pen down
G1 X63.700 Y86.619 F1000
G0 Z3.0 ; Pen up

G0 X63.700 Y86.748 F3000 ; Travel to line 729
G0 Z0.0 ; Pen down
G1 X63.314 Y86.876 F1000
G0 Z3.0 ; Pen up

G0 X63.314 Y87.005 F3000 ; Travel to line 730
G0 Z0.0 ; Pen down
G1 X63.700 Y86.876 F1000
G0 Z3.0 ; Pen up

G0 X63.700 Y87.005 F3000 ; Travel to line 731
G0 Z0.0 ; Pen down
G1 X63.314 Y87.134 F1000
G0 Z3.0 ; Pen up

G0 X63.314 Y87.391 F3000 ; Travel to line 732
G0 Z0.0 ; Pen down
G1 X63.700 Y87.134 F1000
G0 Z3.0 ; Pen up

G0 X63.700 Y87.263 F3000 ; Travel to line 733
G0 Z0.0 ; Pen down
G1 X63.314 Y87.520 F1000
G0 Z3.0 ; Pen up

G0 X63.314 Y87.649 F3000 ; Travel to line 734
G0 Z0.0 ; Pen down
G1 X63.700 Y87.520 F1000
G0 Z3.0 ; Pen up

G0 X63.700 Y87.649 F3000 ; Travel to line 735
G0 Z0.0 ; Pen down
G1 X63.314 Y87.778 F1000
G0 Z3.0 ; Pen up

G0 X63.314 Y87.906 F3000 ; Travel to line 736
G0 Z0.0 ; Pen down
G1 X63.700 Y87.778 F1000
G0 Z3.0 ; Pen up

G0 X63.700 Y87.906 F3000 ; Travel to line 737
G0 Z0.0 ; Pen down
G1 X63.314 Y88.164 F1000
G1 X63.314 Y88.164 F1000
G1 X63.700 Y88.035 F1000
G0 Z3.0 ; Pen up

G0 X63.700 Y88.550 F3000 ; Travel to line 738
G0 Z0.0 ; Pen down
G1 X63.314 Y88.679 F1000
G0 Z3.0 ; Pen up

G0 X63.314 Y88.808 F3000 ; Travel to line 739
G0 Z0.0 ; Pen down
G1 X63.700 Y88.679 F1000
G0 Z3.0 ; Pen up

G0 X63.700 Y88.808 F3000 ; Travel to line 740
G0 Z0.0 ; Pen down
G1 X63.314 Y88.936 F1000
G0 Z3.0 ; Pen up

G0 X63.314 Y89.065 F3000 ; Travel to line 741
G0 Z0.0 ; Pen down
G1 X63.700 Y88.936 F1000
G0 Z3.0 ; Pen up

G0 X63.700 Y89.065 F3000 ; Travel to line 742
G0 Z0.0 ; Pen down
G1 X63.314 Y89.194 F1000
G0 Z3.0 ; Pen up

G0 X63.314 Y89.451 F3000 ; Travel to line 743
G0 Z0.0 ; Pen down
G1 X63.700 Y89.194 F1000
G0 Z3.0 ; Pen up

G0 X63.700 Y89.323 F3000 ; Travel to line 744
G0 Z0.0 ; Pen down
G1 X63.314 Y89.580 F1000
G1 X63.314 Y89.580 F1000
G1 X63.700 Y89.451 F1000
G0 Z3.0 ; Pen up

G0 X63.700 Y89.966 F3000 ; Travel to line 745
G0 Z0.0 ; Pen down
G1 X63.314 Y90.095 F1000
G0 Z3.0 ; Pen up

G0 X63.314 Y90.224 F3000 ; Travel to line 746
G0 Z0.0 ; Pen down
G1 X63.700 Y90.095 F1000
G1 X63.700 Y90.095 F1000
G1 X63.314 Y90.353 F1000
G0 Z3.0 ; Pen up

G0 X63.314 Y90.481 F3000 ; Travel to line 747
G0 Z0.0 ; Pen down
G1 X63.700 Y90.353 F1000
G0 Z3.0 ; Pen up

G0 X63.700 Y90.481 F3000 ; Travel to line 748
G0 Z0.0 ; Pen down
G1 X63.314 Y90.610 F1000
G0 Z3.0 ; Pen up

G0 X63.314 Y90.739 F3000 ; Travel to line 749
G0 Z0.0 ; Pen down
G1 X63.700 Y90.610 F1000
G0 Z3.0 ; Pen up

G0 X63.700 Y90.739 F3000 ; Travel to line 750
G0 Z0.0 ; Pen down
G1 X63.314 Y90.868 F1000
G0 Z3.0 ; Pen up

G0 X63.314 Y91.254 F3000 ; Travel to line 751
G0 Z0.0 ; Pen down
G1 X63.700 Y91.125 F1000
G0 Z3.0 ; Pen up

G0 X63.700 Y91.254 F3000 ; Travel to line 752
G0 Z0.0 ; Pen down
G1 X63.314 Y91.383 F1000
G0 Z3.0 ; Pen up

G0 X63.314 Y91.511 F3000 ; Travel to line 753
G0 Z0.0 ; Pen down
G1 X63.700 Y91.383 F1000
G0 Z3.0 ; Pen up

G0 X63.700 Y91.511 F3000 ; Travel to line 754
G0 Z0.0 ; Pen down
G1 X63.314 Y91.769 F1000
G1 X63.314 Y91.769 F1000
G1 X63.700 Y91.640 F1000
G0 Z3.0 ; Pen up

G0 X63.700 Y91.769 F3000 ; Travel to line 755
G0 Z0.0 ; Pen down
G1 X63.314 Y91.898 F1000
G0 Z3.0 ; Pen up

G0 X63.314 Y92.026 F3000 ; Travel to line 756
G0 Z0.0 ; Pen down
G1 X63.700 Y91.898 F1000
G0 Z3.0 ; Pen up

G0 X63.700 Y92.026 F3000 ; Travel to line 757
G0 Z0.0 ; Pen down
G1 X63.314 Y92.155 F1000
G0 Z3.0 ; Pen up

G0 X63.700 Y92.155 F3000 ; Travel to line 758
G0 Z0.0 ; Pen down
G1 X63.314 Y92.413 F1000
G1 X63.314 Y92.413 F1000
G1 X63.700 Y92.284 F1000
G0 Z3.0 ; Pen up

G0 X63.700 Y92.413 F3000 ; Travel to line 759
G0 Z0.0 ; Pen down
G1 X63.314 Y92.670 F1000
G1 X63.314 Y92.670 F1000
G1 X63.700 Y92.541 F1000
G0 Z3.0 ; Pen up

G0 X63.700 Y92.670 F3000 ; Travel to line 760
G0 Z0.0 ; Pen down
G1 X63.314 Y92.799 F1000
G0 Z3.0 ; Pen up

G0 X63.314 Y92.928 F3000 ; Travel to line 761
G0 Z0.0 ; Pen down
G1 X63.700 Y92.799 F1000
G0 Z3.0 ; Pen up

G0 X63.700 Y92.928 F3000 ; Travel to line 762
G0 Z0.0 ; Pen down
G1 X62.670 Y93.700 F1000
G0 Z3.0 ; Pen up

G0 X62.541 Y93.700 F3000 ; Travel to line 763
G0 Z0.0 ; Pen down
G1 X63.700 Y93.314 F1000
G0 Z3.0 ; Pen up

G0 X63.700 Y93.442 F3000 ; Travel to line 764
G0 Z0.0 ; Pen down
G1 X62.928 Y93.700 F1000
G0 Z3.0 ; Pen up

G0 X63.185 Y93.700 F3000 ; Travel to line 765
G0 Z0.0 ; Pen down
G1 X63.700 Y93.571 F1000
G0 Z3.0 ; Pen up

G0 X63.700 Y93.700 F3000 ; Travel to line 766
G0 Z0.0 ; Pen down
G1 X63.571 Y93.700 F1000
G0 Z3.0 ; Pen up

G0 X63.700 Y93.185 F3000 ; Travel to line 767
G0 Z0.0 ; Pen down
G1 X62.284 Y93.700 F1000
G0 Z3.0 ; Pen up

G0 X62.026 Y93.700 F3000 ; Travel to line 768
G0 Z0.0 ; Pen down
G1 X63.700 Y93.056 F1000
G0 Z3.0 ; Pen up

G0 X62.799 Y93.314 F3000 ; Travel to line 769
G0 Z0.0 ; Pen down
G1 X61.640 Y93.700 F1000
G0 Z3.0 ; Pen up

G0 X61.383 Y93.700 F3000 ; Travel to line 770
G0 Z0.0 ; Pen down
G1 X62.541 Y93.314 F1000
G0 Z3.0 ; Pen up

G0 X62.155 Y93.314 F3000 ; Travel to line 771
G0 Z0.0 ; Pen down
G1 X60.996 Y93.700 F1000
G0 Z3.0 ; Pen up

G0 X60.739 Y93.700 F3000 ; Travel to line 772
G0 Z0.0 ; Pen down
G1 X61.898 Y93.314 F1000
G0 Z3.0 ; Pen up

G0 X61.769 Y93.314 F3000 ; Travel to line 773
G0 Z0.0 ; Pen down
G1 X60.610 Y93.700 F1000
G0 Z3.0 ; Pen up

G0 X60.224 Y93.700 F3000 ; Travel to line 774
G0 Z0.0 ; Pen down
G1 X61.383 Y93.314 F1000
G0 Z3.0 ; Pen up

G0 X61.125 Y93.314 F3000 ; Travel to line 775
G0 Z0.0 ; Pen down
G1 X59.966 Y93.700 F1000
G0 Z3.0 ; Pen up

G0 X59.580 Y93.700 F3000 ; Travel to line 776
G0 Z0.0 ; Pen down
G1 X60.739 Y93.314 F1000
G0 Z3.0 ; Pen up

G0 X60.481 Y93.314 F3000 ; Travel to line 777
G0 Z0.0 ; Pen down
G1 X59.322 Y93.700 F1000
G0 Z3.0 ; Pen up

G0 X58.936 Y93.700 F3000 ; Travel to line 778
G0 Z0.0 ; Pen down
G1 X60.095 Y93.314 F1000
G0 Z3.0 ; Pen up

G0 X59.837 Y93.314 F3000 ; Travel to line 779
G0 Z0.0 ; Pen down
G1 X58.679 Y93.700 F1000
G0 Z3.0 ; Pen up

G0 X58.550 Y93.700 F3000 ; Travel to line 780
G0 Z0.0 ; Pen down
G1 X59.580 Y93.314 F1000
G0 Z3.0 ; Pen up

G0 X59.194 Y93.314 F3000 ; Travel to line 781
G0 Z0.0 ; Pen down
G1 X58.164 Y93.700 F1000
G0 Z3.0 ; Pen up

G0 X57.906 Y93.700 F3000 ; Travel to line 782
G0 Z0.0 ; Pen down
G1 X58.936 Y93.314 F1000
G0 Z3.0 ; Pen up

G0 X58.679 Y93.314 F3000 ; Travel to line 783
G0 Z0.0 ; Pen down
G1 X57.520 Y93.700 F1000
G0 Z3.0 ; Pen up

G0 X57.263 Y93.700 F3000 ; Travel to line 784
G0 Z0.0 ; Pen down
G1 X58.421 Y93.314 F1000
G0 Z3.0 ; Pen up

G0 X58.164 Y93.314 F3000 ; Travel to line 785
G0 Z0.0 ; Pen down
G1 X57.134 Y93.700 F1000
G0 Z3.0 ; Pen up

G0 X56.748 Y93.700 F3000 ; Travel to line 786
G0 Z0.0 ; Pen down
G1 X57.778 Y93.314 F1000
G0 Z3.0 ; Pen up

G0 X57.520 Y93.314 F3000 ; Travel to line 787
G0 Z0.0 ; Pen down
G1 X56.490 Y93.700 F1000
G0 Z3.0 ; Pen up

G0 X56.104 Y93.700 F3000 ; Travel to line 788
G0 Z0.0 ; Pen down
G1 X57.134 Y93.314 F1000
G0 Z3.0 ; Pen up

G0 X57.005 Y93.314 F3000 ; Travel to line 789
G0 Z0.0 ; Pen down
G1 X55.846 Y93.700 F1000
G0 Z3.0 ; Pen up

G0 X55.589 Y93.700 F3000 ; Travel to line 790
G0 Z0.0 ; Pen down
G1 X56.619 Y93.314 F1000
G0 Z3.0 ; Pen up

G0 X56.361 Y93.314 F3000 ; Travel to line 791
G0 Z0.0 ; Pen down
G1 X55.331 Y93.700 F1000
G0 Z3.0 ; Pen up

G0 X55.074 Y93.700 F3000 ; Travel to line 792
G0 Z0.0 ; Pen down
G1 X56.104 Y93.314 F1000
G0 Z3.0 ; Pen up

G0 X55.846 Y93.314 F3000 ; Travel to line 793
G0 Z0.0 ; Pen down
G1 X54.816 Y93.700 F1000
G0 Z3.0 ; Pen up

G0 X54.559 Y93.700 F3000 ; Travel to line 794
G0 Z0.0 ; Pen down
G1 X55.589 Y93.314 F1000
G0 Z3.0 ; Pen up

G0 X55.203 Y93.314 F3000 ; Travel to line 795
G0 Z0.0 ; Pen down
G1 X54.172 Y93.700 F1000
G0 Z3.0 ; Pen up

G0 X53.915 Y93.700 F3000 ; Travel to line 796
G0 Z0.0 ; Pen down
G1 X54.945 Y93.314 F1000
G0 Z3.0 ; Pen up

G0 X54.816 Y93.314 F3000 ; Travel to line 797
G0 Z0.0 ; Pen down
G1 X53.786 Y93.700 F1000
G0 Z3.0 ; Pen up

G0 X53.400 Y93.700 F3000 ; Travel to line 798
G0 Z0.0 ; Pen down
G1 X54.430 Y93.314 F1000
G0 Z3.0 ; Pen up

G0 X54.172 Y93.314 F3000 ; Travel to line 799
G0 Z0.0 ; Pen down
G1 X53.142 Y93.700 F1000
G0 Z3.0 ; Pen up

G0 X52.885 Y93.700 F3000 ; Travel to line 800
G0 Z0.0 ; Pen down
G1 X53.786 Y93.314 F1000
G0 Z3.0 ; Pen up

G0 X53.657 Y93.314 F3000 ; Travel to line 801
G0 Z0.0 ; Pen down
G1 X52.627 Y93.700 F1000
G0 Z3.0 ; Pen up

G0 X52.370 Y93.700 F3000 ; Travel to line 802
G0 Z0.0 ; Pen down
G1 X53.400 Y93.314 F1000
G0 Z3.0 ; Pen up

G0 X53.014 Y93.314 F3000 ; Travel to line 803
G0 Z0.0 ; Pen down
G1 X52.113 Y93.700 F1000
G0 Z3.0 ; Pen up

G0 X51.855 Y93.700 F3000 ; Travel to line 804
G0 Z0.0 ; Pen down
G1 X52.756 Y93.314 F1000
G0 Z3.0 ; Pen up

G0 X52.499 Y93.314 F3000 ; Travel to line 805
G0 Z0.0 ; Pen down
G1 X51.469 Y93.700 F1000
G0 Z3.0 ; Pen up

G0 X51.211 Y93.700 F3000 ; Travel to line 806
G0 Z0.0 ; Pen down
G1 X52.241 Y93.314 F1000
G0 Z3.0 ; Pen up

G0 X51.855 Y93.314 F3000 ; Travel to line 807
G0 Z0.0 ; Pen down
G1 X50.954 Y93.700 F1000
G0 Z3.0 ; Pen up

G0 X50.696 Y93.700 F3000 ; Travel to line 808
G0 Z0.0 ; Pen down
G1 X51.726 Y93.314 F1000
G0 Z3.0 ; Pen up

G0 X51.469 Y93.314 F3000 ; Travel to line 809
G0 Z0.0 ; Pen down
G1 X50.568 Y93.700 F1000
G0 Z3.0 ; Pen up

G0 X50.181 Y93.700 F3000 ; Travel to line 810
G0 Z0.0 ; Pen down
G1 X51.083 Y93.314 F1000
G0 Z3.0 ; Pen up

G0 X50.954 Y93.314 F3000 ; Travel to line 811
G0 Z0.0 ; Pen down
G1 X49.924 Y93.700 F1000
G0 Z3.0 ; Pen up

G0 X49.666 Y93.700 F3000 ; Travel to line 812
G0 Z0.0 ; Pen down
G1 X50.568 Y93.314 F1000
G0 Z3.0 ; Pen up

G0 X50.310 Y93.314 F3000 ; Travel to line 813
G0 Z0.0 ; Pen down
G1 X49.409 Y93.700 F1000
G0 Z3.0 ; Pen up

G0 X49.151 Y93.700 F3000 ; Travel to line 814
G0 Z0.0 ; Pen down
G1 X50.181 Y93.314 F1000
G0 Z3.0 ; Pen up

G0 X49.795 Y93.314 F3000 ; Travel to line 815
G0 Z0.0 ; Pen down
G1 X48.894 Y93.700 F1000
G0 Z3.0 ; Pen up

G0 X48.636 Y93.700 F3000 ; Travel to line 816
G0 Z0.0 ; Pen down
G1 X49.538 Y93.314 F1000
G0 Z3.0 ; Pen up

G0 X49.280 Y93.314 F3000 ; Travel to line 817
G0 Z0.0 ; Pen down
G1 X48.250 Y93.700 F1000
G0 Z3.0 ; Pen up

G0 X48.121 Y93.700 F3000 ; Travel to line 818
G0 Z0.0 ; Pen down
G1 X49.023 Y93.314 F1000
G0 Z3.0 ; Pen up

G0 X48.636 Y93.314 F3000 ; Travel to line 819
G0 Z0.0 ; Pen down
G1 X47.735 Y93.700 F1000
G0 Z3.0 ; Pen up

G0 X47.606 Y93.700 F3000 ; Travel to line 820
G0 Z0.0 ; Pen down
G1 X48.508 Y93.314 F1000
G0 Z3.0 ; Pen up

G0 X48.250 Y93.314 F3000 ; Travel to line 821
G0 Z0.0 ; Pen down
G1 X47.349 Y93.700 F1000
G0 Z3.0 ; Pen up

G0 X47.091 Y93.700 F3000 ; Travel to line 822
G0 Z0.0 ; Pen down
G1 X47.992 Y93.314 F1000
G0 Z3.0 ; Pen up

G0 X47.735 Y93.314 F3000 ; Travel to line 823
G0 Z0.0 ; Pen down
G1 X46.834 Y93.700 F1000
G0 Z3.0 ; Pen up

G0 X46.447 Y93.700 F3000 ; Travel to line 824
G0 Z0.0 ; Pen down
G1 X47.349 Y93.314 F1000
G0 Z3.0 ; Pen up

G0 X47.220 Y93.314 F3000 ; Travel to line 825
G0 Z0.0 ; Pen down
G1 X46.319 Y93.700 F1000
G0 Z3.0 ; Pen up

G0 X46.061 Y93.700 F3000 ; Travel to line 826
G0 Z0.0 ; Pen down
G1 X46.962 Y93.314 F1000
G0 Z3.0 ; Pen up

G0 X46.705 Y93.314 F3000 ; Travel to line 827
G0 Z0.0 ; Pen down
G1 X45.804 Y93.700 F1000
G0 Z3.0 ; Pen up

G0 X45.546 Y93.700 F3000 ; Travel to line 828
G0 Z0.0 ; Pen down
