; Blueprint to G-code
; Input: test_images_solid/test4_floor_plan_with_walls.png
; Generated with blueprint2gcode.py

G21 ; Set units to millimeters
G90 ; Absolute positioning
G0 Z3.0 ; Pen up
G0 X0 Y0 ; Move to origin

G0 X58.540 Y74.320 F3000 ; Travel to line 1
G0 Z0.0 ; Pen down
G1 X58.020 Y74.840 F1000
G0 Z3.0 ; Pen up

G0 X58.020 Y75.100 F3000 ; Travel to line 2
G0 Z0.0 ; Pen down
G1 X58.800 Y74.320 F1000
G0 Z3.0 ; Pen up

G0 X59.060 Y74.320 F3000 ; Travel to line 3
G0 Z0.0 ; Pen down
G1 X58.020 Y75.620 F1000
G0 Z3.0 ; Pen up

G0 X58.020 Y75.880 F3000 ; Travel to line 4
G0 Z0.0 ; Pen down
G1 X59.580 Y74.320 F1000
G0 Z3.0 ; Pen up

G0 X60.100 Y74.840 F3000 ; Travel to line 5
G0 Z0.0 ; Pen down
G1 X58.020 Y76.920 F1000
G0 Z3.0 ; Pen up

G0 X58.020 Y77.180 F3000 ; Travel to line 6
G0 Z0.0 ; Pen down
G1 X60.360 Y75.100 F1000
G0 Z3.0 ; Pen up

G0 X60.360 Y75.360 F3000 ; Travel to line 7
G0 Z0.0 ; Pen down
G1 X58.020 Y77.700 F1000
G0 Z3.0 ; Pen up

G0 X58.800 Y77.960 F3000 ; Travel to line 8
G0 Z0.0 ; Pen down
G1 X60.100 Y76.660 F1000
G0 Z3.0 ; Pen up

G0 X59.840 Y76.660 F3000 ; Travel to line 9
G0 Z0.0 ; Pen down
G1 X58.280 Y77.960 F1000
G1 X58.280 Y77.960 F1000
G1 X60.360 Y75.620 F1000
G0 Z3.0 ; Pen up

G0 X60.100 Y76.920 F3000 ; Travel to line 10
G0 Z0.0 ; Pen down
G1 X59.320 Y77.960 F1000
G0 Z3.0 ; Pen up

G0 X59.580 Y77.960 F3000 ; Travel to line 11
G0 Z0.0 ; Pen down
G1 X60.360 Y77.180 F1000
G0 Z3.0 ; Pen up

G0 X60.360 Y77.440 F3000 ; Travel to line 12
G0 Z0.0 ; Pen down
G1 X59.840 Y77.960 F1000
G0 Z3.0 ; Pen up

G0 X58.020 Y76.660 F3000 ; Travel to line 13
G0 Z0.0 ; Pen down
G1 X59.840 Y74.580 F1000
G1 X59.840 Y74.580 F1000
G1 X58.020 Y76.140 F1000
G0 Z3.0 ; Pen up

G0 X44.500 Y83.940 F3000 ; Travel to line 14
G0 Z0.0 ; Pen down
G1 X116.000 Y27.000 F1000
G0 Z3.0 ; Pen up

G0 X116.260 Y27.000 F3000 ; Travel to line 15
G0 Z0.0 ; Pen down
G1 X44.500 Y84.200 F1000
G0 Z3.0 ; Pen up

G0 X44.500 Y84.460 F3000 ; Travel to line 16
G0 Z0.0 ; Pen down
G1 X116.520 Y27.000 F1000
G1 X116.520 Y27.000 F1000
G1 X44.500 Y84.460 F1000
G0 Z3.0 ; Pen up

G0 X44.500 Y84.720 F3000 ; Travel to line 17
G0 Z0.0 ; Pen down
G1 X116.780 Y27.000 F1000
G0 Z3.0 ; Pen up

G0 X117.040 Y27.000 F3000 ; Travel to line 18
G0 Z0.0 ; Pen down
G1 X44.500 Y84.980 F1000
G0 Z3.0 ; Pen up

G0 X44.500 Y85.240 F3000 ; Travel to line 19
G0 Z0.0 ; Pen down
G1 X117.300 Y27.000 F1000
G1 X117.300 Y27.000 F1000
G1 X44.500 Y85.240 F1000
G0 Z3.0 ; Pen up

G0 X44.500 Y85.500 F3000 ; Travel to line 20
G0 Z0.0 ; Pen down
G1 X117.560 Y27.000 F1000
G0 Z3.0 ; Pen up

G0 X118.080 Y27.000 F3000 ; Travel to line 21
G0 Z0.0 ; Pen down
G1 X44.500 Y86.020 F1000
G0 Z3.0 ; Pen up

G0 X44.500 Y85.760 F3000 ; Travel to line 22
G0 Z0.0 ; Pen down
G1 X117.820 Y27.000 F1000
G1 X117.820 Y27.000 F1000
G1 X44.500 Y85.760 F1000
G0 Z3.0 ; Pen up

G0 X44.500 Y86.280 F3000 ; Travel to line 23
G0 Z0.0 ; Pen down
G1 X118.600 Y27.000 F1000
G1 X118.600 Y27.000 F1000
G1 X44.500 Y86.280 F1000
G0 Z3.0 ; Pen up

G0 X44.500 Y86.540 F3000 ; Travel to line 24
G0 Z0.0 ; Pen down
G1 X118.860 Y27.000 F1000
G0 Z3.0 ; Pen up

G0 X119.120 Y27.000 F3000 ; Travel to line 25
G0 Z0.0 ; Pen down
G1 X44.500 Y86.800 F1000
G0 Z3.0 ; Pen up

G0 X44.500 Y87.060 F3000 ; Travel to line 26
G0 Z0.0 ; Pen down
G1 X119.380 Y27.000 F1000
G1 X119.380 Y27.000 F1000
G1 X44.500 Y87.060 F1000
G0 Z3.0 ; Pen up

G0 X44.500 Y87.320 F3000 ; Travel to line 27
G0 Z0.0 ; Pen down
G1 X119.640 Y27.000 F1000
G0 Z3.0 ; Pen up

G0 X120.160 Y27.000 F3000 ; Travel to line 28
G0 Z0.0 ; Pen down
G1 X44.500 Y87.840 F1000
G0 Z3.0 ; Pen up

G0 X44.500 Y88.100 F3000 ; Travel to line 29
G0 Z0.0 ; Pen down
G1 X120.420 Y27.000 F1000
G0 Z3.0 ; Pen up

G0 X120.940 Y27.000 F3000 ; Travel to line 30
G0 Z0.0 ; Pen down
G1 X44.500 Y88.620 F1000
G1 X44.500 Y88.620 F1000
G1 X121.200 Y27.000 F1000
G1 X121.200 Y27.000 F1000
G1 X44.500 Y88.620 F1000
G0 Z3.0 ; Pen up

G0 X44.500 Y88.880 F3000 ; Travel to line 31
G0 Z0.0 ; Pen down
G1 X121.460 Y27.000 F1000
G0 Z3.0 ; Pen up

G0 X121.720 Y27.000 F3000 ; Travel to line 32
G0 Z0.0 ; Pen down
G1 X44.500 Y89.140 F1000
G0 Z3.0 ; Pen up

G0 X44.500 Y89.400 F3000 ; Travel to line 33
G0 Z0.0 ; Pen down
G1 X121.980 Y27.000 F1000
G1 X121.980 Y27.000 F1000
G1 X44.500 Y89.400 F1000
G0 Z3.0 ; Pen up

G0 X44.500 Y89.660 F3000 ; Travel to line 34
G0 Z0.0 ; Pen down
G1 X122.240 Y27.000 F1000
G0 Z3.0 ; Pen up

G0 X122.760 Y27.000 F3000 ; Travel to line 35
G0 Z0.0 ; Pen down
G1 X44.500 Y90.180 F1000
G0 Z3.0 ; Pen up

G0 X44.500 Y90.440 F3000 ; Travel to line 36
G0 Z0.0 ; Pen down
G1 X123.280 Y27.000 F1000
G1 X123.280 Y27.000 F1000
G1 X44.500 Y90.440 F1000
G0 Z3.0 ; Pen up

G0 X44.500 Y90.700 F3000 ; Travel to line 37
G0 Z0.0 ; Pen down
G1 X123.540 Y27.000 F1000
G0 Z3.0 ; Pen up

G0 X123.800 Y27.000 F3000 ; Travel to line 38
G0 Z0.0 ; Pen down
G1 X44.500 Y90.960 F1000
G0 Z3.0 ; Pen up

G0 X44.500 Y91.220 F3000 ; Travel to line 39
G0 Z0.0 ; Pen down
G1 X124.060 Y27.000 F1000
G1 X124.060 Y27.000 F1000
G1 X44.500 Y91.220 F1000
G0 Z3.0 ; Pen up

G0 X44.500 Y91.480 F3000 ; Travel to line 40
G0 Z0.0 ; Pen down
G1 X124.320 Y27.000 F1000
G0 Z3.0 ; Pen up

G0 X124.840 Y27.000 F3000 ; Travel to line 41
G0 Z0.0 ; Pen down
G1 X44.500 Y92.000 F1000
G0 Z3.0 ; Pen up

G0 X44.500 Y91.740 F3000 ; Travel to line 42
G0 Z0.0 ; Pen down
G1 X124.580 Y27.000 F1000
G1 X124.580 Y27.000 F1000
G1 X44.500 Y91.740 F1000
G0 Z3.0 ; Pen up

G0 X44.500 Y92.260 F3000 ; Travel to line 43
G0 Z0.0 ; Pen down
G1 X125.100 Y27.000 F1000
G0 Z3.0 ; Pen up

G0 X125.620 Y27.000 F3000 ; Travel to line 44
G0 Z0.0 ; Pen down
G1 X44.500 Y92.780 F1000
G0 Z3.0 ; Pen up

G0 X44.500 Y92.520 F3000 ; Travel to line 45
G0 Z0.0 ; Pen down
G1 X125.360 Y27.000 F1000
G1 X125.360 Y27.000 F1000
G1 X44.500 Y92.520 F1000
G0 Z3.0 ; Pen up

G0 X44.500 Y93.040 F3000 ; Travel to line 46
G0 Z0.0 ; Pen down
G1 X125.880 Y27.000 F1000
G1 X125.880 Y27.000 F1000
G1 X44.500 Y93.040 F1000
G0 Z3.0 ; Pen up

G0 X44.500 Y93.300 F3000 ; Travel to line 47
G0 Z0.0 ; Pen down
G1 X126.140 Y27.000 F1000
G0 Z3.0 ; Pen up

G0 X126.660 Y27.000 F3000 ; Travel to line 48
G0 Z0.0 ; Pen down
G1 X44.500 Y93.820 F1000
G0 Z3.0 ; Pen up

G0 X44.500 Y94.080 F3000 ; Travel to line 49
G0 Z0.0 ; Pen down
G1 X126.920 Y27.000 F1000
G0 Z3.0 ; Pen up

G0 X127.440 Y27.000 F3000 ; Travel to line 50
G0 Z0.0 ; Pen down
G1 X44.500 Y94.600 F1000
G0 Z3.0 ; Pen up

G0 X44.500 Y94.860 F3000 ; Travel to line 51
G0 Z0.0 ; Pen down
G1 X127.700 Y27.000 F1000
G1 X127.700 Y27.000 F1000
G1 X44.500 Y94.860 F1000
G0 Z3.0 ; Pen up

G0 X44.500 Y95.120 F3000 ; Travel to line 52
G0 Z0.0 ; Pen down
G1 X127.960 Y27.000 F1000
G0 Z3.0 ; Pen up

G0 X128.480 Y27.000 F3000 ; Travel to line 53
G0 Z0.0 ; Pen down
G1 X44.500 Y95.380 F1000
G0 Z3.0 ; Pen up

G0 X44.500 Y95.640 F3000 ; Travel to line 54
G0 Z0.0 ; Pen down
G1 X128.740 Y27.000 F1000
G1 X128.740 Y27.000 F1000
G1 X44.500 Y95.640 F1000
G1 X44.500 Y95.640 F1000
G1 X129.000 Y27.000 F1000
G0 Z3.0 ; Pen up

G0 X129.520 Y27.000 F3000 ; Travel to line 55
G0 Z0.0 ; Pen down
G1 X44.500 Y96.160 F1000
G0 Z3.0 ; Pen up

G0 X44.500 Y95.900 F3000 ; Travel to line 56
G0 Z0.0 ; Pen down
G1 X129.260 Y27.000 F1000
G1 X129.260 Y27.000 F1000
G1 X44.500 Y95.900 F1000
G0 Z3.0 ; Pen up

G0 X44.500 Y96.420 F3000 ; Travel to line 57
G0 Z0.0 ; Pen down
G1 X129.780 Y27.000 F1000
G1 X129.780 Y27.000 F1000
G1 X44.500 Y96.420 F1000
G0 Z3.0 ; Pen up

G0 X44.500 Y96.680 F3000 ; Travel to line 58
G0 Z0.0 ; Pen down
G1 X130.040 Y27.000 F1000
G0 Z3.0 ; Pen up

G0 X130.300 Y27.000 F3000 ; Travel to line 59
G0 Z0.0 ; Pen down
G1 X44.500 Y96.940 F1000
G0 Z3.0 ; Pen up

G0 X44.500 Y97.200 F3000 ; Travel to line 60
G0 Z0.0 ; Pen down
G1 X130.560 Y27.000 F1000
G1 X130.560 Y27.000 F1000
G1 X44.500 Y97.200 F1000
G0 Z3.0 ; Pen up

G0 X44.500 Y97.460 F3000 ; Travel to line 61
G0 Z0.0 ; Pen down
G1 X130.820 Y27.000 F1000
G0 Z3.0 ; Pen up

G0 X131.340 Y27.000 F3000 ; Travel to line 62
G0 Z0.0 ; Pen down
G1 X44.500 Y97.980 F1000
G0 Z3.0 ; Pen up

G0 X44.500 Y98.240 F3000 ; Travel to line 63
G0 Z0.0 ; Pen down
G1 X131.600 Y27.000 F1000
G0 Z3.0 ; Pen up

G0 X132.120 Y27.000 F3000 ; Travel to line 64
G0 Z0.0 ; Pen down
G1 X44.500 Y98.760 F1000
G0 Z3.0 ; Pen up

G0 X44.500 Y99.020 F3000 ; Travel to line 65
G0 Z0.0 ; Pen down
G1 X132.380 Y27.000 F1000
G1 X132.380 Y27.000 F1000
G1 X44.500 Y99.020 F1000
G0 Z3.0 ; Pen up

G0 X44.500 Y99.280 F3000 ; Travel to line 66
G0 Z0.0 ; Pen down
G1 X132.640 Y27.000 F1000
G0 Z3.0 ; Pen up

G0 X132.900 Y27.000 F3000 ; Travel to line 67
G0 Z0.0 ; Pen down
G1 X44.500 Y99.540 F1000
G0 Z3.0 ; Pen up

G0 X44.500 Y99.800 F3000 ; Travel to line 68
G0 Z0.0 ; Pen down
G1 X133.160 Y27.000 F1000
G1 X133.160 Y27.000 F1000
G1 X44.500 Y99.800 F1000
G0 Z3.0 ; Pen up

G0 X44.500 Y100.060 F3000 ; Travel to line 69
G0 Z0.0 ; Pen down
G1 X133.420 Y27.000 F1000
G0 Z3.0 ; Pen up

G0 X134.200 Y27.000 F3000 ; Travel to line 70
G0 Z0.0 ; Pen down
G1 X44.500 Y100.580 F1000
G0 Z3.0 ; Pen up

G0 X44.500 Y100.320 F3000 ; Travel to line 71
G0 Z0.0 ; Pen down
G1 X133.940 Y27.000 F1000
G1 X133.940 Y27.000 F1000
G1 X44.500 Y100.320 F1000
G0 Z3.0 ; Pen up

G0 X44.500 Y100.840 F3000 ; Travel to line 72
G0 Z0.0 ; Pen down
G1 X134.460 Y27.000 F1000
G1 X134.460 Y27.000 F1000
G1 X44.500 Y100.840 F1000
G0 Z3.0 ; Pen up

G0 X44.500 Y101.100 F3000 ; Travel to line 73
G0 Z0.0 ; Pen down
G1 X134.720 Y27.000 F1000
G0 Z3.0 ; Pen up

G0 X134.980 Y27.000 F3000 ; Travel to line 74
G0 Z0.0 ; Pen down
G1 X44.500 Y101.360 F1000
G0 Z3.0 ; Pen up

G0 X44.500 Y101.620 F3000 ; Travel to line 75
G0 Z0.0 ; Pen down
G1 X135.240 Y27.000 F1000
G1 X135.240 Y27.000 F1000
G1 X44.500 Y101.620 F1000
G0 Z3.0 ; Pen up

G0 X44.500 Y101.880 F3000 ; Travel to line 76
G0 Z0.0 ; Pen down
G1 X135.500 Y27.000 F1000
G0 Z3.0 ; Pen up

G0 X136.020 Y27.000 F3000 ; Travel to line 77
G0 Z0.0 ; Pen down
G1 X44.500 Y102.400 F1000
G0 Z3.0 ; Pen up

G0 X44.500 Y102.660 F3000 ; Travel to line 78
G0 Z0.0 ; Pen down
G1 X136.280 Y27.000 F1000
G0 Z3.0 ; Pen up

G0 X136.800 Y27.000 F3000 ; Travel to line 79
G0 Z0.0 ; Pen down
G1 X44.500 Y103.180 F1000
G0 Z3.0 ; Pen up

G0 X44.500 Y103.440 F3000 ; Travel to line 80
G0 Z0.0 ; Pen down
G1 X137.060 Y27.000 F1000
G1 X137.060 Y27.000 F1000
G1 X44.500 Y103.440 F1000
G0 Z3.0 ; Pen up

G0 X44.500 Y103.700 F3000 ; Travel to line 81
G0 Z0.0 ; Pen down
G1 X137.580 Y27.000 F1000
G1 X137.580 Y27.000 F1000
G1 X44.500 Y103.700 F1000
G1 X44.500 Y103.700 F1000
G1 X137.320 Y27.000 F1000
G0 Z3.0 ; Pen up

G0 X137.840 Y27.000 F3000 ; Travel to line 82
G0 Z0.0 ; Pen down
G1 X44.500 Y103.960 F1000
G0 Z3.0 ; Pen up

G0 X44.500 Y104.220 F3000 ; Travel to line 83
G0 Z0.0 ; Pen down
G1 X138.100 Y27.000 F1000
G0 Z3.0 ; Pen up

G0 X138.620 Y27.000 F3000 ; Travel to line 84
G0 Z0.0 ; Pen down
G1 X44.500 Y104.740 F1000
G0 Z3.0 ; Pen up

G0 X44.500 Y105.000 F3000 ; Travel to line 85
G0 Z0.0 ; Pen down
G1 X138.880 Y27.000 F1000
G1 X138.880 Y27.000 F1000
G1 X44.500 Y105.000 F1000
G0 Z3.0 ; Pen up

G0 X44.500 Y105.260 F3000 ; Travel to line 86
G0 Z0.0 ; Pen down
G1 X139.140 Y27.000 F1000
G0 Z3.0 ; Pen up

G0 X139.400 Y27.000 F3000 ; Travel to line 87
G0 Z0.0 ; Pen down
G1 X44.500 Y105.520 F1000
G0 Z3.0 ; Pen up

G0 X44.500 Y105.780 F3000 ; Travel to line 88
G0 Z0.0 ; Pen down
G1 X139.660 Y27.000 F1000
G1 X139.660 Y27.000 F1000
G1 X44.500 Y105.780 F1000
G0 Z3.0 ; Pen up

G0 X44.500 Y106.040 F3000 ; Travel to line 89
G0 Z0.0 ; Pen down
G1 X140.180 Y27.000 F1000
G0 Z3.0 ; Pen up

G0 X140.700 Y27.000 F3000 ; Travel to line 90
G0 Z0.0 ; Pen down
G1 X44.500 Y106.560 F1000
G0 Z3.0 ; Pen up

G0 X44.500 Y106.820 F3000 ; Travel to line 91
G0 Z0.0 ; Pen down
G1 X140.960 Y27.000 F1000
G0 Z3.0 ; Pen up

G0 X141.480 Y27.000 F3000 ; Travel to line 92
G0 Z0.0 ; Pen down
G1 X44.500 Y107.340 F1000
G0 Z3.0 ; Pen up

G0 X44.500 Y107.600 F3000 ; Travel to line 93
G0 Z0.0 ; Pen down
G1 X141.740 Y27.000 F1000
G1 X141.740 Y27.000 F1000
G1 X44.500 Y107.600 F1000
G0 Z3.0 ; Pen up

G0 X44.500 Y107.860 F3000 ; Travel to line 94
G0 Z0.0 ; Pen down
G1 X142.000 Y27.000 F1000
G0 Z3.0 ; Pen up

G0 X142.520 Y27.000 F3000 ; Travel to line 95
G0 Z0.0 ; Pen down
G1 X44.500 Y108.380 F1000
G0 Z3.0 ; Pen up

G0 X44.500 Y108.640 F3000 ; Travel to line 96
G0 Z0.0 ; Pen down
G1 X142.780 Y27.000 F1000
G0 Z3.0 ; Pen up

G0 X143.300 Y27.000 F3000 ; Travel to line 97
G0 Z0.0 ; Pen down
G1 X44.500 Y109.160 F1000
G0 Z3.0 ; Pen up

G0 X44.500 Y108.900 F3000 ; Travel to line 98
G0 Z0.0 ; Pen down
G1 X143.040 Y27.000 F1000
G1 X143.040 Y27.000 F1000
G1 X44.500 Y108.900 F1000
G0 Z3.0 ; Pen up

G0 X44.500 Y109.420 F3000 ; Travel to line 99
G0 Z0.0 ; Pen down
G1 X143.560 Y27.000 F1000
G1 X143.560 Y27.000 F1000
G1 X44.500 Y109.420 F1000
G0 Z3.0 ; Pen up

G0 X44.500 Y109.680 F3000 ; Travel to line 100
G0 Z0.0 ; Pen down
G1 X143.820 Y27.000 F1000
G0 Z3.0 ; Pen up

G0 X144.080 Y27.000 F3000 ; Travel to line 101
G0 Z0.0 ; Pen down
G1 X44.500 Y109.940 F1000
G0 Z3.0 ; Pen up

G0 X44.500 Y110.200 F3000 ; Travel to line 102
G0 Z0.0 ; Pen down
G1 X144.340 Y27.000 F1000
G1 X144.340 Y27.000 F1000
G1 X44.500 Y110.200 F1000
G0 Z3.0 ; Pen up

G0 X44.500 Y110.460 F3000 ; Travel to line 103
G0 Z0.0 ; Pen down
G1 X144.600 Y27.000 F1000
G0 Z3.0 ; Pen up

G0 X145.120 Y27.000 F3000 ; Travel to line 104
G0 Z0.0 ; Pen down
G1 X44.500 Y110.980 F1000
G0 Z3.0 ; Pen up

G0 X44.500 Y111.240 F3000 ; Travel to line 105
G0 Z0.0 ; Pen down
G1 X145.380 Y27.000 F1000
G1 X145.380 Y27.000 F1000
G1 X44.500 Y111.240 F1000
G0 Z3.0 ; Pen up

G0 X44.500 Y111.500 F3000 ; Travel to line 106
G0 Z0.0 ; Pen down
G1 X145.640 Y27.000 F1000
G0 Z3.0 ; Pen up

G0 X145.900 Y27.000 F3000 ; Travel to line 107
G0 Z0.0 ; Pen down
G1 X44.500 Y111.760 F1000
G0 Z3.0 ; Pen up

G0 X44.500 Y112.020 F3000 ; Travel to line 108
G0 Z0.0 ; Pen down
G1 X146.160 Y27.000 F1000
G1 X146.160 Y27.000 F1000
G1 X44.500 Y112.020 F1000
G0 Z3.0 ; Pen up

G0 X44.500 Y112.280 F3000 ; Travel to line 109
G0 Z0.0 ; Pen down
G1 X146.420 Y27.000 F1000
G0 Z3.0 ; Pen up

G0 X147.200 Y27.000 F3000 ; Travel to line 110
G0 Z0.0 ; Pen down
G1 X44.500 Y112.540 F1000
G1 X44.500 Y112.540 F1000
G1 X146.940 Y27.000 F1000
G1 X146.940 Y27.000 F1000
G1 X44.500 Y112.540 F1000
G0 Z3.0 ; Pen up

G0 X44.500 Y112.800 F3000 ; Travel to line 111
G0 Z0.0 ; Pen down
G1 X147.460 Y27.000 F1000
G0 Z3.0 ; Pen up

G0 X147.980 Y27.000 F3000 ; Travel to line 112
G0 Z0.0 ; Pen down
G1 X44.500 Y113.320 F1000
G0 Z3.0 ; Pen up

G0 X44.500 Y113.580 F3000 ; Travel to line 113
G0 Z0.0 ; Pen down
G1 X148.240 Y27.000 F1000
G1 X148.240 Y27.000 F1000
G1 X44.500 Y113.580 F1000
G0 Z3.0 ; Pen up

G0 X44.500 Y113.840 F3000 ; Travel to line 114
G0 Z0.0 ; Pen down
G1 X148.500 Y27.000 F1000
G0 Z3.0 ; Pen up

G0 X148.760 Y27.000 F3000 ; Travel to line 115
G0 Z0.0 ; Pen down
G1 X44.500 Y114.100 F1000
G0 Z3.0 ; Pen up

G0 X44.500 Y114.360 F3000 ; Travel to line 116
G0 Z0.0 ; Pen down
G1 X149.020 Y27.000 F1000
G1 X149.020 Y27.000 F1000
G1 X44.500 Y114.360 F1000
G0 Z3.0 ; Pen up

G0 X44.500 Y114.620 F3000 ; Travel to line 117
G0 Z0.0 ; Pen down
G1 X149.280 Y27.000 F1000
G0 Z3.0 ; Pen up

G0 X149.800 Y27.000 F3000 ; Travel to line 118
G0 Z0.0 ; Pen down
G1 X44.500 Y115.140 F1000
G0 Z3.0 ; Pen up

G0 X44.500 Y114.880 F3000 ; Travel to line 119
G0 Z0.0 ; Pen down
G1 X149.540 Y27.000 F1000
G1 X149.540 Y27.000 F1000
G1 X44.500 Y114.880 F1000
G0 Z3.0 ; Pen up

G0 X44.500 Y115.400 F3000 ; Travel to line 120
G0 Z0.0 ; Pen down
G1 X150.060 Y27.000 F1000
G1 X150.060 Y27.000 F1000
G1 X44.500 Y115.400 F1000
G0 Z3.0 ; Pen up

G0 X44.500 Y115.660 F3000 ; Travel to line 121
G0 Z0.0 ; Pen down
G1 X150.320 Y27.000 F1000
G0 Z3.0 ; Pen up

G0 X150.580 Y27.000 F3000 ; Travel to line 122
G0 Z0.0 ; Pen down
G1 X44.500 Y115.920 F1000
G0 Z3.0 ; Pen up

G0 X44.500 Y116.180 F3000 ; Travel to line 123
G0 Z0.0 ; Pen down
G1 X150.840 Y27.000 F1000
G1 X150.840 Y27.000 F1000
G1 X44.500 Y116.180 F1000
G0 Z3.0 ; Pen up

G0 X44.500 Y116.440 F3000 ; Travel to line 124
G0 Z0.0 ; Pen down
G1 X151.100 Y27.000 F1000
G0 Z3.0 ; Pen up

G0 X151.620 Y27.000 F3000 ; Travel to line 125
G0 Z0.0 ; Pen down
G1 X44.500 Y116.960 F1000
G0 Z3.0 ; Pen up

G0 X44.500 Y117.220 F3000 ; Travel to line 126
G0 Z0.0 ; Pen down
G1 X151.880 Y27.000 F1000
G0 Z3.0 ; Pen up

G0 X152.400 Y27.000 F3000 ; Travel to line 127
G0 Z0.0 ; Pen down
G1 X44.500 Y117.740 F1000
G0 Z3.0 ; Pen up

G0 X44.500 Y118.000 F3000 ; Travel to line 128
G0 Z0.0 ; Pen down
G1 X152.660 Y27.000 F1000
G1 X152.660 Y27.000 F1000
G1 X44.500 Y118.000 F1000
G0 Z3.0 ; Pen up

G0 X44.500 Y118.260 F3000 ; Travel to line 129
G0 Z0.0 ; Pen down
G1 X152.920 Y27.000 F1000
G0 Z3.0 ; Pen up

G0 X153.440 Y27.000 F3000 ; Travel to line 130
G0 Z0.0 ; Pen down
G1 X44.500 Y118.780 F1000
G0 Z3.0 ; Pen up

G0 X44.500 Y118.520 F3000 ; Travel to line 131
G0 Z0.0 ; Pen down
G1 X153.180 Y27.000 F1000
G1 X153.180 Y27.000 F1000
G1 X44.500 Y118.520 F1000
G0 Z3.0 ; Pen up

G0 X44.500 Y119.040 F3000 ; Travel to line 132
G0 Z0.0 ; Pen down
G1 X153.700 Y27.000 F1000
G0 Z3.0 ; Pen up

G0 X154.480 Y27.000 F3000 ; Travel to line 133
G0 Z0.0 ; Pen down
G1 X44.500 Y119.560 F1000
G0 Z3.0 ; Pen up

G0 X44.500 Y119.820 F3000 ; Travel to line 134
G0 Z0.0 ; Pen down
G1 X154.740 Y27.000 F1000
G1 X154.740 Y27.000 F1000
G1 X44.500 Y119.820 F1000
G0 Z3.0 ; Pen up

G0 X44.500 Y120.080 F3000 ; Travel to line 135
G0 Z0.0 ; Pen down
G1 X155.000 Y27.000 F1000
G0 Z3.0 ; Pen up

G0 X155.260 Y27.000 F3000 ; Travel to line 136
G0 Z0.0 ; Pen down
G1 X44.500 Y120.340 F1000
G0 Z3.0 ; Pen up

G0 X44.500 Y120.600 F3000 ; Travel to line 137
G0 Z0.0 ; Pen down
G1 X155.520 Y27.000 F1000
G1 X155.520 Y27.000 F1000
G1 X44.500 Y120.600 F1000
G0 Z3.0 ; Pen up

G0 X44.500 Y120.860 F3000 ; Travel to line 138
G0 Z0.0 ; Pen down
G1 X155.780 Y27.000 F1000
G0 Z3.0 ; Pen up

G0 X156.300 Y27.000 F3000 ; Travel to line 139
G0 Z0.0 ; Pen down
G1 X44.500 Y121.380 F1000
G0 Z3.0 ; Pen up

G0 X44.500 Y121.640 F3000 ; Travel to line 140
G0 Z0.0 ; Pen down
G1 X156.560 Y27.000 F1000
G1 X156.560 Y27.000 F1000
G1 X44.500 Y121.640 F1000
G0 Z3.0 ; Pen up

G0 X44.500 Y121.900 F3000 ; Travel to line 141
G0 Z0.0 ; Pen down
G1 X156.820 Y27.000 F1000
G0 Z3.0 ; Pen up

G0 X157.080 Y27.000 F3000 ; Travel to line 142
G0 Z0.0 ; Pen down
G1 X44.500 Y122.160 F1000
G0 Z3.0 ; Pen up

G0 X44.500 Y122.420 F3000 ; Travel to line 143
G0 Z0.0 ; Pen down
G1 X157.340 Y27.000 F1000
G1 X157.340 Y27.000 F1000
G1 X44.500 Y122.420 F1000
G1 X44.500 Y122.420 F1000
G1 X157.600 Y27.000 F1000
G0 Z3.0 ; Pen up

G0 X158.120 Y27.000 F3000 ; Travel to line 144
G0 Z0.0 ; Pen down
G1 X44.500 Y122.940 F1000
G0 Z3.0 ; Pen up

G0 X44.500 Y122.680 F3000 ; Travel to line 145
G0 Z0.0 ; Pen down
G1 X157.860 Y27.000 F1000
G1 X157.860 Y27.000 F1000
G1 X44.500 Y122.680 F1000
G0 Z3.0 ; Pen up

G0 X44.500 Y123.200 F3000 ; Travel to line 146
G0 Z0.0 ; Pen down
G1 X158.380 Y27.000 F1000
G0 Z3.0 ; Pen up

G0 X158.900 Y27.000 F3000 ; Travel to line 147
G0 Z0.0 ; Pen down
G1 X44.500 Y123.720 F1000
G0 Z3.0 ; Pen up

G0 X44.500 Y123.460 F3000 ; Travel to line 148
G0 Z0.0 ; Pen down
G1 X158.640 Y27.000 F1000
G1 X158.640 Y27.000 F1000
G1 X44.500 Y123.460 F1000
G0 Z3.0 ; Pen up

G0 X44.500 Y123.980 F3000 ; Travel to line 149
G0 Z0.0 ; Pen down
G1 X159.160 Y27.000 F1000
G1 X159.160 Y27.000 F1000
G1 X44.500 Y123.980 F1000
G0 Z3.0 ; Pen up

G0 X44.500 Y124.500 F3000 ; Travel to line 150
G0 Z0.0 ; Pen down
G1 X159.680 Y27.000 F1000
G0 Z3.0 ; Pen up

G0 X159.420 Y27.000 F3000 ; Travel to line 151
G0 Z0.0 ; Pen down
G1 X44.240 Y124.500 F1000
G0 Z3.0 ; Pen up

G0 X44.500 Y124.760 F3000 ; Travel to line 152
G0 Z0.0 ; Pen down
G1 X159.940 Y27.000 F1000
G1 X159.940 Y27.000 F1000
G1 X44.500 Y124.760 F1000
G0 Z3.0 ; Pen up

G0 X44.500 Y125.020 F3000 ; Travel to line 153
G0 Z0.0 ; Pen down
G1 X160.200 Y27.000 F1000
G0 Z3.0 ; Pen up

G0 X160.720 Y27.000 F3000 ; Travel to line 154
G0 Z0.0 ; Pen down
G1 X44.500 Y125.540 F1000
G0 Z3.0 ; Pen up

G0 X44.500 Y125.800 F3000 ; Travel to line 155
G0 Z0.0 ; Pen down
G1 X160.980 Y27.000 F1000
G1 X160.980 Y27.000 F1000
G1 X44.500 Y125.800 F1000
G0 Z3.0 ; Pen up

G0 X44.500 Y126.060 F3000 ; Travel to line 156
G0 Z0.0 ; Pen down
G1 X161.240 Y27.000 F1000
G0 Z3.0 ; Pen up

G0 X161.500 Y27.000 F3000 ; Travel to line 157
G0 Z0.0 ; Pen down
G1 X44.500 Y126.320 F1000
G0 Z3.0 ; Pen up

G0 X44.500 Y126.580 F3000 ; Travel to line 158
G0 Z0.0 ; Pen down
G1 X161.760 Y27.000 F1000
G1 X161.760 Y27.000 F1000
G1 X44.500 Y126.580 F1000
G0 Z3.0 ; Pen up

G0 X44.500 Y126.840 F3000 ; Travel to line 159
G0 Z0.0 ; Pen down
G1 X162.020 Y27.000 F1000
G0 Z3.0 ; Pen up

G0 X162.800 Y27.000 F3000 ; Travel to line 160
G0 Z0.0 ; Pen down
G1 X44.500 Y127.360 F1000
G0 Z3.0 ; Pen up

G0 X44.500 Y127.100 F3000 ; Travel to line 161
G0 Z0.0 ; Pen down
G1 X162.540 Y27.000 F1000
G1 X162.540 Y27.000 F1000
G1 X44.500 Y127.100 F1000
G0 Z3.0 ; Pen up

G0 X44.500 Y127.620 F3000 ; Travel to line 162
G0 Z0.0 ; Pen down
G1 X163.060 Y27.000 F1000
G0 Z3.0 ; Pen up

G0 X163.580 Y27.000 F3000 ; Travel to line 163
G0 Z0.0 ; Pen down
G1 X44.500 Y128.140 F1000
G0 Z3.0 ; Pen up

G0 X44.500 Y127.880 F3000 ; Travel to line 164
G0 Z0.0 ; Pen down
G1 X163.320 Y27.000 F1000
G1 X163.320 Y27.000 F1000
G1 X44.500 Y127.880 F1000
G0 Z3.0 ; Pen up

G0 X44.500 Y128.400 F3000 ; Travel to line 165
G0 Z0.0 ; Pen down
G1 X163.840 Y27.000 F1000
G1 X163.840 Y27.000 F1000
G1 X44.500 Y128.400 F1000
G0 Z3.0 ; Pen up

G0 X44.500 Y128.660 F3000 ; Travel to line 166
G0 Z0.0 ; Pen down
G1 X164.100 Y27.000 F1000
G0 Z3.0 ; Pen up

G0 X164.620 Y27.000 F3000 ; Travel to line 167
G0 Z0.0 ; Pen down
G1 X44.500 Y129.180 F1000
G0 Z3.0 ; Pen up

G0 X44.500 Y129.440 F3000 ; Travel to line 168
G0 Z0.0 ; Pen down
G1 X164.880 Y27.000 F1000
G0 Z3.0 ; Pen up

G0 X165.400 Y27.000 F3000 ; Travel to line 169
G0 Z0.0 ; Pen down
G1 X44.500 Y129.960 F1000
G0 Z3.0 ; Pen up

G0 X44.500 Y130.220 F3000 ; Travel to line 170
G0 Z0.0 ; Pen down
G1 X165.660 Y27.000 F1000
G1 X165.660 Y27.000 F1000
G1 X44.500 Y130.220 F1000
G0 Z3.0 ; Pen up

G0 X44.500 Y130.480 F3000 ; Travel to line 171
G0 Z0.0 ; Pen down
G1 X165.920 Y27.000 F1000
G0 Z3.0 ; Pen up

G0 X166.180 Y27.000 F3000 ; Travel to line 172
G0 Z0.0 ; Pen down
G1 X44.500 Y130.740 F1000
G0 Z3.0 ; Pen up

G0 X44.500 Y131.000 F3000 ; Travel to line 173
G0 Z0.0 ; Pen down
G1 X166.440 Y27.000 F1000
G1 X166.440 Y27.000 F1000
G1 X44.500 Y131.000 F1000
G0 Z3.0 ; Pen up

G0 X44.500 Y131.260 F3000 ; Travel to line 174
G0 Z0.0 ; Pen down
G1 X166.700 Y27.000 F1000
G0 Z3.0 ; Pen up

G0 X167.220 Y27.000 F3000 ; Travel to line 175
G0 Z0.0 ; Pen down
G1 X44.500 Y131.780 F1000
G0 Z3.0 ; Pen up

G0 X44.500 Y132.040 F3000 ; Travel to line 176
G0 Z0.0 ; Pen down
G1 X167.480 Y27.000 F1000
G0 Z3.0 ; Pen up

G0 X168.000 Y27.000 F3000 ; Travel to line 177
G0 Z0.0 ; Pen down
G1 X44.500 Y132.560 F1000
G0 Z3.0 ; Pen up

G0 X44.500 Y132.820 F3000 ; Travel to line 178
G0 Z0.0 ; Pen down
G1 X168.260 Y27.000 F1000
G1 X168.260 Y27.000 F1000
G1 X44.500 Y132.820 F1000
G0 Z3.0 ; Pen up

G0 X44.500 Y133.080 F3000 ; Travel to line 179
G0 Z0.0 ; Pen down
G1 X168.520 Y27.000 F1000
G0 Z3.0 ; Pen up

G0 X169.040 Y27.000 F3000 ; Travel to line 180
G0 Z0.0 ; Pen down
G1 X44.500 Y133.600 F1000
G0 Z3.0 ; Pen up

G0 X44.500 Y133.340 F3000 ; Travel to line 181
G0 Z0.0 ; Pen down
G1 X168.780 Y27.000 F1000
G1 X168.780 Y27.000 F1000
G1 X44.500 Y133.340 F1000
G0 Z3.0 ; Pen up

G0 X44.500 Y133.860 F3000 ; Travel to line 182
G0 Z0.0 ; Pen down
G1 X169.560 Y27.000 F1000
G1 X169.560 Y27.000 F1000
G1 X44.500 Y133.860 F1000
G1 X44.500 Y133.860 F1000
G1 X169.300 Y27.000 F1000
G0 Z3.0 ; Pen up

G0 X169.820 Y27.000 F3000 ; Travel to line 183
G0 Z0.0 ; Pen down
G1 X44.500 Y134.120 F1000
G0 Z3.0 ; Pen up

G0 X44.500 Y134.380 F3000 ; Travel to line 184
G0 Z0.0 ; Pen down
G1 X170.080 Y27.000 F1000
G1 X170.080 Y27.000 F1000
G1 X44.500 Y134.380 F1000
G0 Z3.0 ; Pen up

G0 X44.500 Y134.640 F3000 ; Travel to line 185
G0 Z0.0 ; Pen down
G1 X170.340 Y27.000 F1000
G0 Z3.0 ; Pen up

G0 X170.600 Y27.000 F3000 ; Travel to line 186
G0 Z0.0 ; Pen down
G1 X44.500 Y134.900 F1000
G0 Z3.0 ; Pen up

G0 X44.500 Y135.160 F3000 ; Travel to line 187
G0 Z0.0 ; Pen down
G1 X170.860 Y27.000 F1000
G1 X170.860 Y27.000 F1000
G1 X44.500 Y135.160 F1000
G0 Z3.0 ; Pen up

G0 X44.500 Y135.420 F3000 ; Travel to line 188
G0 Z0.0 ; Pen down
G1 X171.120 Y27.000 F1000
G0 Z3.0 ; Pen up

G0 X171.900 Y27.000 F3000 ; Travel to line 189
G0 Z0.0 ; Pen down
G1 X44.500 Y135.940 F1000
G0 Z3.0 ; Pen up

G0 X44.500 Y135.680 F3000 ; Travel to line 190
G0 Z0.0 ; Pen down
G1 X171.640 Y27.000 F1000
G1 X171.640 Y27.000 F1000
G1 X44.500 Y135.680 F1000
G0 Z3.0 ; Pen up

G0 X44.500 Y136.200 F3000 ; Travel to line 191
G0 Z0.0 ; Pen down
G1 X172.160 Y27.000 F1000
G1 X172.160 Y27.000 F1000
G1 X44.500 Y136.200 F1000
G0 Z3.0 ; Pen up

G0 X44.500 Y136.460 F3000 ; Travel to line 192
G0 Z0.0 ; Pen down
G1 X172.420 Y27.000 F1000
G0 Z3.0 ; Pen up

G0 X172.680 Y27.000 F3000 ; Travel to line 193
G0 Z0.0 ; Pen down
G1 X44.500 Y136.720 F1000
G0 Z3.0 ; Pen up

G0 X44.500 Y136.980 F3000 ; Travel to line 194
G0 Z0.0 ; Pen down
G1 X172.940 Y27.000 F1000
G1 X172.940 Y27.000 F1000
G1 X44.500 Y136.980 F1000
G0 Z3.0 ; Pen up

G0 X44.500 Y137.240 F3000 ; Travel to line 195
G0 Z0.0 ; Pen down
G1 X173.200 Y27.000 F1000
G0 Z3.0 ; Pen up

G0 X173.720 Y27.000 F3000 ; Travel to line 196
G0 Z0.0 ; Pen down
G1 X44.500 Y137.760 F1000
G0 Z3.0 ; Pen up

G0 X44.500 Y137.500 F3000 ; Travel to line 197
G0 Z0.0 ; Pen down
G1 X173.460 Y27.000 F1000
G1 X173.460 Y27.000 F1000
G1 X44.500 Y137.500 F1000
G0 Z3.0 ; Pen up

G0 X44.500 Y138.020 F3000 ; Travel to line 198
G0 Z0.0 ; Pen down
G1 X173.980 Y27.000 F1000
G0 Z3.0 ; Pen up

G0 X174.500 Y27.000 F3000 ; Travel to line 199
G0 Z0.0 ; Pen down
G1 X44.500 Y138.540 F1000
G0 Z3.0 ; Pen up

G0 X44.500 Y138.280 F3000 ; Travel to line 200
G0 Z0.0 ; Pen down
G1 X174.240 Y27.000 F1000
G1 X174.240 Y27.000 F1000
G1 X44.500 Y138.280 F1000
G0 Z3.0 ; Pen up

G0 X44.500 Y138.800 F3000 ; Travel to line 201
G0 Z0.0 ; Pen down
G1 X174.760 Y27.000 F1000
G1 X174.760 Y27.000 F1000
G1 X44.500 Y138.800 F1000
G0 Z3.0 ; Pen up

G0 X44.500 Y139.060 F3000 ; Travel to line 202
G0 Z0.0 ; Pen down
G1 X175.020 Y27.000 F1000
G0 Z3.0 ; Pen up

G0 X175.540 Y27.000 F3000 ; Travel to line 203
G0 Z0.0 ; Pen down
G1 X44.500 Y139.580 F1000
G0 Z3.0 ; Pen up

G0 X44.500 Y139.840 F3000 ; Travel to line 204
G0 Z0.0 ; Pen down
G1 X175.800 Y27.000 F1000
G0 Z3.0 ; Pen up

G0 X176.320 Y27.000 F3000 ; Travel to line 205
G0 Z0.0 ; Pen down
G1 X44.500 Y140.360 F1000
G0 Z3.0 ; Pen up

G0 X44.500 Y140.620 F3000 ; Travel to line 206
G0 Z0.0 ; Pen down
G1 X176.580 Y27.000 F1000
G1 X176.580 Y27.000 F1000
G1 X44.500 Y140.620 F1000
G0 Z3.0 ; Pen up

G0 X44.500 Y140.880 F3000 ; Travel to line 207
G0 Z0.0 ; Pen down
G1 X176.840 Y27.000 F1000
G0 Z3.0 ; Pen up

G0 X177.100 Y27.000 F3000 ; Travel to line 208
G0 Z0.0 ; Pen down
G1 X44.500 Y141.140 F1000
G0 Z3.0 ; Pen up

G0 X44.500 Y141.400 F3000 ; Travel to line 209
G0 Z0.0 ; Pen down
G1 X177.360 Y27.000 F1000
G1 X177.360 Y27.000 F1000
G1 X44.500 Y141.400 F1000
G0 Z3.0 ; Pen up

G0 X44.500 Y141.660 F3000 ; Travel to line 210
G0 Z0.0 ; Pen down
G1 X177.620 Y27.000 F1000
G0 Z3.0 ; Pen up

G0 X178.140 Y27.000 F3000 ; Travel to line 211
G0 Z0.0 ; Pen down
G1 X44.500 Y142.180 F1000
G0 Z3.0 ; Pen up

G0 X44.500 Y142.440 F3000 ; Travel to line 212
G0 Z0.0 ; Pen down
G1 X178.400 Y27.000 F1000
G0 Z3.0 ; Pen up

G0 X178.920 Y27.000 F3000 ; Travel to line 213
G0 Z0.0 ; Pen down
G1 X44.500 Y142.960 F1000
G0 Z3.0 ; Pen up

G0 X44.500 Y143.220 F3000 ; Travel to line 214
G0 Z0.0 ; Pen down
G1 X179.180 Y27.000 F1000
G1 X179.180 Y27.000 F1000
G1 X44.500 Y143.220 F1000
G0 Z3.0 ; Pen up

G0 X44.500 Y143.480 F3000 ; Travel to line 215
G0 Z0.0 ; Pen down
G1 X179.440 Y27.000 F1000
G0 Z3.0 ; Pen up

G0 X179.960 Y27.000 F3000 ; Travel to line 216
G0 Z0.0 ; Pen down
G1 X44.500 Y144.000 F1000
G0 Z3.0 ; Pen up

G0 X44.500 Y144.260 F3000 ; Travel to line 217
G0 Z0.0 ; Pen down
G1 X180.220 Y27.000 F1000
G0 Z3.0 ; Pen up

G0 X180.740 Y27.000 F3000 ; Travel to line 218
G0 Z0.0 ; Pen down
G1 X44.500 Y144.780 F1000
G0 Z3.0 ; Pen up

G0 X44.500 Y145.040 F3000 ; Travel to line 219
G0 Z0.0 ; Pen down
G1 X181.000 Y27.000 F1000
G1 X181.000 Y27.000 F1000
G1 X44.500 Y145.040 F1000
G0 Z3.0 ; Pen up

G0 X44.500 Y145.300 F3000 ; Travel to line 220
G0 Z0.0 ; Pen down
G1 X181.260 Y27.000 F1000
G0 Z3.0 ; Pen up

G0 X181.520 Y27.000 F3000 ; Travel to line 221
G0 Z0.0 ; Pen down
G1 X44.500 Y145.560 F1000
G0 Z3.0 ; Pen up

G0 X44.500 Y145.820 F3000 ; Travel to line 222
G0 Z0.0 ; Pen down
G1 X182.040 Y27.000 F1000
G1 X182.040 Y27.000 F1000
G1 X44.500 Y145.820 F1000
G0 Z3.0 ; Pen up

G0 X44.500 Y146.080 F3000 ; Travel to line 223
G0 Z0.0 ; Pen down
G1 X182.300 Y27.000 F1000
G0 Z3.0 ; Pen up

G0 X182.820 Y27.000 F3000 ; Travel to line 224
G0 Z0.0 ; Pen down
G1 X44.500 Y146.600 F1000
G0 Z3.0 ; Pen up

G0 X44.500 Y146.340 F3000 ; Travel to line 225
G0 Z0.0 ; Pen down
G1 X182.560 Y27.000 F1000
G1 X182.560 Y27.000 F1000
G1 X44.500 Y146.340 F1000
G0 Z3.0 ; Pen up

G0 X44.500 Y146.860 F3000 ; Travel to line 226
G0 Z0.0 ; Pen down
G1 X183.080 Y27.000 F1000
G1 X183.080 Y27.000 F1000
G1 X44.500 Y146.860 F1000
G0 Z3.0 ; Pen up

G0 X44.500 Y147.380 F3000 ; Travel to line 227
G0 Z0.0 ; Pen down
G1 X183.860 Y27.000 F1000
G1 X183.860 Y27.000 F1000
G1 X44.500 Y147.380 F1000
G0 Z3.0 ; Pen up

G0 X44.500 Y147.640 F3000 ; Travel to line 228
G0 Z0.0 ; Pen down
G1 X184.120 Y27.000 F1000
G0 Z3.0 ; Pen up

G0 X184.640 Y27.000 F3000 ; Travel to line 229
G0 Z0.0 ; Pen down
G1 X44.500 Y148.160 F1000
G0 Z3.0 ; Pen up

G0 X44.500 Y147.900 F3000 ; Travel to line 230
G0 Z0.0 ; Pen down
G1 X184.380 Y27.000 F1000
G1 X184.380 Y27.000 F1000
G1 X44.500 Y147.900 F1000
G0 Z3.0 ; Pen up

G0 X44.500 Y148.420 F3000 ; Travel to line 231
G0 Z0.0 ; Pen down
G1 X184.900 Y27.000 F1000
G0 Z3.0 ; Pen up

G0 X185.420 Y27.000 F3000 ; Travel to line 232
G0 Z0.0 ; Pen down
G1 X44.500 Y148.940 F1000
G0 Z3.0 ; Pen up

G0 X44.500 Y148.680 F3000 ; Travel to line 233
G0 Z0.0 ; Pen down
G1 X185.160 Y27.000 F1000
G1 X185.160 Y27.000 F1000
G1 X44.500 Y148.680 F1000
G0 Z3.0 ; Pen up

G0 X44.500 Y149.200 F3000 ; Travel to line 234
G0 Z0.0 ; Pen down
G1 X185.680 Y27.000 F1000
G1 X185.680 Y27.000 F1000
G1 X44.500 Y149.200 F1000
G0 Z3.0 ; Pen up

G0 X44.500 Y149.460 F3000 ; Travel to line 235
G0 Z0.0 ; Pen down
G1 X185.940 Y27.000 F1000
G0 Z3.0 ; Pen up

G0 X186.200 Y27.000 F3000 ; Travel to line 236
G0 Z0.0 ; Pen down
G1 X44.500 Y149.720 F1000
G0 Z3.0 ; Pen up

G0 X44.500 Y149.980 F3000 ; Travel to line 237
G0 Z0.0 ; Pen down
G1 X186.460 Y27.000 F1000
G1 X186.460 Y27.000 F1000
G1 X44.500 Y149.980 F1000
G0 Z3.0 ; Pen up

G0 X44.500 Y150.240 F3000 ; Travel to line 238
G0 Z0.0 ; Pen down
G1 X186.720 Y27.000 F1000
G0 Z3.0 ; Pen up

G0 X187.240 Y27.000 F3000 ; Travel to line 239
G0 Z0.0 ; Pen down
G1 X44.500 Y150.760 F1000
G0 Z3.0 ; Pen up

G0 X44.500 Y150.500 F3000 ; Travel to line 240
G0 Z0.0 ; Pen down
G1 X186.980 Y27.000 F1000
G1 X186.980 Y27.000 F1000
G1 X44.500 Y150.500 F1000
G0 Z3.0 ; Pen up

G0 X44.500 Y151.020 F3000 ; Travel to line 241
G0 Z0.0 ; Pen down
G1 X187.500 Y27.000 F1000
G1 X187.500 Y27.000 F1000
G1 X44.500 Y151.020 F1000
G0 Z3.0 ; Pen up

G0 X44.500 Y151.280 F3000 ; Travel to line 242
G0 Z0.0 ; Pen down
G1 X187.760 Y27.000 F1000
G0 Z3.0 ; Pen up

G0 X188.020 Y27.000 F3000 ; Travel to line 243
G0 Z0.0 ; Pen down
G1 X44.500 Y151.540 F1000
G0 Z3.0 ; Pen up

G0 X44.500 Y151.800 F3000 ; Travel to line 244
G0 Z0.0 ; Pen down
G1 X188.280 Y27.000 F1000
G1 X188.280 Y27.000 F1000
G1 X44.500 Y151.800 F1000
G0 Z3.0 ; Pen up

G0 X44.500 Y152.060 F3000 ; Travel to line 245
G0 Z0.0 ; Pen down
G1 X188.540 Y27.000 F1000
G0 Z3.0 ; Pen up

G0 X189.060 Y27.000 F3000 ; Travel to line 246
G0 Z0.0 ; Pen down
G1 X44.500 Y152.580 F1000
G0 Z3.0 ; Pen up

G0 X44.500 Y152.840 F3000 ; Travel to line 247
G0 Z0.0 ; Pen down
G1 X189.320 Y27.000 F1000
G0 Z3.0 ; Pen up

G0 X189.840 Y27.000 F3000 ; Travel to line 248
G0 Z0.0 ; Pen down
G1 X44.500 Y153.360 F1000
G0 Z3.0 ; Pen up

G0 X44.500 Y153.620 F3000 ; Travel to line 249
G0 Z0.0 ; Pen down
G1 X190.100 Y27.000 F1000
G1 X190.100 Y27.000 F1000
G1 X44.500 Y153.620 F1000
G0 Z3.0 ; Pen up

G0 X44.500 Y153.880 F3000 ; Travel to line 250
G0 Z0.0 ; Pen down
G1 X190.360 Y27.000 F1000
G0 Z3.0 ; Pen up

G0 X190.880 Y27.000 F3000 ; Travel to line 251
G0 Z0.0 ; Pen down
G1 X44.500 Y154.400 F1000
G0 Z3.0 ; Pen up

G0 X44.500 Y154.660 F3000 ; Travel to line 252
G0 Z0.0 ; Pen down
G1 X191.140 Y27.000 F1000
G0 Z3.0 ; Pen up

G0 X191.660 Y27.000 F3000 ; Travel to line 253
G0 Z0.0 ; Pen down
G1 X44.500 Y155.180 F1000
G0 Z3.0 ; Pen up

G0 X44.500 Y155.440 F3000 ; Travel to line 254
G0 Z0.0 ; Pen down
G1 X191.920 Y27.000 F1000
G1 X191.920 Y27.000 F1000
G1 X44.500 Y155.440 F1000
G0 Z3.0 ; Pen up

G0 X44.500 Y155.700 F3000 ; Travel to line 255
G0 Z0.0 ; Pen down
G1 X192.180 Y27.000 F1000
G0 Z3.0 ; Pen up

G0 X192.440 Y27.000 F3000 ; Travel to line 256
G0 Z0.0 ; Pen down
G1 X44.500 Y155.960 F1000
G0 Z3.0 ; Pen up

G0 X44.500 Y156.220 F3000 ; Travel to line 257
G0 Z0.0 ; Pen down
G1 X192.700 Y27.000 F1000
G1 X192.700 Y27.000 F1000
G1 X44.500 Y156.220 F1000
G0 Z3.0 ; Pen up

G0 X44.500 Y156.480 F3000 ; Travel to line 258
G0 Z0.0 ; Pen down
G1 X192.960 Y27.000 F1000
G0 Z3.0 ; Pen up

G0 X193.480 Y27.000 F3000 ; Travel to line 259
G0 Z0.0 ; Pen down
G1 X44.500 Y157.000 F1000
G0 Z3.0 ; Pen up

G0 X44.500 Y156.740 F3000 ; Travel to line 260
G0 Z0.0 ; Pen down
G1 X193.220 Y27.000 F1000
G1 X193.220 Y27.000 F1000
G1 X44.500 Y156.740 F1000
G0 Z3.0 ; Pen up

G0 X44.500 Y157.260 F3000 ; Travel to line 261
G0 Z0.0 ; Pen down
G1 X194.000 Y27.000 F1000
G1 X194.000 Y27.000 F1000
G1 X44.500 Y157.260 F1000
G0 Z3.0 ; Pen up

G0 X44.500 Y157.520 F3000 ; Travel to line 262
G0 Z0.0 ; Pen down
G1 X194.260 Y27.000 F1000
G0 Z3.0 ; Pen up

G0 X194.520 Y27.000 F3000 ; Travel to line 263
G0 Z0.0 ; Pen down
G1 X44.500 Y157.780 F1000
G0 Z3.0 ; Pen up

G0 X44.500 Y158.040 F3000 ; Travel to line 264
G0 Z0.0 ; Pen down
G1 X194.780 Y27.000 F1000
G1 X194.780 Y27.000 F1000
G1 X44.500 Y158.040 F1000
G0 Z3.0 ; Pen up

G0 X44.500 Y158.300 F3000 ; Travel to line 265
G0 Z0.0 ; Pen down
G1 X195.040 Y27.000 F1000
G0 Z3.0 ; Pen up

G0 X195.560 Y27.000 F3000 ; Travel to line 266
G0 Z0.0 ; Pen down
G1 X44.500 Y158.820 F1000
G0 Z3.0 ; Pen up

G0 X44.500 Y158.560 F3000 ; Travel to line 267
G0 Z0.0 ; Pen down
G1 X195.300 Y27.000 F1000
G1 X195.300 Y27.000 F1000
G1 X44.500 Y158.560 F1000
G0 Z3.0 ; Pen up

G0 X44.500 Y159.080 F3000 ; Travel to line 268
G0 Z0.0 ; Pen down
G1 X195.820 Y27.000 F1000
G0 Z3.0 ; Pen up

G0 X196.340 Y27.000 F3000 ; Travel to line 269
G0 Z0.0 ; Pen down
G1 X44.500 Y159.600 F1000
G0 Z3.0 ; Pen up

G0 X44.500 Y159.340 F3000 ; Travel to line 270
G0 Z0.0 ; Pen down
G1 X196.080 Y27.000 F1000
G1 X196.080 Y27.000 F1000
G1 X44.500 Y159.340 F1000
G0 Z3.0 ; Pen up

G0 X44.500 Y159.860 F3000 ; Travel to line 271
G0 Z0.0 ; Pen down
G1 X196.600 Y27.000 F1000
G1 X196.600 Y27.000 F1000
G1 X44.500 Y159.860 F1000
G0 Z3.0 ; Pen up

G0 X44.500 Y160.120 F3000 ; Travel to line 272
G0 Z0.0 ; Pen down
G1 X196.860 Y27.000 F1000
G0 Z3.0 ; Pen up

G0 X197.120 Y27.000 F3000 ; Travel to line 273
G0 Z0.0 ; Pen down
G1 X44.500 Y160.380 F1000
G0 Z3.0 ; Pen up

G0 X44.500 Y160.640 F3000 ; Travel to line 274
G0 Z0.0 ; Pen down
G1 X197.380 Y27.000 F1000
G1 X197.380 Y27.000 F1000
G1 X44.500 Y160.640 F1000
G0 Z3.0 ; Pen up

G0 X44.500 Y160.900 F3000 ; Travel to line 275
G0 Z0.0 ; Pen down
G1 X197.640 Y27.000 F1000
G0 Z3.0 ; Pen up

G0 X198.160 Y27.000 F3000 ; Travel to line 276
G0 Z0.0 ; Pen down
G1 X44.500 Y161.420 F1000
G0 Z3.0 ; Pen up

G0 X44.500 Y161.680 F3000 ; Travel to line 277
G0 Z0.0 ; Pen down
G1 X198.420 Y27.000 F1000
G1 X198.420 Y27.000 F1000
G1 X44.500 Y161.680 F1000
G0 Z3.0 ; Pen up

G0 X44.500 Y161.940 F3000 ; Travel to line 278
G0 Z0.0 ; Pen down
G1 X198.680 Y27.000 F1000
G0 Z3.0 ; Pen up

G0 X198.940 Y27.000 F3000 ; Travel to line 279
G0 Z0.0 ; Pen down
G1 X44.500 Y162.200 F1000
G0 Z3.0 ; Pen up

G0 X44.500 Y162.460 F3000 ; Travel to line 280
G0 Z0.0 ; Pen down
G1 X199.200 Y27.000 F1000
G1 X199.200 Y27.000 F1000
G1 X44.500 Y162.460 F1000
G1 X44.500 Y162.460 F1000
G1 X199.460 Y27.000 F1000
G0 Z3.0 ; Pen up

G0 X199.980 Y27.000 F3000 ; Travel to line 281
G0 Z0.0 ; Pen down
G1 X44.500 Y162.980 F1000
G0 Z3.0 ; Pen up

G0 X44.500 Y163.240 F3000 ; Travel to line 282
G0 Z0.0 ; Pen down
G1 X200.240 Y27.000 F1000
G0 Z3.0 ; Pen up

G0 X200.760 Y27.000 F3000 ; Travel to line 283
G0 Z0.0 ; Pen down
G1 X44.500 Y163.760 F1000
G0 Z3.0 ; Pen up

G0 X44.500 Y164.020 F3000 ; Travel to line 284
G0 Z0.0 ; Pen down
G1 X201.020 Y27.000 F1000
G1 X201.020 Y27.000 F1000
G1 X44.500 Y164.020 F1000
G0 Z3.0 ; Pen up

G0 X44.500 Y164.280 F3000 ; Travel to line 285
G0 Z0.0 ; Pen down
G1 X201.280 Y27.000 F1000
G0 Z3.0 ; Pen up

G0 X201.800 Y27.000 F3000 ; Travel to line 286
G0 Z0.0 ; Pen down
G1 X44.500 Y164.800 F1000
G0 Z3.0 ; Pen up

G0 X44.500 Y165.060 F3000 ; Travel to line 287
G0 Z0.0 ; Pen down
G1 X202.060 Y27.000 F1000
G0 Z3.0 ; Pen up

G0 X202.580 Y27.000 F3000 ; Travel to line 288
G0 Z0.0 ; Pen down
G1 X44.500 Y165.580 F1000
G0 Z3.0 ; Pen up

G0 X44.500 Y165.840 F3000 ; Travel to line 289
G0 Z0.0 ; Pen down
G1 X202.840 Y27.000 F1000
G1 X202.840 Y27.000 F1000
G1 X44.500 Y165.840 F1000
G0 Z3.0 ; Pen up

G0 X44.500 Y166.100 F3000 ; Travel to line 290
G0 Z0.0 ; Pen down
G1 X203.100 Y27.000 F1000
G0 Z3.0 ; Pen up

G0 X203.360 Y27.000 F3000 ; Travel to line 291
G0 Z0.0 ; Pen down
G1 X44.500 Y166.360 F1000
G0 Z3.0 ; Pen up

G0 X44.500 Y166.620 F3000 ; Travel to line 292
G0 Z0.0 ; Pen down
G1 X203.620 Y27.000 F1000
G1 X203.620 Y27.000 F1000
G1 X44.500 Y166.620 F1000
G0 Z3.0 ; Pen up

G0 X44.500 Y166.880 F3000 ; Travel to line 293
G0 Z0.0 ; Pen down
G1 X203.880 Y27.000 F1000
G0 Z3.0 ; Pen up

G0 X204.400 Y27.000 F3000 ; Travel to line 294
G0 Z0.0 ; Pen down
G1 X44.500 Y167.400 F1000
G0 Z3.0 ; Pen up

G0 X44.500 Y167.660 F3000 ; Travel to line 295
G0 Z0.0 ; Pen down
G1 X204.660 Y27.000 F1000
G0 Z3.0 ; Pen up

G0 X205.180 Y27.000 F3000 ; Travel to line 296
G0 Z0.0 ; Pen down
G1 X44.500 Y168.180 F1000
G0 Z3.0 ; Pen up

G0 X44.500 Y168.440 F3000 ; Travel to line 297
G0 Z0.0 ; Pen down
G1 X205.440 Y27.000 F1000
G1 X205.440 Y27.000 F1000
G1 X44.500 Y168.440 F1000
G0 Z3.0 ; Pen up

G0 X44.500 Y168.700 F3000 ; Travel to line 298
G0 Z0.0 ; Pen down
G1 X205.700 Y27.000 F1000
G0 Z3.0 ; Pen up

G0 X206.220 Y27.000 F3000 ; Travel to line 299
G0 Z0.0 ; Pen down
G1 X44.500 Y169.220 F1000
G0 Z3.0 ; Pen up

G0 X44.500 Y168.960 F3000 ; Travel to line 300
G0 Z0.0 ; Pen down
G1 X205.960 Y27.000 F1000
G1 X205.960 Y27.000 F1000
G1 X44.500 Y168.960 F1000
G0 Z3.0 ; Pen up

G0 X44.500 Y169.480 F3000 ; Travel to line 301
G0 Z0.0 ; Pen down
G1 X206.480 Y27.000 F1000
G0 Z3.0 ; Pen up

G0 X207.260 Y27.000 F3000 ; Travel to line 302
G0 Z0.0 ; Pen down
G1 X44.500 Y170.000 F1000
G0 Z3.0 ; Pen up

G0 X44.500 Y169.740 F3000 ; Travel to line 303
G0 Z0.0 ; Pen down
G1 X206.740 Y27.000 F1000
G1 X206.740 Y27.000 F1000
G1 X44.500 Y169.740 F1000
G0 Z3.0 ; Pen up

G0 X44.500 Y170.260 F3000 ; Travel to line 304
G0 Z0.0 ; Pen down
G1 X207.520 Y27.000 F1000
G1 X207.520 Y27.000 F1000
G1 X44.500 Y170.260 F1000
G0 Z3.0 ; Pen up

G0 X44.500 Y170.520 F3000 ; Travel to line 305
G0 Z0.0 ; Pen down
G1 X207.780 Y27.000 F1000
G0 Z3.0 ; Pen up

G0 X208.040 Y27.000 F3000 ; Travel to line 306
G0 Z0.0 ; Pen down
G1 X44.500 Y170.780 F1000
G0 Z3.0 ; Pen up

G0 X44.500 Y171.040 F3000 ; Travel to line 307
G0 Z0.0 ; Pen down
G1 X208.300 Y27.000 F1000
G1 X208.300 Y27.000 F1000
G1 X44.500 Y171.040 F1000
G0 Z3.0 ; Pen up

G0 X44.500 Y171.300 F3000 ; Travel to line 308
G0 Z0.0 ; Pen down
G1 X208.560 Y27.000 F1000
G0 Z3.0 ; Pen up

G0 X209.080 Y27.000 F3000 ; Travel to line 309
G0 Z0.0 ; Pen down
G1 X44.500 Y171.820 F1000
G0 Z3.0 ; Pen up

G0 X44.500 Y171.560 F3000 ; Travel to line 310
G0 Z0.0 ; Pen down
G1 X208.820 Y27.000 F1000
G1 X208.820 Y27.000 F1000
G1 X44.500 Y171.560 F1000
G0 Z3.0 ; Pen up

G0 X44.500 Y172.080 F3000 ; Travel to line 311
G0 Z0.0 ; Pen down
G1 X209.340 Y27.000 F1000
G1 X209.340 Y27.000 F1000
G1 X44.500 Y172.080 F1000
G0 Z3.0 ; Pen up

G0 X44.500 Y172.340 F3000 ; Travel to line 312
G0 Z0.0 ; Pen down
G1 X209.600 Y27.000 F1000
G0 Z3.0 ; Pen up

G0 X209.860 Y27.000 F3000 ; Travel to line 313
G0 Z0.0 ; Pen down
G1 X44.500 Y172.600 F1000
G0 Z3.0 ; Pen up

G0 X44.500 Y172.860 F3000 ; Travel to line 314
G0 Z0.0 ; Pen down
G1 X210.120 Y27.000 F1000
G1 X210.120 Y27.000 F1000
G1 X44.500 Y172.860 F1000
G0 Z3.0 ; Pen up

G0 X44.500 Y173.120 F3000 ; Travel to line 315
G0 Z0.0 ; Pen down
G1 X210.380 Y27.000 F1000
G0 Z3.0 ; Pen up

G0 X210.900 Y27.000 F3000 ; Travel to line 316
G0 Z0.0 ; Pen down
G1 X44.500 Y173.640 F1000
G0 Z3.0 ; Pen up

G0 X44.500 Y173.900 F3000 ; Travel to line 317
G0 Z0.0 ; Pen down
G1 X211.160 Y27.000 F1000
G0 Z3.0 ; Pen up

G0 X211.680 Y27.000 F3000 ; Travel to line 318
G0 Z0.0 ; Pen down
G1 X44.500 Y174.420 F1000
G0 Z3.0 ; Pen up

G0 X44.500 Y174.680 F3000 ; Travel to line 319
G0 Z0.0 ; Pen down
G1 X211.940 Y27.000 F1000
G1 X211.940 Y27.000 F1000
G1 X44.500 Y174.680 F1000
G0 Z3.0 ; Pen up

G0 X44.500 Y174.940 F3000 ; Travel to line 320
G0 Z0.0 ; Pen down
G1 X212.200 Y27.000 F1000
G0 Z3.0 ; Pen up

G0 X212.460 Y27.000 F3000 ; Travel to line 321
G0 Z0.0 ; Pen down
G1 X44.500 Y175.200 F1000
G0 Z3.0 ; Pen up

G0 X44.500 Y175.460 F3000 ; Travel to line 322
G0 Z0.0 ; Pen down
G1 X212.720 Y27.000 F1000
G1 X212.720 Y27.000 F1000
G1 X44.500 Y175.460 F1000
G0 Z3.0 ; Pen up

G0 X44.500 Y175.720 F3000 ; Travel to line 323
G0 Z0.0 ; Pen down
G1 X212.980 Y27.000 F1000
G0 Z3.0 ; Pen up

G0 X213.500 Y27.000 F3000 ; Travel to line 324
G0 Z0.0 ; Pen down
G1 X44.500 Y176.240 F1000
G0 Z3.0 ; Pen up

G0 X44.500 Y176.500 F3000 ; Travel to line 325
G0 Z0.0 ; Pen down
G1 X213.760 Y27.000 F1000
G1 X213.760 Y27.000 F1000
G1 X44.500 Y176.500 F1000
G0 Z3.0 ; Pen up

G0 X44.500 Y176.760 F3000 ; Travel to line 326
G0 Z0.0 ; Pen down
G1 X214.020 Y27.000 F1000
G0 Z3.0 ; Pen up

G0 X214.280 Y27.000 F3000 ; Travel to line 327
G0 Z0.0 ; Pen down
G1 X44.500 Y177.020 F1000
G0 Z3.0 ; Pen up

G0 X44.500 Y177.280 F3000 ; Travel to line 328
G0 Z0.0 ; Pen down
G1 X214.540 Y27.000 F1000
G1 X214.540 Y27.000 F1000
G1 X44.500 Y177.280 F1000
G0 Z3.0 ; Pen up

G0 X44.500 Y177.540 F3000 ; Travel to line 329
G0 Z0.0 ; Pen down
G1 X214.800 Y27.000 F1000
G0 Z3.0 ; Pen up

G0 X215.320 Y27.000 F3000 ; Travel to line 330
G0 Z0.0 ; Pen down
G1 X44.500 Y178.060 F1000
G0 Z3.0 ; Pen up

G0 X44.500 Y178.320 F3000 ; Travel to line 331
G0 Z0.0 ; Pen down
G1 X215.580 Y27.000 F1000
G0 Z3.0 ; Pen up

G0 X216.100 Y27.000 F3000 ; Travel to line 332
G0 Z0.0 ; Pen down
G1 X44.500 Y178.840 F1000
G0 Z3.0 ; Pen up

G0 X44.500 Y179.100 F3000 ; Travel to line 333
G0 Z0.0 ; Pen down
G1 X216.360 Y27.000 F1000
G1 X216.360 Y27.000 F1000
G1 X44.500 Y179.100 F1000
G0 Z3.0 ; Pen up

G0 X44.500 Y179.360 F3000 ; Travel to line 334
G0 Z0.0 ; Pen down
G1 X216.620 Y27.000 F1000
G0 Z3.0 ; Pen up

G0 X217.140 Y27.000 F3000 ; Travel to line 335
G0 Z0.0 ; Pen down
G1 X44.500 Y179.880 F1000
G0 Z3.0 ; Pen up

G0 X44.500 Y179.620 F3000 ; Travel to line 336
G0 Z0.0 ; Pen down
G1 X216.880 Y27.000 F1000
G1 X216.880 Y27.000 F1000
G1 X44.500 Y179.620 F1000
G0 Z3.0 ; Pen up

G0 X44.500 Y180.140 F3000 ; Travel to line 337
G0 Z0.0 ; Pen down
G1 X217.400 Y27.000 F1000
G0 Z3.0 ; Pen up

G0 X217.920 Y27.000 F3000 ; Travel to line 338
G0 Z0.0 ; Pen down
G1 X44.500 Y180.400 F1000
G1 X44.500 Y180.400 F1000
G1 X217.660 Y27.000 F1000
G1 X217.660 Y27.000 F1000
G1 X44.500 Y180.400 F1000
G0 Z3.0 ; Pen up

G0 X44.500 Y180.660 F3000 ; Travel to line 339
G0 Z0.0 ; Pen down
G1 X218.180 Y27.000 F1000
G1 X218.180 Y27.000 F1000
G1 X44.500 Y180.660 F1000
G0 Z3.0 ; Pen up

G0 X44.500 Y180.920 F3000 ; Travel to line 340
G0 Z0.0 ; Pen down
G1 X218.440 Y27.000 F1000
G0 Z3.0 ; Pen up

G0 X218.700 Y27.000 F3000 ; Travel to line 341
G0 Z0.0 ; Pen down
G1 X44.500 Y181.180 F1000
G0 Z3.0 ; Pen up

G0 X44.500 Y181.440 F3000 ; Travel to line 342
G0 Z0.0 ; Pen down
G1 X218.960 Y27.000 F1000
G1 X218.960 Y27.000 F1000
G1 X44.500 Y181.440 F1000
G0 Z3.0 ; Pen up

G0 X44.500 Y181.700 F3000 ; Travel to line 343
G0 Z0.0 ; Pen down
G1 X219.220 Y27.000 F1000
G0 Z3.0 ; Pen up

G0 X219.740 Y27.000 F3000 ; Travel to line 344
G0 Z0.0 ; Pen down
G1 X44.500 Y182.220 F1000
G0 Z3.0 ; Pen up

G0 X44.500 Y181.960 F3000 ; Travel to line 345
G0 Z0.0 ; Pen down
G1 X219.480 Y27.000 F1000
G1 X219.480 Y27.000 F1000
G1 X44.500 Y181.960 F1000
G0 Z3.0 ; Pen up

G0 X44.500 Y182.480 F3000 ; Travel to line 346
G0 Z0.0 ; Pen down
G1 X220.000 Y27.000 F1000
G1 X220.000 Y27.000 F1000
G1 X44.500 Y182.480 F1000
G0 Z3.0 ; Pen up

G0 X44.500 Y182.740 F3000 ; Travel to line 347
G0 Z0.0 ; Pen down
G1 X220.260 Y27.000 F1000
G0 Z3.0 ; Pen up

G0 X220.520 Y27.000 F3000 ; Travel to line 348
G0 Z0.0 ; Pen down
G1 X44.500 Y183.000 F1000
G0 Z3.0 ; Pen up

G0 X44.760 Y183.000 F3000 ; Travel to line 349
G0 Z0.0 ; Pen down
G1 X220.780 Y27.000 F1000
G1 X220.780 Y27.000 F1000
G1 X44.760 Y183.000 F1000
G0 Z3.0 ; Pen up

G0 X45.280 Y183.000 F3000 ; Travel to line 350
G0 Z0.0 ; Pen down
G1 X221.040 Y27.000 F1000
G0 Z3.0 ; Pen up

G0 X221.560 Y27.000 F3000 ; Travel to line 351
G0 Z0.0 ; Pen down
G1 X45.800 Y183.000 F1000
G0 Z3.0 ; Pen up

G0 X45.540 Y183.000 F3000 ; Travel to line 352
G0 Z0.0 ; Pen down
G1 X221.300 Y27.000 F1000
G1 X221.300 Y27.000 F1000
G1 X45.540 Y183.000 F1000
G0 Z3.0 ; Pen up

G0 X46.060 Y183.000 F3000 ; Travel to line 353
G0 Z0.0 ; Pen down
G1 X221.820 Y27.000 F1000
G0 Z3.0 ; Pen up

G0 X222.340 Y27.000 F3000 ; Travel to line 354
G0 Z0.0 ; Pen down
G1 X46.580 Y183.000 F1000
G0 Z3.0 ; Pen up

G0 X46.320 Y183.000 F3000 ; Travel to line 355
G0 Z0.0 ; Pen down
G1 X222.080 Y27.000 F1000
G1 X222.080 Y27.000 F1000
G1 X46.320 Y183.000 F1000
G0 Z3.0 ; Pen up

G0 X46.840 Y183.000 F3000 ; Travel to line 356
G0 Z0.0 ; Pen down
G1 X222.860 Y27.000 F1000
G1 X222.860 Y27.000 F1000
G1 X46.840 Y183.000 F1000
G0 Z3.0 ; Pen up

G0 X47.100 Y183.000 F3000 ; Travel to line 357
G0 Z0.0 ; Pen down
G1 X223.120 Y27.000 F1000
G0 Z3.0 ; Pen up

G0 X223.380 Y27.000 F3000 ; Travel to line 358
G0 Z0.0 ; Pen down
G1 X47.360 Y183.000 F1000
G0 Z3.0 ; Pen up

G0 X47.880 Y183.000 F3000 ; Travel to line 359
G0 Z0.0 ; Pen down
G1 X225.200 Y27.000 F1000
G1 X225.200 Y27.000 F1000
G1 X47.880 Y183.000 F1000
G1 X47.880 Y183.000 F1000
G1 X224.420 Y27.000 F1000
G1 X224.420 Y27.000 F1000
G1 X47.880 Y183.000 F1000
G1 X47.880 Y183.000 F1000
G1 X223.640 Y27.000 F1000
G1 X223.640 Y27.000 F1000
G1 X47.880 Y183.000 F1000
G0 Z3.0 ; Pen up

G0 X48.140 Y183.000 F3000 ; Travel to line 360
G0 Z0.0 ; Pen down
G1 X226.240 Y27.000 F1000
G1 X226.240 Y27.000 F1000
G1 X48.140 Y183.000 F1000
G1 X48.140 Y183.000 F1000
G1 X225.460 Y27.000 F1000
G1 X225.460 Y27.000 F1000
G1 X48.140 Y183.000 F1000
G1 X48.140 Y183.000 F1000
G1 X225.460 Y27.000 F1000
G0 Z3.0 ; Pen up

G0 X225.720 Y27.000 F3000 ; Travel to line 361
G0 Z0.0 ; Pen down
G1 X48.140 Y183.000 F1000
G1 X48.140 Y183.000 F1000
G1 X225.980 Y27.000 F1000
G0 Z3.0 ; Pen up

G0 X226.500 Y27.000 F3000 ; Travel to line 362
G0 Z0.0 ; Pen down
G1 X48.140 Y183.000 F1000
G1 X48.140 Y183.000 F1000
G1 X226.760 Y27.000 F1000
G1 X226.760 Y27.000 F1000
G1 X48.140 Y183.000 F1000
G1 X48.140 Y183.000 F1000
G1 X227.020 Y27.000 F1000
G0 Z3.0 ; Pen up

G0 X227.280 Y27.000 F3000 ; Travel to line 363
G0 Z0.0 ; Pen down
G1 X48.400 Y183.000 F1000
G1 X48.400 Y183.000 F1000
G1 X227.280 Y27.000 F1000
G1 X227.280 Y27.000 F1000
G1 X48.400 Y183.000 F1000
G1 X48.400 Y183.000 F1000
G1 X228.320 Y27.000 F1000
G1 X228.320 Y27.000 F1000
G1 X48.400 Y183.000 F1000
G0 Z3.0 ; Pen up

G0 X48.660 Y183.000 F3000 ; Travel to line 364
G0 Z0.0 ; Pen down
G1 X230.660 Y27.000 F1000
G1 X230.660 Y27.000 F1000
G1 X48.660 Y183.000 F1000
G1 X48.660 Y183.000 F1000
G1 X229.100 Y27.000 F1000
G1 X229.100 Y27.000 F1000
G1 X48.660 Y183.000 F1000
G0 Z3.0 ; Pen up

G0 X48.920 Y183.000 F3000 ; Travel to line 365
G0 Z0.0 ; Pen down
G1 X231.700 Y27.000 F1000
G1 X231.700 Y27.000 F1000
G1 X48.920 Y183.000 F1000
G1 X48.920 Y183.000 F1000
G1 X230.920 Y27.000 F1000
G1 X230.920 Y27.000 F1000
G1 X48.920 Y183.000 F1000
G1 X48.920 Y183.000 F1000
G1 X230.920 Y27.000 F1000
G0 Z3.0 ; Pen up

G0 X231.180 Y27.000 F3000 ; Travel to line 366
G0 Z0.0 ; Pen down
G1 X48.920 Y183.000 F1000
G1 X48.920 Y183.000 F1000
G1 X231.440 Y27.000 F1000
G0 Z3.0 ; Pen up

G0 X231.960 Y27.000 F3000 ; Travel to line 367
G0 Z0.0 ; Pen down
G1 X48.920 Y183.000 F1000
G1 X48.920 Y183.000 F1000
G1 X232.220 Y27.000 F1000
G1 X232.220 Y27.000 F1000
G1 X48.920 Y183.000 F1000
G1 X48.920 Y183.000 F1000
G1 X232.480 Y27.000 F1000
G0 Z3.0 ; Pen up

G0 X232.740 Y27.000 F3000 ; Travel to line 368
G0 Z0.0 ; Pen down
G1 X49.180 Y183.000 F1000
G1 X49.180 Y183.000 F1000
G1 X232.740 Y27.000 F1000
G1 X232.740 Y27.000 F1000
G1 X49.180 Y183.000 F1000
G1 X49.180 Y183.000 F1000
G1 X233.780 Y27.000 F1000
G1 X233.780 Y27.000 F1000
G1 X49.180 Y183.000 F1000
G0 Z3.0 ; Pen up

G0 X49.440 Y183.000 F3000 ; Travel to line 369
G0 Z0.0 ; Pen down
G1 X236.120 Y27.000 F1000
G1 X236.120 Y27.000 F1000
G1 X49.440 Y183.000 F1000
G1 X49.440 Y183.000 F1000
G1 X234.820 Y27.000 F1000
G1 X234.820 Y27.000 F1000
G1 X49.440 Y183.000 F1000
G1 X49.440 Y183.000 F1000
G1 X234.560 Y27.000 F1000
G1 X234.560 Y27.000 F1000
G1 X49.440 Y183.000 F1000
G0 Z3.0 ; Pen up

G0 X49.700 Y183.000 F3000 ; Travel to line 370
G0 Z0.0 ; Pen down
G1 X237.160 Y27.000 F1000
G1 X237.160 Y27.000 F1000
G1 X49.700 Y183.000 F1000
G1 X49.700 Y183.000 F1000
G1 X236.640 Y27.000 F1000
G1 X236.640 Y27.000 F1000
G1 X49.700 Y183.000 F1000
G1 X49.700 Y183.000 F1000
G1 X236.380 Y27.000 F1000
G0 Z3.0 ; Pen up

G0 X236.640 Y27.000 F3000 ; Travel to line 371
G0 Z0.0 ; Pen down
G1 X49.700 Y183.000 F1000
G1 X49.700 Y183.000 F1000
G1 X236.900 Y27.000 F1000
G0 Z3.0 ; Pen up

G0 X237.420 Y27.000 F3000 ; Travel to line 372
G0 Z0.0 ; Pen down
G1 X49.700 Y183.000 F1000
G1 X49.700 Y183.000 F1000
G1 X237.680 Y27.000 F1000
G1 X237.680 Y27.000 F1000
G1 X49.700 Y183.000 F1000
G1 X49.700 Y183.000 F1000
G1 X237.940 Y27.000 F1000
G0 Z3.0 ; Pen up

G0 X238.200 Y27.000 F3000 ; Travel to line 373
G0 Z0.0 ; Pen down
G1 X49.960 Y183.000 F1000
G1 X49.960 Y183.000 F1000
G1 X238.460 Y27.000 F1000
G1 X238.460 Y27.000 F1000
G1 X49.960 Y183.000 F1000
G0 Z3.0 ; Pen up

G0 X50.220 Y183.000 F3000 ; Travel to line 374
G0 Z0.0 ; Pen down
G1 X241.580 Y27.000 F1000
G1 X241.580 Y27.000 F1000
G1 X50.220 Y183.000 F1000
G1 X50.220 Y183.000 F1000
G1 X240.280 Y27.000 F1000
G1 X240.280 Y27.000 F1000
G1 X50.220 Y183.000 F1000
G1 X50.220 Y183.000 F1000
G1 X240.020 Y27.000 F1000
G1 X240.020 Y27.000 F1000
G1 X50.220 Y183.000 F1000
G0 Z3.0 ; Pen up

G0 X50.480 Y183.000 F3000 ; Travel to line 375
G0 Z0.0 ; Pen down
G1 X242.620 Y27.000 F1000
G1 X242.620 Y27.000 F1000
G1 X50.480 Y183.000 F1000
G1 X50.480 Y183.000 F1000
G1 X242.100 Y27.000 F1000
G1 X242.100 Y27.000 F1000
G1 X50.480 Y183.000 F1000
G1 X50.480 Y183.000 F1000
G1 X241.840 Y27.000 F1000
G0 Z3.0 ; Pen up

G0 X242.100 Y27.000 F3000 ; Travel to line 376
G0 Z0.0 ; Pen down
G1 X50.480 Y183.000 F1000
G1 X50.480 Y183.000 F1000
G1 X242.360 Y27.000 F1000
G0 Z3.0 ; Pen up

G0 X242.880 Y27.000 F3000 ; Travel to line 377
G0 Z0.0 ; Pen down
G1 X50.480 Y183.000 F1000
G1 X50.480 Y183.000 F1000
G1 X243.140 Y27.000 F1000
G1 X243.140 Y27.000 F1000
G1 X50.480 Y183.000 F1000
G1 X50.480 Y183.000 F1000
G1 X243.400 Y27.000 F1000
G0 Z3.0 ; Pen up

G0 X243.660 Y27.000 F3000 ; Travel to line 378
G0 Z0.0 ; Pen down
G1 X50.740 Y183.000 F1000
G1 X50.740 Y183.000 F1000
G1 X243.920 Y27.000 F1000
G1 X243.920 Y27.000 F1000
G1 X50.740 Y183.000 F1000
G0 Z3.0 ; Pen up

G0 X51.000 Y183.000 F3000 ; Travel to line 379
G0 Z0.0 ; Pen down
G1 X246.000 Y27.000 F1000
G1 X246.000 Y27.000 F1000
G1 X51.000 Y183.000 F1000
G1 X51.000 Y183.000 F1000
G1 X246.000 Y27.000 F1000
G1 X246.000 Y27.000 F1000
G1 X51.000 Y183.000 F1000
G1 X51.000 Y183.000 F1000
G1 X246.000 Y27.000 F1000
G1 X246.000 Y27.000 F1000
G1 X51.000 Y183.000 F1000
G1 X51.000 Y183.000 F1000
G1 X246.000 Y27.000 F1000
G1 X246.000 Y27.000 F1000
G1 X51.000 Y183.000 F1000
G1 X51.000 Y183.000 F1000
G1 X246.000 Y27.000 F1000
G1 X246.000 Y27.000 F1000
G1 X51.000 Y183.000 F1000
G1 X51.000 Y183.000 F1000
G1 X246.000 Y27.000 F1000
G1 X246.000 Y27.000 F1000
G1 X51.000 Y183.000 F1000
G1 X51.000 Y183.000 F1000
G1 X246.000 Y27.000 F1000
G1 X246.000 Y27.000 F1000
G1 X51.000 Y183.000 F1000
G1 X51.000 Y183.000 F1000
G1 X246.000 Y27.000 F1000
G1 X246.000 Y27.000 F1000
G1 X51.000 Y183.000 F1000
G1 X51.000 Y183.000 F1000
G1 X246.000 Y27.000 F1000
G1 X246.000 Y27.000 F1000
G1 X51.000 Y183.000 F1000
G1 X51.000 Y183.000 F1000
G1 X246.000 Y27.000 F1000
G1 X246.000 Y27.000 F1000
G1 X51.000 Y183.000 F1000
G1 X51.000 Y183.000 F1000
G1 X246.000 Y27.000 F1000
G1 X246.000 Y27.000 F1000
G1 X51.000 Y183.000 F1000
G1 X51.000 Y183.000 F1000
G1 X246.000 Y27.000 F1000
G1 X246.000 Y27.000 F1000
G1 X51.000 Y183.000 F1000
G1 X51.000 Y183.000 F1000
G1 X246.000 Y27.000 F1000
G1 X246.000 Y27.000 F1000
G1 X51.000 Y183.000 F1000
G1 X51.000 Y183.000 F1000
G1 X246.000 Y27.000 F1000
G1 X246.000 Y27.000 F1000
G1 X51.000 Y183.000 F1000
G1 X51.000 Y183.000 F1000
G1 X246.000 Y27.000 F1000
G1 X246.000 Y27.000 F1000
G1 X51.000 Y183.000 F1000
G1 X51.000 Y183.000 F1000
G1 X246.000 Y27.000 F1000
G1 X246.000 Y27.000 F1000
G1 X51.000 Y183.000 F1000
G1 X51.000 Y183.000 F1000
G1 X246.000 Y27.000 F1000
G1 X246.000 Y27.000 F1000
G1 X51.000 Y183.000 F1000
G1 X51.000 Y183.000 F1000
G1 X246.000 Y27.000 F1000
G1 X246.000 Y27.000 F1000
G1 X51.000 Y183.000 F1000
G1 X51.000 Y183.000 F1000
G1 X246.000 Y27.000 F1000
G1 X246.000 Y27.000 F1000
G1 X51.000 Y183.000 F1000
G1 X51.000 Y183.000 F1000
G1 X246.000 Y27.000 F1000
G1 X246.000 Y27.000 F1000
G1 X51.000 Y183.000 F1000
G1 X51.000 Y183.000 F1000
G1 X246.000 Y27.000 F1000
G1 X246.000 Y27.000 F1000
G1 X51.000 Y183.000 F1000
G1 X51.000 Y183.000 F1000
G1 X246.000 Y27.000 F1000
G1 X246.000 Y27.000 F1000
G1 X51.000 Y183.000 F1000
G1 X51.000 Y183.000 F1000
G1 X246.000 Y27.000 F1000
G1 X246.000 Y27.000 F1000
G1 X51.000 Y183.000 F1000
G1 X51.000 Y183.000 F1000
G1 X246.000 Y27.000 F1000
G1 X246.000 Y27.000 F1000
G1 X51.000 Y183.000 F1000
G1 X51.000 Y183.000 F1000
G1 X246.000 Y27.000 F1000
G1 X246.000 Y27.000 F1000
G1 X51.000 Y183.000 F1000
G1 X51.000 Y183.000 F1000
G1 X246.000 Y27.000 F1000
G1 X246.000 Y27.000 F1000
G1 X51.000 Y183.000 F1000
G1 X51.000 Y183.000 F1000
G1 X246.000 Y27.000 F1000
G1 X246.000 Y27.000 F1000
G1 X51.000 Y183.000 F1000
G1 X51.000 Y183.000 F1000
G1 X246.000 Y27.000 F1000
G1 X246.000 Y27.000 F1000
G1 X51.000 Y183.000 F1000
G1 X51.000 Y183.000 F1000
G1 X246.000 Y27.000 F1000
G1 X246.000 Y27.000 F1000
G1 X51.000 Y183.000 F1000
G1 X51.000 Y183.000 F1000
G1 X246.000 Y27.000 F1000
G1 X246.000 Y27.000 F1000
G1 X51.000 Y183.000 F1000
G1 X51.000 Y183.000 F1000
G1 X246.000 Y27.000 F1000
G1 X246.000 Y27.000 F1000
G1 X51.000 Y183.000 F1000
G1 X51.000 Y183.000 F1000
G1 X246.000 Y27.000 F1000
G1 X246.000 Y27.000 F1000
G1 X51.000 Y183.000 F1000
G1 X51.000 Y183.000 F1000
G1 X246.000 Y27.000 F1000
G1 X246.000 Y27.000 F1000
G1 X51.000 Y183.000 F1000
G1 X51.000 Y183.000 F1000
G1 X246.000 Y27.000 F1000
G1 X246.000 Y27.000 F1000
G1 X51.000 Y183.000 F1000
G1 X51.000 Y183.000 F1000
G1 X246.000 Y27.000 F1000
G1 X246.000 Y27.000 F1000
G1 X51.000 Y183.000 F1000
G1 X51.000 Y183.000 F1000
G1 X246.000 Y27.000 F1000
G1 X246.000 Y27.000 F1000
G1 X51.000 Y183.000 F1000
G1 X51.000 Y183.000 F1000
G1 X246.000 Y27.000 F1000
G1 X246.000 Y27.000 F1000
G1 X51.000 Y183.000 F1000
G1 X51.000 Y183.000 F1000
G1 X246.000 Y27.000 F1000
G1 X246.000 Y27.000 F1000
G1 X51.000 Y183.000 F1000
G1 X51.000 Y183.000 F1000
G1 X246.000 Y27.000 F1000
G1 X246.000 Y27.000 F1000
G1 X51.000 Y183.000 F1000
G1 X51.000 Y183.000 F1000
G1 X246.000 Y27.000 F1000
G1 X246.000 Y27.000 F1000
G1 X51.000 Y183.000 F1000
G1 X51.000 Y183.000 F1000
G1 X246.000 Y27.000 F1000
G1 X246.000 Y27.000 F1000
G1 X51.000 Y183.000 F1000
G1 X51.000 Y183.000 F1000
G1 X246.000 Y27.000 F1000
G1 X246.000 Y27.000 F1000
G1 X51.000 Y183.000 F1000
G1 X51.000 Y183.000 F1000
G1 X246.000 Y27.000 F1000
G1 X246.000 Y27.000 F1000
G1 X51.000 Y183.000 F1000
G1 X51.000 Y183.000 F1000
G1 X246.000 Y27.000 F1000
G1 X246.000 Y27.000 F1000
G1 X51.000 Y183.000 F1000
G1 X51.000 Y183.000 F1000
G1 X246.000 Y27.000 F1000
G1 X246.000 Y27.000 F1000
G1 X51.000 Y183.000 F1000
G1 X51.000 Y183.000 F1000
G1 X246.000 Y27.000 F1000
G1 X246.000 Y27.000 F1000
G1 X51.000 Y183.000 F1000
G1 X51.000 Y183.000 F1000
G1 X246.000 Y27.000 F1000
G1 X246.000 Y27.000 F1000
G1 X51.000 Y183.000 F1000
G1 X51.000 Y183.000 F1000
G1 X246.000 Y27.000 F1000
G1 X246.000 Y27.000 F1000
G1 X51.000 Y183.000 F1000
G1 X51.000 Y183.000 F1000
G1 X246.000 Y27.000 F1000
G1 X246.000 Y27.000 F1000
G1 X51.000 Y183.000 F1000
G1 X51.000 Y183.000 F1000
G1 X246.000 Y27.000 F1000
G1 X246.000 Y27.000 F1000
G1 X51.000 Y183.000 F1000
G1 X51.000 Y183.000 F1000
G1 X246.000 Y27.000 F1000
G1 X246.000 Y27.000 F1000
G1 X51.000 Y183.000 F1000
G1 X51.000 Y183.000 F1000
G1 X246.000 Y27.000 F1000
G1 X246.000 Y27.000 F1000
G1 X51.000 Y183.000 F1000
G1 X51.000 Y183.000 F1000
G1 X246.000 Y27.000 F1000
G1 X246.000 Y27.000 F1000
G1 X51.000 Y183.000 F1000
G1 X51.000 Y183.000 F1000
G1 X246.000 Y27.000 F1000
G1 X246.000 Y27.000 F1000
G1 X51.000 Y183.000 F1000
G1 X51.000 Y183.000 F1000
G1 X246.000 Y27.000 F1000
G1 X246.000 Y27.000 F1000
G1 X51.000 Y183.000 F1000
G1 X51.000 Y183.000 F1000
G1 X246.000 Y27.000 F1000
G1 X246.000 Y27.000 F1000
G1 X51.000 Y183.000 F1000
G1 X51.000 Y183.000 F1000
G1 X246.000 Y27.000 F1000
G1 X246.000 Y27.000 F1000
G1 X51.000 Y183.000 F1000
G1 X51.000 Y183.000 F1000
G1 X246.000 Y27.000 F1000
G1 X246.000 Y27.000 F1000
G1 X51.000 Y183.000 F1000
G1 X51.000 Y183.000 F1000
G1 X246.000 Y27.000 F1000
G1 X246.000 Y27.000 F1000
G1 X51.000 Y183.000 F1000
G1 X51.000 Y183.000 F1000
G1 X246.000 Y27.000 F1000
G1 X246.000 Y27.000 F1000
G1 X51.000 Y183.000 F1000
G1 X51.000 Y183.000 F1000
G1 X246.000 Y27.000 F1000
G1 X246.000 Y27.000 F1000
G1 X51.000 Y183.000 F1000
G1 X51.000 Y183.000 F1000
G1 X246.000 Y27.000 F1000
G1 X246.000 Y27.000 F1000
G1 X51.000 Y183.000 F1000
G1 X51.000 Y183.000 F1000
G1 X246.000 Y27.000 F1000
G1 X246.000 Y27.000 F1000
G1 X51.000 Y183.000 F1000
G1 X51.000 Y183.000 F1000
G1 X246.000 Y27.000 F1000
G1 X246.000 Y27.000 F1000
G1 X51.000 Y183.000 F1000
G1 X51.000 Y183.000 F1000
G1 X246.000 Y27.000 F1000
G1 X246.000 Y27.000 F1000
G1 X51.000 Y183.000 F1000
G1 X51.000 Y183.000 F1000
G1 X246.000 Y27.000 F1000
G1 X246.000 Y27.000 F1000
G1 X51.000 Y183.000 F1000
G1 X51.000 Y183.000 F1000
G1 X246.000 Y27.000 F1000
G1 X246.000 Y27.000 F1000
G1 X51.000 Y183.000 F1000
G1 X51.000 Y183.000 F1000
G1 X246.000 Y27.000 F1000
G1 X246.000 Y27.000 F1000
G1 X51.000 Y183.000 F1000
G1 X51.000 Y183.000 F1000
G1 X246.000 Y27.000 F1000
G1 X246.000 Y27.000 F1000
G1 X51.000 Y183.000 F1000
G1 X51.000 Y183.000 F1000
G1 X246.000 Y27.000 F1000
G1 X246.000 Y27.000 F1000
G1 X51.000 Y183.000 F1000
G1 X51.000 Y183.000 F1000
G1 X246.000 Y27.000 F1000
G1 X246.000 Y27.000 F1000
G1 X51.000 Y183.000 F1000
G1 X51.000 Y183.000 F1000
G1 X246.000 Y27.000 F1000
G1 X246.000 Y27.000 F1000
G1 X51.000 Y183.000 F1000
G1 X51.000 Y183.000 F1000
G1 X246.000 Y27.000 F1000
G1 X246.000 Y27.000 F1000
G1 X51.000 Y183.000 F1000
G1 X51.000 Y183.000 F1000
G1 X246.000 Y27.000 F1000
G1 X246.000 Y27.000 F1000
G1 X51.000 Y183.000 F1000
G1 X51.000 Y183.000 F1000
G1 X246.000 Y27.000 F1000
G1 X246.000 Y27.000 F1000
G1 X51.000 Y183.000 F1000
G1 X51.000 Y183.000 F1000
G1 X246.000 Y27.000 F1000
G1 X246.000 Y27.000 F1000
G1 X51.000 Y183.000 F1000
G1 X51.000 Y183.000 F1000
G1 X246.000 Y27.000 F1000
G1 X246.000 Y27.000 F1000
G1 X51.000 Y183.000 F1000
G1 X51.000 Y183.000 F1000
G1 X246.000 Y27.000 F1000
G1 X246.000 Y27.000 F1000
G1 X51.000 Y183.000 F1000
G1 X51.000 Y183.000 F1000
G1 X246.000 Y27.000 F1000
G1 X246.000 Y27.000 F1000
G1 X51.000 Y183.000 F1000
G1 X51.000 Y183.000 F1000
G1 X246.000 Y27.000 F1000
G1 X246.000 Y27.000 F1000
G1 X51.000 Y183.000 F1000
G1 X51.000 Y183.000 F1000
G1 X246.000 Y27.000 F1000
G1 X246.000 Y27.000 F1000
G1 X51.000 Y183.000 F1000
G1 X51.000 Y183.000 F1000
G1 X246.000 Y27.000 F1000
G1 X246.000 Y27.000 F1000
G1 X51.000 Y183.000 F1000
G1 X51.000 Y183.000 F1000
G1 X246.000 Y27.000 F1000
G1 X246.000 Y27.000 F1000
G1 X51.000 Y183.000 F1000
G1 X51.000 Y183.000 F1000
G1 X246.000 Y27.000 F1000
G1 X246.000 Y27.000 F1000
G1 X51.000 Y183.000 F1000
G1 X51.000 Y183.000 F1000
G1 X246.000 Y27.000 F1000
G1 X246.000 Y27.000 F1000
G1 X51.000 Y183.000 F1000
G1 X51.000 Y183.000 F1000
G1 X246.000 Y27.000 F1000
G1 X246.000 Y27.000 F1000
G1 X51.000 Y183.000 F1000
G1 X51.000 Y183.000 F1000
G1 X246.000 Y27.000 F1000
G1 X246.000 Y27.000 F1000
G1 X51.000 Y183.000 F1000
G1 X51.000 Y183.000 F1000
G1 X246.000 Y27.000 F1000
G1 X246.000 Y27.000 F1000
G1 X51.000 Y183.000 F1000
G1 X51.000 Y183.000 F1000
G1 X246.000 Y27.000 F1000
G1 X246.000 Y27.000 F1000
G1 X51.000 Y183.000 F1000
G1 X51.000 Y183.000 F1000
G1 X246.000 Y27.000 F1000
G1 X246.000 Y27.000 F1000
G1 X51.000 Y183.000 F1000
G1 X51.000 Y183.000 F1000
G1 X246.000 Y27.000 F1000
G1 X246.000 Y27.000 F1000
G1 X51.000 Y183.000 F1000
G1 X51.000 Y183.000 F1000
G1 X246.000 Y27.000 F1000
G1 X246.000 Y27.000 F1000
G1 X51.000 Y183.000 F1000
G1 X51.000 Y183.000 F1000
G1 X246.000 Y27.000 F1000
G1 X246.000 Y27.000 F1000
G1 X51.000 Y183.000 F1000
G1 X51.000 Y183.000 F1000
G1 X246.000 Y27.000 F1000
G1 X246.000 Y27.000 F1000
G1 X51.000 Y183.000 F1000
G1 X51.000 Y183.000 F1000
G1 X246.000 Y27.000 F1000
G1 X246.000 Y27.000 F1000
G1 X51.000 Y183.000 F1000
G1 X51.000 Y183.000 F1000
G1 X246.000 Y27.000 F1000
G1 X246.000 Y27.000 F1000
G1 X51.000 Y183.000 F1000
G1 X51.000 Y183.000 F1000
G1 X246.000 Y27.000 F1000
G1 X246.000 Y27.000 F1000
G1 X51.000 Y183.000 F1000
G1 X51.000 Y183.000 F1000
G1 X246.000 Y27.000 F1000
G1 X246.000 Y27.000 F1000
G1 X51.000 Y183.000 F1000
G1 X51.000 Y183.000 F1000
G1 X246.000 Y27.000 F1000
G1 X246.000 Y27.000 F1000
G1 X51.000 Y183.000 F1000
G1 X51.000 Y183.000 F1000
G1 X246.000 Y27.000 F1000
G1 X246.000 Y27.000 F1000
G1 X51.000 Y183.000 F1000
G1 X51.000 Y183.000 F1000
G1 X246.000 Y27.000 F1000
G1 X246.000 Y27.000 F1000
G1 X51.000 Y183.000 F1000
G1 X51.000 Y183.000 F1000
G1 X246.000 Y27.000 F1000
G1 X246.000 Y27.000 F1000
G1 X51.000 Y183.000 F1000
G1 X51.000 Y183.000 F1000
G1 X246.000 Y27.000 F1000
G1 X246.000 Y27.000 F1000
G1 X51.000 Y183.000 F1000
G1 X51.000 Y183.000 F1000
G1 X246.000 Y27.000 F1000
G1 X246.000 Y27.000 F1000
G1 X51.000 Y183.000 F1000
G1 X51.000 Y183.000 F1000
G1 X246.000 Y27.000 F1000
G1 X246.000 Y27.000 F1000
G1 X51.000 Y183.000 F1000
G1 X51.000 Y183.000 F1000
G1 X246.000 Y27.000 F1000
G1 X246.000 Y27.000 F1000
G1 X51.000 Y183.000 F1000
G1 X51.000 Y183.000 F1000
G1 X246.000 Y27.000 F1000
G1 X246.000 Y27.000 F1000
G1 X51.000 Y183.000 F1000
G1 X51.000 Y183.000 F1000
G1 X246.000 Y27.000 F1000
G1 X246.000 Y27.000 F1000
G1 X51.000 Y183.000 F1000
G1 X51.000 Y183.000 F1000
G1 X246.000 Y27.000 F1000
G1 X246.000 Y27.000 F1000
G1 X51.000 Y183.000 F1000
G1 X51.000 Y183.000 F1000
G1 X246.000 Y27.000 F1000
G1 X246.000 Y27.000 F1000
G1 X51.000 Y183.000 F1000
G1 X51.000 Y183.000 F1000
G1 X246.000 Y27.000 F1000
G1 X246.000 Y27.000 F1000
G1 X51.000 Y183.000 F1000
G1 X51.000 Y183.000 F1000
G1 X246.000 Y27.000 F1000
G1 X246.000 Y27.000 F1000
G1 X51.000 Y183.000 F1000
G1 X51.000 Y183.000 F1000
G1 X246.000 Y27.000 F1000
G1 X246.000 Y27.000 F1000
G1 X51.000 Y183.000 F1000
G1 X51.000 Y183.000 F1000
G1 X246.000 Y27.000 F1000
G1 X246.000 Y27.000 F1000
G1 X51.000 Y183.000 F1000
G1 X51.000 Y183.000 F1000
G1 X246.000 Y27.000 F1000
G1 X246.000 Y27.000 F1000
G1 X51.000 Y183.000 F1000
G1 X51.000 Y183.000 F1000
G1 X246.000 Y27.000 F1000
G1 X246.000 Y27.000 F1000
G1 X51.000 Y183.000 F1000
G1 X51.000 Y183.000 F1000
G1 X246.000 Y27.000 F1000
G1 X246.000 Y27.000 F1000
G1 X51.000 Y183.000 F1000
G1 X51.000 Y183.000 F1000
G1 X246.000 Y27.000 F1000
G1 X246.000 Y27.000 F1000
G1 X51.000 Y183.000 F1000
G1 X51.000 Y183.000 F1000
G1 X246.000 Y27.000 F1000
G1 X246.000 Y27.000 F1000
G1 X51.000 Y183.000 F1000
G1 X51.000 Y183.000 F1000
G1 X246.000 Y27.000 F1000
G1 X246.000 Y27.000 F1000
G1 X51.000 Y183.000 F1000
G1 X51.000 Y183.000 F1000
G1 X246.000 Y27.000 F1000
G1 X246.000 Y27.000 F1000
G1 X51.000 Y183.000 F1000
G1 X51.000 Y183.000 F1000
G1 X246.000 Y27.000 F1000
G1 X246.000 Y27.000 F1000
G1 X51.000 Y183.000 F1000
G1 X51.000 Y183.000 F1000
G1 X246.000 Y27.000 F1000
G1 X246.000 Y27.000 F1000
G1 X51.000 Y183.000 F1000
G1 X51.000 Y183.000 F1000
G1 X246.000 Y27.000 F1000
G1 X246.000 Y27.000 F1000
G1 X51.000 Y183.000 F1000
G1 X51.000 Y183.000 F1000
G1 X246.000 Y27.000 F1000
G1 X246.000 Y27.000 F1000
G1 X51.000 Y183.000 F1000
G1 X51.000 Y183.000 F1000
G1 X246.000 Y27.000 F1000
G1 X246.000 Y27.000 F1000
G1 X51.000 Y183.000 F1000
G1 X51.000 Y183.000 F1000
G1 X246.000 Y27.000 F1000
G1 X246.000 Y27.000 F1000
G1 X51.000 Y183.000 F1000
G1 X51.000 Y183.000 F1000
G1 X246.000 Y27.000 F1000
G1 X246.000 Y27.000 F1000
G1 X51.000 Y183.000 F1000
G1 X51.000 Y183.000 F1000
G1 X246.000 Y27.000 F1000
G1 X246.000 Y27.000 F1000
G1 X51.000 Y183.000 F1000
G1 X51.000 Y183.000 F1000
G1 X246.000 Y27.000 F1000
G1 X246.000 Y27.000 F1000
G1 X51.000 Y183.000 F1000
G1 X51.000 Y183.000 F1000
G1 X246.000 Y27.000 F1000
G1 X246.000 Y27.000 F1000
G1 X51.000 Y183.000 F1000
G1 X51.000 Y183.000 F1000
G1 X246.000 Y27.000 F1000
G1 X246.000 Y27.000 F1000
G1 X51.000 Y183.000 F1000
G1 X51.000 Y183.000 F1000
G1 X246.000 Y27.000 F1000
G1 X246.000 Y27.000 F1000
G1 X51.000 Y183.000 F1000
G1 X51.000 Y183.000 F1000
G1 X246.000 Y27.000 F1000
G1 X246.000 Y27.000 F1000
G1 X51.000 Y183.000 F1000
G1 X51.000 Y183.000 F1000
G1 X246.000 Y27.000 F1000
G1 X246.000 Y27.000 F1000
G1 X51.000 Y183.000 F1000
G1 X51.000 Y183.000 F1000
G1 X246.000 Y27.000 F1000
G1 X246.000 Y27.000 F1000
G1 X51.000 Y183.000 F1000
G1 X51.000 Y183.000 F1000
G1 X246.000 Y27.000 F1000
G1 X246.000 Y27.000 F1000
G1 X51.000 Y183.000 F1000
G1 X51.000 Y183.000 F1000
G1 X246.000 Y27.000 F1000
G1 X246.000 Y27.000 F1000
G1 X51.000 Y183.000 F1000
G1 X51.000 Y183.000 F1000
G1 X246.000 Y27.000 F1000
G1 X246.000 Y27.000 F1000
G1 X51.000 Y183.000 F1000
G1 X51.000 Y183.000 F1000
G1 X246.000 Y27.000 F1000
G1 X246.000 Y27.000 F1000
G1 X51.000 Y183.000 F1000
G1 X51.000 Y183.000 F1000
G1 X246.000 Y27.000 F1000
G1 X246.000 Y27.000 F1000
G1 X51.000 Y183.000 F1000
G1 X51.000 Y183.000 F1000
G1 X246.000 Y27.000 F1000
G1 X246.000 Y27.000 F1000
G1 X51.000 Y183.000 F1000
G1 X51.000 Y183.000 F1000
G1 X246.000 Y27.000 F1000
G1 X246.000 Y27.000 F1000
G1 X51.000 Y183.000 F1000
G1 X51.000 Y183.000 F1000
G1 X246.000 Y27.000 F1000
G1 X246.000 Y27.000 F1000
G1 X51.000 Y183.000 F1000
G1 X51.000 Y183.000 F1000
G1 X246.000 Y27.000 F1000
G1 X246.000 Y27.000 F1000
G1 X51.000 Y183.000 F1000
G1 X51.000 Y183.000 F1000
G1 X246.000 Y27.000 F1000
G1 X246.000 Y27.000 F1000
G1 X51.000 Y183.000 F1000
G1 X51.000 Y183.000 F1000
G1 X246.000 Y27.000 F1000
G1 X246.000 Y27.000 F1000
G1 X51.000 Y183.000 F1000
G1 X51.000 Y183.000 F1000
G1 X246.000 Y27.000 F1000
G1 X246.000 Y27.000 F1000
G1 X51.000 Y183.000 F1000
G1 X51.000 Y183.000 F1000
G1 X246.000 Y27.000 F1000
G1 X246.000 Y27.000 F1000
G1 X51.000 Y183.000 F1000
G1 X51.000 Y183.000 F1000
G1 X246.000 Y27.000 F1000
G1 X246.000 Y27.000 F1000
G1 X51.000 Y183.000 F1000
G1 X51.000 Y183.000 F1000
G1 X246.000 Y27.000 F1000
G1 X246.000 Y27.000 F1000
G1 X51.000 Y183.000 F1000
G1 X51.000 Y183.000 F1000
G1 X246.000 Y27.000 F1000
G1 X246.000 Y27.000 F1000
G1 X51.000 Y183.000 F1000
G1 X51.000 Y183.000 F1000
G1 X246.000 Y27.000 F1000
G1 X246.000 Y27.000 F1000
G1 X51.000 Y183.000 F1000
G1 X51.000 Y183.000 F1000
G1 X246.000 Y27.000 F1000
G1 X246.000 Y27.000 F1000
G1 X51.000 Y183.000 F1000
G1 X51.000 Y183.000 F1000
G1 X246.000 Y27.000 F1000
G1 X246.000 Y27.000 F1000
G1 X51.000 Y183.000 F1000
G1 X51.000 Y183.000 F1000
G1 X246.000 Y27.000 F1000
G1 X246.000 Y27.000 F1000
G1 X51.000 Y183.000 F1000
G1 X51.000 Y183.000 F1000
G1 X246.000 Y27.000 F1000
G1 X246.000 Y27.000 F1000
G1 X51.000 Y183.000 F1000
G1 X51.000 Y183.000 F1000
G1 X246.000 Y27.000 F1000
G1 X246.000 Y27.000 F1000
G1 X51.000 Y183.000 F1000
G1 X51.000 Y183.000 F1000
G1 X246.000 Y27.000 F1000
G1 X246.000 Y27.000 F1000
G1 X51.000 Y183.000 F1000
G1 X51.000 Y183.000 F1000
G1 X246.000 Y27.000 F1000
G1 X246.000 Y27.000 F1000
G1 X51.000 Y183.000 F1000
G1 X51.000 Y183.000 F1000
G1 X246.000 Y27.000 F1000
G1 X246.000 Y27.000 F1000
G1 X51.000 Y183.000 F1000
G1 X51.000 Y183.000 F1000
G1 X246.000 Y27.000 F1000
G1 X246.000 Y27.000 F1000
G1 X51.000 Y183.000 F1000
G1 X51.000 Y183.000 F1000
G1 X246.000 Y27.000 F1000
G1 X246.000 Y27.000 F1000
G1 X51.000 Y183.000 F1000
G1 X51.000 Y183.000 F1000
G1 X246.000 Y27.000 F1000
G1 X246.000 Y27.000 F1000
G1 X51.000 Y183.000 F1000
G1 X51.000 Y183.000 F1000
G1 X246.000 Y27.000 F1000
G1 X246.000 Y27.000 F1000
G1 X51.000 Y183.000 F1000
G1 X51.000 Y183.000 F1000
G1 X246.000 Y27.000 F1000
G1 X246.000 Y27.000 F1000
G1 X51.000 Y183.000 F1000
G1 X51.000 Y183.000 F1000
G1 X246.000 Y27.000 F1000
G1 X246.000 Y27.000 F1000
G1 X51.000 Y183.000 F1000
G1 X51.000 Y183.000 F1000
G1 X246.000 Y27.000 F1000
G1 X246.000 Y27.000 F1000
G1 X51.000 Y183.000 F1000
G1 X51.000 Y183.000 F1000
G1 X246.000 Y27.000 F1000
G1 X246.000 Y27.000 F1000
G1 X51.000 Y183.000 F1000
G1 X51.000 Y183.000 F1000
G1 X246.000 Y27.000 F1000
G1 X246.000 Y27.000 F1000
G1 X51.000 Y183.000 F1000
G1 X51.000 Y183.000 F1000
G1 X246.000 Y27.000 F1000
G1 X246.000 Y27.000 F1000
G1 X51.000 Y183.000 F1000
G1 X51.000 Y183.000 F1000
G1 X246.000 Y27.000 F1000
G1 X246.000 Y27.000 F1000
G1 X51.000 Y183.000 F1000
G1 X51.000 Y183.000 F1000
G1 X246.000 Y27.000 F1000
G1 X246.000 Y27.000 F1000
G1 X51.000 Y183.000 F1000
G1 X51.000 Y183.000 F1000
G1 X246.000 Y27.000 F1000
G1 X246.000 Y27.000 F1000
G1 X51.000 Y183.000 F1000
G1 X51.000 Y183.000 F1000
G1 X246.000 Y27.000 F1000
G1 X246.000 Y27.000 F1000
G1 X51.000 Y183.000 F1000
G1 X51.000 Y183.000 F1000
G1 X246.000 Y27.000 F1000
G1 X246.000 Y27.000 F1000
G1 X51.000 Y183.000 F1000
G1 X51.000 Y183.000 F1000
G1 X246.000 Y27.000 F1000
G1 X246.000 Y27.000 F1000
G1 X51.000 Y183.000 F1000
G1 X51.000 Y183.000 F1000
G1 X246.000 Y27.000 F1000
G1 X246.000 Y27.000 F1000
G1 X51.000 Y183.000 F1000
G1 X51.000 Y183.000 F1000
G1 X246.000 Y27.000 F1000
G1 X246.000 Y27.000 F1000
G1 X51.000 Y183.000 F1000
G1 X51.000 Y183.000 F1000
G1 X246.000 Y27.000 F1000
G1 X246.000 Y27.000 F1000
G1 X51.000 Y183.000 F1000
G1 X51.000 Y183.000 F1000
G1 X246.000 Y27.000 F1000
G1 X246.000 Y27.000 F1000
G1 X51.000 Y183.000 F1000
G1 X51.000 Y183.000 F1000
G1 X246.000 Y27.000 F1000
G1 X246.000 Y27.000 F1000
G1 X51.000 Y183.000 F1000
G1 X51.000 Y183.000 F1000
G1 X246.000 Y27.000 F1000
G1 X246.000 Y27.000 F1000
G1 X51.000 Y183.000 F1000
G1 X51.000 Y183.000 F1000
G1 X246.000 Y27.000 F1000
G1 X246.000 Y27.000 F1000
G1 X51.000 Y183.000 F1000
G1 X51.000 Y183.000 F1000
G1 X246.000 Y27.000 F1000
G1 X246.000 Y27.000 F1000
G1 X51.000 Y183.000 F1000
G1 X51.000 Y183.000 F1000
G1 X246.000 Y27.000 F1000
G1 X246.000 Y27.000 F1000
G1 X51.000 Y183.000 F1000
G1 X51.000 Y183.000 F1000
G1 X246.000 Y27.000 F1000
G1 X246.000 Y27.000 F1000
G1 X51.000 Y183.000 F1000
G1 X51.000 Y183.000 F1000
G1 X246.000 Y27.000 F1000
G1 X246.000 Y27.000 F1000
G1 X51.000 Y183.000 F1000
G1 X51.000 Y183.000 F1000
G1 X246.000 Y27.000 F1000
G1 X246.000 Y27.000 F1000
G1 X51.000 Y183.000 F1000
G1 X51.000 Y183.000 F1000
G1 X246.000 Y27.000 F1000
G1 X246.000 Y27.000 F1000
G1 X51.000 Y183.000 F1000
G1 X51.000 Y183.000 F1000
G1 X246.000 Y27.000 F1000
G1 X246.000 Y27.000 F1000
G1 X51.000 Y183.000 F1000
G1 X51.000 Y183.000 F1000
G1 X246.000 Y27.000 F1000
G1 X246.000 Y27.000 F1000
G1 X51.000 Y183.000 F1000
G1 X51.000 Y183.000 F1000
G1 X246.000 Y27.000 F1000
G1 X246.000 Y27.000 F1000
G1 X51.000 Y183.000 F1000
G1 X51.000 Y183.000 F1000
G1 X246.000 Y27.000 F1000
G1 X246.000 Y27.000 F1000
G1 X51.000 Y183.000 F1000
G1 X51.000 Y183.000 F1000
G1 X246.000 Y27.000 F1000
G1 X246.000 Y27.000 F1000
G1 X51.000 Y183.000 F1000
G1 X51.000 Y183.000 F1000
G1 X246.000 Y27.000 F1000
G1 X246.000 Y27.000 F1000
G1 X51.000 Y183.000 F1000
G1 X51.000 Y183.000 F1000
G1 X246.000 Y27.000 F1000
G1 X246.000 Y27.000 F1000
G1 X51.000 Y183.000 F1000
G1 X51.000 Y183.000 F1000
G1 X246.000 Y27.000 F1000
G1 X246.000 Y27.000 F1000
G1 X51.000 Y183.000 F1000
G1 X51.000 Y183.000 F1000
G1 X246.000 Y27.000 F1000
G1 X246.000 Y27.000 F1000
G1 X51.000 Y183.000 F1000
G1 X51.000 Y183.000 F1000
G1 X246.000 Y27.000 F1000
G1 X246.000 Y27.000 F1000
G1 X51.000 Y183.000 F1000
G1 X51.000 Y183.000 F1000
G1 X246.000 Y27.000 F1000
G1 X246.000 Y27.000 F1000
G1 X51.000 Y183.000 F1000
G1 X51.000 Y183.000 F1000
G1 X246.000 Y27.000 F1000
G1 X246.000 Y27.000 F1000
G1 X51.000 Y183.000 F1000
G1 X51.000 Y183.000 F1000
G1 X246.000 Y27.000 F1000
G1 X246.000 Y27.000 F1000
G1 X51.000 Y183.000 F1000
G1 X51.000 Y183.000 F1000
G1 X246.000 Y27.000 F1000
G1 X246.000 Y27.000 F1000
G1 X51.000 Y183.000 F1000
G1 X51.000 Y183.000 F1000
G1 X246.000 Y27.000 F1000
G1 X246.000 Y27.000 F1000
G1 X51.000 Y183.000 F1000
G1 X51.000 Y183.000 F1000
G1 X246.000 Y27.000 F1000
G1 X246.000 Y27.000 F1000
G1 X51.000 Y183.000 F1000
G1 X51.000 Y183.000 F1000
G1 X246.000 Y27.000 F1000
G1 X246.000 Y27.000 F1000
G1 X51.000 Y183.000 F1000
G1 X51.000 Y183.000 F1000
G1 X246.000 Y27.000 F1000
G1 X246.000 Y27.000 F1000
G1 X51.000 Y183.000 F1000
G1 X51.000 Y183.000 F1000
G1 X246.000 Y27.000 F1000
G1 X246.000 Y27.000 F1000
G1 X51.000 Y183.000 F1000
G1 X51.000 Y183.000 F1000
G1 X246.000 Y27.000 F1000
G1 X246.000 Y27.000 F1000
G1 X51.000 Y183.000 F1000
G1 X51.000 Y183.000 F1000
G1 X246.000 Y27.000 F1000
G1 X246.000 Y27.000 F1000
G1 X51.000 Y183.000 F1000
G1 X51.000 Y183.000 F1000
G1 X246.000 Y27.000 F1000
G1 X246.000 Y27.000 F1000
G1 X51.000 Y183.000 F1000
G1 X51.000 Y183.000 F1000
G1 X246.000 Y27.000 F1000
G1 X246.000 Y27.000 F1000
G1 X51.000 Y183.000 F1000
G1 X51.000 Y183.000 F1000
G1 X246.000 Y27.000 F1000
G1 X246.000 Y27.000 F1000
G1 X51.000 Y183.000 F1000
G1 X51.000 Y183.000 F1000
G1 X246.000 Y27.000 F1000
G1 X246.000 Y27.000 F1000
G1 X51.000 Y183.000 F1000
G1 X51.000 Y183.000 F1000
G1 X246.000 Y27.000 F1000
G1 X246.000 Y27.000 F1000
G1 X51.000 Y183.000 F1000
G1 X51.000 Y183.000 F1000
G1 X246.000 Y27.000 F1000
G1 X246.000 Y27.000 F1000
G1 X51.000 Y183.000 F1000
G1 X51.000 Y183.000 F1000
G1 X246.000 Y27.000 F1000
G1 X246.000 Y27.000 F1000
G1 X51.000 Y183.000 F1000
G1 X51.000 Y183.000 F1000
G1 X246.000 Y27.000 F1000
G1 X246.000 Y27.000 F1000
G1 X51.000 Y183.000 F1000
G1 X51.000 Y183.000 F1000
G1 X246.000 Y27.000 F1000
G1 X246.000 Y27.000 F1000
G1 X51.000 Y183.000 F1000
G1 X51.000 Y183.000 F1000
G1 X246.000 Y27.000 F1000
G1 X246.000 Y27.000 F1000
G1 X51.000 Y183.000 F1000
G1 X51.000 Y183.000 F1000
G1 X246.000 Y27.000 F1000
G1 X246.000 Y27.000 F1000
G1 X51.000 Y183.000 F1000
G1 X51.000 Y183.000 F1000
G1 X246.000 Y27.000 F1000
G1 X246.000 Y27.000 F1000
G1 X51.000 Y183.000 F1000
G1 X51.000 Y183.000 F1000
G1 X246.000 Y27.000 F1000
G1 X246.000 Y27.000 F1000
G1 X51.000 Y183.000 F1000
G1 X51.000 Y183.000 F1000
G1 X246.000 Y27.000 F1000
G1 X246.000 Y27.000 F1000
G1 X51.000 Y183.000 F1000
G1 X51.000 Y183.000 F1000
G1 X246.000 Y27.000 F1000
G1 X246.000 Y27.000 F1000
G1 X51.000 Y183.000 F1000
G1 X51.000 Y183.000 F1000
G1 X246.000 Y27.000 F1000
G1 X246.000 Y27.000 F1000
G1 X51.000 Y183.000 F1000
G1 X51.000 Y183.000 F1000
G1 X246.000 Y27.000 F1000
G1 X246.000 Y27.000 F1000
G1 X51.000 Y183.000 F1000
G1 X51.000 Y183.000 F1000
G1 X246.000 Y27.000 F1000
G1 X246.000 Y27.000 F1000
G1 X51.000 Y183.000 F1000
G1 X51.000 Y183.000 F1000
G1 X246.000 Y27.000 F1000
G1 X246.000 Y27.000 F1000
G1 X51.000 Y183.000 F1000
G1 X51.000 Y183.000 F1000
G1 X246.000 Y27.000 F1000
G1 X246.000 Y27.000 F1000
G1 X51.000 Y183.000 F1000
G1 X51.000 Y183.000 F1000
G1 X246.000 Y27.000 F1000
G1 X246.000 Y27.000 F1000
G1 X51.000 Y183.000 F1000
G1 X51.000 Y183.000 F1000
G1 X246.000 Y27.000 F1000
G1 X246.000 Y27.000 F1000
G1 X51.000 Y183.000 F1000
G1 X51.000 Y183.000 F1000
G1 X246.000 Y27.000 F1000
G1 X246.000 Y27.000 F1000
G1 X51.000 Y183.000 F1000
G1 X51.000 Y183.000 F1000
G1 X246.000 Y27.000 F1000
G1 X246.000 Y27.000 F1000
G1 X51.000 Y183.000 F1000
G1 X51.000 Y183.000 F1000
G1 X246.000 Y27.000 F1000
G1 X246.000 Y27.000 F1000
G1 X51.000 Y183.000 F1000
G1 X51.000 Y183.000 F1000
G1 X246.000 Y27.000 F1000
G1 X246.000 Y27.000 F1000
G1 X51.000 Y183.000 F1000
G1 X51.000 Y183.000 F1000
G1 X246.000 Y27.000 F1000
G1 X246.000 Y27.000 F1000
G1 X51.000 Y183.000 F1000
G1 X51.000 Y183.000 F1000
G1 X246.000 Y27.000 F1000
G1 X246.000 Y27.000 F1000
G1 X51.000 Y183.000 F1000
G1 X51.000 Y183.000 F1000
G1 X246.000 Y27.000 F1000
G1 X246.000 Y27.000 F1000
G1 X51.000 Y183.000 F1000
G1 X51.000 Y183.000 F1000
G1 X246.000 Y27.000 F1000
G1 X246.000 Y27.000 F1000
G1 X51.000 Y183.000 F1000
G1 X51.000 Y183.000 F1000
G1 X246.000 Y27.000 F1000
G1 X246.000 Y27.000 F1000
G1 X51.000 Y183.000 F1000
G1 X51.000 Y183.000 F1000
G1 X246.000 Y27.000 F1000
G1 X246.000 Y27.000 F1000
G1 X51.000 Y183.000 F1000
G1 X51.000 Y183.000 F1000
G1 X246.000 Y27.000 F1000
G1 X246.000 Y27.000 F1000
G1 X51.000 Y183.000 F1000
G1 X51.000 Y183.000 F1000
G1 X246.000 Y27.000 F1000
G1 X246.000 Y27.000 F1000
G1 X51.000 Y183.000 F1000
G1 X51.000 Y183.000 F1000
G1 X246.000 Y27.000 F1000
G1 X246.000 Y27.000 F1000
G1 X51.000 Y183.000 F1000
G1 X51.000 Y183.000 F1000
G1 X246.000 Y27.000 F1000
G1 X246.000 Y27.000 F1000
G1 X51.000 Y183.000 F1000
G1 X51.000 Y183.000 F1000
G1 X246.000 Y27.000 F1000
G1 X246.000 Y27.000 F1000
G1 X51.000 Y183.000 F1000
G1 X51.000 Y183.000 F1000
G1 X246.000 Y27.000 F1000
G1 X246.000 Y27.000 F1000
G1 X51.000 Y183.000 F1000
G1 X51.000 Y183.000 F1000
G1 X246.000 Y27.000 F1000
G1 X246.000 Y27.000 F1000
G1 X51.000 Y183.000 F1000
G1 X51.000 Y183.000 F1000
G1 X246.000 Y27.000 F1000
G1 X246.000 Y27.000 F1000
G1 X51.000 Y183.000 F1000
G1 X51.000 Y183.000 F1000
G1 X246.000 Y27.000 F1000
G1 X246.000 Y27.000 F1000
G1 X51.000 Y183.000 F1000
G1 X51.000 Y183.000 F1000
G1 X246.000 Y27.000 F1000
G1 X246.000 Y27.000 F1000
G1 X51.000 Y183.000 F1000
G1 X51.000 Y183.000 F1000
G1 X246.000 Y27.000 F1000
G1 X246.000 Y27.000 F1000
G1 X51.000 Y183.000 F1000
G1 X51.000 Y183.000 F1000
G1 X246.000 Y27.000 F1000
G1 X246.000 Y27.000 F1000
G1 X51.000 Y183.000 F1000
G1 X51.000 Y183.000 F1000
G1 X246.000 Y27.000 F1000
G1 X246.000 Y27.000 F1000
G1 X51.000 Y183.000 F1000
G1 X51.000 Y183.000 F1000
G1 X246.000 Y27.000 F1000
G1 X246.000 Y27.000 F1000
G1 X51.000 Y183.000 F1000
G1 X51.000 Y183.000 F1000
G1 X246.000 Y27.000 F1000
G1 X246.000 Y27.000 F1000
G1 X51.000 Y183.000 F1000
G1 X51.000 Y183.000 F1000
G1 X246.000 Y27.000 F1000
G1 X246.000 Y27.000 F1000
G1 X51.000 Y183.000 F1000
G1 X51.000 Y183.000 F1000
G1 X246.000 Y27.000 F1000
G1 X246.000 Y27.000 F1000
G1 X51.000 Y183.000 F1000
G1 X51.000 Y183.000 F1000
G1 X246.000 Y27.000 F1000
G1 X246.000 Y27.000 F1000
G1 X51.000 Y183.000 F1000
G1 X51.000 Y183.000 F1000
G1 X246.000 Y27.000 F1000
G1 X246.000 Y27.000 F1000
G1 X51.000 Y183.000 F1000
G1 X51.000 Y183.000 F1000
G1 X246.000 Y27.000 F1000
G1 X246.000 Y27.000 F1000
G1 X51.000 Y183.000 F1000
G1 X51.000 Y183.000 F1000
G1 X246.000 Y27.000 F1000
G1 X246.000 Y27.000 F1000
G1 X51.000 Y183.000 F1000
G1 X51.000 Y183.000 F1000
G1 X246.000 Y27.000 F1000
G1 X246.000 Y27.000 F1000
G1 X51.000 Y183.000 F1000
G1 X51.000 Y183.000 F1000
G1 X246.000 Y27.000 F1000
G1 X246.000 Y27.000 F1000
G1 X51.000 Y183.000 F1000
G1 X51.000 Y183.000 F1000
G1 X246.000 Y27.000 F1000
G1 X246.000 Y27.000 F1000
G1 X51.000 Y183.000 F1000
G1 X51.000 Y183.000 F1000
G1 X246.000 Y27.000 F1000
G1 X246.000 Y27.000 F1000
G1 X51.000 Y183.000 F1000
G1 X51.000 Y183.000 F1000
G1 X246.000 Y27.000 F1000
G1 X246.000 Y27.000 F1000
G1 X51.000 Y183.000 F1000
G1 X51.000 Y183.000 F1000
G1 X246.000 Y27.000 F1000
G1 X246.000 Y27.000 F1000
G1 X51.000 Y183.000 F1000
G1 X51.000 Y183.000 F1000
G1 X246.000 Y27.000 F1000
G1 X246.000 Y27.000 F1000
G1 X51.000 Y183.000 F1000
G1 X51.000 Y183.000 F1000
G1 X246.000 Y27.000 F1000
G1 X246.000 Y27.000 F1000
G1 X51.000 Y183.000 F1000
G1 X51.000 Y183.000 F1000
G1 X246.000 Y27.000 F1000
G1 X246.000 Y27.000 F1000
G1 X51.000 Y183.000 F1000
G1 X51.000 Y183.000 F1000
G1 X246.000 Y27.000 F1000
G1 X246.000 Y27.000 F1000
G1 X51.000 Y183.000 F1000
G1 X51.000 Y183.000 F1000
G1 X246.000 Y27.000 F1000
G1 X246.000 Y27.000 F1000
G1 X51.000 Y183.000 F1000
G1 X51.000 Y183.000 F1000
G1 X246.000 Y27.000 F1000
G1 X246.000 Y27.000 F1000
G1 X51.000 Y183.000 F1000
G1 X51.000 Y183.000 F1000
G1 X246.000 Y27.000 F1000
G1 X246.000 Y27.000 F1000
G1 X51.000 Y183.000 F1000
G1 X51.000 Y183.000 F1000
G1 X246.000 Y27.000 F1000
G1 X246.000 Y27.000 F1000
G1 X51.000 Y183.000 F1000
G1 X51.000 Y183.000 F1000
G1 X246.000 Y27.000 F1000
G1 X246.000 Y27.000 F1000
G1 X51.000 Y183.000 F1000
G1 X51.000 Y183.000 F1000
G1 X246.000 Y27.000 F1000
G1 X246.000 Y27.000 F1000
G1 X51.000 Y183.000 F1000
G1 X51.000 Y183.000 F1000
G1 X246.000 Y27.000 F1000
G1 X246.000 Y27.000 F1000
G1 X51.000 Y183.000 F1000
G1 X51.000 Y183.000 F1000
G1 X246.000 Y27.000 F1000
G1 X246.000 Y27.000 F1000
G1 X51.000 Y183.000 F1000
G1 X51.000 Y183.000 F1000
G1 X246.000 Y27.000 F1000
G1 X246.000 Y27.000 F1000
G1 X51.000 Y183.000 F1000
G1 X51.000 Y183.000 F1000
G1 X246.000 Y27.000 F1000
G1 X246.000 Y27.000 F1000
G1 X51.000 Y183.000 F1000
G1 X51.000 Y183.000 F1000
G1 X246.000 Y27.000 F1000
G1 X246.000 Y27.000 F1000
G1 X51.000 Y183.000 F1000
G1 X51.000 Y183.000 F1000
G1 X246.000 Y27.000 F1000
G1 X246.000 Y27.000 F1000
G1 X51.000 Y183.000 F1000
G1 X51.000 Y183.000 F1000
G1 X246.000 Y27.000 F1000
G1 X246.000 Y27.000 F1000
G1 X51.000 Y183.000 F1000
G1 X51.000 Y183.000 F1000
G1 X246.000 Y27.000 F1000
G1 X246.000 Y27.000 F1000
G1 X51.000 Y183.000 F1000
G1 X51.000 Y183.000 F1000
G1 X246.000 Y27.000 F1000
G1 X246.000 Y27.000 F1000
G1 X51.000 Y183.000 F1000
G1 X51.000 Y183.000 F1000
G1 X246.000 Y27.000 F1000
G1 X246.000 Y27.000 F1000
G1 X51.000 Y183.000 F1000
G1 X51.000 Y183.000 F1000
G1 X246.000 Y27.000 F1000
G1 X246.000 Y27.000 F1000
G1 X51.000 Y183.000 F1000
G1 X51.000 Y183.000 F1000
G1 X246.000 Y27.000 F1000
G1 X246.000 Y27.000 F1000
G1 X51.000 Y183.000 F1000
G1 X51.000 Y183.000 F1000
G1 X246.000 Y27.000 F1000
G1 X246.000 Y27.000 F1000
G1 X51.000 Y183.000 F1000
G1 X51.000 Y183.000 F1000
G1 X246.000 Y27.000 F1000
G1 X246.000 Y27.000 F1000
G1 X51.000 Y183.000 F1000
G1 X51.000 Y183.000 F1000
G1 X246.000 Y27.000 F1000
G1 X246.000 Y27.000 F1000
G1 X51.000 Y183.000 F1000
G1 X51.000 Y183.000 F1000
G1 X246.000 Y27.000 F1000
G1 X246.000 Y27.000 F1000
G1 X51.000 Y183.000 F1000
G1 X51.000 Y183.000 F1000
G1 X246.000 Y27.000 F1000
G1 X246.000 Y27.000 F1000
G1 X51.000 Y183.000 F1000
G1 X51.000 Y183.000 F1000
G1 X246.000 Y27.000 F1000
G1 X246.000 Y27.000 F1000
G1 X51.000 Y183.000 F1000
G1 X51.000 Y183.000 F1000
G1 X246.000 Y27.000 F1000
G1 X246.000 Y27.000 F1000
G1 X51.000 Y183.000 F1000
G1 X51.000 Y183.000 F1000
G1 X246.000 Y27.000 F1000
G1 X246.000 Y27.000 F1000
G1 X51.000 Y183.000 F1000
G1 X51.000 Y183.000 F1000
G1 X246.000 Y27.000 F1000
G1 X246.000 Y27.000 F1000
G1 X51.000 Y183.000 F1000
G1 X51.000 Y183.000 F1000
G1 X246.000 Y27.000 F1000
G1 X246.000 Y27.000 F1000
G1 X51.000 Y183.000 F1000
G1 X51.000 Y183.000 F1000
G1 X246.000 Y27.000 F1000
G1 X246.000 Y27.000 F1000
G1 X51.000 Y183.000 F1000
G1 X51.000 Y183.000 F1000
G1 X246.000 Y27.000 F1000
G1 X246.000 Y27.000 F1000
G1 X51.000 Y183.000 F1000
G1 X51.000 Y183.000 F1000
G1 X246.000 Y27.000 F1000
G1 X246.000 Y27.000 F1000
G1 X51.000 Y183.000 F1000
G1 X51.000 Y183.000 F1000
G1 X246.000 Y27.000 F1000
G1 X246.000 Y27.000 F1000
G1 X51.000 Y183.000 F1000
G1 X51.000 Y183.000 F1000
G1 X246.000 Y27.000 F1000
G1 X246.000 Y27.000 F1000
G1 X51.000 Y183.000 F1000
G1 X51.000 Y183.000 F1000
G1 X246.000 Y27.000 F1000
G1 X246.000 Y27.000 F1000
G1 X51.000 Y183.000 F1000
G1 X51.000 Y183.000 F1000
G1 X246.000 Y27.000 F1000
G1 X246.000 Y27.000 F1000
G1 X51.000 Y183.000 F1000
G1 X51.000 Y183.000 F1000
G1 X246.000 Y27.000 F1000
G1 X246.000 Y27.000 F1000
G1 X51.000 Y183.000 F1000
G1 X51.000 Y183.000 F1000
G1 X246.000 Y27.000 F1000
G1 X246.000 Y27.000 F1000
G1 X51.000 Y183.000 F1000
G1 X51.000 Y183.000 F1000
G1 X246.000 Y27.000 F1000
G1 X246.000 Y27.000 F1000
G1 X51.000 Y183.000 F1000
G1 X51.000 Y183.000 F1000
G1 X246.000 Y27.000 F1000
G1 X246.000 Y27.000 F1000
G1 X51.000 Y183.000 F1000
G1 X51.000 Y183.000 F1000
G1 X246.000 Y27.000 F1000
G1 X246.000 Y27.000 F1000
G1 X51.000 Y183.000 F1000
G1 X51.000 Y183.000 F1000
G1 X246.000 Y27.000 F1000
G1 X246.000 Y27.000 F1000
G1 X51.000 Y183.000 F1000
G1 X51.000 Y183.000 F1000
G1 X246.000 Y27.000 F1000
G1 X246.000 Y27.000 F1000
G1 X51.000 Y183.000 F1000
G1 X51.000 Y183.000 F1000
G1 X245.480 Y27.000 F1000
G1 X245.480 Y27.000 F1000
G1 X51.000 Y183.000 F1000
G1 X51.000 Y183.000 F1000
G1 X245.740 Y27.000 F1000
G1 X245.740 Y27.000 F1000
G1 X51.000 Y183.000 F1000
G1 X51.000 Y183.000 F1000
G1 X246.000 Y27.000 F1000
G0 Z3.0 ; Pen up

G0 X246.260 Y27.000 F3000 ; Travel to line 380
G0 Z0.0 ; Pen down
G1 X51.520 Y183.000 F1000
G0 Z3.0 ; Pen up

G0 X51.780 Y183.000 F3000 ; Travel to line 381
G0 Z0.0 ; Pen down
G1 X246.260 Y27.000 F1000
G1 X246.260 Y27.000 F1000
G1 X51.780 Y183.000 F1000
G1 X51.780 Y183.000 F1000
G1 X246.260 Y27.000 F1000
G1 X246.260 Y27.000 F1000
G1 X52.040 Y183.000 F1000
G0 Z3.0 ; Pen up

G0 X52.300 Y183.000 F3000 ; Travel to line 382
G0 Z0.0 ; Pen down
G1 X246.260 Y27.000 F1000
G1 X246.260 Y27.000 F1000
G1 X52.300 Y183.000 F1000
G0 Z3.0 ; Pen up

G0 X52.560 Y183.000 F3000 ; Travel to line 383
G0 Z0.0 ; Pen down
G1 X246.260 Y27.000 F1000
G1 X246.260 Y27.000 F1000
G1 X52.820 Y183.000 F1000
G0 Z3.0 ; Pen up

G0 X53.080 Y183.000 F3000 ; Travel to line 384
G0 Z0.0 ; Pen down
G1 X246.260 Y27.000 F1000
G1 X246.260 Y27.000 F1000
G1 X53.080 Y183.000 F1000
G0 Z3.0 ; Pen up

G0 X53.340 Y183.000 F3000 ; Travel to line 385
G0 Z0.0 ; Pen down
G1 X246.520 Y27.000 F1000
G0 Z3.0 ; Pen up

G0 X246.780 Y27.000 F3000 ; Travel to line 386
G0 Z0.0 ; Pen down
G1 X55.160 Y183.000 F1000
G1 X55.160 Y183.000 F1000
G1 X246.780 Y27.000 F1000
G1 X246.780 Y27.000 F1000
G1 X55.420 Y183.000 F1000
G1 X55.420 Y183.000 F1000
G1 X246.780 Y27.000 F1000
G1 X246.780 Y27.000 F1000
G1 X55.680 Y183.000 F1000
G1 X55.680 Y183.000 F1000
G1 X246.780 Y27.000 F1000
G1 X246.780 Y27.000 F1000
G1 X55.940 Y183.000 F1000
G0 Z3.0 ; Pen up

G0 X56.200 Y183.000 F3000 ; Travel to line 387
G0 Z0.0 ; Pen down
G1 X246.780 Y27.000 F1000
G1 X246.780 Y27.000 F1000
G1 X56.200 Y183.000 F1000
G0 Z3.0 ; Pen up

G0 X56.460 Y183.000 F3000 ; Travel to line 388
G0 Z0.0 ; Pen down
G1 X246.780 Y27.000 F1000
G1 X246.780 Y27.000 F1000
G1 X56.720 Y183.000 F1000
G0 Z3.0 ; Pen up

G0 X56.980 Y183.000 F3000 ; Travel to line 389
G0 Z0.0 ; Pen down
G1 X247.040 Y27.000 F1000
G1 X247.040 Y27.000 F1000
G1 X56.980 Y183.000 F1000
G0 Z3.0 ; Pen up

G0 X57.240 Y183.000 F3000 ; Travel to line 390
G0 Z0.0 ; Pen down
G1 X247.040 Y27.000 F1000
G1 X247.040 Y27.000 F1000
G1 X57.240 Y183.000 F1000
G1 X57.240 Y183.000 F1000
G1 X247.040 Y27.000 F1000
G1 X247.040 Y27.000 F1000
G1 X57.500 Y183.000 F1000
G0 Z3.0 ; Pen up

G0 X57.760 Y183.000 F3000 ; Travel to line 391
G0 Z0.0 ; Pen down
G1 X247.040 Y27.000 F1000
G1 X247.040 Y27.000 F1000
G1 X57.760 Y183.000 F1000
G0 Z3.0 ; Pen up

G0 X58.020 Y183.000 F3000 ; Travel to line 392
G0 Z0.0 ; Pen down
G1 X247.040 Y27.000 F1000
G1 X247.040 Y27.000 F1000
G1 X58.280 Y183.000 F1000
G0 Z3.0 ; Pen up

G0 X58.540 Y183.000 F3000 ; Travel to line 393
G0 Z0.0 ; Pen down
G1 X247.040 Y27.000 F1000
G1 X247.040 Y27.000 F1000
G1 X58.540 Y183.000 F1000
G0 Z3.0 ; Pen up

G0 X58.800 Y183.000 F3000 ; Travel to line 394
G0 Z0.0 ; Pen down
G1 X247.300 Y27.000 F1000
G0 Z3.0 ; Pen up

G0 X247.560 Y27.000 F3000 ; Travel to line 395
G0 Z0.0 ; Pen down
G1 X60.620 Y183.000 F1000
G0 Z3.0 ; Pen up

G0 X60.880 Y183.000 F3000 ; Travel to line 396
G0 Z0.0 ; Pen down
G1 X247.560 Y27.000 F1000
G1 X247.560 Y27.000 F1000
G1 X60.880 Y183.000 F1000
G1 X60.880 Y183.000 F1000
G1 X247.560 Y27.000 F1000
G1 X247.560 Y27.000 F1000
G1 X61.140 Y183.000 F1000
G1 X61.140 Y183.000 F1000
G1 X247.560 Y27.000 F1000
G1 X247.560 Y27.000 F1000
G1 X61.400 Y183.000 F1000
G0 Z3.0 ; Pen up

G0 X61.660 Y183.000 F3000 ; Travel to line 397
G0 Z0.0 ; Pen down
G1 X247.560 Y27.000 F1000
G1 X247.560 Y27.000 F1000
G1 X61.660 Y183.000 F1000
G0 Z3.0 ; Pen up

G0 X61.920 Y183.000 F3000 ; Travel to line 398
G0 Z0.0 ; Pen down
G1 X247.560 Y27.000 F1000
G1 X247.560 Y27.000 F1000
G1 X62.180 Y183.000 F1000
G0 Z3.0 ; Pen up

G0 X62.700 Y183.000 F3000 ; Travel to line 399
G0 Z0.0 ; Pen down
G1 X247.820 Y27.000 F1000
G1 X247.820 Y27.000 F1000
G1 X62.700 Y183.000 F1000
G1 X62.700 Y183.000 F1000
G1 X247.820 Y27.000 F1000
G1 X247.820 Y27.000 F1000
G1 X62.440 Y183.000 F1000
G1 X62.440 Y183.000 F1000
G1 X247.820 Y27.000 F1000
G0 Z3.0 ; Pen up

G0 X248.080 Y27.000 F3000 ; Travel to line 400
G0 Z0.0 ; Pen down
G1 X64.520 Y183.000 F1000
G1 X64.520 Y183.000 F1000
G1 X248.080 Y27.000 F1000
G1 X248.080 Y27.000 F1000
G1 X64.520 Y183.000 F1000
G0 Z3.0 ; Pen up

G0 X64.780 Y183.000 F3000 ; Travel to line 401
G0 Z0.0 ; Pen down
G1 X248.080 Y27.000 F1000
G1 X248.080 Y27.000 F1000
G1 X65.040 Y183.000 F1000
G1 X65.040 Y183.000 F1000
G1 X248.080 Y27.000 F1000
G1 X248.080 Y27.000 F1000
G1 X65.300 Y183.000 F1000
G0 Z3.0 ; Pen up

G0 X65.560 Y183.000 F3000 ; Travel to line 402
G0 Z0.0 ; Pen down
G1 X248.080 Y27.000 F1000
G1 X248.080 Y27.000 F1000
G1 X65.560 Y183.000 F1000
G0 Z3.0 ; Pen up

G0 X65.820 Y183.000 F3000 ; Travel to line 403
G0 Z0.0 ; Pen down
G1 X248.080 Y27.000 F1000
G1 X248.080 Y27.000 F1000
G1 X66.080 Y183.000 F1000
G0 Z3.0 ; Pen up

G0 X66.340 Y183.000 F3000 ; Travel to line 404
G0 Z0.0 ; Pen down
G1 X248.340 Y27.000 F1000
G1 X248.340 Y27.000 F1000
G1 X66.340 Y183.000 F1000
G1 X66.340 Y183.000 F1000
G1 X248.340 Y27.000 F1000
G1 X248.340 Y27.000 F1000
G1 X66.600 Y183.000 F1000
G1 X66.600 Y183.000 F1000
G1 X248.340 Y27.000 F1000
G1 X248.340 Y27.000 F1000
G1 X66.860 Y183.000 F1000
G0 Z3.0 ; Pen up

G0 X67.120 Y183.000 F3000 ; Travel to line 405
G0 Z0.0 ; Pen down
G1 X248.340 Y27.000 F1000
G1 X248.340 Y27.000 F1000
G1 X67.120 Y183.000 F1000
G0 Z3.0 ; Pen up

G0 X67.380 Y183.000 F3000 ; Travel to line 406
G0 Z0.0 ; Pen down
G1 X248.340 Y27.000 F1000
G1 X248.340 Y27.000 F1000
G1 X67.640 Y183.000 F1000
G0 Z3.0 ; Pen up

G0 X67.900 Y183.000 F3000 ; Travel to line 407
G0 Z0.0 ; Pen down
G1 X248.340 Y27.000 F1000
G1 X248.340 Y27.000 F1000
G1 X67.900 Y183.000 F1000
G0 Z3.0 ; Pen up

G0 X68.160 Y183.000 F3000 ; Travel to line 408
G0 Z0.0 ; Pen down
G1 X248.600 Y27.000 F1000
G1 X248.600 Y27.000 F1000
G1 X68.160 Y183.000 F1000
G1 X68.160 Y183.000 F1000
G1 X248.600 Y27.000 F1000
G0 Z3.0 ; Pen up

G0 X248.860 Y27.000 F3000 ; Travel to line 409
G0 Z0.0 ; Pen down
G1 X69.980 Y183.000 F1000
G1 X69.980 Y183.000 F1000
G1 X248.860 Y27.000 F1000
G1 X248.860 Y27.000 F1000
G1 X69.980 Y183.000 F1000
G0 Z3.0 ; Pen up

G0 X70.240 Y183.000 F3000 ; Travel to line 410
G0 Z0.0 ; Pen down
G1 X248.860 Y27.000 F1000
G1 X248.860 Y27.000 F1000
G1 X70.500 Y183.000 F1000
G1 X70.500 Y183.000 F1000
G1 X248.860 Y27.000 F1000
G1 X248.860 Y27.000 F1000
G1 X70.760 Y183.000 F1000
G0 Z3.0 ; Pen up

G0 X71.020 Y183.000 F3000 ; Travel to line 411
G0 Z0.0 ; Pen down
G1 X248.860 Y27.000 F1000
G1 X248.860 Y27.000 F1000
G1 X71.020 Y183.000 F1000
G0 Z3.0 ; Pen up

G0 X71.280 Y183.000 F3000 ; Travel to line 412
G0 Z0.0 ; Pen down
G1 X248.860 Y27.000 F1000
G1 X248.860 Y27.000 F1000
G1 X71.540 Y183.000 F1000
G0 Z3.0 ; Pen up

G0 X71.800 Y183.000 F3000 ; Travel to line 413
G0 Z0.0 ; Pen down
G1 X249.120 Y27.000 F1000
G1 X249.120 Y27.000 F1000
G1 X71.800 Y183.000 F1000
G1 X71.800 Y183.000 F1000
G1 X249.120 Y27.000 F1000
G1 X249.120 Y27.000 F1000
G1 X72.060 Y183.000 F1000
G1 X72.060 Y183.000 F1000
G1 X249.120 Y27.000 F1000
G1 X249.120 Y27.000 F1000
G1 X72.320 Y183.000 F1000
G0 Z3.0 ; Pen up

G0 X72.580 Y183.000 F3000 ; Travel to line 414
G0 Z0.0 ; Pen down
G1 X249.120 Y27.000 F1000
G1 X249.120 Y27.000 F1000
G1 X72.840 Y183.000 F1000
G1 X72.840 Y183.000 F1000
G1 X249.120 Y27.000 F1000
G1 X249.120 Y27.000 F1000
G1 X73.100 Y183.000 F1000
G0 Z3.0 ; Pen up

G0 X73.360 Y183.000 F3000 ; Travel to line 415
G0 Z0.0 ; Pen down
G1 X249.120 Y27.000 F1000
G1 X249.120 Y27.000 F1000
G1 X73.360 Y183.000 F1000
G0 Z3.0 ; Pen up

G0 X73.620 Y183.000 F3000 ; Travel to line 416
G0 Z0.0 ; Pen down
G1 X249.380 Y27.000 F1000
G1 X249.380 Y27.000 F1000
G1 X73.620 Y183.000 F1000
G1 X73.620 Y183.000 F1000
G1 X249.380 Y27.000 F1000
G1 X249.380 Y27.000 F1000
G1 X73.880 Y183.000 F1000
G0 Z3.0 ; Pen up

G0 X74.140 Y183.000 F3000 ; Travel to line 417
G0 Z0.0 ; Pen down
G1 X249.640 Y27.000 F1000
G0 Z3.0 ; Pen up

G0 X250.160 Y27.000 F3000 ; Travel to line 418
G0 Z0.0 ; Pen down
G1 X74.660 Y183.000 F1000
G0 Z3.0 ; Pen up

G0 X74.400 Y183.000 F3000 ; Travel to line 419
G0 Z0.0 ; Pen down
G1 X249.900 Y27.000 F1000
G1 X249.900 Y27.000 F1000
G1 X74.400 Y183.000 F1000
G0 Z3.0 ; Pen up

G0 X74.920 Y183.000 F3000 ; Travel to line 420
G0 Z0.0 ; Pen down
G1 X250.420 Y27.000 F1000
G1 X250.420 Y27.000 F1000
G1 X74.920 Y183.000 F1000
G0 Z3.0 ; Pen up

G0 X75.180 Y183.000 F3000 ; Travel to line 421
G0 Z0.0 ; Pen down
G1 X250.680 Y27.000 F1000
G0 Z3.0 ; Pen up

G0 X250.940 Y27.000 F3000 ; Travel to line 422
G0 Z0.0 ; Pen down
G1 X75.440 Y183.000 F1000
G0 Z3.0 ; Pen up

G0 X75.700 Y183.000 F3000 ; Travel to line 423
G0 Z0.0 ; Pen down
G1 X251.460 Y27.000 F1000
G1 X251.460 Y27.000 F1000
G1 X75.700 Y183.000 F1000
G0 Z3.0 ; Pen up

G0 X75.960 Y183.000 F3000 ; Travel to line 424
G0 Z0.0 ; Pen down
G1 X251.720 Y27.000 F1000
G0 Z3.0 ; Pen up

G0 X252.240 Y27.000 F3000 ; Travel to line 425
G0 Z0.0 ; Pen down
G1 X76.480 Y183.000 F1000
G0 Z3.0 ; Pen up

G0 X76.220 Y183.000 F3000 ; Travel to line 426
G0 Z0.0 ; Pen down
G1 X251.980 Y27.000 F1000
G1 X251.980 Y27.000 F1000
G1 X76.220 Y183.000 F1000
G0 Z3.0 ; Pen up

G0 X77.000 Y183.000 F3000 ; Travel to line 427
G0 Z0.0 ; Pen down
G1 X252.500 Y27.000 F1000
G0 Z3.0 ; Pen up

G0 X252.500 Y27.520 F3000 ; Travel to line 428
G0 Z0.0 ; Pen down
G1 X77.520 Y183.000 F1000
G0 Z3.0 ; Pen up

G0 X77.780 Y183.000 F3000 ; Travel to line 429
G0 Z0.0 ; Pen down
G1 X252.500 Y27.780 F1000
G1 X252.500 Y27.780 F1000
G1 X77.780 Y183.000 F1000
G0 Z3.0 ; Pen up

G0 X78.040 Y183.000 F3000 ; Travel to line 430
G0 Z0.0 ; Pen down
G1 X252.500 Y28.040 F1000
G0 Z3.0 ; Pen up

G0 X252.500 Y28.560 F3000 ; Travel to line 431
G0 Z0.0 ; Pen down
G1 X78.560 Y183.000 F1000
G0 Z3.0 ; Pen up

G0 X78.820 Y183.000 F3000 ; Travel to line 432
G0 Z0.0 ; Pen down
G1 X252.500 Y28.820 F1000
G0 Z3.0 ; Pen up

G0 X252.500 Y29.340 F3000 ; Travel to line 433
G0 Z0.0 ; Pen down
G1 X79.340 Y183.000 F1000
G0 Z3.0 ; Pen up

G0 X79.600 Y183.000 F3000 ; Travel to line 434
G0 Z0.0 ; Pen down
G1 X252.500 Y29.600 F1000
G1 X252.500 Y29.600 F1000
G1 X79.600 Y183.000 F1000
G0 Z3.0 ; Pen up

G0 X79.860 Y183.000 F3000 ; Travel to line 435
G0 Z0.0 ; Pen down
G1 X252.500 Y29.860 F1000
G0 Z3.0 ; Pen up

G0 X252.500 Y30.120 F3000 ; Travel to line 436
G0 Z0.0 ; Pen down
G1 X80.120 Y183.000 F1000
G0 Z3.0 ; Pen up

G0 X80.380 Y183.000 F3000 ; Travel to line 437
G0 Z0.0 ; Pen down
G1 X252.500 Y30.380 F1000
G1 X252.500 Y30.380 F1000
G1 X80.380 Y183.000 F1000
G0 Z3.0 ; Pen up

G0 X80.640 Y183.000 F3000 ; Travel to line 438
G0 Z0.0 ; Pen down
G1 X252.500 Y30.640 F1000
G0 Z3.0 ; Pen up

G0 X252.500 Y31.160 F3000 ; Travel to line 439
G0 Z0.0 ; Pen down
G1 X81.160 Y183.000 F1000
G0 Z3.0 ; Pen up

G0 X80.900 Y183.000 F3000 ; Travel to line 440
G0 Z0.0 ; Pen down
G1 X252.500 Y30.900 F1000
G1 X252.500 Y30.900 F1000
G1 X80.900 Y183.000 F1000
G0 Z3.0 ; Pen up

G0 X81.420 Y183.000 F3000 ; Travel to line 441
G0 Z0.0 ; Pen down
G1 X252.500 Y31.420 F1000
G1 X252.500 Y31.420 F1000
G1 X81.420 Y183.000 F1000
G0 Z3.0 ; Pen up

G0 X81.680 Y183.000 F3000 ; Travel to line 442
G0 Z0.0 ; Pen down
G1 X252.500 Y31.680 F1000
G0 Z3.0 ; Pen up

G0 X252.500 Y31.940 F3000 ; Travel to line 443
G0 Z0.0 ; Pen down
G1 X81.940 Y183.000 F1000
G0 Z3.0 ; Pen up

G0 X82.200 Y183.000 F3000 ; Travel to line 444
G0 Z0.0 ; Pen down
G1 X252.500 Y32.200 F1000
G1 X252.500 Y32.200 F1000
G1 X82.200 Y183.000 F1000
G0 Z3.0 ; Pen up

G0 X82.460 Y183.000 F3000 ; Travel to line 445
G0 Z0.0 ; Pen down
G1 X252.500 Y32.460 F1000
G0 Z3.0 ; Pen up

G0 X252.500 Y32.980 F3000 ; Travel to line 446
G0 Z0.0 ; Pen down
G1 X82.980 Y183.000 F1000
G0 Z3.0 ; Pen up

G0 X83.240 Y183.000 F3000 ; Travel to line 447
G0 Z0.0 ; Pen down
G1 X252.500 Y33.240 F1000
G0 Z3.0 ; Pen up

G0 X252.500 Y33.760 F3000 ; Travel to line 448
G0 Z0.0 ; Pen down
G1 X83.760 Y183.000 F1000
G0 Z3.0 ; Pen up

G0 X84.020 Y183.000 F3000 ; Travel to line 449
G0 Z0.0 ; Pen down
G1 X252.500 Y34.020 F1000
G1 X252.500 Y34.020 F1000
G1 X84.020 Y183.000 F1000
G0 Z3.0 ; Pen up

G0 X84.280 Y183.000 F3000 ; Travel to line 450
G0 Z0.0 ; Pen down
G1 X252.500 Y34.280 F1000
G0 Z3.0 ; Pen up

G0 X252.500 Y34.800 F3000 ; Travel to line 451
G0 Z0.0 ; Pen down
G1 X84.800 Y183.000 F1000
G0 Z3.0 ; Pen up

G0 X84.540 Y183.000 F3000 ; Travel to line 452
G0 Z0.0 ; Pen down
G1 X252.500 Y34.540 F1000
G1 X252.500 Y34.540 F1000
G1 X84.540 Y183.000 F1000
G0 Z3.0 ; Pen up

G0 X85.060 Y183.000 F3000 ; Travel to line 453
G0 Z0.0 ; Pen down
G1 X252.500 Y35.060 F1000
G0 Z3.0 ; Pen up

G0 X252.500 Y35.580 F3000 ; Travel to line 454
G0 Z0.0 ; Pen down
G1 X85.580 Y183.000 F1000
G0 Z3.0 ; Pen up

G0 X85.320 Y183.000 F3000 ; Travel to line 455
G0 Z0.0 ; Pen down
G1 X252.500 Y35.320 F1000
G1 X252.500 Y35.320 F1000
G1 X85.320 Y183.000 F1000
G0 Z3.0 ; Pen up

G0 X86.100 Y183.000 F3000 ; Travel to line 456
G0 Z0.0 ; Pen down
G1 X252.500 Y35.840 F1000
G1 X252.500 Y35.840 F1000
G1 X85.840 Y183.000 F1000
G1 X85.840 Y183.000 F1000
G1 X252.500 Y35.840 F1000
G0 Z3.0 ; Pen up

G0 X252.500 Y36.100 F3000 ; Travel to line 457
G0 Z0.0 ; Pen down
G1 X86.360 Y183.000 F1000
G0 Z3.0 ; Pen up

G0 X86.620 Y183.000 F3000 ; Travel to line 458
G0 Z0.0 ; Pen down
G1 X252.500 Y36.360 F1000
G1 X252.500 Y36.360 F1000
G1 X86.620 Y183.000 F1000
G0 Z3.0 ; Pen up

G0 X86.880 Y183.000 F3000 ; Travel to line 459
G0 Z0.0 ; Pen down
G1 X252.500 Y36.620 F1000
G0 Z3.0 ; Pen up

G0 X252.500 Y37.140 F3000 ; Travel to line 460
G0 Z0.0 ; Pen down
G1 X87.400 Y183.000 F1000
G0 Z3.0 ; Pen up

G0 X87.660 Y183.000 F3000 ; Travel to line 461
G0 Z0.0 ; Pen down
G1 X252.500 Y37.400 F1000
G0 Z3.0 ; Pen up

G0 X252.500 Y37.920 F3000 ; Travel to line 462
G0 Z0.0 ; Pen down
G1 X88.180 Y183.000 F1000
G0 Z3.0 ; Pen up

G0 X88.440 Y183.000 F3000 ; Travel to line 463
G0 Z0.0 ; Pen down
G1 X252.500 Y38.180 F1000
G1 X252.500 Y38.180 F1000
G1 X88.440 Y183.000 F1000
G0 Z3.0 ; Pen up

G0 X88.700 Y183.000 F3000 ; Travel to line 464
G0 Z0.0 ; Pen down
G1 X252.500 Y38.440 F1000
G0 Z3.0 ; Pen up

G0 X252.500 Y38.960 F3000 ; Travel to line 465
G0 Z0.0 ; Pen down
G1 X89.220 Y183.000 F1000
G0 Z3.0 ; Pen up

G0 X88.960 Y183.000 F3000 ; Travel to line 466
G0 Z0.0 ; Pen down
G1 X252.500 Y38.700 F1000
G1 X252.500 Y38.700 F1000
G1 X88.960 Y183.000 F1000
G0 Z3.0 ; Pen up

G0 X89.480 Y183.000 F3000 ; Travel to line 467
G0 Z0.0 ; Pen down
G1 X252.500 Y39.220 F1000
G0 Z3.0 ; Pen up

G0 X252.500 Y39.740 F3000 ; Travel to line 468
G0 Z0.0 ; Pen down
G1 X90.000 Y183.000 F1000
G0 Z3.0 ; Pen up

G0 X89.740 Y183.000 F3000 ; Travel to line 469
G0 Z0.0 ; Pen down
G1 X252.500 Y39.480 F1000
G1 X252.500 Y39.480 F1000
G1 X89.740 Y183.000 F1000
G0 Z3.0 ; Pen up

G0 X90.260 Y183.000 F3000 ; Travel to line 470
G0 Z0.0 ; Pen down
G1 X252.500 Y40.000 F1000
G1 X252.500 Y40.000 F1000
G1 X90.260 Y183.000 F1000
G0 Z3.0 ; Pen up

G0 X90.520 Y183.000 F3000 ; Travel to line 471
G0 Z0.0 ; Pen down
G1 X252.500 Y40.260 F1000
G0 Z3.0 ; Pen up

G0 X252.500 Y40.520 F3000 ; Travel to line 472
G0 Z0.0 ; Pen down
G1 X90.780 Y183.000 F1000
G0 Z3.0 ; Pen up

G0 X91.040 Y183.000 F3000 ; Travel to line 473
G0 Z0.0 ; Pen down
G1 X252.500 Y40.780 F1000
G1 X252.500 Y40.780 F1000
G1 X91.040 Y183.000 F1000
G0 Z3.0 ; Pen up

G0 X91.300 Y183.000 F3000 ; Travel to line 474
G0 Z0.0 ; Pen down
G1 X252.500 Y41.040 F1000
G0 Z3.0 ; Pen up

G0 X252.500 Y41.560 F3000 ; Travel to line 475
G0 Z0.0 ; Pen down
G1 X91.820 Y183.000 F1000
G0 Z3.0 ; Pen up

G0 X92.080 Y183.000 F3000 ; Travel to line 476
G0 Z0.0 ; Pen down
G1 X252.500 Y41.820 F1000
