; Blueprint to G-code
; Input: test_images_solid/test1_simple_shapes.png
; Generated with blueprint2gcode.py

G21 ; Set units to millimeters
G90 ; Absolute positioning
G0 Z3.0 ; Pen up
G0 X0 Y0 ; Move to origin

G0 X27.993 Y52.157 F3000 ; Travel to line 1
G0 Z0.0 ; Pen down
G1 X27.822 Y51.985 F1000
G1 X27.307 Y51.985 F1000
G1 X27.135 Y51.813 F1000
G1 X26.620 Y51.813 F1000
G1 X26.448 Y51.642 F1000
G1 X25.933 Y51.642 F1000
G1 X25.762 Y51.470 F1000
G1 X25.418 Y51.470 F1000
G1 X25.247 Y51.298 F1000
G1 X25.075 Y51.298 F1000
G1 X24.903 Y51.127 F1000
G1 X24.560 Y51.127 F1000
G1 X24.388 Y50.955 F1000
G1 X24.217 Y50.955 F1000
G1 X24.045 Y50.783 F1000
G1 X23.873 Y50.783 F1000
G1 X23.702 Y50.612 F1000
G1 X23.530 Y50.612 F1000
G1 X23.358 Y50.440 F1000
G1 X23.187 Y50.440 F1000
G1 X23.015 Y50.268 F1000
G1 X22.843 Y50.268 F1000
G1 X22.500 Y49.925 F1000
G1 X22.328 Y49.925 F1000
G1 X22.157 Y49.753 F1000
G1 X21.985 Y49.753 F1000
G1 X21.470 Y49.238 F1000
G1 X21.298 Y49.238 F1000
G1 X20.783 Y48.723 F1000
G1 X20.612 Y48.723 F1000
G1 X19.753 Y47.865 F1000
G1 X19.582 Y47.865 F1000
G1 X18.552 Y46.835 F1000
G1 X18.552 Y46.663 F1000
G1 X17.693 Y45.805 F1000
G1 X17.693 Y45.633 F1000
G1 X17.178 Y45.118 F1000
G1 X17.178 Y44.947 F1000
G1 X16.663 Y44.432 F1000
G1 X16.663 Y44.260 F1000
G1 X16.492 Y44.088 F1000
G1 X16.492 Y43.917 F1000
G1 X16.148 Y43.573 F1000
G1 X16.148 Y43.402 F1000
G1 X15.977 Y43.230 F1000
G1 X15.977 Y43.058 F1000
G1 X15.805 Y42.887 F1000
G1 X15.805 Y42.715 F1000
G1 X15.633 Y42.543 F1000
G1 X15.633 Y42.372 F1000
G1 X15.462 Y42.200 F1000
G1 X15.462 Y42.028 F1000
G1 X15.290 Y41.857 F1000
G1 X15.290 Y41.513 F1000
G1 X15.118 Y41.342 F1000
G1 X15.118 Y41.170 F1000
G1 X14.947 Y40.998 F1000
G1 X14.947 Y40.655 F1000
G1 X14.775 Y40.483 F1000
G1 X14.775 Y39.968 F1000
G1 X14.603 Y39.797 F1000
G1 X14.603 Y39.282 F1000
G1 X14.432 Y39.110 F1000
G1 X14.432 Y38.595 F1000
G1 X14.260 Y38.423 F1000
G1 X14.260 Y37.222 F1000
G1 X14.088 Y37.050 F1000
G1 X14.088 Y33.617 F1000
G1 X14.260 Y33.445 F1000
G1 X14.260 Y32.243 F1000
G1 X14.432 Y32.072 F1000
G1 X14.432 Y31.557 F1000
G1 X14.603 Y31.385 F1000
G1 X14.603 Y30.870 F1000
G1 X14.775 Y30.698 F1000
G1 X14.775 Y30.183 F1000
G1 X14.947 Y30.012 F1000
G1 X14.947 Y29.668 F1000
G1 X15.118 Y29.497 F1000
G1 X15.118 Y29.325 F1000
G1 X15.290 Y29.153 F1000
G1 X15.290 Y28.810 F1000
G1 X15.462 Y28.638 F1000
G1 X15.462 Y28.467 F1000
G1 X15.633 Y28.295 F1000
G1 X15.633 Y28.123 F1000
G1 X15.805 Y27.952 F1000
G1 X15.805 Y27.780 F1000
G1 X15.977 Y27.608 F1000
G1 X15.977 Y27.437 F1000
G1 X16.148 Y27.265 F1000
G1 X16.148 Y27.093 F1000
G1 X16.492 Y26.750 F1000
G1 X16.492 Y26.578 F1000
G1 X16.663 Y26.407 F1000
G1 X16.663 Y26.235 F1000
G1 X17.178 Y25.720 F1000
G1 X17.178 Y25.548 F1000
G1 X17.693 Y25.033 F1000
G1 X17.693 Y24.862 F1000
G1 X18.552 Y24.003 F1000
G1 X18.552 Y23.832 F1000
G1 X19.410 Y22.973 F1000
G1 X19.582 Y22.973 F1000
G1 X20.440 Y22.115 F1000
G1 X20.612 Y22.115 F1000
G1 X21.127 Y21.600 F1000
G1 X21.298 Y21.600 F1000
G1 X21.813 Y21.085 F1000
G1 X21.985 Y21.085 F1000
G1 X22.157 Y20.913 F1000
G1 X22.328 Y20.913 F1000
G1 X22.672 Y20.570 F1000
G1 X22.843 Y20.570 F1000
G1 X23.015 Y20.398 F1000
G1 X23.187 Y20.398 F1000
G1 X23.358 Y20.227 F1000
G1 X23.530 Y20.227 F1000
G1 X23.702 Y20.055 F1000
G1 X23.873 Y20.055 F1000
G1 X24.045 Y19.883 F1000
G1 X24.217 Y19.883 F1000
G1 X24.388 Y19.712 F1000
G1 X24.732 Y19.712 F1000
G1 X24.903 Y19.540 F1000
G1 X25.075 Y19.540 F1000
G1 X25.247 Y19.368 F1000
G1 X25.590 Y19.368 F1000
G1 X25.762 Y19.197 F1000
G1 X26.105 Y19.197 F1000
G1 X26.277 Y19.025 F1000
G1 X26.620 Y19.025 F1000
G1 X26.792 Y18.853 F1000
G1 X27.307 Y18.853 F1000
G1 X27.478 Y18.682 F1000
G1 X28.165 Y18.682 F1000
G1 X28.337 Y18.510 F1000
G1 X29.538 Y18.510 F1000
G1 X29.710 Y18.338 F1000
G1 X32.457 Y18.338 F1000
G1 X32.628 Y18.510 F1000
G1 X33.830 Y18.510 F1000
G1 X34.002 Y18.682 F1000
G1 X34.688 Y18.682 F1000
G1 X34.860 Y18.853 F1000
G1 X35.375 Y18.853 F1000
G1 X35.547 Y19.025 F1000
G1 X35.890 Y19.025 F1000
G1 X36.062 Y19.197 F1000
G1 X36.405 Y19.197 F1000
G1 X36.577 Y19.368 F1000
G1 X36.920 Y19.368 F1000
G1 X37.092 Y19.540 F1000
G1 X37.263 Y19.540 F1000
G1 X37.435 Y19.712 F1000
G1 X37.778 Y19.712 F1000
G1 X37.950 Y19.883 F1000
G1 X38.122 Y19.883 F1000
G1 X38.293 Y20.055 F1000
G1 X38.465 Y20.055 F1000
G1 X38.637 Y20.227 F1000
G1 X38.808 Y20.227 F1000
G1 X38.980 Y20.398 F1000
G1 X39.152 Y20.398 F1000
G1 X39.323 Y20.570 F1000
G1 X39.495 Y20.570 F1000
G1 X39.838 Y20.913 F1000
G1 X40.010 Y20.913 F1000
G1 X40.182 Y21.085 F1000
G1 X40.353 Y21.085 F1000
G1 X40.868 Y21.600 F1000
G1 X41.040 Y21.600 F1000
G1 X41.555 Y22.115 F1000
G1 X41.727 Y22.115 F1000
G1 X42.585 Y22.973 F1000
G1 X42.757 Y22.973 F1000
G1 X43.443 Y23.660 F1000
G1 X43.443 Y23.832 F1000
G1 X44.302 Y24.690 F1000
G1 X44.302 Y24.862 F1000
G1 X44.817 Y25.377 F1000
G1 X44.817 Y25.548 F1000
G1 X45.332 Y26.063 F1000
G1 X45.332 Y26.235 F1000
G1 X45.503 Y26.407 F1000
G1 X45.503 Y26.578 F1000
G1 X45.847 Y26.922 F1000
G1 X45.847 Y27.093 F1000
G1 X46.018 Y27.265 F1000
G1 X46.018 Y27.437 F1000
G1 X46.190 Y27.608 F1000
G1 X46.190 Y27.780 F1000
G1 X46.362 Y27.952 F1000
G1 X46.362 Y28.123 F1000
G1 X46.533 Y28.295 F1000
G1 X46.533 Y28.467 F1000
G1 X46.705 Y28.638 F1000
G1 X46.705 Y28.982 F1000
G1 X46.877 Y29.153 F1000
G1 X46.877 Y29.325 F1000
G1 X47.048 Y29.497 F1000
G1 X47.048 Y29.840 F1000
G1 X47.220 Y30.012 F1000
G1 X47.220 Y30.355 F1000
G1 X47.392 Y30.527 F1000
G1 X47.392 Y30.870 F1000
G1 X47.563 Y31.042 F1000
G1 X47.563 Y31.557 F1000
G1 X47.735 Y31.728 F1000
G1 X47.735 Y32.415 F1000
G1 X47.907 Y32.587 F1000
G1 X47.907 Y33.788 F1000
G1 X48.078 Y33.960 F1000
G1 X48.078 Y36.707 F1000
G1 X47.907 Y36.878 F1000
G1 X47.907 Y38.080 F1000
G1 X47.735 Y38.252 F1000
G1 X47.735 Y38.938 F1000
G1 X47.563 Y39.110 F1000
G1 X47.563 Y39.625 F1000
G1 X47.392 Y39.797 F1000
G1 X47.392 Y40.140 F1000
G1 X47.220 Y40.312 F1000
G1 X47.220 Y40.655 F1000
G1 X47.048 Y40.827 F1000
G1 X47.048 Y41.170 F1000
G1 X46.877 Y41.342 F1000
G1 X46.877 Y41.513 F1000
G1 X46.705 Y41.685 F1000
G1 X46.705 Y42.028 F1000
G1 X46.533 Y42.200 F1000
G1 X46.533 Y42.372 F1000
G1 X46.362 Y42.543 F1000
G1 X46.362 Y42.715 F1000
G1 X46.190 Y42.887 F1000
G1 X46.190 Y43.058 F1000
G1 X46.018 Y43.230 F1000
G1 X46.018 Y43.402 F1000
G1 X45.847 Y43.573 F1000
G1 X45.847 Y43.745 F1000
G1 X45.503 Y44.088 F1000
G1 X45.503 Y44.260 F1000
G1 X45.332 Y44.432 F1000
G1 X45.332 Y44.603 F1000
G1 X44.817 Y45.118 F1000
G1 X44.817 Y45.290 F1000
G1 X44.302 Y45.805 F1000
G1 X44.302 Y45.977 F1000
G1 X43.443 Y46.835 F1000
G1 X43.443 Y47.007 F1000
G1 X42.585 Y47.865 F1000
G1 X42.413 Y47.865 F1000
G1 X41.555 Y48.723 F1000
G1 X41.383 Y48.723 F1000
G1 X40.868 Y49.238 F1000
G1 X40.697 Y49.238 F1000
G1 X40.182 Y49.753 F1000
G1 X40.010 Y49.753 F1000
G1 X39.838 Y49.925 F1000
G1 X39.667 Y49.925 F1000
G1 X39.323 Y50.268 F1000
G1 X39.152 Y50.268 F1000
G1 X38.980 Y50.440 F1000
G1 X38.808 Y50.440 F1000
G1 X38.637 Y50.612 F1000
G1 X38.465 Y50.612 F1000
G1 X38.293 Y50.783 F1000
G1 X38.122 Y50.783 F1000
G1 X37.950 Y50.955 F1000
G1 X37.778 Y50.955 F1000
G1 X37.607 Y51.127 F1000
G1 X37.263 Y51.127 F1000
G1 X37.092 Y51.298 F1000
G1 X36.920 Y51.298 F1000
G1 X36.748 Y51.470 F1000
G1 X36.405 Y51.470 F1000
G1 X36.233 Y51.642 F1000
G1 X35.718 Y51.642 F1000
G1 X35.547 Y51.813 F1000
G1 X35.032 Y51.813 F1000
G1 X34.860 Y51.985 F1000
G1 X34.345 Y51.985 F1000
G1 X34.173 Y52.157 F1000
G1 X32.972 Y52.157 F1000
G1 X32.800 Y52.328 F1000
G1 X29.367 Y52.328 F1000
G1 X29.195 Y52.157 F1000
G0 Z3.0 ; Pen up

G0 X29.367 Y52.328 F3000 ; Travel to line 2
G0 Z0.0 ; Pen down
G1 X29.195 Y52.157 F1000
G1 X27.993 Y52.157 F1000
G1 X27.822 Y51.985 F1000
G1 X27.307 Y51.985 F1000
G1 X27.135 Y51.813 F1000
G1 X26.620 Y51.813 F1000
G1 X26.448 Y51.642 F1000
G1 X25.933 Y51.642 F1000
G1 X25.762 Y51.470 F1000
G1 X25.418 Y51.470 F1000
G1 X25.247 Y51.298 F1000
G1 X24.903 Y51.298 F1000
G1 X24.732 Y51.127 F1000
G1 X24.560 Y51.127 F1000
G1 X24.388 Y50.955 F1000
G1 X24.217 Y50.955 F1000
G1 X24.045 Y50.783 F1000
G1 X23.702 Y50.783 F1000
G1 X23.530 Y50.612 F1000
G1 X23.358 Y50.612 F1000
G1 X23.187 Y50.440 F1000
G1 X23.015 Y50.440 F1000
G1 X22.672 Y50.097 F1000
G1 X22.500 Y50.097 F1000
G1 X22.328 Y49.925 F1000
G1 X22.157 Y49.925 F1000
G1 X21.813 Y49.582 F1000
G1 X21.642 Y49.582 F1000
G1 X21.298 Y49.238 F1000
G1 X21.127 Y49.238 F1000
G1 X20.612 Y48.723 F1000
G1 X20.440 Y48.723 F1000
G1 X17.693 Y45.977 F1000
G1 X17.693 Y45.805 F1000
G1 X17.178 Y45.290 F1000
G1 X17.178 Y45.118 F1000
G1 X16.835 Y44.775 F1000
G1 X16.835 Y44.603 F1000
G1 X16.492 Y44.260 F1000
G1 X16.492 Y44.088 F1000
G1 X16.320 Y43.917 F1000
G1 X16.320 Y43.745 F1000
G1 X15.977 Y43.402 F1000
G1 X15.977 Y43.230 F1000
G1 X15.805 Y43.058 F1000
G1 X15.805 Y42.887 F1000
G1 X15.633 Y42.715 F1000
G1 X15.633 Y42.372 F1000
G1 X15.462 Y42.200 F1000
G1 X15.462 Y42.028 F1000
G1 X15.290 Y41.857 F1000
G1 X15.290 Y41.685 F1000
G1 X15.118 Y41.513 F1000
G1 X15.118 Y41.170 F1000
G1 X14.947 Y40.998 F1000
G1 X14.947 Y40.655 F1000
G1 X14.775 Y40.483 F1000
G1 X14.775 Y39.968 F1000
G1 X14.603 Y39.797 F1000
G1 X14.603 Y39.282 F1000
G1 X14.432 Y39.110 F1000
G1 X14.432 Y38.595 F1000
G1 X14.260 Y38.423 F1000
G1 X14.260 Y37.222 F1000
G1 X14.088 Y37.050 F1000
G1 X14.088 Y33.617 F1000
G1 X14.260 Y33.445 F1000
G1 X14.260 Y32.243 F1000
G1 X14.432 Y32.072 F1000
G1 X14.432 Y31.557 F1000
G1 X14.603 Y31.385 F1000
G1 X14.603 Y30.870 F1000
G1 X14.775 Y30.698 F1000
G1 X14.775 Y30.183 F1000
G1 X14.947 Y30.012 F1000
G1 X14.947 Y29.668 F1000
G1 X15.118 Y29.497 F1000
G1 X15.118 Y29.153 F1000
G1 X15.290 Y28.982 F1000
G1 X15.290 Y28.810 F1000
G1 X15.462 Y28.638 F1000
G1 X15.462 Y28.467 F1000
G1 X15.633 Y28.295 F1000
G1 X15.633 Y27.952 F1000
G1 X15.805 Y27.780 F1000
G1 X15.805 Y27.608 F1000
G1 X15.977 Y27.437 F1000
G1 X15.977 Y27.265 F1000
G1 X16.320 Y26.922 F1000
G1 X16.320 Y26.750 F1000
G1 X16.492 Y26.578 F1000
G1 X16.492 Y26.407 F1000
G1 X16.835 Y26.063 F1000
G1 X16.835 Y25.892 F1000
G1 X17.178 Y25.548 F1000
G1 X17.178 Y25.377 F1000
G1 X17.693 Y24.862 F1000
G1 X17.693 Y24.690 F1000
G1 X20.268 Y22.115 F1000
G1 X20.440 Y22.115 F1000
G1 X20.955 Y21.600 F1000
G1 X21.127 Y21.600 F1000
G1 X21.470 Y21.257 F1000
G1 X21.642 Y21.257 F1000
G1 X21.985 Y20.913 F1000
G1 X22.157 Y20.913 F1000
G1 X22.328 Y20.742 F1000
G1 X22.500 Y20.742 F1000
G1 X22.843 Y20.398 F1000
G1 X23.015 Y20.398 F1000
G1 X23.187 Y20.227 F1000
G1 X23.358 Y20.227 F1000
G1 X23.530 Y20.055 F1000
G1 X23.873 Y20.055 F1000
G1 X24.045 Y19.883 F1000
G1 X24.217 Y19.883 F1000
G1 X24.388 Y19.712 F1000
G1 X24.560 Y19.712 F1000
G1 X24.732 Y19.540 F1000
G1 X25.075 Y19.540 F1000
G1 X25.247 Y19.368 F1000
G1 X25.590 Y19.368 F1000
G1 X25.762 Y19.197 F1000
G1 X26.105 Y19.197 F1000
G1 X26.277 Y19.025 F1000
G1 X26.620 Y19.025 F1000
G1 X26.792 Y18.853 F1000
G1 X27.307 Y18.853 F1000
G1 X27.478 Y18.682 F1000
G1 X28.165 Y18.682 F1000
G1 X28.337 Y18.510 F1000
G1 X29.538 Y18.510 F1000
G1 X29.710 Y18.338 F1000
G1 X32.457 Y18.338 F1000
G1 X32.628 Y18.510 F1000
G1 X33.830 Y18.510 F1000
G1 X34.002 Y18.682 F1000
G1 X34.688 Y18.682 F1000
G1 X34.860 Y18.853 F1000
G1 X35.375 Y18.853 F1000
G1 X35.547 Y19.025 F1000
G1 X35.890 Y19.025 F1000
G1 X36.062 Y19.197 F1000
G1 X36.405 Y19.197 F1000
G1 X36.577 Y19.368 F1000
G1 X36.920 Y19.368 F1000
G1 X37.092 Y19.540 F1000
G1 X37.435 Y19.540 F1000
G1 X37.607 Y19.712 F1000
G1 X37.778 Y19.712 F1000
G1 X37.950 Y19.883 F1000
G1 X38.122 Y19.883 F1000
G1 X38.293 Y20.055 F1000
G1 X38.637 Y20.055 F1000
G1 X38.808 Y20.227 F1000
G1 X38.980 Y20.227 F1000
G1 X39.152 Y20.398 F1000
G1 X39.323 Y20.398 F1000
G1 X39.667 Y20.742 F1000
G1 X39.838 Y20.742 F1000
G1 X40.010 Y20.913 F1000
G1 X40.182 Y20.913 F1000
G1 X40.525 Y21.257 F1000
G1 X40.697 Y21.257 F1000
G1 X41.040 Y21.600 F1000
G1 X41.212 Y21.600 F1000
G1 X41.727 Y22.115 F1000
G1 X41.898 Y22.115 F1000
G1 X44.302 Y24.518 F1000
G1 X44.302 Y24.690 F1000
G1 X44.817 Y25.205 F1000
G1 X44.817 Y25.377 F1000
G1 X45.160 Y25.720 F1000
G1 X45.160 Y25.892 F1000
G1 X45.503 Y26.235 F1000
G1 X45.503 Y26.407 F1000
G1 X45.675 Y26.578 F1000
G1 X45.675 Y26.750 F1000
G1 X46.018 Y27.093 F1000
G1 X46.018 Y27.265 F1000
G1 X46.190 Y27.437 F1000
G1 X46.190 Y27.608 F1000
G1 X46.362 Y27.780 F1000
G1 X46.362 Y28.123 F1000
G1 X46.533 Y28.295 F1000
G1 X46.533 Y28.467 F1000
G1 X46.705 Y28.638 F1000
G1 X46.705 Y28.810 F1000
G1 X46.877 Y28.982 F1000
G1 X46.877 Y29.325 F1000
G1 X47.048 Y29.497 F1000
G1 X47.048 Y29.840 F1000
G1 X47.220 Y30.012 F1000
G1 X47.220 Y30.355 F1000
G1 X47.392 Y30.527 F1000
G1 X47.392 Y30.870 F1000
G1 X47.563 Y31.042 F1000
G1 X47.563 Y31.557 F1000
G1 X47.735 Y31.728 F1000
G1 X47.735 Y32.415 F1000
G1 X47.907 Y32.587 F1000
G1 X47.907 Y33.788 F1000
G1 X48.078 Y33.960 F1000
G1 X48.078 Y36.707 F1000
G1 X47.907 Y36.878 F1000
G1 X47.907 Y38.080 F1000
G1 X47.735 Y38.252 F1000
G1 X47.735 Y38.938 F1000
G1 X47.563 Y39.110 F1000
G1 X47.563 Y39.625 F1000
G1 X47.392 Y39.797 F1000
G1 X47.392 Y40.140 F1000
G1 X47.220 Y40.312 F1000
G1 X47.220 Y40.655 F1000
G1 X47.048 Y40.827 F1000
G1 X47.048 Y41.170 F1000
G1 X46.877 Y41.342 F1000
G1 X46.877 Y41.685 F1000
G1 X46.705 Y41.857 F1000
G1 X46.705 Y42.028 F1000
G1 X46.533 Y42.200 F1000
G1 X46.533 Y42.372 F1000
G1 X46.362 Y42.543 F1000
G1 X46.362 Y42.887 F1000
G1 X46.190 Y43.058 F1000
G1 X46.190 Y43.230 F1000
G1 X46.018 Y43.402 F1000
G1 X46.018 Y43.573 F1000
G1 X45.675 Y43.917 F1000
G1 X45.675 Y44.088 F1000
G1 X45.503 Y44.260 F1000
G1 X45.503 Y44.432 F1000
G1 X45.160 Y44.775 F1000
G1 X45.160 Y44.947 F1000
G1 X44.817 Y45.290 F1000
G1 X44.817 Y45.462 F1000
G1 X44.302 Y45.977 F1000
G1 X44.302 Y46.148 F1000
G1 X41.727 Y48.723 F1000
G1 X41.555 Y48.723 F1000
G1 X41.040 Y49.238 F1000
G1 X40.868 Y49.238 F1000
G1 X40.525 Y49.582 F1000
G1 X40.353 Y49.582 F1000
G1 X40.010 Y49.925 F1000
G1 X39.838 Y49.925 F1000
G1 X39.667 Y50.097 F1000
G1 X39.495 Y50.097 F1000
G1 X39.152 Y50.440 F1000
G1 X38.980 Y50.440 F1000
G1 X38.808 Y50.612 F1000
G1 X38.637 Y50.612 F1000
G1 X38.465 Y50.783 F1000
G1 X38.122 Y50.783 F1000
G1 X37.950 Y50.955 F1000
G1 X37.778 Y50.955 F1000
G1 X37.607 Y51.127 F1000
G1 X37.435 Y51.127 F1000
G1 X37.263 Y51.298 F1000
G1 X36.920 Y51.298 F1000
G1 X36.748 Y51.470 F1000
G1 X36.405 Y51.470 F1000
G1 X36.233 Y51.642 F1000
G1 X35.718 Y51.642 F1000
G1 X35.547 Y51.813 F1000
G1 X35.032 Y51.813 F1000
G1 X34.860 Y51.985 F1000
G1 X34.345 Y51.985 F1000
G1 X34.173 Y52.157 F1000
G1 X32.972 Y52.157 F1000
G1 X32.800 Y52.328 F1000
G0 Z3.0 ; Pen up

G0 X32.628 Y61.083 F3000 ; Travel to line 3
G0 Z0.0 ; Pen down
G1 X15.805 Y86.147 F1000
G0 Z3.0 ; Pen up

G0 X15.977 Y86.147 F3000 ; Travel to line 4
G0 Z0.0 ; Pen down
G1 X32.628 Y61.255 F1000
G0 Z3.0 ; Pen up

G0 X33.143 Y61.255 F3000 ; Travel to line 5
G0 Z0.0 ; Pen down
G1 X15.977 Y86.490 F1000
G0 Z3.0 ; Pen up

G0 X16.148 Y86.490 F3000 ; Travel to line 6
G0 Z0.0 ; Pen down
G1 X33.315 Y61.255 F1000
G0 Z3.0 ; Pen up

G0 X33.487 Y61.255 F3000 ; Travel to line 7
G0 Z0.0 ; Pen down
G1 X16.148 Y86.833 F1000
G0 Z3.0 ; Pen up

G0 X16.320 Y87.005 F3000 ; Travel to line 8
G0 Z0.0 ; Pen down
G1 X34.002 Y61.255 F1000
G0 Z3.0 ; Pen up

G0 X34.002 Y61.427 F3000 ; Travel to line 9
G0 Z0.0 ; Pen down
G1 X16.492 Y87.005 F1000
G0 Z3.0 ; Pen up

G0 X16.492 Y87.348 F3000 ; Travel to line 10
G0 Z0.0 ; Pen down
G1 X34.517 Y61.427 F1000
G0 Z3.0 ; Pen up

G0 X34.688 Y61.427 F3000 ; Travel to line 11
G0 Z0.0 ; Pen down
G1 X16.663 Y87.348 F1000
G0 Z3.0 ; Pen up

G0 X16.663 Y87.692 F3000 ; Travel to line 12
G0 Z0.0 ; Pen down
G1 X34.860 Y61.427 F1000
G0 Z3.0 ; Pen up

G0 X35.203 Y61.598 F3000 ; Travel to line 13
G0 Z0.0 ; Pen down
G1 X16.835 Y87.692 F1000
G0 Z3.0 ; Pen up

G0 X17.350 Y88.378 F3000 ; Travel to line 14
G0 Z0.0 ; Pen down
G1 X37.263 Y62.285 F1000
G0 Z3.0 ; Pen up

G0 X37.092 Y62.285 F3000 ; Travel to line 15
G0 Z0.0 ; Pen down
G1 X17.178 Y88.378 F1000
G1 X17.178 Y88.378 F1000
G1 X37.092 Y62.113 F1000
G0 Z3.0 ; Pen up

G0 X36.748 Y62.113 F3000 ; Travel to line 16
G0 Z0.0 ; Pen down
G1 X17.178 Y88.207 F1000
G1 X17.178 Y88.207 F1000
G1 X36.577 Y61.942 F1000
G0 Z3.0 ; Pen up

G0 X36.233 Y61.942 F3000 ; Travel to line 17
G0 Z0.0 ; Pen down
G1 X17.007 Y88.035 F1000
G1 X17.007 Y88.035 F1000
G1 X36.062 Y61.942 F1000
G0 Z3.0 ; Pen up

G0 X36.062 Y61.770 F3000 ; Travel to line 18
G0 Z0.0 ; Pen down
G1 X17.007 Y87.863 F1000
G1 X17.007 Y87.863 F1000
G1 X35.718 Y61.770 F1000
G0 Z3.0 ; Pen up

G0 X35.547 Y61.770 F3000 ; Travel to line 19
G0 Z0.0 ; Pen down
G1 X16.835 Y87.863 F1000
G1 X16.835 Y87.863 F1000
G1 X35.375 Y61.598 F1000
G0 Z3.0 ; Pen up

G0 X37.435 Y62.457 F3000 ; Travel to line 20
G0 Z0.0 ; Pen down
G1 X17.350 Y88.550 F1000
G1 X17.350 Y88.550 F1000
G1 X37.607 Y62.457 F1000
G0 Z3.0 ; Pen up

G0 X37.950 Y62.628 F3000 ; Travel to line 21
G0 Z0.0 ; Pen down
G1 X17.522 Y88.550 F1000
G1 X17.522 Y88.550 F1000
G1 X38.122 Y62.628 F1000
G0 Z3.0 ; Pen up

G0 X38.293 Y62.628 F3000 ; Travel to line 22
G0 Z0.0 ; Pen down
G1 X17.522 Y88.722 F1000
G0 Z3.0 ; Pen up

G0 X17.693 Y88.893 F3000 ; Travel to line 23
G0 Z0.0 ; Pen down
G1 X38.980 Y62.972 F1000
G0 Z3.0 ; Pen up

G0 X38.980 Y63.143 F3000 ; Travel to line 24
G0 Z0.0 ; Pen down
G1 X17.693 Y89.065 F1000
G1 X17.693 Y89.065 F1000
G1 X39.323 Y63.143 F1000
G0 Z3.0 ; Pen up

G0 X39.323 Y63.315 F3000 ; Travel to line 25
G0 Z0.0 ; Pen down
G1 X17.865 Y89.065 F1000
G1 X17.865 Y89.065 F1000
G1 X39.495 Y63.315 F1000
G0 Z3.0 ; Pen up

G0 X39.838 Y63.487 F3000 ; Travel to line 26
G0 Z0.0 ; Pen down
G1 X17.865 Y89.237 F1000
G0 Z3.0 ; Pen up

G0 X18.037 Y89.237 F3000 ; Travel to line 27
G0 Z0.0 ; Pen down
G1 X39.838 Y63.658 F1000
G0 Z3.0 ; Pen up

G0 X40.182 Y63.658 F3000 ; Travel to line 28
G0 Z0.0 ; Pen down
G1 X18.037 Y89.408 F1000
G0 Z3.0 ; Pen up

G0 X18.208 Y89.408 F3000 ; Travel to line 29
G0 Z0.0 ; Pen down
G1 X40.697 Y64.002 F1000
G0 Z3.0 ; Pen up

G0 X40.697 Y64.173 F3000 ; Travel to line 30
G0 Z0.0 ; Pen down
G1 X18.208 Y89.580 F1000
G1 X18.208 Y89.580 F1000
G1 X41.040 Y64.345 F1000
G0 Z3.0 ; Pen up

G0 X41.212 Y64.345 F3000 ; Travel to line 31
G0 Z0.0 ; Pen down
G1 X18.380 Y89.580 F1000
G0 Z3.0 ; Pen up

G0 X18.552 Y89.752 F3000 ; Travel to line 32
G0 Z0.0 ; Pen down
G1 X41.555 Y64.860 F1000
G0 Z3.0 ; Pen up

G0 X41.383 Y64.688 F3000 ; Travel to line 33
G0 Z0.0 ; Pen down
G1 X18.380 Y89.752 F1000
G1 X18.380 Y89.752 F1000
G1 X41.383 Y64.517 F1000
G0 Z3.0 ; Pen up

G0 X41.898 Y64.860 F3000 ; Travel to line 34
G0 Z0.0 ; Pen down
G1 X18.552 Y89.923 F1000
G1 X18.552 Y89.923 F1000
G1 X41.898 Y65.032 F1000
G0 Z3.0 ; Pen up

G0 X42.242 Y65.203 F3000 ; Travel to line 35
G0 Z0.0 ; Pen down
G1 X18.723 Y89.923 F1000
G1 X18.723 Y89.923 F1000
G1 X42.242 Y65.375 F1000
G0 Z3.0 ; Pen up

G0 X42.413 Y65.375 F3000 ; Travel to line 36
G0 Z0.0 ; Pen down
G1 X18.723 Y90.095 F1000
G0 Z3.0 ; Pen up

G0 X19.067 Y90.267 F3000 ; Travel to line 37
G0 Z0.0 ; Pen down
G1 X43.100 Y66.233 F1000
G0 Z3.0 ; Pen up

G0 X43.272 Y66.405 F3000 ; Travel to line 38
G0 Z0.0 ; Pen down
G1 X19.067 Y90.438 F1000
G1 X19.067 Y90.438 F1000
G1 X43.443 Y66.405 F1000
G0 Z3.0 ; Pen up

G0 X43.615 Y66.577 F3000 ; Travel to line 39
G0 Z0.0 ; Pen down
G1 X19.238 Y90.438 F1000
G1 X19.238 Y90.438 F1000
G1 X43.787 Y66.748 F1000
G0 Z3.0 ; Pen up

G0 X43.958 Y66.920 F3000 ; Travel to line 40
G0 Z0.0 ; Pen down
G1 X19.238 Y90.610 F1000
G0 Z3.0 ; Pen up

G0 X19.582 Y90.782 F3000 ; Travel to line 41
G0 Z0.0 ; Pen down
G1 X44.473 Y67.778 F1000
G0 Z3.0 ; Pen up

G0 X44.645 Y67.950 F3000 ; Travel to line 42
G0 Z0.0 ; Pen down
G1 X19.582 Y90.953 F1000
G1 X19.582 Y90.953 F1000
G1 X44.817 Y67.950 F1000
G0 Z3.0 ; Pen up

G0 X44.988 Y68.122 F3000 ; Travel to line 43
G0 Z0.0 ; Pen down
G1 X19.753 Y90.953 F1000
G0 Z3.0 ; Pen up

G0 X19.925 Y91.125 F3000 ; Travel to line 44
G0 Z0.0 ; Pen down
G1 X45.332 Y68.637 F1000
G0 Z3.0 ; Pen up

G0 X45.160 Y68.637 F3000 ; Travel to line 45
G0 Z0.0 ; Pen down
G1 X19.753 Y91.125 F1000
G1 X19.753 Y91.125 F1000
G1 X44.988 Y68.293 F1000
G0 Z3.0 ; Pen up

G0 X45.503 Y68.808 F3000 ; Travel to line 46
G0 Z0.0 ; Pen down
G1 X19.925 Y91.297 F1000
G0 Z3.0 ; Pen up

G0 X20.097 Y91.297 F3000 ; Travel to line 47
G0 Z0.0 ; Pen down
G1 X45.675 Y69.495 F1000
G0 Z3.0 ; Pen up

G0 X45.847 Y69.495 F3000 ; Travel to line 48
G0 Z0.0 ; Pen down
G1 X20.097 Y91.468 F1000
G0 Z3.0 ; Pen up

G0 X20.440 Y91.640 F3000 ; Travel to line 49
G0 Z0.0 ; Pen down
G1 X46.362 Y70.353 F1000
G0 Z3.0 ; Pen up

G0 X46.190 Y70.353 F3000 ; Travel to line 50
G0 Z0.0 ; Pen down
G1 X20.268 Y91.640 F1000
G1 X20.268 Y91.640 F1000
G1 X46.190 Y70.010 F1000
G0 Z3.0 ; Pen up

G0 X46.018 Y70.010 F3000 ; Travel to line 51
G0 Z0.0 ; Pen down
G1 X20.268 Y91.468 F1000
G1 X20.268 Y91.468 F1000
G1 X46.018 Y69.838 F1000
G0 Z3.0 ; Pen up

G0 X45.675 Y69.152 F3000 ; Travel to line 52
G0 Z0.0 ; Pen down
G1 X19.925 Y91.297 F1000
G1 X19.925 Y91.297 F1000
G1 X45.503 Y69.152 F1000
G0 Z3.0 ; Pen up

G0 X46.533 Y70.697 F3000 ; Travel to line 53
G0 Z0.0 ; Pen down
G1 X20.612 Y91.640 F1000
G1 X20.612 Y91.640 F1000
G1 X46.533 Y70.868 F1000
G0 Z3.0 ; Pen up

G0 X46.705 Y71.040 F3000 ; Travel to line 54
G0 Z0.0 ; Pen down
G1 X20.612 Y91.812 F1000
G0 Z3.0 ; Pen up

G0 X20.955 Y91.983 F3000 ; Travel to line 55
G0 Z0.0 ; Pen down
G1 X47.048 Y72.070 F1000
G0 Z3.0 ; Pen up

G0 X47.048 Y72.242 F3000 ; Travel to line 56
G0 Z0.0 ; Pen down
G1 X20.955 Y92.155 F1000
G1 X20.955 Y92.155 F1000
G1 X47.220 Y72.242 F1000
G0 Z3.0 ; Pen up

G0 X47.220 Y72.585 F3000 ; Travel to line 57
G0 Z0.0 ; Pen down
G1 X21.127 Y92.155 F1000
G1 X21.127 Y92.155 F1000
G1 X47.392 Y72.757 F1000
G0 Z3.0 ; Pen up

G0 X47.392 Y73.100 F3000 ; Travel to line 58
G0 Z0.0 ; Pen down
G1 X21.298 Y92.327 F1000
G1 X21.298 Y92.327 F1000
G1 X47.392 Y73.272 F1000
G0 Z3.0 ; Pen up

G0 X47.563 Y73.272 F3000 ; Travel to line 59
G0 Z0.0 ; Pen down
G1 X21.470 Y92.327 F1000
G1 X21.470 Y92.327 F1000
G1 X47.563 Y73.615 F1000
G0 Z3.0 ; Pen up

G0 X47.563 Y73.787 F3000 ; Travel to line 60
G0 Z0.0 ; Pen down
G1 X21.470 Y92.498 F1000
G1 X21.470 Y92.498 F1000
G1 X47.735 Y73.958 F1000
G0 Z3.0 ; Pen up

G0 X47.735 Y74.130 F3000 ; Travel to line 61
G0 Z0.0 ; Pen down
G1 X21.642 Y92.498 F1000
G0 Z3.0 ; Pen up

G0 X21.642 Y92.670 F3000 ; Travel to line 62
G0 Z0.0 ; Pen down
G1 X47.907 Y74.473 F1000
G0 Z3.0 ; Pen up

G0 X47.907 Y74.645 F3000 ; Travel to line 63
G0 Z0.0 ; Pen down
G1 X21.985 Y92.670 F1000
G0 Z3.0 ; Pen up

G0 X21.985 Y92.842 F3000 ; Travel to line 64
G0 Z0.0 ; Pen down
G1 X47.907 Y74.817 F1000
G0 Z3.0 ; Pen up

G0 X47.907 Y75.332 F3000 ; Travel to line 65
G0 Z0.0 ; Pen down
G1 X22.328 Y92.842 F1000
G0 Z3.0 ; Pen up

G0 X22.328 Y93.013 F3000 ; Travel to line 66
G0 Z0.0 ; Pen down
G1 X48.078 Y75.332 F1000
G0 Z3.0 ; Pen up

G0 X48.078 Y75.847 F3000 ; Travel to line 67
G0 Z0.0 ; Pen down
G1 X22.500 Y93.185 F1000
G0 Z3.0 ; Pen up

G0 X22.843 Y93.185 F3000 ; Travel to line 68
G0 Z0.0 ; Pen down
G1 X48.078 Y76.018 F1000
G0 Z3.0 ; Pen up

G0 X48.078 Y76.190 F3000 ; Travel to line 69
G0 Z0.0 ; Pen down
G1 X22.843 Y93.357 F1000
G0 Z3.0 ; Pen up

G0 X23.187 Y93.357 F3000 ; Travel to line 70
G0 Z0.0 ; Pen down
G1 X48.078 Y76.705 F1000
G0 Z3.0 ; Pen up

G0 X48.250 Y76.705 F3000 ; Travel to line 71
G0 Z0.0 ; Pen down
G1 X23.187 Y93.528 F1000
G0 Z3.0 ; Pen up

G0 X23.530 Y93.528 F3000 ; Travel to line 72
G0 Z0.0 ; Pen down
G1 X48.250 Y77.220 F1000
G0 Z3.0 ; Pen up

G0 X48.250 Y77.392 F3000 ; Travel to line 73
G0 Z0.0 ; Pen down
G1 X23.530 Y93.700 F1000
G0 Z3.0 ; Pen up

G0 X23.873 Y93.872 F3000 ; Travel to line 74
G0 Z0.0 ; Pen down
G1 X48.250 Y77.735 F1000
G0 Z3.0 ; Pen up

G0 X48.250 Y78.078 F3000 ; Travel to line 75
G0 Z0.0 ; Pen down
G1 X24.045 Y93.872 F1000
G0 Z3.0 ; Pen up

G0 X24.217 Y93.872 F3000 ; Travel to line 76
G0 Z0.0 ; Pen down
G1 X48.250 Y78.250 F1000
G0 Z3.0 ; Pen up

G0 X48.250 Y78.593 F3000 ; Travel to line 77
G0 Z0.0 ; Pen down
G1 X24.388 Y94.043 F1000
G0 Z3.0 ; Pen up

G0 X24.560 Y94.043 F3000 ; Travel to line 78
G0 Z0.0 ; Pen down
G1 X48.250 Y78.765 F1000
G0 Z3.0 ; Pen up

G0 X48.250 Y79.280 F3000 ; Travel to line 79
G0 Z0.0 ; Pen down
G1 X24.903 Y94.215 F1000
G0 Z3.0 ; Pen up

G0 X25.075 Y94.215 F3000 ; Travel to line 80
G0 Z0.0 ; Pen down
G1 X48.250 Y79.452 F1000
G0 Z3.0 ; Pen up

G0 X48.250 Y79.623 F3000 ; Travel to line 81
G0 Z0.0 ; Pen down
G1 X25.075 Y94.387 F1000
G0 Z3.0 ; Pen up

G0 X25.418 Y94.387 F3000 ; Travel to line 82
G0 Z0.0 ; Pen down
G1 X48.078 Y80.138 F1000
G0 Z3.0 ; Pen up

G0 X48.078 Y80.310 F3000 ; Travel to line 83
G0 Z0.0 ; Pen down
G1 X25.590 Y94.558 F1000
G0 Z3.0 ; Pen up

G0 X25.933 Y94.558 F3000 ; Travel to line 84
G0 Z0.0 ; Pen down
G1 X48.078 Y80.653 F1000
G0 Z3.0 ; Pen up

G0 X48.078 Y80.825 F3000 ; Travel to line 85
G0 Z0.0 ; Pen down
G1 X26.105 Y94.558 F1000
G0 Z3.0 ; Pen up

G0 X26.277 Y94.730 F3000 ; Travel to line 86
G0 Z0.0 ; Pen down
G1 X48.078 Y81.168 F1000
G0 Z3.0 ; Pen up

G0 X47.907 Y81.512 F3000 ; Travel to line 87
G0 Z0.0 ; Pen down
G1 X26.448 Y94.730 F1000
G0 Z3.0 ; Pen up

G0 X26.620 Y94.902 F3000 ; Travel to line 88
G0 Z0.0 ; Pen down
G1 X47.907 Y81.683 F1000
G0 Z3.0 ; Pen up

G0 X47.907 Y82.027 F3000 ; Travel to line 89
G0 Z0.0 ; Pen down
G1 X26.963 Y94.902 F1000
G0 Z3.0 ; Pen up

G0 X27.135 Y94.902 F3000 ; Travel to line 90
G0 Z0.0 ; Pen down
G1 X47.735 Y82.370 F1000
G0 Z3.0 ; Pen up

G0 X47.735 Y82.713 F3000 ; Travel to line 91
G0 Z0.0 ; Pen down
G1 X27.307 Y95.073 F1000
G0 Z3.0 ; Pen up

G0 X27.478 Y95.073 F3000 ; Travel to line 92
G0 Z0.0 ; Pen down
G1 X47.563 Y83.057 F1000
G0 Z3.0 ; Pen up

G0 X47.563 Y83.228 F3000 ; Travel to line 93
G0 Z0.0 ; Pen down
G1 X27.822 Y95.073 F1000
G0 Z3.0 ; Pen up

G0 X28.165 Y95.073 F3000 ; Travel to line 94
G0 Z0.0 ; Pen down
G1 X47.392 Y83.743 F1000
G0 Z3.0 ; Pen up

G0 X47.220 Y84.087 F3000 ; Travel to line 95
G0 Z0.0 ; Pen down
G1 X28.165 Y95.245 F1000
G0 Z3.0 ; Pen up

G0 X28.680 Y95.245 F3000 ; Travel to line 96
G0 Z0.0 ; Pen down
G1 X47.220 Y84.258 F1000
G0 Z3.0 ; Pen up

G0 X47.048 Y84.602 F3000 ; Travel to line 97
G0 Z0.0 ; Pen down
G1 X28.852 Y95.245 F1000
G0 Z3.0 ; Pen up

G0 X29.367 Y95.245 F3000 ; Travel to line 98
G0 Z0.0 ; Pen down
G1 X46.877 Y85.117 F1000
G0 Z3.0 ; Pen up

G0 X45.675 Y87.348 F3000 ; Travel to line 99
G0 Z0.0 ; Pen down
G1 X31.083 Y95.417 F1000
G0 Z3.0 ; Pen up

G0 X30.912 Y95.417 F3000 ; Travel to line 100
G0 Z0.0 ; Pen down
G1 X46.018 Y86.833 F1000
G1 X46.018 Y86.833 F1000
G1 X30.568 Y95.417 F1000
G0 Z3.0 ; Pen up

G0 X30.225 Y95.417 F3000 ; Travel to line 101
G0 Z0.0 ; Pen down
G1 X46.362 Y86.147 F1000
G1 X46.362 Y86.147 F1000
G1 X29.882 Y95.417 F1000
G0 Z3.0 ; Pen up

G0 X29.538 Y95.417 F3000 ; Travel to line 102
G0 Z0.0 ; Pen down
G1 X46.705 Y85.460 F1000
G1 X46.705 Y85.460 F1000
G1 X29.538 Y95.245 F1000
G0 Z3.0 ; Pen up

G0 X31.598 Y95.417 F3000 ; Travel to line 103
G0 Z0.0 ; Pen down
G1 X45.503 Y87.692 F1000
G1 X45.503 Y87.692 F1000
G1 X31.770 Y95.417 F1000
G0 Z3.0 ; Pen up

G0 X32.285 Y95.417 F3000 ; Travel to line 104
G0 Z0.0 ; Pen down
G1 X44.988 Y88.378 F1000
G1 X44.988 Y88.378 F1000
G1 X32.457 Y95.417 F1000
G0 Z3.0 ; Pen up

G0 X33.143 Y95.245 F3000 ; Travel to line 105
G0 Z0.0 ; Pen down
G1 X44.473 Y89.065 F1000
G0 Z3.0 ; Pen up

G0 X44.302 Y89.237 F3000 ; Travel to line 106
G0 Z0.0 ; Pen down
G1 X36.062 Y94.730 F1000
G0 Z3.0 ; Pen up

G0 X36.577 Y94.558 F3000 ; Travel to line 107
G0 Z0.0 ; Pen down
G1 X43.615 Y89.752 F1000
G0 Z3.0 ; Pen up

G0 X42.928 Y90.267 F3000 ; Travel to line 108
G0 Z0.0 ; Pen down
G1 X37.435 Y94.215 F1000
G0 Z3.0 ; Pen up

G0 X34.860 Y95.073 F3000 ; Travel to line 109
G0 Z0.0 ; Pen down
G1 X44.473 Y89.065 F1000
G1 X44.473 Y89.065 F1000
G1 X34.688 Y95.073 F1000
G0 Z3.0 ; Pen up

G0 X33.830 Y95.245 F3000 ; Travel to line 110
G0 Z0.0 ; Pen down
G1 X44.473 Y89.065 F1000
G1 X44.473 Y89.065 F1000
G1 X33.658 Y95.245 F1000
G0 Z3.0 ; Pen up

G0 X15.805 Y85.803 F3000 ; Travel to line 111
G0 Z0.0 ; Pen down
G1 X32.113 Y61.083 F1000
G0 Z3.0 ; Pen up

G0 X31.942 Y61.083 F3000 ; Travel to line 112
G0 Z0.0 ; Pen down
G1 X15.633 Y85.803 F1000
G0 Z3.0 ; Pen up

G0 X15.462 Y85.460 F3000 ; Travel to line 113
G0 Z0.0 ; Pen down
G1 X31.598 Y61.083 F1000
G0 Z3.0 ; Pen up

G0 X31.255 Y61.083 F3000 ; Travel to line 114
G0 Z0.0 ; Pen down
G1 X15.462 Y85.288 F1000
G0 Z3.0 ; Pen up

G0 X15.462 Y85.117 F3000 ; Travel to line 115
G0 Z0.0 ; Pen down
G1 X31.083 Y61.083 F1000
G0 Z3.0 ; Pen up

G0 X30.740 Y61.083 F3000 ; Travel to line 116
G0 Z0.0 ; Pen down
G1 X15.290 Y84.945 F1000
G0 Z3.0 ; Pen up

G0 X15.290 Y84.773 F3000 ; Travel to line 117
G0 Z0.0 ; Pen down
G1 X30.568 Y61.083 F1000
G0 Z3.0 ; Pen up

G0 X30.053 Y61.083 F3000 ; Travel to line 118
G0 Z0.0 ; Pen down
G1 X15.118 Y84.430 F1000
G0 Z3.0 ; Pen up

G0 X15.118 Y84.258 F3000 ; Travel to line 119
G0 Z0.0 ; Pen down
G1 X29.882 Y61.083 F1000
G0 Z3.0 ; Pen up

G0 X29.710 Y61.083 F3000 ; Travel to line 120
G0 Z0.0 ; Pen down
G1 X14.947 Y84.258 F1000
G0 Z3.0 ; Pen up

G0 X14.947 Y83.915 F3000 ; Travel to line 121
G0 Z0.0 ; Pen down
G1 X29.195 Y61.255 F1000
G0 Z3.0 ; Pen up

G0 X29.023 Y61.255 F3000 ; Travel to line 122
G0 Z0.0 ; Pen down
G1 X14.775 Y83.743 F1000
G0 Z3.0 ; Pen up

G0 X14.775 Y83.400 F3000 ; Travel to line 123
G0 Z0.0 ; Pen down
G1 X28.680 Y61.255 F1000
G0 Z3.0 ; Pen up

G0 X28.508 Y61.255 F3000 ; Travel to line 124
G0 Z0.0 ; Pen down
G1 X14.775 Y83.228 F1000
G0 Z3.0 ; Pen up

G0 X14.603 Y83.057 F3000 ; Travel to line 125
G0 Z0.0 ; Pen down
G1 X28.165 Y61.255 F1000
G0 Z3.0 ; Pen up

G0 X27.822 Y61.427 F3000 ; Travel to line 126
G0 Z0.0 ; Pen down
G1 X14.603 Y82.885 F1000
G0 Z3.0 ; Pen up

G0 X14.432 Y82.713 F3000 ; Travel to line 127
G0 Z0.0 ; Pen down
G1 X27.650 Y61.427 F1000
G0 Z3.0 ; Pen up

G0 X27.307 Y61.427 F3000 ; Travel to line 128
G0 Z0.0 ; Pen down
G1 X14.432 Y82.370 F1000
G0 Z3.0 ; Pen up

G0 X14.432 Y82.198 F3000 ; Travel to line 129
G0 Z0.0 ; Pen down
G1 X26.963 Y61.598 F1000
G0 Z3.0 ; Pen up

G0 X26.620 Y61.598 F3000 ; Travel to line 130
G0 Z0.0 ; Pen down
G1 X14.260 Y82.027 F1000
G0 Z3.0 ; Pen up

G0 X14.260 Y81.855 F3000 ; Travel to line 131
G0 Z0.0 ; Pen down
G1 X26.277 Y61.770 F1000
G0 Z3.0 ; Pen up

G0 X26.105 Y61.770 F3000 ; Travel to line 132
G0 Z0.0 ; Pen down
G1 X14.260 Y81.512 F1000
G0 Z3.0 ; Pen up

G0 X14.260 Y81.168 F3000 ; Travel to line 133
G0 Z0.0 ; Pen down
G1 X25.590 Y61.942 F1000
G0 Z3.0 ; Pen up

G0 X25.247 Y62.113 F3000 ; Travel to line 134
G0 Z0.0 ; Pen down
G1 X14.088 Y81.168 F1000
G0 Z3.0 ; Pen up

G0 X14.088 Y80.653 F3000 ; Travel to line 135
G0 Z0.0 ; Pen down
G1 X25.075 Y62.113 F1000
G0 Z3.0 ; Pen up

G0 X24.732 Y62.285 F3000 ; Travel to line 136
G0 Z0.0 ; Pen down
G1 X14.088 Y80.482 F1000
G0 Z3.0 ; Pen up

G0 X14.088 Y79.967 F3000 ; Travel to line 137
G0 Z0.0 ; Pen down
G1 X24.217 Y62.457 F1000
G0 Z3.0 ; Pen up

G0 X21.985 Y63.658 F3000 ; Travel to line 138
G0 Z0.0 ; Pen down
G1 X13.917 Y78.250 F1000
G0 Z3.0 ; Pen up

G0 X13.917 Y78.422 F3000 ; Travel to line 139
G0 Z0.0 ; Pen down
G1 X22.500 Y63.315 F1000
G1 X22.500 Y63.315 F1000
G1 X13.917 Y78.765 F1000
G0 Z3.0 ; Pen up

G0 X13.917 Y79.108 F3000 ; Travel to line 140
G0 Z0.0 ; Pen down
G1 X23.187 Y62.972 F1000
G1 X23.187 Y62.972 F1000
G1 X13.917 Y79.452 F1000
G0 Z3.0 ; Pen up

G0 X13.917 Y79.795 F3000 ; Travel to line 141
G0 Z0.0 ; Pen down
G1 X23.873 Y62.628 F1000
G1 X23.873 Y62.628 F1000
G1 X14.088 Y79.795 F1000
G0 Z3.0 ; Pen up

G0 X13.917 Y77.735 F3000 ; Travel to line 142
G0 Z0.0 ; Pen down
G1 X21.642 Y63.830 F1000
G1 X21.642 Y63.830 F1000
G1 X13.917 Y77.563 F1000
G0 Z3.0 ; Pen up

G0 X13.917 Y77.048 F3000 ; Travel to line 143
G0 Z0.0 ; Pen down
G1 X20.955 Y64.345 F1000
G1 X20.955 Y64.345 F1000
G1 X13.917 Y76.877 F1000
G0 Z3.0 ; Pen up

G0 X14.088 Y76.190 F3000 ; Travel to line 144
G0 Z0.0 ; Pen down
G1 X20.268 Y64.860 F1000
G1 X20.268 Y64.860 F1000
G1 X14.088 Y75.675 F1000
G0 Z3.0 ; Pen up

G0 X14.088 Y75.503 F3000 ; Travel to line 145
G0 Z0.0 ; Pen down
G1 X20.268 Y64.860 F1000
G1 X20.268 Y64.860 F1000
G1 X14.260 Y74.645 F1000
G0 Z3.0 ; Pen up

G0 X14.260 Y74.473 F3000 ; Travel to line 146
G0 Z0.0 ; Pen down
G1 X20.268 Y64.860 F1000
G0 Z3.0 ; Pen up

G0 X20.097 Y65.032 F3000 ; Travel to line 147
G0 Z0.0 ; Pen down
G1 X14.603 Y73.272 F1000
G0 Z3.0 ; Pen up

G0 X14.775 Y72.757 F3000 ; Travel to line 148
G0 Z0.0 ; Pen down
G1 X19.582 Y65.718 F1000
G0 Z3.0 ; Pen up

G0 X19.067 Y66.405 F3000 ; Travel to line 149
G0 Z0.0 ; Pen down
G1 X15.118 Y71.898 F1000
G0 Z3.0 ; Pen up

G0 X38.465 Y62.800 F3000 ; Travel to line 150
G0 Z0.0 ; Pen down
G1 X17.693 Y88.722 F1000
G1 X17.693 Y88.722 F1000
G1 X38.637 Y62.800 F1000
G0 Z3.0 ; Pen up

G0 X40.182 Y63.830 F3000 ; Travel to line 151
G0 Z0.0 ; Pen down
G1 X18.037 Y89.408 F1000
G1 X18.037 Y89.408 F1000
G1 X40.525 Y63.830 F1000
G0 Z3.0 ; Pen up

G0 X42.585 Y65.547 F3000 ; Travel to line 152
G0 Z0.0 ; Pen down
G1 X18.895 Y90.095 F1000
G1 X18.895 Y90.095 F1000
G1 X42.757 Y65.718 F1000
G0 Z3.0 ; Pen up

G0 X42.928 Y65.890 F3000 ; Travel to line 153
G0 Z0.0 ; Pen down
G1 X18.895 Y90.267 F1000
G1 X18.895 Y90.267 F1000
G1 X42.928 Y66.062 F1000
G0 Z3.0 ; Pen up

G0 X43.958 Y67.092 F3000 ; Travel to line 154
G0 Z0.0 ; Pen down
G1 X19.410 Y90.610 F1000
G1 X19.410 Y90.610 F1000
G1 X44.130 Y67.092 F1000
G0 Z3.0 ; Pen up

G0 X44.302 Y67.435 F3000 ; Travel to line 155
G0 Z0.0 ; Pen down
G1 X19.410 Y90.782 F1000
G1 X19.410 Y90.782 F1000
G1 X44.473 Y67.435 F1000
G0 Z3.0 ; Pen up

G0 X46.705 Y71.212 F3000 ; Travel to line 156
G0 Z0.0 ; Pen down
G1 X20.783 Y91.812 F1000
G1 X20.783 Y91.812 F1000
G1 X46.705 Y71.383 F1000
G0 Z3.0 ; Pen up

G0 X46.877 Y71.727 F3000 ; Travel to line 157
G0 Z0.0 ; Pen down
G1 X20.783 Y91.983 F1000
G1 X20.783 Y91.983 F1000
G1 X46.877 Y71.898 F1000
G0 Z3.0 ; Pen up

G0 X56.833 Y72.242 F3000 ; Travel to line 158
G0 Z0.0 ; Pen down
G1 X67.992 Y61.083 F1000
G0 Z3.0 ; Pen up

G0 X68.335 Y61.083 F3000 ; Travel to line 159
G0 Z0.0 ; Pen down
G1 X56.833 Y72.585 F1000
G0 Z3.0 ; Pen up

G0 X56.833 Y72.928 F3000 ; Travel to line 160
G0 Z0.0 ; Pen down
G1 X68.678 Y61.083 F1000
G0 Z3.0 ; Pen up

G0 X69.365 Y61.083 F3000 ; Travel to line 161
G0 Z0.0 ; Pen down
G1 X56.833 Y73.443 F1000
G0 Z3.0 ; Pen up

G0 X56.833 Y73.787 F3000 ; Travel to line 162
G0 Z0.0 ; Pen down
G1 X69.537 Y61.083 F1000
G0 Z3.0 ; Pen up

G0 X70.052 Y61.083 F3000 ; Travel to line 163
G0 Z0.0 ; Pen down
G1 X56.833 Y74.302 F1000
G0 Z3.0 ; Pen up

G0 X56.833 Y74.473 F3000 ; Travel to line 164
G0 Z0.0 ; Pen down
G1 X70.395 Y61.083 F1000
G0 Z3.0 ; Pen up

G0 X70.910 Y61.083 F3000 ; Travel to line 165
G0 Z0.0 ; Pen down
G1 X56.833 Y74.817 F1000
G0 Z3.0 ; Pen up

G0 X56.833 Y75.160 F3000 ; Travel to line 166
G0 Z0.0 ; Pen down
G1 X71.253 Y61.083 F1000
G0 Z3.0 ; Pen up

G0 X71.425 Y61.083 F3000 ; Travel to line 167
G0 Z0.0 ; Pen down
G1 X56.833 Y75.503 F1000
G0 Z3.0 ; Pen up

G0 X56.833 Y75.847 F3000 ; Travel to line 168
G0 Z0.0 ; Pen down
G1 X72.112 Y61.083 F1000
G0 Z3.0 ; Pen up

G0 X72.283 Y61.083 F3000 ; Travel to line 169
G0 Z0.0 ; Pen down
G1 X56.833 Y76.190 F1000
G0 Z3.0 ; Pen up

G0 X56.833 Y76.533 F3000 ; Travel to line 170
G0 Z0.0 ; Pen down
G1 X72.798 Y61.083 F1000
G0 Z3.0 ; Pen up

G0 X73.142 Y61.083 F3000 ; Travel to line 171
G0 Z0.0 ; Pen down
G1 X56.833 Y76.877 F1000
G0 Z3.0 ; Pen up

G0 X56.833 Y77.048 F3000 ; Travel to line 172
G0 Z0.0 ; Pen down
G1 X73.485 Y61.083 F1000
G0 Z3.0 ; Pen up

G0 X74.000 Y61.083 F3000 ; Travel to line 173
G0 Z0.0 ; Pen down
G1 X56.833 Y77.563 F1000
G0 Z3.0 ; Pen up

G0 X56.833 Y77.735 F3000 ; Travel to line 174
G0 Z0.0 ; Pen down
G1 X74.343 Y61.083 F1000
G0 Z3.0 ; Pen up

G0 X74.858 Y61.083 F3000 ; Travel to line 175
G0 Z0.0 ; Pen down
G1 X56.833 Y78.250 F1000
G0 Z3.0 ; Pen up

G0 X56.833 Y78.422 F3000 ; Travel to line 176
G0 Z0.0 ; Pen down
G1 X75.202 Y61.083 F1000
G0 Z3.0 ; Pen up

G0 X75.545 Y61.083 F3000 ; Travel to line 177
G0 Z0.0 ; Pen down
G1 X56.833 Y78.765 F1000
G0 Z3.0 ; Pen up

G0 X56.833 Y79.108 F3000 ; Travel to line 178
G0 Z0.0 ; Pen down
G1 X75.888 Y61.083 F1000
G0 Z3.0 ; Pen up

G0 X76.232 Y61.083 F3000 ; Travel to line 179
G0 Z0.0 ; Pen down
G1 X56.833 Y79.280 F1000
G0 Z3.0 ; Pen up

G0 X56.833 Y79.795 F3000 ; Travel to line 180
G0 Z0.0 ; Pen down
G1 X76.747 Y61.083 F1000
G0 Z3.0 ; Pen up

G0 X77.090 Y61.083 F3000 ; Travel to line 181
G0 Z0.0 ; Pen down
G1 X56.833 Y79.967 F1000
G0 Z3.0 ; Pen up

G0 X56.833 Y80.482 F3000 ; Travel to line 182
G0 Z0.0 ; Pen down
G1 X77.605 Y61.083 F1000
G0 Z3.0 ; Pen up

G0 X77.948 Y61.083 F3000 ; Travel to line 183
G0 Z0.0 ; Pen down
G1 X56.833 Y80.653 F1000
G0 Z3.0 ; Pen up

G0 X56.833 Y80.825 F3000 ; Travel to line 184
G0 Z0.0 ; Pen down
G1 X78.292 Y61.083 F1000
G0 Z3.0 ; Pen up

G0 X78.807 Y61.083 F3000 ; Travel to line 185
G0 Z0.0 ; Pen down
G1 X56.833 Y81.340 F1000
G0 Z3.0 ; Pen up

G0 X56.833 Y81.512 F3000 ; Travel to line 186
G0 Z0.0 ; Pen down
G1 X79.150 Y61.083 F1000
G0 Z3.0 ; Pen up

G0 X79.665 Y61.083 F3000 ; Travel to line 187
G0 Z0.0 ; Pen down
G1 X56.833 Y81.855 F1000
G0 Z3.0 ; Pen up

G0 X56.833 Y82.198 F3000 ; Travel to line 188
G0 Z0.0 ; Pen down
G1 X80.008 Y61.083 F1000
G0 Z3.0 ; Pen up

G0 X80.352 Y61.083 F3000 ; Travel to line 189
G0 Z0.0 ; Pen down
G1 X56.833 Y82.370 F1000
G0 Z3.0 ; Pen up

G0 X56.833 Y82.713 F3000 ; Travel to line 190
G0 Z0.0 ; Pen down
G1 X80.867 Y61.083 F1000
G1 X80.867 Y61.083 F1000
G1 X91.167 Y61.083 F1000
G1 X91.167 Y61.083 F1000
G1 X91.167 Y71.383 F1000
G0 Z3.0 ; Pen up

G0 X91.167 Y71.555 F3000 ; Travel to line 191
G0 Z0.0 ; Pen down
G1 X58.207 Y95.417 F1000
G0 Z3.0 ; Pen up

G0 X58.035 Y95.417 F3000 ; Travel to line 192
G0 Z0.0 ; Pen down
G1 X91.167 Y71.212 F1000
G0 Z3.0 ; Pen up

G0 X91.167 Y70.868 F3000 ; Travel to line 193
G0 Z0.0 ; Pen down
G1 X57.520 Y95.417 F1000
G0 Z3.0 ; Pen up

G0 X57.348 Y95.417 F3000 ; Travel to line 194
G0 Z0.0 ; Pen down
G1 X91.167 Y70.525 F1000
G0 Z3.0 ; Pen up

G0 X91.167 Y70.353 F3000 ; Travel to line 195
G0 Z0.0 ; Pen down
G1 X57.177 Y95.417 F1000
G0 Z3.0 ; Pen up

G0 X56.833 Y95.417 F3000 ; Travel to line 196
G0 Z0.0 ; Pen down
G1 X56.833 Y85.117 F1000
G1 X56.833 Y85.117 F1000
G1 X84.128 Y61.083 F1000
G0 Z3.0 ; Pen up

G0 X83.785 Y61.083 F3000 ; Travel to line 197
G0 Z0.0 ; Pen down
G1 X56.833 Y84.773 F1000
G0 Z3.0 ; Pen up

G0 X56.833 Y84.430 F3000 ; Travel to line 198
G0 Z0.0 ; Pen down
G1 X83.270 Y61.083 F1000
G0 Z3.0 ; Pen up

G0 X82.927 Y61.083 F3000 ; Travel to line 199
G0 Z0.0 ; Pen down
G1 X56.833 Y84.258 F1000
G0 Z3.0 ; Pen up

G0 X56.833 Y83.915 F3000 ; Travel to line 200
G0 Z0.0 ; Pen down
G1 X82.583 Y61.083 F1000
G0 Z3.0 ; Pen up

G0 X82.068 Y61.083 F3000 ; Travel to line 201
G0 Z0.0 ; Pen down
G1 X56.833 Y83.572 F1000
G0 Z3.0 ; Pen up

G0 X56.833 Y83.400 F3000 ; Travel to line 202
G0 Z0.0 ; Pen down
G1 X81.725 Y61.083 F1000
G0 Z3.0 ; Pen up

G0 X81.210 Y61.083 F3000 ; Travel to line 203
G0 Z0.0 ; Pen down
G1 X56.833 Y83.057 F1000
G0 Z3.0 ; Pen up

G0 X56.833 Y85.460 F3000 ; Travel to line 204
G0 Z0.0 ; Pen down
G1 X84.815 Y61.083 F1000
G0 Z3.0 ; Pen up

G0 X85.158 Y61.083 F3000 ; Travel to line 205
G0 Z0.0 ; Pen down
G1 X56.833 Y85.632 F1000
G0 Z3.0 ; Pen up

G0 X56.833 Y85.803 F3000 ; Travel to line 206
G0 Z0.0 ; Pen down
G1 X85.330 Y61.083 F1000
G0 Z3.0 ; Pen up

G0 X86.017 Y61.083 F3000 ; Travel to line 207
G0 Z0.0 ; Pen down
G1 X56.833 Y86.147 F1000
G0 Z3.0 ; Pen up

G0 X56.833 Y86.490 F3000 ; Travel to line 208
G0 Z0.0 ; Pen down
G1 X86.360 Y61.083 F1000
G0 Z3.0 ; Pen up

G0 X86.875 Y61.083 F3000 ; Travel to line 209
G0 Z0.0 ; Pen down
G1 X56.833 Y86.833 F1000
G0 Z3.0 ; Pen up

G0 X56.833 Y87.005 F3000 ; Travel to line 210
G0 Z0.0 ; Pen down
G1 X87.218 Y61.083 F1000
G0 Z3.0 ; Pen up

G0 X87.733 Y61.083 F3000 ; Travel to line 211
G0 Z0.0 ; Pen down
G1 X56.833 Y87.348 F1000
G0 Z3.0 ; Pen up

G0 X56.833 Y87.520 F3000 ; Travel to line 212
G0 Z0.0 ; Pen down
G1 X88.077 Y61.083 F1000
G0 Z3.0 ; Pen up

G0 X88.420 Y61.083 F3000 ; Travel to line 213
G0 Z0.0 ; Pen down
G1 X56.833 Y87.692 F1000
G0 Z3.0 ; Pen up

G0 X56.833 Y88.207 F3000 ; Travel to line 214
G0 Z0.0 ; Pen down
G1 X89.107 Y61.083 F1000
G0 Z3.0 ; Pen up

G0 X89.450 Y61.083 F3000 ; Travel to line 215
G0 Z0.0 ; Pen down
G1 X56.833 Y88.378 F1000
G0 Z3.0 ; Pen up

G0 X56.833 Y88.722 F3000 ; Travel to line 216
G0 Z0.0 ; Pen down
G1 X89.965 Y61.083 F1000
G0 Z3.0 ; Pen up

G0 X90.308 Y61.083 F3000 ; Travel to line 217
G0 Z0.0 ; Pen down
G1 X56.833 Y88.893 F1000
G0 Z3.0 ; Pen up

G0 X56.833 Y89.065 F3000 ; Travel to line 218
G0 Z0.0 ; Pen down
G1 X90.652 Y61.083 F1000
G0 Z3.0 ; Pen up

G0 X91.167 Y61.255 F3000 ; Travel to line 219
G0 Z0.0 ; Pen down
G1 X56.833 Y89.408 F1000
G0 Z3.0 ; Pen up

G0 X56.833 Y89.580 F3000 ; Travel to line 220
G0 Z0.0 ; Pen down
G1 X91.167 Y61.427 F1000
G0 Z3.0 ; Pen up

G0 X91.167 Y61.942 F3000 ; Travel to line 221
G0 Z0.0 ; Pen down
G1 X56.833 Y89.923 F1000
G0 Z3.0 ; Pen up

G0 X56.833 Y90.095 F3000 ; Travel to line 222
G0 Z0.0 ; Pen down
G1 X91.167 Y62.285 F1000
G0 Z3.0 ; Pen up

G0 X91.167 Y62.628 F3000 ; Travel to line 223
G0 Z0.0 ; Pen down
G1 X56.833 Y90.438 F1000
G0 Z3.0 ; Pen up

G0 X56.833 Y90.782 F3000 ; Travel to line 224
G0 Z0.0 ; Pen down
G1 X91.167 Y62.972 F1000
G0 Z3.0 ; Pen up

G0 X91.167 Y63.315 F3000 ; Travel to line 225
G0 Z0.0 ; Pen down
G1 X56.833 Y90.953 F1000
G0 Z3.0 ; Pen up

G0 X56.833 Y91.297 F3000 ; Travel to line 226
G0 Z0.0 ; Pen down
G1 X91.167 Y63.830 F1000
G0 Z3.0 ; Pen up

G0 X91.167 Y64.002 F3000 ; Travel to line 227
G0 Z0.0 ; Pen down
G1 X56.833 Y91.468 F1000
G0 Z3.0 ; Pen up

G0 X56.833 Y91.812 F3000 ; Travel to line 228
G0 Z0.0 ; Pen down
G1 X91.167 Y64.517 F1000
G0 Z3.0 ; Pen up

G0 X91.167 Y64.688 F3000 ; Travel to line 229
G0 Z0.0 ; Pen down
G1 X56.833 Y91.983 F1000
G0 Z3.0 ; Pen up

G0 X56.833 Y92.155 F3000 ; Travel to line 230
G0 Z0.0 ; Pen down
G1 X91.167 Y65.032 F1000
G0 Z3.0 ; Pen up

G0 X91.167 Y65.547 F3000 ; Travel to line 231
G0 Z0.0 ; Pen down
G1 X56.833 Y92.498 F1000
G0 Z3.0 ; Pen up

G0 X56.833 Y92.670 F3000 ; Travel to line 232
G0 Z0.0 ; Pen down
G1 X91.167 Y65.718 F1000
G0 Z3.0 ; Pen up

G0 X91.167 Y66.233 F3000 ; Travel to line 233
G0 Z0.0 ; Pen down
G1 X56.833 Y93.013 F1000
G1 X56.833 Y93.013 F1000
G1 X91.167 Y66.577 F1000
G0 Z3.0 ; Pen up

G0 X91.167 Y66.748 F3000 ; Travel to line 234
G0 Z0.0 ; Pen down
G1 X56.833 Y93.185 F1000
G0 Z3.0 ; Pen up

G0 X56.833 Y93.528 F3000 ; Travel to line 235
G0 Z0.0 ; Pen down
G1 X91.167 Y67.263 F1000
G0 Z3.0 ; Pen up

G0 X91.167 Y67.435 F3000 ; Travel to line 236
G0 Z0.0 ; Pen down
G1 X56.833 Y93.700 F1000
G0 Z3.0 ; Pen up

G0 X56.833 Y94.043 F3000 ; Travel to line 237
G0 Z0.0 ; Pen down
G1 X91.167 Y67.950 F1000
G0 Z3.0 ; Pen up

G0 X91.167 Y68.293 F3000 ; Travel to line 238
G0 Z0.0 ; Pen down
G1 X56.833 Y94.215 F1000
G0 Z3.0 ; Pen up

G0 X56.833 Y94.558 F3000 ; Travel to line 239
G0 Z0.0 ; Pen down
G1 X91.167 Y68.637 F1000
G0 Z3.0 ; Pen up

G0 X91.167 Y68.980 F3000 ; Travel to line 240
G0 Z0.0 ; Pen down
G1 X56.833 Y94.730 F1000
G0 Z3.0 ; Pen up

G0 X56.833 Y94.902 F3000 ; Travel to line 241
G0 Z0.0 ; Pen down
G1 X91.167 Y69.152 F1000
G0 Z3.0 ; Pen up

G0 X91.167 Y69.667 F3000 ; Travel to line 242
G0 Z0.0 ; Pen down
G1 X56.833 Y95.245 F1000
G0 Z3.0 ; Pen up

G0 X58.550 Y95.417 F3000 ; Travel to line 243
G0 Z0.0 ; Pen down
G1 X91.167 Y71.898 F1000
G0 Z3.0 ; Pen up

G0 X91.167 Y72.242 F3000 ; Travel to line 244
G0 Z0.0 ; Pen down
G1 X58.722 Y95.417 F1000
G0 Z3.0 ; Pen up

G0 X59.237 Y95.417 F3000 ; Travel to line 245
G0 Z0.0 ; Pen down
G1 X91.167 Y72.585 F1000
G0 Z3.0 ; Pen up

G0 X91.167 Y72.928 F3000 ; Travel to line 246
G0 Z0.0 ; Pen down
G1 X59.408 Y95.417 F1000
G0 Z3.0 ; Pen up

G0 X59.580 Y95.417 F3000 ; Travel to line 247
G0 Z0.0 ; Pen down
G1 X91.167 Y73.100 F1000
G0 Z3.0 ; Pen up

G0 X91.167 Y73.443 F3000 ; Travel to line 248
G0 Z0.0 ; Pen down
G1 X60.095 Y95.417 F1000
G0 Z3.0 ; Pen up

G0 X60.267 Y95.417 F3000 ; Travel to line 249
G0 Z0.0 ; Pen down
G1 X91.167 Y73.787 F1000
G0 Z3.0 ; Pen up

G0 X91.167 Y74.130 F3000 ; Travel to line 250
G0 Z0.0 ; Pen down
G1 X60.610 Y95.417 F1000
G0 Z3.0 ; Pen up

G0 X60.953 Y95.417 F3000 ; Travel to line 251
G0 Z0.0 ; Pen down
G1 X91.167 Y74.473 F1000
G0 Z3.0 ; Pen up

G0 X91.167 Y74.645 F3000 ; Travel to line 252
G0 Z0.0 ; Pen down
G1 X61.125 Y95.417 F1000
G0 Z3.0 ; Pen up

G0 X61.468 Y95.417 F3000 ; Travel to line 253
G0 Z0.0 ; Pen down
G1 X91.167 Y74.988 F1000
G0 Z3.0 ; Pen up

G0 X91.167 Y75.332 F3000 ; Travel to line 254
G0 Z0.0 ; Pen down
G1 X61.812 Y95.417 F1000
G0 Z3.0 ; Pen up

G0 X62.155 Y95.417 F3000 ; Travel to line 255
G0 Z0.0 ; Pen down
G1 X91.167 Y75.675 F1000
G0 Z3.0 ; Pen up

G0 X91.167 Y75.847 F3000 ; Travel to line 256
G0 Z0.0 ; Pen down
G1 X62.327 Y95.417 F1000
G0 Z3.0 ; Pen up

G0 X62.670 Y95.417 F3000 ; Travel to line 257
G0 Z0.0 ; Pen down
G1 X91.167 Y76.190 F1000
G0 Z3.0 ; Pen up

G0 X91.167 Y76.533 F3000 ; Travel to line 258
G0 Z0.0 ; Pen down
G1 X63.013 Y95.417 F1000
G0 Z3.0 ; Pen up

G0 X63.185 Y95.417 F3000 ; Travel to line 259
G0 Z0.0 ; Pen down
G1 X91.167 Y76.705 F1000
G0 Z3.0 ; Pen up

G0 X91.167 Y77.220 F3000 ; Travel to line 260
G0 Z0.0 ; Pen down
G1 X63.700 Y95.417 F1000
G0 Z3.0 ; Pen up

G0 X63.872 Y95.417 F3000 ; Travel to line 261
G0 Z0.0 ; Pen down
G1 X91.167 Y77.392 F1000
G0 Z3.0 ; Pen up

G0 X91.167 Y77.735 F3000 ; Travel to line 262
G0 Z0.0 ; Pen down
G1 X64.387 Y95.417 F1000
G0 Z3.0 ; Pen up

G0 X64.558 Y95.417 F3000 ; Travel to line 263
G0 Z0.0 ; Pen down
G1 X91.167 Y78.078 F1000
G0 Z3.0 ; Pen up

G0 X91.167 Y78.250 F3000 ; Travel to line 264
G0 Z0.0 ; Pen down
G1 X64.730 Y95.417 F1000
G0 Z3.0 ; Pen up

G0 X65.245 Y95.417 F3000 ; Travel to line 265
G0 Z0.0 ; Pen down
G1 X91.167 Y78.593 F1000
G0 Z3.0 ; Pen up

G0 X91.167 Y78.765 F3000 ; Travel to line 266
G0 Z0.0 ; Pen down
G1 X65.417 Y95.417 F1000
G0 Z3.0 ; Pen up

G0 X65.932 Y95.417 F3000 ; Travel to line 267
G0 Z0.0 ; Pen down
G1 X91.167 Y79.280 F1000
G0 Z3.0 ; Pen up

G0 X91.167 Y79.452 F3000 ; Travel to line 268
G0 Z0.0 ; Pen down
G1 X66.103 Y95.417 F1000
G0 Z3.0 ; Pen up

G0 X66.275 Y95.417 F3000 ; Travel to line 269
G0 Z0.0 ; Pen down
G1 X91.167 Y79.623 F1000
G0 Z3.0 ; Pen up

G0 X91.167 Y79.967 F3000 ; Travel to line 270
G0 Z0.0 ; Pen down
G1 X66.790 Y95.417 F1000
G0 Z3.0 ; Pen up

G0 X66.962 Y95.417 F3000 ; Travel to line 271
G0 Z0.0 ; Pen down
G1 X91.167 Y80.138 F1000
G0 Z3.0 ; Pen up

G0 X91.167 Y80.653 F3000 ; Travel to line 272
G0 Z0.0 ; Pen down
G1 X67.477 Y95.417 F1000
G0 Z3.0 ; Pen up

G0 X67.648 Y95.417 F3000 ; Travel to line 273
G0 Z0.0 ; Pen down
G1 X91.167 Y80.825 F1000
G0 Z3.0 ; Pen up

G0 X91.167 Y81.168 F3000 ; Travel to line 274
G0 Z0.0 ; Pen down
G1 X67.992 Y95.417 F1000
G0 Z3.0 ; Pen up

G0 X68.335 Y95.417 F3000 ; Travel to line 275
G0 Z0.0 ; Pen down
G1 X91.167 Y81.340 F1000
G0 Z3.0 ; Pen up

G0 X91.167 Y81.512 F3000 ; Travel to line 276
G0 Z0.0 ; Pen down
G1 X68.507 Y95.417 F1000
G0 Z3.0 ; Pen up

G0 X69.022 Y95.417 F3000 ; Travel to line 277
G0 Z0.0 ; Pen down
G1 X91.167 Y81.855 F1000
G0 Z3.0 ; Pen up

G0 X91.167 Y82.198 F3000 ; Travel to line 278
G0 Z0.0 ; Pen down
G1 X69.193 Y95.417 F1000
G0 Z3.0 ; Pen up

G0 X69.708 Y95.417 F3000 ; Travel to line 279
G0 Z0.0 ; Pen down
G1 X91.167 Y82.542 F1000
G0 Z3.0 ; Pen up

G0 X91.167 Y82.713 F3000 ; Travel to line 280
G0 Z0.0 ; Pen down
G1 X69.880 Y95.417 F1000
G0 Z3.0 ; Pen up

G0 X70.052 Y95.417 F3000 ; Travel to line 281
G0 Z0.0 ; Pen down
G1 X91.167 Y82.885 F1000
G0 Z3.0 ; Pen up

G0 X91.167 Y83.228 F3000 ; Travel to line 282
G0 Z0.0 ; Pen down
G1 X70.567 Y95.417 F1000
G0 Z3.0 ; Pen up

G0 X70.738 Y95.417 F3000 ; Travel to line 283
G0 Z0.0 ; Pen down
G1 X91.167 Y83.400 F1000
G0 Z3.0 ; Pen up

G0 X91.167 Y83.743 F3000 ; Travel to line 284
G0 Z0.0 ; Pen down
G1 X71.253 Y95.417 F1000
G0 Z3.0 ; Pen up

G0 X71.425 Y95.417 F3000 ; Travel to line 285
G0 Z0.0 ; Pen down
G1 X91.167 Y83.915 F1000
G0 Z3.0 ; Pen up

G0 X91.167 Y84.258 F3000 ; Travel to line 286
G0 Z0.0 ; Pen down
G1 X71.940 Y95.417 F1000
G0 Z3.0 ; Pen up

G0 X72.112 Y95.417 F3000 ; Travel to line 287
G0 Z0.0 ; Pen down
G1 X91.167 Y84.430 F1000
G0 Z3.0 ; Pen up

G0 X91.167 Y84.602 F3000 ; Travel to line 288
G0 Z0.0 ; Pen down
G1 X72.455 Y95.417 F1000
G0 Z3.0 ; Pen up

G0 X72.798 Y95.417 F3000 ; Travel to line 289
G0 Z0.0 ; Pen down
G1 X91.167 Y84.945 F1000
G0 Z3.0 ; Pen up

G0 X91.167 Y85.460 F3000 ; Travel to line 290
G0 Z0.0 ; Pen down
G1 X73.485 Y95.417 F1000
G0 Z3.0 ; Pen up

G0 X73.828 Y95.417 F3000 ; Travel to line 291
G0 Z0.0 ; Pen down
G1 X91.167 Y85.803 F1000
G0 Z3.0 ; Pen up

G0 X91.167 Y85.975 F3000 ; Travel to line 292
G0 Z0.0 ; Pen down
G1 X74.000 Y95.417 F1000
G0 Z3.0 ; Pen up

G0 X74.515 Y95.417 F3000 ; Travel to line 293
G0 Z0.0 ; Pen down
G1 X91.167 Y86.147 F1000
G0 Z3.0 ; Pen up

G0 X91.167 Y86.318 F3000 ; Travel to line 294
G0 Z0.0 ; Pen down
G1 X74.687 Y95.417 F1000
G0 Z3.0 ; Pen up

G0 X75.202 Y95.417 F3000 ; Travel to line 295
G0 Z0.0 ; Pen down
G1 X91.167 Y86.662 F1000
G0 Z3.0 ; Pen up

G0 X91.167 Y86.833 F3000 ; Travel to line 296
G0 Z0.0 ; Pen down
G1 X75.373 Y95.417 F1000
G0 Z3.0 ; Pen up

G0 X75.717 Y95.417 F3000 ; Travel to line 297
G0 Z0.0 ; Pen down
G1 X91.167 Y87.005 F1000
G0 Z3.0 ; Pen up

G0 X91.167 Y87.348 F3000 ; Travel to line 298
G0 Z0.0 ; Pen down
G1 X76.232 Y95.417 F1000
G0 Z3.0 ; Pen up

G0 X76.403 Y95.417 F3000 ; Travel to line 299
G0 Z0.0 ; Pen down
G1 X91.167 Y87.520 F1000
G0 Z3.0 ; Pen up

G0 X91.167 Y87.863 F3000 ; Travel to line 300
G0 Z0.0 ; Pen down
G1 X76.918 Y95.417 F1000
G0 Z3.0 ; Pen up

G0 X77.090 Y95.417 F3000 ; Travel to line 301
G0 Z0.0 ; Pen down
G1 X91.167 Y88.035 F1000
G0 Z3.0 ; Pen up

G0 X91.167 Y88.378 F3000 ; Travel to line 302
G0 Z0.0 ; Pen down
G1 X77.605 Y95.417 F1000
G0 Z3.0 ; Pen up

G0 X77.948 Y95.417 F3000 ; Travel to line 303
G0 Z0.0 ; Pen down
G1 X91.167 Y88.550 F1000
G0 Z3.0 ; Pen up

G0 X91.167 Y88.722 F3000 ; Travel to line 304
G0 Z0.0 ; Pen down
G1 X78.120 Y95.417 F1000
G0 Z3.0 ; Pen up

G0 X78.635 Y95.417 F3000 ; Travel to line 305
G0 Z0.0 ; Pen down
G1 X91.167 Y89.065 F1000
G0 Z3.0 ; Pen up

G0 X91.167 Y89.237 F3000 ; Travel to line 306
G0 Z0.0 ; Pen down
G1 X78.807 Y95.417 F1000
G0 Z3.0 ; Pen up

G0 X79.322 Y95.417 F3000 ; Travel to line 307
G0 Z0.0 ; Pen down
G1 X91.167 Y89.408 F1000
G0 Z3.0 ; Pen up

G0 X91.167 Y89.580 F3000 ; Travel to line 308
G0 Z0.0 ; Pen down
G1 X79.665 Y95.417 F1000
G0 Z3.0 ; Pen up

G0 X79.837 Y95.417 F3000 ; Travel to line 309
G0 Z0.0 ; Pen down
G1 X91.167 Y89.752 F1000
G0 Z3.0 ; Pen up

G0 X91.167 Y90.095 F3000 ; Travel to line 310
G0 Z0.0 ; Pen down
G1 X80.352 Y95.417 F1000
G0 Z3.0 ; Pen up

G0 X80.523 Y95.417 F3000 ; Travel to line 311
G0 Z0.0 ; Pen down
G1 X91.167 Y90.267 F1000
G0 Z3.0 ; Pen up

G0 X91.167 Y90.438 F3000 ; Travel to line 312
G0 Z0.0 ; Pen down
G1 X81.038 Y95.417 F1000
G0 Z3.0 ; Pen up

G0 X80.867 Y95.417 F3000 ; Travel to line 313
G0 Z0.0 ; Pen down
G1 X91.167 Y95.417 F1000
G1 X91.167 Y95.417 F1000
G1 X90.995 Y95.417 F1000
G0 Z3.0 ; Pen up

G0 X91.167 Y95.417 F3000 ; Travel to line 314
G0 Z0.0 ; Pen down
G1 X91.167 Y85.117 F1000
G1 X91.167 Y85.117 F1000
G1 X73.142 Y95.417 F1000
G0 Z3.0 ; Pen up

G0 X67.133 Y95.417 F3000 ; Travel to line 315
G0 Z0.0 ; Pen down
G1 X56.833 Y95.417 F1000
G1 X56.833 Y95.417 F1000
G1 X91.167 Y69.838 F1000
G0 Z3.0 ; Pen up

G0 X90.995 Y52.328 F3000 ; Travel to line 316
G0 Z0.0 ; Pen down
G1 X90.995 Y18.510 F1000
G1 X90.823 Y18.338 F1000
G1 X57.005 Y18.338 F1000
G1 X57.005 Y52.328 F1000
G0 Z3.0 ; Pen up

G0 X57.005 Y52.157 F3000 ; Travel to line 317
G0 Z0.0 ; Pen down
G1 X57.177 Y52.328 F1000
G1 X90.823 Y52.328 F1000
G1 X90.995 Y52.157 F1000
G1 X90.995 Y18.682 F1000
G1 X90.652 Y18.338 F1000
G1 X57.177 Y18.338 F1000
G1 X57.005 Y18.510 F1000
G0 Z3.0 ; Pen up

G0 X57.177 Y61.083 F3000 ; Travel to line 318
G0 Z0.0 ; Pen down
G1 X56.833 Y61.427 F1000
G0 Z3.0 ; Pen up

G0 X56.833 Y61.942 F3000 ; Travel to line 319
G0 Z0.0 ; Pen down
G1 X57.692 Y61.083 F1000
G0 Z3.0 ; Pen up

G0 X58.035 Y61.083 F3000 ; Travel to line 320
G0 Z0.0 ; Pen down
G1 X56.833 Y62.285 F1000
G0 Z3.0 ; Pen up

G0 X56.833 Y62.972 F3000 ; Travel to line 321
G0 Z0.0 ; Pen down
G1 X58.722 Y61.083 F1000
G0 Z3.0 ; Pen up

G0 X59.065 Y61.083 F3000 ; Travel to line 322
G0 Z0.0 ; Pen down
G1 X56.833 Y63.315 F1000
G0 Z3.0 ; Pen up

G0 X56.833 Y64.002 F3000 ; Travel to line 323
G0 Z0.0 ; Pen down
G1 X59.752 Y61.083 F1000
G0 Z3.0 ; Pen up

G0 X60.095 Y61.083 F3000 ; Travel to line 324
G0 Z0.0 ; Pen down
G1 X56.833 Y64.345 F1000
G0 Z3.0 ; Pen up

G0 X56.833 Y64.688 F3000 ; Travel to line 325
G0 Z0.0 ; Pen down
G1 X60.438 Y61.083 F1000
G0 Z3.0 ; Pen up

G0 X61.125 Y61.083 F3000 ; Travel to line 326
G0 Z0.0 ; Pen down
G1 X56.833 Y65.375 F1000
G0 Z3.0 ; Pen up

G0 X56.833 Y65.718 F3000 ; Travel to line 327
G0 Z0.0 ; Pen down
G1 X61.468 Y61.083 F1000
G0 Z3.0 ; Pen up

G0 X62.155 Y61.083 F3000 ; Travel to line 328
G0 Z0.0 ; Pen down
G1 X56.833 Y66.405 F1000
G0 Z3.0 ; Pen up

G0 X56.833 Y66.748 F3000 ; Travel to line 329
G0 Z0.0 ; Pen down
G1 X62.498 Y61.083 F1000
G0 Z3.0 ; Pen up

G0 X63.013 Y61.083 F3000 ; Travel to line 330
G0 Z0.0 ; Pen down
G1 X56.833 Y67.263 F1000
G0 Z3.0 ; Pen up

G0 X56.833 Y67.778 F3000 ; Travel to line 331
G0 Z0.0 ; Pen down
G1 X63.528 Y61.083 F1000
G0 Z3.0 ; Pen up

G0 X63.872 Y61.083 F3000 ; Travel to line 332
G0 Z0.0 ; Pen down
G1 X56.833 Y68.122 F1000
G0 Z3.0 ; Pen up

G0 X56.833 Y68.808 F3000 ; Travel to line 333
G0 Z0.0 ; Pen down
G1 X64.558 Y61.083 F1000
G0 Z3.0 ; Pen up

G0 X64.902 Y61.083 F3000 ; Travel to line 334
G0 Z0.0 ; Pen down
G1 X56.833 Y69.152 F1000
G0 Z3.0 ; Pen up

G0 X56.833 Y69.838 F3000 ; Travel to line 335
G0 Z0.0 ; Pen down
G1 X65.588 Y61.083 F1000
G0 Z3.0 ; Pen up

G0 X65.932 Y61.083 F3000 ; Travel to line 336
G0 Z0.0 ; Pen down
G1 X56.833 Y70.182 F1000
G0 Z3.0 ; Pen up

G0 X56.833 Y70.525 F3000 ; Travel to line 337
G0 Z0.0 ; Pen down
G1 X66.275 Y61.083 F1000
G0 Z3.0 ; Pen up

G0 X66.962 Y61.083 F3000 ; Travel to line 338
G0 Z0.0 ; Pen down
G1 X56.833 Y71.212 F1000
G0 Z3.0 ; Pen up

G0 X56.833 Y71.383 F3000 ; Travel to line 339
G0 Z0.0 ; Pen down
G1 X56.833 Y61.083 F1000
G1 X56.833 Y61.083 F1000
G1 X67.133 Y61.083 F1000
G0 Z3.0 ; Pen up

G0 X67.305 Y61.083 F3000 ; Travel to line 340
G0 Z0.0 ; Pen down
G1 X56.833 Y71.555 F1000
G0 Z3.0 ; Pen up

G0 X81.382 Y95.417 F3000 ; Travel to line 341
G0 Z0.0 ; Pen down
G1 X91.167 Y90.610 F1000
G0 Z3.0 ; Pen up

G0 X91.167 Y90.953 F3000 ; Travel to line 342
G0 Z0.0 ; Pen down
G1 X81.897 Y95.417 F1000
G0 Z3.0 ; Pen up

G0 X82.068 Y95.417 F3000 ; Travel to line 343
G0 Z0.0 ; Pen down
G1 X91.167 Y91.125 F1000
G0 Z3.0 ; Pen up

G0 X91.167 Y91.297 F3000 ; Travel to line 344
G0 Z0.0 ; Pen down
G1 X82.412 Y95.417 F1000
G0 Z3.0 ; Pen up

G0 X82.927 Y95.417 F3000 ; Travel to line 345
G0 Z0.0 ; Pen down
G1 X91.167 Y91.468 F1000
G0 Z3.0 ; Pen up

G0 X91.167 Y91.640 F3000 ; Travel to line 346
G0 Z0.0 ; Pen down
G1 X83.098 Y95.417 F1000
G0 Z3.0 ; Pen up

G0 X83.613 Y95.417 F3000 ; Travel to line 347
G0 Z0.0 ; Pen down
G1 X91.167 Y91.983 F1000
G0 Z3.0 ; Pen up

G0 X91.167 Y92.155 F3000 ; Travel to line 348
G0 Z0.0 ; Pen down
G1 X83.957 Y95.417 F1000
G0 Z3.0 ; Pen up

G0 X84.128 Y95.417 F3000 ; Travel to line 349
G0 Z0.0 ; Pen down
G1 X91.167 Y92.327 F1000
G0 Z3.0 ; Pen up

G0 X91.167 Y92.498 F3000 ; Travel to line 350
G0 Z0.0 ; Pen down
G1 X84.815 Y95.417 F1000
G0 Z3.0 ; Pen up

G0 X84.987 Y95.417 F3000 ; Travel to line 351
G0 Z0.0 ; Pen down
G1 X91.167 Y92.670 F1000
G0 Z3.0 ; Pen up

G0 X91.167 Y92.842 F3000 ; Travel to line 352
G0 Z0.0 ; Pen down
G1 X85.502 Y95.417 F1000
G0 Z3.0 ; Pen up

G0 X85.845 Y95.417 F3000 ; Travel to line 353
G0 Z0.0 ; Pen down
G1 X91.167 Y93.013 F1000
G0 Z3.0 ; Pen up

G0 X91.167 Y93.185 F3000 ; Travel to line 354
G0 Z0.0 ; Pen down
G1 X86.017 Y95.417 F1000
G0 Z3.0 ; Pen up

G0 X86.703 Y95.417 F3000 ; Travel to line 355
G0 Z0.0 ; Pen down
G1 X91.167 Y93.528 F1000
G1 X91.167 Y93.528 F1000
G1 X86.875 Y95.417 F1000
G0 Z3.0 ; Pen up

G0 X87.390 Y95.417 F3000 ; Travel to line 356
G0 Z0.0 ; Pen down
G1 X91.167 Y93.872 F1000
G0 Z3.0 ; Pen up

G0 X91.167 Y94.043 F3000 ; Travel to line 357
G0 Z0.0 ; Pen down
G1 X87.733 Y95.417 F1000
G0 Z3.0 ; Pen up

G0 X88.248 Y95.417 F3000 ; Travel to line 358
G0 Z0.0 ; Pen down
G1 X91.167 Y94.215 F1000
G0 Z3.0 ; Pen up

G0 X91.167 Y94.387 F3000 ; Travel to line 359
G0 Z0.0 ; Pen down
G1 X88.592 Y95.417 F1000
G0 Z3.0 ; Pen up

G0 X88.763 Y95.417 F3000 ; Travel to line 360
G0 Z0.0 ; Pen down
G1 X91.167 Y94.558 F1000
G0 Z3.0 ; Pen up

G0 X91.167 Y95.245 F3000 ; Travel to line 361
G0 Z0.0 ; Pen down
G1 X90.480 Y95.417 F1000
G0 Z3.0 ; Pen up

G0 X90.308 Y95.417 F3000 ; Travel to line 362
G0 Z0.0 ; Pen down
G1 X91.167 Y95.073 F1000
G1 X91.167 Y95.073 F1000
G1 X89.965 Y95.417 F1000
G0 Z3.0 ; Pen up

G0 X89.622 Y95.417 F3000 ; Travel to line 363
G0 Z0.0 ; Pen down
G1 X91.167 Y94.730 F1000
G1 X91.167 Y94.730 F1000
G1 X89.278 Y95.417 F1000
G0 Z3.0 ; Pen up

G0 X117.603 Y85.975 F3000 ; Travel to line 364
G0 Z0.0 ; Pen down
G1 X129.963 Y72.242 F1000
G0 Z3.0 ; Pen up

G0 X129.792 Y72.585 F3000 ; Travel to line 365
G0 Z0.0 ; Pen down
G1 X117.775 Y85.975 F1000
G0 Z3.0 ; Pen up

G0 X117.775 Y86.147 F3000 ; Travel to line 366
G0 Z0.0 ; Pen down
G1 X129.620 Y72.928 F1000
G0 Z3.0 ; Pen up

G0 X129.448 Y73.615 F3000 ; Travel to line 367
G0 Z0.0 ; Pen down
G1 X117.947 Y86.318 F1000
G0 Z3.0 ; Pen up

G0 X117.947 Y86.662 F3000 ; Travel to line 368
G0 Z0.0 ; Pen down
G1 X129.277 Y73.958 F1000
G0 Z3.0 ; Pen up

G0 X129.105 Y74.473 F3000 ; Travel to line 369
G0 Z0.0 ; Pen down
G1 X118.118 Y86.833 F1000
G0 Z3.0 ; Pen up

G0 X118.118 Y87.005 F3000 ; Travel to line 370
G0 Z0.0 ; Pen down
G1 X128.933 Y74.817 F1000
G0 Z3.0 ; Pen up

G0 X128.933 Y74.988 F3000 ; Travel to line 371
G0 Z0.0 ; Pen down
G1 X118.118 Y87.177 F1000
G0 Z3.0 ; Pen up

G0 X118.290 Y87.348 F3000 ; Travel to line 372
G0 Z0.0 ; Pen down
G1 X128.590 Y75.847 F1000
G0 Z3.0 ; Pen up

G0 X128.418 Y76.190 F3000 ; Travel to line 373
G0 Z0.0 ; Pen down
G1 X118.290 Y87.520 F1000
G0 Z3.0 ; Pen up

G0 X118.462 Y87.692 F3000 ; Travel to line 374
G0 Z0.0 ; Pen down
G1 X128.247 Y76.705 F1000
G0 Z3.0 ; Pen up

G0 X128.075 Y77.048 F3000 ; Travel to line 375
G0 Z0.0 ; Pen down
G1 X118.462 Y87.863 F1000
G0 Z3.0 ; Pen up

G0 X118.462 Y88.207 F3000 ; Travel to line 376
G0 Z0.0 ; Pen down
G1 X127.903 Y77.563 F1000
G0 Z3.0 ; Pen up

G0 X127.903 Y77.735 F3000 ; Travel to line 377
G0 Z0.0 ; Pen down
G1 X118.633 Y88.207 F1000
G0 Z3.0 ; Pen up

G0 X118.633 Y88.378 F3000 ; Travel to line 378
G0 Z0.0 ; Pen down
G1 X127.732 Y78.078 F1000
G0 Z3.0 ; Pen up

G0 X127.388 Y78.937 F3000 ; Travel to line 379
G0 Z0.0 ; Pen down
G1 X118.633 Y88.722 F1000
G0 Z3.0 ; Pen up

G0 X118.805 Y88.722 F3000 ; Travel to line 380
G0 Z0.0 ; Pen down
G1 X127.388 Y79.108 F1000
G0 Z3.0 ; Pen up

G0 X127.045 Y79.795 F3000 ; Travel to line 381
G0 Z0.0 ; Pen down
G1 X118.805 Y89.065 F1000
G0 Z3.0 ; Pen up

G0 X118.977 Y89.065 F3000 ; Travel to line 382
G0 Z0.0 ; Pen down
G1 X127.045 Y79.967 F1000
G0 Z3.0 ; Pen up

G0 X126.873 Y80.310 F3000 ; Travel to line 383
G0 Z0.0 ; Pen down
G1 X118.977 Y89.237 F1000
G0 Z3.0 ; Pen up

G0 X118.977 Y89.580 F3000 ; Travel to line 384
G0 Z0.0 ; Pen down
G1 X126.530 Y81.168 F1000
G0 Z3.0 ; Pen up

G0 X126.530 Y81.340 F3000 ; Travel to line 385
G0 Z0.0 ; Pen down
G1 X119.148 Y89.752 F1000
G0 Z3.0 ; Pen up

G0 X119.148 Y90.095 F3000 ; Travel to line 386
G0 Z0.0 ; Pen down
G1 X126.358 Y81.855 F1000
G0 Z3.0 ; Pen up

G0 X126.187 Y82.198 F3000 ; Travel to line 387
G0 Z0.0 ; Pen down
G1 X119.320 Y90.095 F1000
G0 Z3.0 ; Pen up

G0 X119.320 Y90.267 F3000 ; Travel to line 388
G0 Z0.0 ; Pen down
G1 X126.015 Y82.713 F1000
G0 Z3.0 ; Pen up

G0 X125.843 Y83.228 F3000 ; Travel to line 389
G0 Z0.0 ; Pen down
G1 X119.492 Y90.438 F1000
G0 Z3.0 ; Pen up

G0 X119.492 Y90.610 F3000 ; Travel to line 390
G0 Z0.0 ; Pen down
G1 X125.672 Y83.572 F1000
G0 Z3.0 ; Pen up

G0 X125.500 Y84.087 F3000 ; Travel to line 391
G0 Z0.0 ; Pen down
G1 X119.492 Y90.953 F1000
G0 Z3.0 ; Pen up

G0 X119.663 Y90.953 F3000 ; Travel to line 392
G0 Z0.0 ; Pen down
G1 X125.328 Y84.430 F1000
G0 Z3.0 ; Pen up

G0 X124.985 Y85.288 F3000 ; Travel to line 393
G0 Z0.0 ; Pen down
G1 X119.663 Y91.297 F1000
G0 Z3.0 ; Pen up

G0 X119.663 Y91.468 F3000 ; Travel to line 394
G0 Z0.0 ; Pen down
G1 X124.985 Y85.460 F1000
G0 Z3.0 ; Pen up

G0 X124.813 Y85.803 F3000 ; Travel to line 395
G0 Z0.0 ; Pen down
G1 X119.835 Y91.468 F1000
G0 Z3.0 ; Pen up

G0 X119.835 Y91.812 F3000 ; Travel to line 396
G0 Z0.0 ; Pen down
G1 X124.642 Y86.318 F1000
G0 Z3.0 ; Pen up

G0 X124.470 Y86.833 F3000 ; Travel to line 397
G0 Z0.0 ; Pen down
G1 X120.007 Y91.812 F1000
G0 Z3.0 ; Pen up

G0 X120.007 Y92.327 F3000 ; Travel to line 398
G0 Z0.0 ; Pen down
G1 X124.298 Y87.348 F1000
G0 Z3.0 ; Pen up

G0 X124.127 Y87.692 F3000 ; Travel to line 399
G0 Z0.0 ; Pen down
G1 X120.178 Y92.327 F1000
G0 Z3.0 ; Pen up

G0 X120.178 Y92.498 F3000 ; Travel to line 400
G0 Z0.0 ; Pen down
G1 X123.955 Y88.035 F1000
G0 Z3.0 ; Pen up

G0 X123.783 Y88.722 F3000 ; Travel to line 401
G0 Z0.0 ; Pen down
G1 X120.178 Y92.842 F1000
G0 Z3.0 ; Pen up

G0 X120.350 Y92.842 F3000 ; Travel to line 402
G0 Z0.0 ; Pen down
G1 X123.612 Y89.065 F1000
G0 Z3.0 ; Pen up

G0 X123.440 Y89.580 F3000 ; Travel to line 403
G0 Z0.0 ; Pen down
G1 X120.350 Y93.185 F1000
G0 Z3.0 ; Pen up

G0 X120.522 Y93.185 F3000 ; Travel to line 404
G0 Z0.0 ; Pen down
G1 X123.268 Y89.923 F1000
G0 Z3.0 ; Pen up

G0 X122.925 Y90.782 F3000 ; Travel to line 405
G0 Z0.0 ; Pen down
G1 X120.522 Y93.528 F1000
G0 Z3.0 ; Pen up

G0 X120.522 Y93.700 F3000 ; Travel to line 406
G0 Z0.0 ; Pen down
G1 X122.925 Y90.953 F1000
G0 Z3.0 ; Pen up

G0 X122.753 Y91.297 F3000 ; Travel to line 407
G0 Z0.0 ; Pen down
G1 X120.693 Y93.700 F1000
G0 Z3.0 ; Pen up

G0 X120.693 Y94.043 F3000 ; Travel to line 408
G0 Z0.0 ; Pen down
G1 X122.410 Y92.155 F1000
G0 Z3.0 ; Pen up

G0 X122.410 Y92.327 F3000 ; Travel to line 409
G0 Z0.0 ; Pen down
G1 X120.693 Y94.215 F1000
G0 Z3.0 ; Pen up

G0 X120.865 Y94.558 F3000 ; Travel to line 410
G0 Z0.0 ; Pen down
G1 X122.238 Y92.842 F1000
G0 Z3.0 ; Pen up

G0 X122.067 Y93.185 F3000 ; Travel to line 411
G0 Z0.0 ; Pen down
G1 X121.037 Y94.558 F1000
G0 Z3.0 ; Pen up

G0 X121.037 Y94.730 F3000 ; Travel to line 412
G0 Z0.0 ; Pen down
G1 X121.895 Y93.700 F1000
G0 Z3.0 ; Pen up

G0 X121.723 Y94.215 F3000 ; Travel to line 413
G0 Z0.0 ; Pen down
G1 X121.037 Y95.073 F1000
G0 Z3.0 ; Pen up

G0 X121.208 Y95.073 F3000 ; Travel to line 414
G0 Z0.0 ; Pen down
G1 X121.552 Y94.558 F1000
G0 Z3.0 ; Pen up

G0 X117.603 Y85.632 F3000 ; Travel to line 415
G0 Z0.0 ; Pen down
G1 X130.135 Y71.727 F1000
G0 Z3.0 ; Pen up

G0 X130.135 Y71.555 F3000 ; Travel to line 416
G0 Z0.0 ; Pen down
G1 X117.603 Y85.460 F1000
G0 Z3.0 ; Pen up

G0 X117.432 Y85.288 F3000 ; Travel to line 417
G0 Z0.0 ; Pen down
G1 X130.478 Y70.868 F1000
G0 Z3.0 ; Pen up

G0 X130.478 Y70.697 F3000 ; Travel to line 418
G0 Z0.0 ; Pen down
G1 X117.432 Y85.117 F1000
G0 Z3.0 ; Pen up

G0 X117.260 Y84.945 F3000 ; Travel to line 419
G0 Z0.0 ; Pen down
G1 X130.822 Y69.838 F1000
G0 Z3.0 ; Pen up

G0 X130.993 Y69.495 F3000 ; Travel to line 420
G0 Z0.0 ; Pen down
G1 X117.260 Y84.773 F1000
G0 Z3.0 ; Pen up

G0 X117.260 Y84.602 F3000 ; Travel to line 421
G0 Z0.0 ; Pen down
G1 X130.993 Y69.323 F1000
G0 Z3.0 ; Pen up

G0 X131.165 Y68.808 F3000 ; Travel to line 422
G0 Z0.0 ; Pen down
G1 X117.088 Y84.430 F1000
G0 Z3.0 ; Pen up

G0 X117.088 Y84.258 F3000 ; Travel to line 423
G0 Z0.0 ; Pen down
G1 X131.337 Y68.465 F1000
G0 Z3.0 ; Pen up

G0 X131.508 Y67.950 F3000 ; Travel to line 424
G0 Z0.0 ; Pen down
G1 X116.917 Y84.087 F1000
G0 Z3.0 ; Pen up

G0 X116.917 Y83.915 F3000 ; Travel to line 425
G0 Z0.0 ; Pen down
G1 X131.680 Y67.607 F1000
G0 Z3.0 ; Pen up

G0 X131.852 Y67.092 F3000 ; Travel to line 426
G0 Z0.0 ; Pen down
G1 X116.917 Y83.743 F1000
G0 Z3.0 ; Pen up

G0 X116.745 Y83.572 F3000 ; Travel to line 427
G0 Z0.0 ; Pen down
G1 X132.023 Y66.577 F1000
G0 Z3.0 ; Pen up

G0 X132.195 Y66.233 F3000 ; Travel to line 428
G0 Z0.0 ; Pen down
G1 X116.745 Y83.400 F1000
G0 Z3.0 ; Pen up

G0 X116.573 Y83.228 F3000 ; Travel to line 429
G0 Z0.0 ; Pen down
G1 X132.367 Y65.718 F1000
G0 Z3.0 ; Pen up

G0 X132.538 Y65.375 F3000 ; Travel to line 430
G0 Z0.0 ; Pen down
G1 X116.573 Y83.057 F1000
G0 Z3.0 ; Pen up

G0 X116.402 Y82.370 F3000 ; Travel to line 431
G0 Z0.0 ; Pen down
G1 X132.882 Y64.345 F1000
G0 Z3.0 ; Pen up

G0 X132.710 Y64.688 F3000 ; Travel to line 432
G0 Z0.0 ; Pen down
G1 X116.402 Y82.713 F1000
G1 X116.402 Y82.713 F1000
G1 X132.710 Y64.860 F1000
G0 Z3.0 ; Pen up

G0 X133.225 Y63.487 F3000 ; Travel to line 433
G0 Z0.0 ; Pen down
G1 X116.230 Y82.198 F1000
G0 Z3.0 ; Pen up

G0 X116.230 Y82.027 F3000 ; Travel to line 434
G0 Z0.0 ; Pen down
G1 X133.225 Y63.315 F1000
G0 Z3.0 ; Pen up

G0 X133.568 Y62.628 F3000 ; Travel to line 435
G0 Z0.0 ; Pen down
G1 X116.058 Y81.855 F1000
G0 Z3.0 ; Pen up

G0 X116.058 Y81.683 F3000 ; Travel to line 436
G0 Z0.0 ; Pen down
G1 X133.568 Y62.457 F1000
G0 Z3.0 ; Pen up

G0 X133.740 Y62.113 F3000 ; Travel to line 437
G0 Z0.0 ; Pen down
G1 X116.058 Y81.512 F1000
G0 Z3.0 ; Pen up

G0 X115.887 Y81.340 F3000 ; Travel to line 438
G0 Z0.0 ; Pen down
G1 X133.912 Y61.598 F1000
G0 Z3.0 ; Pen up

G0 X134.083 Y61.255 F3000 ; Travel to line 439
G0 Z0.0 ; Pen down
G1 X115.887 Y81.168 F1000
G0 Z3.0 ; Pen up

G0 X115.887 Y80.825 F3000 ; Travel to line 440
G0 Z0.0 ; Pen down
G1 X133.912 Y61.083 F1000
G0 Z3.0 ; Pen up

G0 X133.740 Y61.083 F3000 ; Travel to line 441
G0 Z0.0 ; Pen down
G1 X115.715 Y80.825 F1000
G0 Z3.0 ; Pen up

G0 X115.715 Y80.653 F3000 ; Travel to line 442
G0 Z0.0 ; Pen down
G1 X133.568 Y61.083 F1000
G0 Z3.0 ; Pen up

G0 X133.225 Y61.083 F3000 ; Travel to line 443
G0 Z0.0 ; Pen down
G1 X115.543 Y80.482 F1000
G0 Z3.0 ; Pen up

G0 X115.543 Y80.310 F3000 ; Travel to line 444
G0 Z0.0 ; Pen down
G1 X133.053 Y61.083 F1000
G0 Z3.0 ; Pen up

G0 X132.710 Y61.083 F3000 ; Travel to line 445
G0 Z0.0 ; Pen down
G1 X115.543 Y79.967 F1000
G0 Z3.0 ; Pen up

G0 X115.372 Y79.967 F3000 ; Travel to line 446
G0 Z0.0 ; Pen down
G1 X132.538 Y61.083 F1000
G0 Z3.0 ; Pen up

G0 X132.367 Y61.083 F3000 ; Travel to line 447
G0 Z0.0 ; Pen down
G1 X115.372 Y79.623 F1000
G0 Z3.0 ; Pen up

G0 X115.372 Y79.452 F3000 ; Travel to line 448
G0 Z0.0 ; Pen down
G1 X132.195 Y61.083 F1000
G0 Z3.0 ; Pen up

G0 X132.023 Y61.083 F3000 ; Travel to line 449
G0 Z0.0 ; Pen down
G1 X115.200 Y79.452 F1000
G0 Z3.0 ; Pen up

G0 X115.200 Y79.108 F3000 ; Travel to line 450
G0 Z0.0 ; Pen down
G1 X131.680 Y61.083 F1000
G0 Z3.0 ; Pen up

G0 X131.508 Y61.083 F3000 ; Travel to line 451
G0 Z0.0 ; Pen down
G1 X115.028 Y79.108 F1000
G0 Z3.0 ; Pen up

G0 X115.028 Y78.765 F3000 ; Travel to line 452
G0 Z0.0 ; Pen down
G1 X131.165 Y61.083 F1000
G0 Z3.0 ; Pen up

G0 X130.993 Y61.083 F3000 ; Travel to line 453
G0 Z0.0 ; Pen down
G1 X115.028 Y78.593 F1000
G0 Z3.0 ; Pen up

G0 X114.857 Y78.593 F3000 ; Travel to line 454
G0 Z0.0 ; Pen down
G1 X130.822 Y61.083 F1000
G0 Z3.0 ; Pen up

G0 X130.478 Y61.083 F3000 ; Travel to line 455
G0 Z0.0 ; Pen down
G1 X114.857 Y78.250 F1000
G0 Z3.0 ; Pen up

G0 X114.857 Y78.078 F3000 ; Travel to line 456
G0 Z0.0 ; Pen down
G1 X130.307 Y61.083 F1000
G0 Z3.0 ; Pen up

G0 X129.620 Y61.083 F3000 ; Travel to line 457
G0 Z0.0 ; Pen down
G1 X114.513 Y77.392 F1000
G0 Z3.0 ; Pen up

G0 X114.513 Y77.220 F3000 ; Travel to line 458
G0 Z0.0 ; Pen down
G1 X129.448 Y61.083 F1000
G0 Z3.0 ; Pen up

G0 X129.277 Y61.083 F3000 ; Travel to line 459
G0 Z0.0 ; Pen down
G1 X114.342 Y77.220 F1000
G0 Z3.0 ; Pen up

G0 X114.342 Y76.877 F3000 ; Travel to line 460
G0 Z0.0 ; Pen down
G1 X128.933 Y61.083 F1000
G0 Z3.0 ; Pen up

G0 X128.762 Y61.083 F3000 ; Travel to line 461
G0 Z0.0 ; Pen down
G1 X114.342 Y76.705 F1000
G0 Z3.0 ; Pen up

G0 X114.170 Y76.533 F3000 ; Travel to line 462
G0 Z0.0 ; Pen down
G1 X128.418 Y61.083 F1000
G0 Z3.0 ; Pen up

G0 X128.247 Y61.083 F3000 ; Travel to line 463
G0 Z0.0 ; Pen down
G1 X114.170 Y76.362 F1000
G0 Z3.0 ; Pen up

G0 X113.998 Y76.362 F3000 ; Travel to line 464
G0 Z0.0 ; Pen down
G1 X128.075 Y61.083 F1000
G0 Z3.0 ; Pen up

G0 X127.732 Y61.083 F3000 ; Travel to line 465
G0 Z0.0 ; Pen down
G1 X113.998 Y76.018 F1000
G0 Z3.0 ; Pen up

G0 X113.998 Y75.847 F3000 ; Travel to line 466
G0 Z0.0 ; Pen down
G1 X127.560 Y61.083 F1000
G0 Z3.0 ; Pen up

G0 X127.045 Y61.083 F3000 ; Travel to line 467
G0 Z0.0 ; Pen down
G1 X113.827 Y75.332 F1000
G0 Z3.0 ; Pen up

G0 X113.827 Y75.503 F3000 ; Travel to line 468
G0 Z0.0 ; Pen down
G1 X127.217 Y61.083 F1000
G1 X127.217 Y61.083 F1000
G1 X113.827 Y75.675 F1000
G0 Z3.0 ; Pen up

G0 X113.655 Y75.160 F3000 ; Travel to line 469
G0 Z0.0 ; Pen down
G1 X126.702 Y61.083 F1000
G0 Z3.0 ; Pen up

G0 X126.530 Y61.083 F3000 ; Travel to line 470
G0 Z0.0 ; Pen down
G1 X113.655 Y74.988 F1000
G0 Z3.0 ; Pen up

G0 X113.483 Y74.817 F3000 ; Travel to line 471
G0 Z0.0 ; Pen down
G1 X126.187 Y61.083 F1000
G0 Z3.0 ; Pen up

G0 X126.015 Y61.083 F3000 ; Travel to line 472
G0 Z0.0 ; Pen down
G1 X113.483 Y74.645 F1000
G0 Z3.0 ; Pen up

G0 X113.312 Y74.473 F3000 ; Travel to line 473
G0 Z0.0 ; Pen down
G1 X125.672 Y61.083 F1000
G0 Z3.0 ; Pen up

G0 X125.500 Y61.083 F3000 ; Travel to line 474
G0 Z0.0 ; Pen down
G1 X113.312 Y74.302 F1000
G0 Z3.0 ; Pen up

G0 X113.312 Y74.130 F3000 ; Travel to line 475
G0 Z0.0 ; Pen down
G1 X125.328 Y61.083 F1000
G0 Z3.0 ; Pen up

G0 X124.985 Y61.083 F3000 ; Travel to line 476
G0 Z0.0 ; Pen down
G1 X113.140 Y73.958 F1000
G0 Z3.0 ; Pen up

G0 X113.140 Y73.787 F3000 ; Travel to line 477
G0 Z0.0 ; Pen down
G1 X124.813 Y61.083 F1000
G0 Z3.0 ; Pen up

G0 X124.470 Y61.083 F3000 ; Travel to line 478
G0 Z0.0 ; Pen down
G1 X112.968 Y73.615 F1000
G0 Z3.0 ; Pen up

G0 X112.968 Y73.443 F3000 ; Travel to line 479
G0 Z0.0 ; Pen down
G1 X124.298 Y61.083 F1000
G1 X124.298 Y61.083 F1000
G1 X112.968 Y73.272 F1000
G0 Z3.0 ; Pen up

G0 X112.797 Y73.100 F3000 ; Travel to line 480
G0 Z0.0 ; Pen down
G1 X123.955 Y61.083 F1000
G0 Z3.0 ; Pen up

G0 X123.440 Y61.083 F3000 ; Travel to line 481
G0 Z0.0 ; Pen down
G1 X112.797 Y72.585 F1000
G0 Z3.0 ; Pen up

G0 X112.625 Y72.585 F3000 ; Travel to line 482
G0 Z0.0 ; Pen down
G1 X123.268 Y61.083 F1000
G0 Z3.0 ; Pen up

G0 X122.925 Y61.083 F3000 ; Travel to line 483
G0 Z0.0 ; Pen down
G1 X112.625 Y72.242 F1000
G0 Z3.0 ; Pen up

G0 X112.453 Y72.242 F3000 ; Travel to line 484
G0 Z0.0 ; Pen down
G1 X122.753 Y61.083 F1000
G0 Z3.0 ; Pen up

G0 X122.582 Y61.083 F3000 ; Travel to line 485
G0 Z0.0 ; Pen down
G1 X112.453 Y72.070 F1000
G0 Z3.0 ; Pen up

G0 X112.453 Y71.727 F3000 ; Travel to line 486
G0 Z0.0 ; Pen down
G1 X122.238 Y61.083 F1000
G0 Z3.0 ; Pen up

G0 X122.067 Y61.083 F3000 ; Travel to line 487
G0 Z0.0 ; Pen down
G1 X112.282 Y71.727 F1000
G0 Z3.0 ; Pen up

G0 X112.282 Y71.212 F3000 ; Travel to line 488
G0 Z0.0 ; Pen down
G1 X121.723 Y61.083 F1000
G0 Z3.0 ; Pen up

G0 X121.552 Y61.083 F3000 ; Travel to line 489
G0 Z0.0 ; Pen down
G1 X112.110 Y71.212 F1000
G0 Z3.0 ; Pen up

G0 X112.110 Y71.040 F3000 ; Travel to line 490
G0 Z0.0 ; Pen down
G1 X121.380 Y61.083 F1000
G0 Z3.0 ; Pen up

G0 X121.037 Y61.083 F3000 ; Travel to line 491
G0 Z0.0 ; Pen down
G1 X111.938 Y70.868 F1000
G0 Z3.0 ; Pen up

G0 X111.938 Y70.525 F3000 ; Travel to line 492
G0 Z0.0 ; Pen down
G1 X120.865 Y61.083 F1000
G0 Z3.0 ; Pen up

G0 X120.522 Y61.083 F3000 ; Travel to line 493
G0 Z0.0 ; Pen down
G1 X111.767 Y70.353 F1000
G0 Z3.0 ; Pen up

G0 X111.767 Y70.010 F3000 ; Travel to line 494
G0 Z0.0 ; Pen down
G1 X120.178 Y61.083 F1000
G0 Z3.0 ; Pen up

G0 X119.835 Y61.083 F3000 ; Travel to line 495
G0 Z0.0 ; Pen down
G1 X111.595 Y69.667 F1000
G0 Z3.0 ; Pen up

G0 X111.423 Y69.495 F3000 ; Travel to line 496
G0 Z0.0 ; Pen down
G1 X119.492 Y61.083 F1000
G0 Z3.0 ; Pen up

G0 X119.320 Y61.083 F3000 ; Travel to line 497
G0 Z0.0 ; Pen down
G1 X111.423 Y69.323 F1000
G0 Z3.0 ; Pen up

G0 X111.252 Y68.980 F3000 ; Travel to line 498
G0 Z0.0 ; Pen down
G1 X118.805 Y61.083 F1000
G0 Z3.0 ; Pen up

G0 X118.118 Y61.083 F3000 ; Travel to line 499
G0 Z0.0 ; Pen down
G1 X111.080 Y68.465 F1000
G0 Z3.0 ; Pen up

G0 X111.252 Y68.637 F3000 ; Travel to line 500
G0 Z0.0 ; Pen down
G1 X118.633 Y61.083 F1000
G1 X118.633 Y61.083 F1000
G1 X108.333 Y61.083 F1000
G0 Z3.0 ; Pen up

G0 X108.333 Y61.255 F3000 ; Travel to line 501
G0 Z0.0 ; Pen down
G1 X108.505 Y61.083 F1000
G0 Z3.0 ; Pen up

G0 X108.505 Y61.598 F3000 ; Travel to line 502
G0 Z0.0 ; Pen down
G1 X109.020 Y61.083 F1000
G0 Z3.0 ; Pen up

G0 X109.535 Y61.083 F3000 ; Travel to line 503
G0 Z0.0 ; Pen down
G1 X108.677 Y61.942 F1000
G0 Z3.0 ; Pen up

G0 X108.848 Y62.113 F3000 ; Travel to line 504
G0 Z0.0 ; Pen down
G1 X109.878 Y61.083 F1000
G0 Z3.0 ; Pen up

G0 X110.565 Y61.083 F3000 ; Travel to line 505
G0 Z0.0 ; Pen down
G1 X109.020 Y62.628 F1000
G0 Z3.0 ; Pen up

G0 X109.020 Y62.972 F3000 ; Travel to line 506
G0 Z0.0 ; Pen down
G1 X110.908 Y61.083 F1000
G0 Z3.0 ; Pen up

G0 X111.423 Y61.083 F3000 ; Travel to line 507
G0 Z0.0 ; Pen down
G1 X109.192 Y63.315 F1000
G0 Z3.0 ; Pen up

G0 X109.363 Y63.658 F3000 ; Travel to line 508
G0 Z0.0 ; Pen down
G1 X111.938 Y61.083 F1000
G0 Z3.0 ; Pen up

G0 X112.282 Y61.083 F3000 ; Travel to line 509
G0 Z0.0 ; Pen down
G1 X109.363 Y64.002 F1000
G0 Z3.0 ; Pen up

G0 X109.707 Y64.345 F3000 ; Travel to line 510
G0 Z0.0 ; Pen down
G1 X112.968 Y61.083 F1000
G0 Z3.0 ; Pen up

G0 X113.312 Y61.083 F3000 ; Travel to line 511
G0 Z0.0 ; Pen down
G1 X109.707 Y64.688 F1000
G0 Z3.0 ; Pen up

G0 X109.878 Y65.032 F3000 ; Travel to line 512
G0 Z0.0 ; Pen down
G1 X113.827 Y61.083 F1000
G0 Z3.0 ; Pen up

G0 X114.342 Y61.083 F3000 ; Travel to line 513
G0 Z0.0 ; Pen down
G1 X110.050 Y65.375 F1000
G0 Z3.0 ; Pen up

G0 X110.222 Y65.718 F3000 ; Travel to line 514
G0 Z0.0 ; Pen down
G1 X114.857 Y61.083 F1000
G0 Z3.0 ; Pen up

G0 X115.200 Y61.083 F3000 ; Travel to line 515
G0 Z0.0 ; Pen down
G1 X110.222 Y66.062 F1000
G0 Z3.0 ; Pen up

G0 X110.393 Y66.233 F3000 ; Travel to line 516
G0 Z0.0 ; Pen down
G1 X115.543 Y61.083 F1000
G0 Z3.0 ; Pen up

G0 X116.058 Y61.083 F3000 ; Travel to line 517
G0 Z0.0 ; Pen down
G1 X110.393 Y66.748 F1000
G0 Z3.0 ; Pen up

G0 X110.565 Y66.748 F3000 ; Travel to line 518
G0 Z0.0 ; Pen down
G1 X116.230 Y61.083 F1000
G0 Z3.0 ; Pen up

G0 X116.573 Y61.083 F3000 ; Travel to line 519
G0 Z0.0 ; Pen down
G1 X110.565 Y67.092 F1000
G0 Z3.0 ; Pen up

G0 X110.737 Y67.435 F3000 ; Travel to line 520
G0 Z0.0 ; Pen down
G1 X116.917 Y61.083 F1000
G0 Z3.0 ; Pen up

G0 X117.260 Y61.083 F3000 ; Travel to line 521
G0 Z0.0 ; Pen down
G1 X110.737 Y67.607 F1000
G0 Z3.0 ; Pen up

G0 X110.908 Y67.950 F3000 ; Travel to line 522
G0 Z0.0 ; Pen down
G1 X117.603 Y61.083 F1000
G0 Z3.0 ; Pen up

G0 X117.947 Y61.083 F3000 ; Travel to line 523
G0 Z0.0 ; Pen down
G1 X111.080 Y68.122 F1000
G0 Z3.0 ; Pen up

G0 X112.797 Y72.928 F3000 ; Travel to line 524
G0 Z0.0 ; Pen down
G1 X123.783 Y61.083 F1000
G1 X123.783 Y61.083 F1000
G1 X134.083 Y61.083 F1000
G0 Z3.0 ; Pen up

G0 X114.685 Y77.907 F3000 ; Travel to line 525
G0 Z0.0 ; Pen down
G1 X129.963 Y61.083 F1000
G1 X129.963 Y61.083 F1000
G1 X114.513 Y77.735 F1000
G0 Z3.0 ; Pen up

; Return to origin
G0 X0 Y0
G0 Z3.0

; Total drawing distance: 13951.30 mm
; Total travel distance: 487.35 mm
; Total lines: 525
; Estimated time: 846.8 seconds (14.1 minutes)
M2 ; End program