; Blueprint to G-code
; Input: test_images_solid/test4_floor_plan_with_walls.png
; Generated with blueprint2gcode.py

G21 ; Set units to millimeters
G90 ; Absolute positioning
G0 Z3.0 ; Pen up
G0 X0 Y0 ; Move to origin

G0 X24.946 Y40.140 F3000 ; Travel to line 1
G0 Z0.0 ; Pen down
G1 X22.500 Y42.071 F1000
G0 Z3.0 ; Pen up

G0 X22.500 Y42.200 F3000 ; Travel to line 2
G0 Z0.0 ; Pen down
G1 X24.946 Y40.269 F1000
G0 Z3.0 ; Pen up

G0 X24.946 Y40.398 F3000 ; Travel to line 3
G0 Z0.0 ; Pen down
G1 X22.500 Y42.329 F1000
G0 Z3.0 ; Pen up

G0 X22.500 Y42.586 F3000 ; Travel to line 4
G0 Z0.0 ; Pen down
G1 X24.946 Y40.655 F1000
G0 Z3.0 ; Pen up

G0 X24.946 Y40.784 F3000 ; Travel to line 5
G0 Z0.0 ; Pen down
G1 X22.500 Y42.715 F1000
G0 Z3.0 ; Pen up

G0 X22.500 Y42.973 F3000 ; Travel to line 6
G0 Z0.0 ; Pen down
G1 X24.946 Y41.041 F1000
G0 Z3.0 ; Pen up

G0 X24.946 Y41.170 F3000 ; Travel to line 7
G0 Z0.0 ; Pen down
G1 X22.500 Y43.101 F1000
G0 Z3.0 ; Pen up

G0 X22.500 Y43.230 F3000 ; Travel to line 8
G0 Z0.0 ; Pen down
G1 X24.946 Y41.299 F1000
G0 Z3.0 ; Pen up

G0 X24.946 Y41.556 F3000 ; Travel to line 9
G0 Z0.0 ; Pen down
G1 X22.500 Y43.488 F1000
G0 Z3.0 ; Pen up

G0 X22.500 Y43.616 F3000 ; Travel to line 10
G0 Z0.0 ; Pen down
G1 X24.946 Y41.685 F1000
G0 Z3.0 ; Pen up

G0 X24.946 Y41.814 F3000 ; Travel to line 11
G0 Z0.0 ; Pen down
G1 X22.500 Y43.874 F1000
G0 Z3.0 ; Pen up

G0 X22.500 Y44.002 F3000 ; Travel to line 12
G0 Z0.0 ; Pen down
G1 X24.946 Y41.943 F1000
G0 Z3.0 ; Pen up

G0 X24.946 Y42.200 F3000 ; Travel to line 13
G0 Z0.0 ; Pen down
G1 X22.500 Y44.260 F1000
G0 Z3.0 ; Pen up

G0 X22.500 Y44.646 F3000 ; Travel to line 14
G0 Z0.0 ; Pen down
G1 X24.946 Y42.715 F1000
G0 Z3.0 ; Pen up

G0 X24.946 Y42.844 F3000 ; Travel to line 15
G0 Z0.0 ; Pen down
G1 X22.500 Y44.775 F1000
G0 Z3.0 ; Pen up

G0 X22.500 Y45.032 F3000 ; Travel to line 16
G0 Z0.0 ; Pen down
G1 X24.946 Y43.101 F1000
G0 Z3.0 ; Pen up

G0 X24.946 Y43.230 F3000 ; Travel to line 17
G0 Z0.0 ; Pen down
G1 X22.500 Y45.161 F1000
G0 Z3.0 ; Pen up

G0 X22.500 Y45.290 F3000 ; Travel to line 18
G0 Z0.0 ; Pen down
G1 X24.946 Y43.359 F1000
G0 Z3.0 ; Pen up

G0 X24.946 Y43.616 F3000 ; Travel to line 19
G0 Z0.0 ; Pen down
G1 X22.500 Y45.547 F1000
G0 Z3.0 ; Pen up

G0 X22.500 Y45.676 F3000 ; Travel to line 20
G0 Z0.0 ; Pen down
G1 X24.946 Y43.745 F1000
G0 Z3.0 ; Pen up

G0 X24.946 Y44.002 F3000 ; Travel to line 21
G0 Z0.0 ; Pen down
G1 X22.500 Y45.934 F1000
G0 Z3.0 ; Pen up

G0 X22.500 Y46.062 F3000 ; Travel to line 22
G0 Z0.0 ; Pen down
G1 X24.946 Y44.131 F1000
G0 Z3.0 ; Pen up

G0 X24.946 Y44.389 F3000 ; Travel to line 23
G0 Z0.0 ; Pen down
G1 X22.500 Y46.320 F1000
G0 Z3.0 ; Pen up

G0 X22.500 Y46.449 F3000 ; Travel to line 24
G0 Z0.0 ; Pen down
G1 X24.946 Y44.517 F1000
G1 X24.946 Y44.517 F1000
G1 X22.500 Y46.578 F1000
G0 Z3.0 ; Pen up

G0 X22.500 Y46.835 F3000 ; Travel to line 25
G0 Z0.0 ; Pen down
G1 X24.946 Y44.775 F1000
G0 Z3.0 ; Pen up

G0 X24.946 Y44.904 F3000 ; Travel to line 26
G0 Z0.0 ; Pen down
G1 X22.500 Y46.964 F1000
G0 Z3.0 ; Pen up

G0 X22.500 Y47.221 F3000 ; Travel to line 27
G0 Z0.0 ; Pen down
G1 X24.946 Y45.161 F1000
G0 Z3.0 ; Pen up

G0 X24.946 Y45.290 F3000 ; Travel to line 28
G0 Z0.0 ; Pen down
G1 X22.500 Y47.350 F1000
G0 Z3.0 ; Pen up

G0 X22.500 Y47.479 F3000 ; Travel to line 29
G0 Z0.0 ; Pen down
G1 X24.946 Y45.419 F1000
G0 Z3.0 ; Pen up

G0 X24.946 Y45.676 F3000 ; Travel to line 30
G0 Z0.0 ; Pen down
G1 X22.500 Y47.736 F1000
G0 Z3.0 ; Pen up

G0 X22.500 Y47.865 F3000 ; Travel to line 31
G0 Z0.0 ; Pen down
G1 X24.946 Y45.805 F1000
G0 Z3.0 ; Pen up

G0 X24.946 Y46.062 F3000 ; Travel to line 32
G0 Z0.0 ; Pen down
G1 X22.500 Y47.994 F1000
G0 Z3.0 ; Pen up

G0 X22.500 Y48.123 F3000 ; Travel to line 33
G0 Z0.0 ; Pen down
G1 X24.946 Y46.191 F1000
G0 Z3.0 ; Pen up

G0 X24.946 Y46.320 F3000 ; Travel to line 34
G0 Z0.0 ; Pen down
G1 X22.500 Y48.251 F1000
G0 Z3.0 ; Pen up

G0 X22.500 Y48.509 F3000 ; Travel to line 35
G0 Z0.0 ; Pen down
G1 X24.946 Y46.578 F1000
G0 Z3.0 ; Pen up

G0 X24.946 Y46.706 F3000 ; Travel to line 36
G0 Z0.0 ; Pen down
G1 X22.500 Y48.638 F1000
G0 Z3.0 ; Pen up

G0 X22.500 Y48.895 F3000 ; Travel to line 37
G0 Z0.0 ; Pen down
G1 X24.946 Y46.964 F1000
G0 Z3.0 ; Pen up

G0 X24.946 Y47.093 F3000 ; Travel to line 38
G0 Z0.0 ; Pen down
G1 X22.500 Y49.024 F1000
G0 Z3.0 ; Pen up

G0 X22.500 Y49.281 F3000 ; Travel to line 39
G0 Z0.0 ; Pen down
G1 X24.946 Y47.350 F1000
G0 Z3.0 ; Pen up

G0 X24.946 Y47.479 F3000 ; Travel to line 40
G0 Z0.0 ; Pen down
G1 X22.500 Y49.410 F1000
G0 Z3.0 ; Pen up

G0 X22.500 Y49.539 F3000 ; Travel to line 41
G0 Z0.0 ; Pen down
G1 X24.946 Y47.608 F1000
G0 Z3.0 ; Pen up

G0 X24.946 Y47.736 F3000 ; Travel to line 42
G0 Z0.0 ; Pen down
G1 X22.500 Y49.796 F1000
G0 Z3.0 ; Pen up

G0 X22.500 Y49.925 F3000 ; Travel to line 43
G0 Z0.0 ; Pen down
G1 X24.946 Y47.865 F1000
G0 Z3.0 ; Pen up

G0 X24.946 Y48.123 F3000 ; Travel to line 44
G0 Z0.0 ; Pen down
G1 X22.500 Y50.183 F1000
G0 Z3.0 ; Pen up

G0 X22.500 Y50.311 F3000 ; Travel to line 45
G0 Z0.0 ; Pen down
G1 X24.946 Y48.251 F1000
G0 Z3.0 ; Pen up

G0 X24.946 Y48.380 F3000 ; Travel to line 46
G0 Z0.0 ; Pen down
G1 X22.500 Y50.440 F1000
G0 Z3.0 ; Pen up

G0 X22.500 Y50.697 F3000 ; Travel to line 47
G0 Z0.0 ; Pen down
G1 X24.946 Y48.638 F1000
G0 Z3.0 ; Pen up

G0 X24.946 Y48.766 F3000 ; Travel to line 48
G0 Z0.0 ; Pen down
G1 X22.500 Y50.826 F1000
G0 Z3.0 ; Pen up

G0 X22.500 Y51.084 F3000 ; Travel to line 49
G0 Z0.0 ; Pen down
G1 X24.946 Y49.024 F1000
G0 Z3.0 ; Pen up

G0 X24.946 Y49.153 F3000 ; Travel to line 50
G0 Z0.0 ; Pen down
G1 X22.500 Y51.212 F1000
G0 Z3.0 ; Pen up

G0 X22.500 Y51.470 F3000 ; Travel to line 51
G0 Z0.0 ; Pen down
G1 X24.946 Y49.410 F1000
G0 Z3.0 ; Pen up

G0 X24.946 Y49.539 F3000 ; Travel to line 52
G0 Z0.0 ; Pen down
G1 X22.500 Y51.599 F1000
G0 Z3.0 ; Pen up

G0 X22.500 Y51.727 F3000 ; Travel to line 53
G0 Z0.0 ; Pen down
G1 X24.946 Y49.668 F1000
G0 Z3.0 ; Pen up

G0 X24.946 Y49.925 F3000 ; Travel to line 54
G0 Z0.0 ; Pen down
G1 X22.500 Y51.856 F1000
G0 Z3.0 ; Pen up

G0 X22.500 Y51.985 F3000 ; Travel to line 55
G0 Z0.0 ; Pen down
G1 X24.946 Y50.054 F1000
G0 Z3.0 ; Pen up

G0 X24.946 Y50.311 F3000 ; Travel to line 56
G0 Z0.0 ; Pen down
G1 X22.500 Y52.242 F1000
G0 Z3.0 ; Pen up

G0 X22.500 Y52.371 F3000 ; Travel to line 57
G0 Z0.0 ; Pen down
G1 X24.946 Y50.440 F1000
G0 Z3.0 ; Pen up

G0 X24.946 Y50.569 F3000 ; Travel to line 58
G0 Z0.0 ; Pen down
G1 X22.500 Y52.500 F1000
G0 Z3.0 ; Pen up

G0 X22.500 Y52.758 F3000 ; Travel to line 59
G0 Z0.0 ; Pen down
G1 X24.946 Y50.826 F1000
G0 Z3.0 ; Pen up

G0 X24.946 Y50.955 F3000 ; Travel to line 60
G0 Z0.0 ; Pen down
G1 X22.500 Y52.886 F1000
G0 Z3.0 ; Pen up

G0 X22.500 Y53.144 F3000 ; Travel to line 61
G0 Z0.0 ; Pen down
G1 X24.946 Y51.084 F1000
G0 Z3.0 ; Pen up

G0 X24.946 Y51.212 F3000 ; Travel to line 62
G0 Z0.0 ; Pen down
G1 X22.500 Y53.273 F1000
G0 Z3.0 ; Pen up

G0 X22.500 Y53.530 F3000 ; Travel to line 63
G0 Z0.0 ; Pen down
G1 X24.946 Y51.470 F1000
G0 Z3.0 ; Pen up

G0 X24.946 Y51.599 F3000 ; Travel to line 64
G0 Z0.0 ; Pen down
G1 X22.500 Y53.659 F1000
G0 Z3.0 ; Pen up

G0 X22.500 Y53.788 F3000 ; Travel to line 65
G0 Z0.0 ; Pen down
G1 X24.946 Y51.727 F1000
G0 Z3.0 ; Pen up

G0 X24.946 Y51.985 F3000 ; Travel to line 66
G0 Z0.0 ; Pen down
G1 X22.500 Y54.045 F1000
G0 Z3.0 ; Pen up

G0 X22.500 Y54.174 F3000 ; Travel to line 67
G0 Z0.0 ; Pen down
G1 X24.946 Y52.114 F1000
G0 Z3.0 ; Pen up

G0 X24.946 Y52.371 F3000 ; Travel to line 68
G0 Z0.0 ; Pen down
G1 X22.500 Y54.431 F1000
G0 Z3.0 ; Pen up

G0 X22.500 Y54.560 F3000 ; Travel to line 69
G0 Z0.0 ; Pen down
G1 X24.946 Y52.500 F1000
G0 Z3.0 ; Pen up

G0 X24.946 Y52.629 F3000 ; Travel to line 70
G0 Z0.0 ; Pen down
G1 X22.500 Y54.689 F1000
G0 Z3.0 ; Pen up

G0 X22.500 Y54.946 F3000 ; Travel to line 71
G0 Z0.0 ; Pen down
G1 X24.946 Y52.886 F1000
G0 Z3.0 ; Pen up

G0 X24.946 Y53.015 F3000 ; Travel to line 72
G0 Z0.0 ; Pen down
G1 X22.500 Y55.075 F1000
G0 Z3.0 ; Pen up

G0 X22.500 Y55.333 F3000 ; Travel to line 73
G0 Z0.0 ; Pen down
G1 X24.946 Y53.273 F1000
G0 Z3.0 ; Pen up

G0 X24.946 Y53.401 F3000 ; Travel to line 74
G0 Z0.0 ; Pen down
G1 X22.500 Y55.461 F1000
G0 Z3.0 ; Pen up

G0 X22.500 Y55.590 F3000 ; Travel to line 75
G0 Z0.0 ; Pen down
G1 X24.946 Y53.530 F1000
G0 Z3.0 ; Pen up

G0 X24.946 Y53.788 F3000 ; Travel to line 76
G0 Z0.0 ; Pen down
G1 X22.500 Y55.848 F1000
G0 Z3.0 ; Pen up

G0 X22.500 Y55.976 F3000 ; Travel to line 77
G0 Z0.0 ; Pen down
G1 X24.946 Y53.916 F1000
G0 Z3.0 ; Pen up

G0 X24.946 Y54.174 F3000 ; Travel to line 78
G0 Z0.0 ; Pen down
G1 X22.500 Y56.234 F1000
G1 X22.500 Y56.234 F1000
G1 X24.946 Y54.303 F1000
G0 Z3.0 ; Pen up

G0 X24.946 Y54.560 F3000 ; Travel to line 79
G0 Z0.0 ; Pen down
G1 X22.500 Y56.491 F1000
G0 Z3.0 ; Pen up

G0 X22.500 Y56.620 F3000 ; Travel to line 80
G0 Z0.0 ; Pen down
G1 X24.946 Y54.689 F1000
G1 X24.946 Y54.689 F1000
G1 X22.500 Y56.749 F1000
G0 Z3.0 ; Pen up

G0 X22.500 Y57.006 F3000 ; Travel to line 81
G0 Z0.0 ; Pen down
G1 X24.946 Y54.946 F1000
G0 Z3.0 ; Pen up

G0 X24.946 Y55.075 F3000 ; Travel to line 82
G0 Z0.0 ; Pen down
G1 X22.500 Y57.135 F1000
G0 Z3.0 ; Pen up

G0 X22.500 Y57.392 F3000 ; Travel to line 83
G0 Z0.0 ; Pen down
G1 X24.946 Y55.333 F1000
G0 Z3.0 ; Pen up

G0 X24.946 Y55.461 F3000 ; Travel to line 84
G0 Z0.0 ; Pen down
G1 X22.500 Y57.521 F1000
G0 Z3.0 ; Pen up

G0 X22.500 Y57.650 F3000 ; Travel to line 85
G0 Z0.0 ; Pen down
G1 X24.946 Y55.590 F1000
G0 Z3.0 ; Pen up

G0 X24.946 Y55.848 F3000 ; Travel to line 86
G0 Z0.0 ; Pen down
G1 X22.500 Y57.907 F1000
G0 Z3.0 ; Pen up

G0 X22.500 Y58.036 F3000 ; Travel to line 87
G0 Z0.0 ; Pen down
G1 X24.946 Y55.976 F1000
G0 Z3.0 ; Pen up

G0 X24.946 Y56.234 F3000 ; Travel to line 88
G0 Z0.0 ; Pen down
G1 X22.500 Y58.294 F1000
G0 Z3.0 ; Pen up

G0 X22.500 Y58.422 F3000 ; Travel to line 89
G0 Z0.0 ; Pen down
G1 X24.946 Y56.363 F1000
G0 Z3.0 ; Pen up

G0 X24.946 Y56.620 F3000 ; Travel to line 90
G0 Z0.0 ; Pen down
G1 X22.500 Y58.680 F1000
G0 Z3.0 ; Pen up

G0 X22.500 Y58.809 F3000 ; Travel to line 91
G0 Z0.0 ; Pen down
G1 X24.946 Y56.749 F1000
G0 Z3.0 ; Pen up

G0 X24.946 Y56.878 F3000 ; Travel to line 92
G0 Z0.0 ; Pen down
G1 X22.500 Y58.938 F1000
G0 Z3.0 ; Pen up

G0 X22.500 Y59.195 F3000 ; Travel to line 93
G0 Z0.0 ; Pen down
G1 X24.946 Y57.135 F1000
G0 Z3.0 ; Pen up

G0 X24.946 Y57.264 F3000 ; Travel to line 94
G0 Z0.0 ; Pen down
G1 X22.500 Y59.324 F1000
G0 Z3.0 ; Pen up

G0 X22.500 Y59.581 F3000 ; Travel to line 95
G0 Z0.0 ; Pen down
G1 X24.946 Y57.521 F1000
G0 Z3.0 ; Pen up

G0 X24.946 Y57.650 F3000 ; Travel to line 96
G0 Z0.0 ; Pen down
G1 X22.500 Y59.710 F1000
G0 Z3.0 ; Pen up

G0 X22.500 Y59.839 F3000 ; Travel to line 97
G0 Z0.0 ; Pen down
G1 X24.946 Y57.779 F1000
G0 Z3.0 ; Pen up

G0 X24.946 Y58.036 F3000 ; Travel to line 98
G0 Z0.0 ; Pen down
G1 X22.500 Y60.096 F1000
G0 Z3.0 ; Pen up

G0 X22.500 Y60.225 F3000 ; Travel to line 99
G0 Z0.0 ; Pen down
G1 X24.946 Y58.165 F1000
G0 Z3.0 ; Pen up

G0 X24.946 Y58.422 F3000 ; Travel to line 100
G0 Z0.0 ; Pen down
G1 X22.500 Y60.483 F1000
G0 Z3.0 ; Pen up

G0 X22.500 Y60.611 F3000 ; Travel to line 101
G0 Z0.0 ; Pen down
G1 X24.946 Y58.551 F1000
G0 Z3.0 ; Pen up

G0 X24.946 Y58.680 F3000 ; Travel to line 102
G0 Z0.0 ; Pen down
G1 X22.500 Y60.740 F1000
G0 Z3.0 ; Pen up

G0 X22.500 Y60.998 F3000 ; Travel to line 103
G0 Z0.0 ; Pen down
G1 X24.946 Y58.809 F1000
G0 Z3.0 ; Pen up

G0 X24.946 Y58.938 F3000 ; Travel to line 104
G0 Z0.0 ; Pen down
G1 X22.500 Y61.126 F1000
G0 Z3.0 ; Pen up

G0 X22.500 Y61.255 F3000 ; Travel to line 105
G0 Z0.0 ; Pen down
G1 X24.946 Y59.195 F1000
G0 Z3.0 ; Pen up

G0 X24.946 Y59.324 F3000 ; Travel to line 106
G0 Z0.0 ; Pen down
G1 X22.500 Y61.384 F1000
G0 Z3.0 ; Pen up

G0 X22.500 Y61.641 F3000 ; Travel to line 107
G0 Z0.0 ; Pen down
G1 X24.946 Y59.581 F1000
G0 Z3.0 ; Pen up

G0 X24.946 Y59.710 F3000 ; Travel to line 108
G0 Z0.0 ; Pen down
G1 X22.500 Y61.770 F1000
G0 Z3.0 ; Pen up

G0 X22.500 Y61.899 F3000 ; Travel to line 109
G0 Z0.0 ; Pen down
G1 X24.946 Y59.839 F1000
G0 Z3.0 ; Pen up

G0 X24.946 Y60.096 F3000 ; Travel to line 110
G0 Z0.0 ; Pen down
G1 X22.500 Y62.156 F1000
G0 Z3.0 ; Pen up

G0 X22.500 Y62.285 F3000 ; Travel to line 111
G0 Z0.0 ; Pen down
G1 X24.946 Y60.225 F1000
G0 Z3.0 ; Pen up

G0 X24.946 Y60.483 F3000 ; Travel to line 112
G0 Z0.0 ; Pen down
G1 X22.500 Y62.543 F1000
G0 Z3.0 ; Pen up

G0 X22.500 Y62.671 F3000 ; Travel to line 113
G0 Z0.0 ; Pen down
G1 X24.946 Y60.611 F1000
G0 Z3.0 ; Pen up

G0 X24.946 Y60.740 F3000 ; Travel to line 114
G0 Z0.0 ; Pen down
G1 X22.500 Y62.800 F1000
G0 Z3.0 ; Pen up

G0 X22.500 Y63.058 F3000 ; Travel to line 115
G0 Z0.0 ; Pen down
G1 X24.946 Y60.998 F1000
G0 Z3.0 ; Pen up

G0 X24.946 Y61.126 F3000 ; Travel to line 116
G0 Z0.0 ; Pen down
G1 X22.500 Y63.186 F1000
G0 Z3.0 ; Pen up

G0 X22.500 Y63.444 F3000 ; Travel to line 117
G0 Z0.0 ; Pen down
G1 X24.946 Y61.384 F1000
G0 Z3.0 ; Pen up

G0 X24.946 Y61.513 F3000 ; Travel to line 118
G0 Z0.0 ; Pen down
G1 X22.500 Y63.573 F1000
G0 Z3.0 ; Pen up

G0 X22.500 Y63.830 F3000 ; Travel to line 119
G0 Z0.0 ; Pen down
G1 X24.946 Y61.770 F1000
G0 Z3.0 ; Pen up

G0 X24.946 Y61.899 F3000 ; Travel to line 120
G0 Z0.0 ; Pen down
G1 X22.500 Y63.959 F1000
G0 Z3.0 ; Pen up

G0 X22.500 Y64.088 F3000 ; Travel to line 121
G0 Z0.0 ; Pen down
G1 X24.946 Y62.028 F1000
G0 Z3.0 ; Pen up

G0 X24.946 Y62.285 F3000 ; Travel to line 122
G0 Z0.0 ; Pen down
G1 X22.500 Y64.345 F1000
G0 Z3.0 ; Pen up

G0 X22.500 Y64.474 F3000 ; Travel to line 123
G0 Z0.0 ; Pen down
G1 X24.946 Y62.414 F1000
G0 Z3.0 ; Pen up

G0 X24.946 Y62.671 F3000 ; Travel to line 124
G0 Z0.0 ; Pen down
G1 X22.500 Y64.731 F1000
G0 Z3.0 ; Pen up

G0 X22.500 Y64.860 F3000 ; Travel to line 125
G0 Z0.0 ; Pen down
G1 X24.946 Y62.800 F1000
G0 Z3.0 ; Pen up

G0 X24.946 Y62.929 F3000 ; Travel to line 126
G0 Z0.0 ; Pen down
G1 X22.500 Y64.989 F1000
G0 Z3.0 ; Pen up

G0 X22.500 Y65.246 F3000 ; Travel to line 127
G0 Z0.0 ; Pen down
G1 X24.946 Y63.186 F1000
G0 Z3.0 ; Pen up

G0 X24.946 Y63.315 F3000 ; Travel to line 128
G0 Z0.0 ; Pen down
G1 X22.500 Y65.375 F1000
G0 Z3.0 ; Pen up

G0 X22.500 Y65.633 F3000 ; Travel to line 129
G0 Z0.0 ; Pen down
G1 X24.946 Y63.444 F1000
G0 Z3.0 ; Pen up

G0 X24.946 Y63.573 F3000 ; Travel to line 130
G0 Z0.0 ; Pen down
G1 X22.500 Y65.761 F1000
G0 Z3.0 ; Pen up

G0 X22.500 Y66.019 F3000 ; Travel to line 131
G0 Z0.0 ; Pen down
G1 X24.946 Y63.830 F1000
G0 Z3.0 ; Pen up

G0 X24.946 Y63.959 F3000 ; Travel to line 132
G0 Z0.0 ; Pen down
G1 X22.500 Y66.148 F1000
G0 Z3.0 ; Pen up

G0 X22.500 Y66.276 F3000 ; Travel to line 133
G0 Z0.0 ; Pen down
G1 X24.946 Y64.088 F1000
G0 Z3.0 ; Pen up

G0 X24.946 Y64.345 F3000 ; Travel to line 134
G0 Z0.0 ; Pen down
G1 X22.500 Y66.534 F1000
G0 Z3.0 ; Pen up

G0 X22.500 Y66.663 F3000 ; Travel to line 135
G0 Z0.0 ; Pen down
G1 X24.946 Y64.474 F1000
G0 Z3.0 ; Pen up

G0 X24.946 Y64.731 F3000 ; Travel to line 136
G0 Z0.0 ; Pen down
G1 X22.500 Y66.791 F1000
G0 Z3.0 ; Pen up

G0 X22.500 Y66.920 F3000 ; Travel to line 137
G0 Z0.0 ; Pen down
G1 X25.075 Y64.731 F1000
G0 Z3.0 ; Pen up

G0 X25.075 Y64.860 F3000 ; Travel to line 138
G0 Z0.0 ; Pen down
G1 X22.500 Y67.049 F1000
G0 Z3.0 ; Pen up

G0 X22.500 Y67.306 F3000 ; Travel to line 139
G0 Z0.0 ; Pen down
G1 X24.946 Y65.246 F1000
G0 Z3.0 ; Pen up

G0 X24.946 Y65.375 F3000 ; Travel to line 140
G0 Z0.0 ; Pen down
G1 X22.500 Y67.435 F1000
G0 Z3.0 ; Pen up

G0 X22.500 Y67.692 F3000 ; Travel to line 141
G0 Z0.0 ; Pen down
G1 X24.946 Y65.633 F1000
G0 Z3.0 ; Pen up

G0 X24.946 Y65.761 F3000 ; Travel to line 142
G0 Z0.0 ; Pen down
G1 X22.500 Y67.821 F1000
G0 Z3.0 ; Pen up

G0 X22.500 Y67.950 F3000 ; Travel to line 143
G0 Z0.0 ; Pen down
G1 X24.946 Y65.890 F1000
G0 Z3.0 ; Pen up

G0 X24.946 Y66.148 F3000 ; Travel to line 144
G0 Z0.0 ; Pen down
G1 X22.500 Y68.207 F1000
G0 Z3.0 ; Pen up

G0 X22.500 Y68.336 F3000 ; Travel to line 145
G0 Z0.0 ; Pen down
G1 X24.946 Y66.276 F1000
G0 Z3.0 ; Pen up

G0 X24.946 Y66.534 F3000 ; Travel to line 146
G0 Z0.0 ; Pen down
G1 X22.500 Y68.594 F1000
G0 Z3.0 ; Pen up

G0 X22.500 Y68.722 F3000 ; Travel to line 147
G0 Z0.0 ; Pen down
G1 X24.946 Y66.663 F1000
G0 Z3.0 ; Pen up

G0 X24.946 Y66.920 F3000 ; Travel to line 148
G0 Z0.0 ; Pen down
G1 X22.500 Y68.980 F1000
G0 Z3.0 ; Pen up

G0 X22.500 Y69.109 F3000 ; Travel to line 149
G0 Z0.0 ; Pen down
G1 X24.946 Y67.049 F1000
G0 Z3.0 ; Pen up

G0 X24.946 Y67.177 F3000 ; Travel to line 150
G0 Z0.0 ; Pen down
G1 X22.500 Y69.237 F1000
G0 Z3.0 ; Pen up

G0 X22.500 Y69.495 F3000 ; Travel to line 151
G0 Z0.0 ; Pen down
G1 X24.946 Y67.435 F1000
G0 Z3.0 ; Pen up

G0 X24.946 Y67.564 F3000 ; Travel to line 152
G0 Z0.0 ; Pen down
G1 X22.500 Y69.624 F1000
G0 Z3.0 ; Pen up

G0 X22.500 Y69.881 F3000 ; Travel to line 153
G0 Z0.0 ; Pen down
G1 X24.946 Y67.821 F1000
G0 Z3.0 ; Pen up

G0 X24.946 Y67.950 F3000 ; Travel to line 154
G0 Z0.0 ; Pen down
G1 X22.500 Y70.010 F1000
G0 Z3.0 ; Pen up

G0 X22.500 Y70.139 F3000 ; Travel to line 155
G0 Z0.0 ; Pen down
G1 X24.946 Y68.079 F1000
G0 Z3.0 ; Pen up

G0 X24.946 Y68.336 F3000 ; Travel to line 156
G0 Z0.0 ; Pen down
G1 X22.500 Y70.396 F1000
G0 Z3.0 ; Pen up

G0 X22.500 Y70.525 F3000 ; Travel to line 157
G0 Z0.0 ; Pen down
G1 X24.946 Y68.465 F1000
G0 Z3.0 ; Pen up

G0 X24.946 Y68.980 F3000 ; Travel to line 158
G0 Z0.0 ; Pen down
G1 X22.500 Y71.169 F1000
G0 Z3.0 ; Pen up

G0 X22.500 Y71.297 F3000 ; Travel to line 159
G0 Z0.0 ; Pen down
G1 X24.946 Y69.109 F1000
G0 Z3.0 ; Pen up

G0 X24.946 Y69.237 F3000 ; Travel to line 160
G0 Z0.0 ; Pen down
G1 X22.500 Y71.426 F1000
G0 Z3.0 ; Pen up

G0 X22.500 Y71.684 F3000 ; Travel to line 161
G0 Z0.0 ; Pen down
G1 X24.946 Y69.495 F1000
G0 Z3.0 ; Pen up

G0 X24.946 Y69.624 F3000 ; Travel to line 162
G0 Z0.0 ; Pen down
G1 X22.500 Y71.812 F1000
G0 Z3.0 ; Pen up

G0 X22.500 Y72.070 F3000 ; Travel to line 163
G0 Z0.0 ; Pen down
G1 X24.946 Y69.881 F1000
G0 Z3.0 ; Pen up

G0 X24.946 Y70.010 F3000 ; Travel to line 164
G0 Z0.0 ; Pen down
G1 X22.500 Y72.199 F1000
G0 Z3.0 ; Pen up

G0 X22.500 Y72.328 F3000 ; Travel to line 165
G0 Z0.0 ; Pen down
G1 X24.946 Y70.139 F1000
G0 Z3.0 ; Pen up

G0 X24.946 Y70.396 F3000 ; Travel to line 166
G0 Z0.0 ; Pen down
G1 X22.500 Y72.585 F1000
G0 Z3.0 ; Pen up

G0 X22.500 Y72.714 F3000 ; Travel to line 167
G0 Z0.0 ; Pen down
G1 X24.946 Y70.525 F1000
G0 Z3.0 ; Pen up

G0 X24.946 Y70.782 F3000 ; Travel to line 168
G0 Z0.0 ; Pen down
G1 X22.500 Y72.971 F1000
G0 Z3.0 ; Pen up

G0 X22.500 Y73.100 F3000 ; Travel to line 169
G0 Z0.0 ; Pen down
G1 X24.946 Y70.911 F1000
G0 Z3.0 ; Pen up

G0 X24.946 Y71.040 F3000 ; Travel to line 170
G0 Z0.0 ; Pen down
G1 X22.500 Y73.229 F1000
G0 Z3.0 ; Pen up

G0 X22.500 Y73.358 F3000 ; Travel to line 171
G0 Z0.0 ; Pen down
G1 X24.946 Y71.297 F1000
G0 Z3.0 ; Pen up

G0 X24.946 Y71.426 F3000 ; Travel to line 172
G0 Z0.0 ; Pen down
G1 X22.500 Y73.486 F1000
G0 Z3.0 ; Pen up

G0 X22.500 Y73.744 F3000 ; Travel to line 173
G0 Z0.0 ; Pen down
G1 X24.946 Y71.684 F1000
G0 Z3.0 ; Pen up

G0 X24.946 Y71.812 F3000 ; Travel to line 174
G0 Z0.0 ; Pen down
G1 X22.500 Y73.873 F1000
G0 Z3.0 ; Pen up

G0 X22.500 Y74.130 F3000 ; Travel to line 175
G0 Z0.0 ; Pen down
G1 X24.946 Y72.070 F1000
G0 Z3.0 ; Pen up

G0 X24.946 Y72.199 F3000 ; Travel to line 176
G0 Z0.0 ; Pen down
G1 X22.500 Y74.259 F1000
G0 Z3.0 ; Pen up

G0 X22.500 Y74.388 F3000 ; Travel to line 177
G0 Z0.0 ; Pen down
G1 X24.946 Y72.328 F1000
G0 Z3.0 ; Pen up

G0 X24.946 Y72.585 F3000 ; Travel to line 178
G0 Z0.0 ; Pen down
G1 X22.500 Y74.645 F1000
G0 Z3.0 ; Pen up

G0 X22.500 Y74.774 F3000 ; Travel to line 179
G0 Z0.0 ; Pen down
G1 X24.946 Y72.714 F1000
G0 Z3.0 ; Pen up

G0 X24.946 Y72.971 F3000 ; Travel to line 180
G0 Z0.0 ; Pen down
G1 X22.500 Y75.031 F1000
G0 Z3.0 ; Pen up

G0 X22.500 Y75.160 F3000 ; Travel to line 181
G0 Z0.0 ; Pen down
G1 X24.946 Y73.100 F1000
G0 Z3.0 ; Pen up

G0 X24.946 Y73.229 F3000 ; Travel to line 182
G0 Z0.0 ; Pen down
G1 X22.500 Y75.289 F1000
G0 Z3.0 ; Pen up

G0 X22.500 Y75.546 F3000 ; Travel to line 183
G0 Z0.0 ; Pen down
G1 X24.946 Y73.486 F1000
G0 Z3.0 ; Pen up

G0 X24.946 Y73.615 F3000 ; Travel to line 184
G0 Z0.0 ; Pen down
G1 X22.500 Y75.675 F1000
G0 Z3.0 ; Pen up

G0 X22.500 Y75.933 F3000 ; Travel to line 185
G0 Z0.0 ; Pen down
G1 X24.946 Y73.873 F1000
G0 Z3.0 ; Pen up

G0 X24.946 Y74.001 F3000 ; Travel to line 186
G0 Z0.0 ; Pen down
G1 X22.500 Y76.061 F1000
G0 Z3.0 ; Pen up

G0 X22.500 Y76.319 F3000 ; Travel to line 187
G0 Z0.0 ; Pen down
G1 X24.946 Y74.259 F1000
G0 Z3.0 ; Pen up

G0 X24.946 Y74.388 F3000 ; Travel to line 188
G0 Z0.0 ; Pen down
G1 X22.500 Y76.448 F1000
G0 Z3.0 ; Pen up

G0 X22.500 Y76.576 F3000 ; Travel to line 189
G0 Z0.0 ; Pen down
G1 X24.946 Y74.516 F1000
G0 Z3.0 ; Pen up

G0 X24.946 Y74.645 F3000 ; Travel to line 190
G0 Z0.0 ; Pen down
G1 X22.500 Y76.834 F1000
G0 Z3.0 ; Pen up

G0 X22.500 Y76.963 F3000 ; Travel to line 191
G0 Z0.0 ; Pen down
G1 X24.946 Y74.774 F1000
G0 Z3.0 ; Pen up

G0 X24.946 Y75.031 F3000 ; Travel to line 192
G0 Z0.0 ; Pen down
G1 X22.500 Y77.220 F1000
G0 Z3.0 ; Pen up

G0 X22.500 Y77.349 F3000 ; Travel to line 193
G0 Z0.0 ; Pen down
G1 X24.946 Y75.160 F1000
G0 Z3.0 ; Pen up

G0 X24.946 Y75.289 F3000 ; Travel to line 194
G0 Z0.0 ; Pen down
G1 X22.500 Y77.478 F1000
G0 Z3.0 ; Pen up

G0 X22.500 Y77.735 F3000 ; Travel to line 195
G0 Z0.0 ; Pen down
G1 X24.946 Y75.546 F1000
G0 Z3.0 ; Pen up

G0 X24.946 Y75.675 F3000 ; Travel to line 196
G0 Z0.0 ; Pen down
G1 X22.500 Y77.864 F1000
G0 Z3.0 ; Pen up

G0 X22.500 Y78.121 F3000 ; Travel to line 197
G0 Z0.0 ; Pen down
G1 X24.946 Y75.933 F1000
G0 Z3.0 ; Pen up

G0 X24.946 Y76.061 F3000 ; Travel to line 198
G0 Z0.0 ; Pen down
G1 X22.500 Y78.250 F1000
G0 Z3.0 ; Pen up

G0 X22.500 Y78.379 F3000 ; Travel to line 199
G0 Z0.0 ; Pen down
G1 X24.946 Y76.190 F1000
G0 Z3.0 ; Pen up

G0 X24.946 Y76.448 F3000 ; Travel to line 200
G0 Z0.0 ; Pen down
G1 X22.500 Y78.636 F1000
G0 Z3.0 ; Pen up

G0 X22.500 Y78.765 F3000 ; Travel to line 201
G0 Z0.0 ; Pen down
G1 X24.946 Y76.576 F1000
G0 Z3.0 ; Pen up

G0 X24.946 Y76.834 F3000 ; Travel to line 202
G0 Z0.0 ; Pen down
G1 X22.500 Y79.023 F1000
G0 Z3.0 ; Pen up

G0 X22.500 Y79.151 F3000 ; Travel to line 203
G0 Z0.0 ; Pen down
G1 X24.946 Y76.963 F1000
G0 Z3.0 ; Pen up

G0 X24.946 Y77.220 F3000 ; Travel to line 204
G0 Z0.0 ; Pen down
G1 X22.500 Y79.409 F1000
G0 Z3.0 ; Pen up

G0 X22.500 Y79.538 F3000 ; Travel to line 205
G0 Z0.0 ; Pen down
G1 X24.946 Y77.349 F1000
G0 Z3.0 ; Pen up

G0 X24.946 Y77.478 F3000 ; Travel to line 206
G0 Z0.0 ; Pen down
G1 X22.500 Y79.666 F1000
G0 Z3.0 ; Pen up

G0 X22.500 Y79.924 F3000 ; Travel to line 207
G0 Z0.0 ; Pen down
G1 X24.946 Y77.735 F1000
G0 Z3.0 ; Pen up

G0 X24.946 Y77.864 F3000 ; Travel to line 208
G0 Z0.0 ; Pen down
G1 X22.500 Y80.053 F1000
G0 Z3.0 ; Pen up

G0 X22.500 Y80.310 F3000 ; Travel to line 209
G0 Z0.0 ; Pen down
G1 X24.946 Y78.121 F1000
G0 Z3.0 ; Pen up

G0 X24.946 Y78.250 F3000 ; Travel to line 210
G0 Z0.0 ; Pen down
G1 X22.500 Y80.439 F1000
G0 Z3.0 ; Pen up

G0 X22.500 Y80.567 F3000 ; Travel to line 211
G0 Z0.0 ; Pen down
G1 X24.946 Y78.379 F1000
G0 Z3.0 ; Pen up

G0 X24.946 Y78.636 F3000 ; Travel to line 212
G0 Z0.0 ; Pen down
G1 X22.500 Y80.825 F1000
G0 Z3.0 ; Pen up

G0 X22.500 Y80.954 F3000 ; Travel to line 213
G0 Z0.0 ; Pen down
G1 X24.946 Y78.765 F1000
G0 Z3.0 ; Pen up

G0 X24.946 Y79.023 F3000 ; Travel to line 214
G0 Z0.0 ; Pen down
G1 X22.500 Y81.082 F1000
G0 Z3.0 ; Pen up

G0 X22.500 Y81.211 F3000 ; Travel to line 215
G0 Z0.0 ; Pen down
G1 X24.946 Y79.151 F1000
G0 Z3.0 ; Pen up

G0 X24.946 Y79.409 F3000 ; Travel to line 216
G0 Z0.0 ; Pen down
G1 X22.500 Y81.469 F1000
G0 Z3.0 ; Pen up

G0 X22.500 Y81.597 F3000 ; Travel to line 217
G0 Z0.0 ; Pen down
G1 X24.946 Y79.538 F1000
G0 Z3.0 ; Pen up

G0 X24.946 Y79.666 F3000 ; Travel to line 218
G0 Z0.0 ; Pen down
G1 X22.500 Y81.726 F1000
G0 Z3.0 ; Pen up

G0 X22.500 Y81.984 F3000 ; Travel to line 219
G0 Z0.0 ; Pen down
G1 X24.946 Y79.924 F1000
G0 Z3.0 ; Pen up

G0 X24.946 Y80.053 F3000 ; Travel to line 220
G0 Z0.0 ; Pen down
G1 X22.500 Y82.112 F1000
G0 Z3.0 ; Pen up

G0 X22.500 Y82.370 F3000 ; Travel to line 221
G0 Z0.0 ; Pen down
G1 X24.946 Y80.310 F1000
G0 Z3.0 ; Pen up

G0 X24.946 Y80.439 F3000 ; Travel to line 222
G0 Z0.0 ; Pen down
G1 X22.500 Y82.499 F1000
G0 Z3.0 ; Pen up

G0 X22.500 Y82.627 F3000 ; Travel to line 223
G0 Z0.0 ; Pen down
G1 X24.946 Y80.567 F1000
G0 Z3.0 ; Pen up

G0 X24.946 Y80.825 F3000 ; Travel to line 224
G0 Z0.0 ; Pen down
G1 X22.500 Y82.885 F1000
G0 Z3.0 ; Pen up

G0 X22.500 Y83.014 F3000 ; Travel to line 225
G0 Z0.0 ; Pen down
G1 X24.946 Y80.954 F1000
G0 Z3.0 ; Pen up

G0 X24.946 Y81.211 F3000 ; Travel to line 226
G0 Z0.0 ; Pen down
G1 X22.500 Y83.271 F1000
G0 Z3.0 ; Pen up

G0 X22.500 Y83.400 F3000 ; Travel to line 227
G0 Z0.0 ; Pen down
G1 X24.946 Y81.340 F1000
G0 Z3.0 ; Pen up

G0 X24.946 Y81.469 F3000 ; Travel to line 228
G0 Z0.0 ; Pen down
G1 X22.500 Y83.657 F1000
G0 Z3.0 ; Pen up

G0 X22.500 Y83.786 F3000 ; Travel to line 229
G0 Z0.0 ; Pen down
G1 X24.946 Y81.597 F1000
G0 Z3.0 ; Pen up

G0 X24.946 Y81.726 F3000 ; Travel to line 230
G0 Z0.0 ; Pen down
G1 X22.500 Y83.915 F1000
G0 Z3.0 ; Pen up

G0 X22.500 Y84.172 F3000 ; Travel to line 231
G0 Z0.0 ; Pen down
G1 X24.946 Y81.984 F1000
G0 Z3.0 ; Pen up

G0 X24.946 Y82.112 F3000 ; Travel to line 232
G0 Z0.0 ; Pen down
G1 X22.500 Y84.301 F1000
G0 Z3.0 ; Pen up

G0 X22.500 Y84.559 F3000 ; Travel to line 233
G0 Z0.0 ; Pen down
G1 X24.946 Y82.370 F1000
G0 Z3.0 ; Pen up

G0 X24.946 Y82.499 F3000 ; Travel to line 234
G0 Z0.0 ; Pen down
G1 X22.500 Y84.688 F1000
G0 Z3.0 ; Pen up

G0 X22.500 Y84.816 F3000 ; Travel to line 235
G0 Z0.0 ; Pen down
G1 X24.946 Y82.627 F1000
G0 Z3.0 ; Pen up

G0 X24.946 Y82.885 F3000 ; Travel to line 236
G0 Z0.0 ; Pen down
G1 X22.500 Y85.074 F1000
G0 Z3.0 ; Pen up

G0 X22.500 Y85.203 F3000 ; Travel to line 237
G0 Z0.0 ; Pen down
G1 X24.946 Y83.014 F1000
G0 Z3.0 ; Pen up

G0 X24.946 Y83.271 F3000 ; Travel to line 238
G0 Z0.0 ; Pen down
G1 X22.500 Y85.460 F1000
G0 Z3.0 ; Pen up

G0 X22.500 Y85.589 F3000 ; Travel to line 239
G0 Z0.0 ; Pen down
G1 X24.946 Y83.400 F1000
G0 Z3.0 ; Pen up

G0 X24.946 Y83.529 F3000 ; Travel to line 240
G0 Z0.0 ; Pen down
G1 X22.500 Y85.718 F1000
G0 Z3.0 ; Pen up

G0 X22.500 Y85.975 F3000 ; Travel to line 241
G0 Z0.0 ; Pen down
G1 X24.946 Y83.786 F1000
G0 Z3.0 ; Pen up

G0 X24.946 Y83.915 F3000 ; Travel to line 242
G0 Z0.0 ; Pen down
G1 X22.500 Y86.104 F1000
G0 Z3.0 ; Pen up

G0 X22.500 Y86.361 F3000 ; Travel to line 243
G0 Z0.0 ; Pen down
G1 X24.946 Y84.172 F1000
G0 Z3.0 ; Pen up

G0 X24.946 Y84.301 F3000 ; Travel to line 244
G0 Z0.0 ; Pen down
G1 X22.500 Y86.490 F1000
G0 Z3.0 ; Pen up

G0 X22.500 Y86.748 F3000 ; Travel to line 245
G0 Z0.0 ; Pen down
G1 X24.946 Y84.559 F1000
G0 Z3.0 ; Pen up

G0 X24.946 Y84.688 F3000 ; Travel to line 246
G0 Z0.0 ; Pen down
G1 X22.500 Y86.876 F1000
G0 Z3.0 ; Pen up

G0 X22.500 Y87.005 F3000 ; Travel to line 247
G0 Z0.0 ; Pen down
G1 X24.946 Y84.816 F1000
G0 Z3.0 ; Pen up

G0 X24.946 Y85.074 F3000 ; Travel to line 248
G0 Z0.0 ; Pen down
G1 X22.500 Y87.263 F1000
G0 Z3.0 ; Pen up

G0 X22.500 Y87.391 F3000 ; Travel to line 249
G0 Z0.0 ; Pen down
G1 X24.946 Y85.203 F1000
G0 Z3.0 ; Pen up

G0 X24.946 Y85.460 F3000 ; Travel to line 250
G0 Z0.0 ; Pen down
G1 X22.500 Y87.649 F1000
G0 Z3.0 ; Pen up

G0 X22.500 Y87.778 F3000 ; Travel to line 251
G0 Z0.0 ; Pen down
G1 X24.946 Y85.589 F1000
G0 Z3.0 ; Pen up

G0 X24.946 Y85.718 F3000 ; Travel to line 252
G0 Z0.0 ; Pen down
G1 X22.500 Y87.906 F1000
G0 Z3.0 ; Pen up

G0 X22.500 Y88.164 F3000 ; Travel to line 253
G0 Z0.0 ; Pen down
G1 X24.946 Y85.975 F1000
G0 Z3.0 ; Pen up

G0 X24.946 Y86.104 F3000 ; Travel to line 254
G0 Z0.0 ; Pen down
G1 X22.500 Y88.293 F1000
G0 Z3.0 ; Pen up

G0 X22.500 Y88.550 F3000 ; Travel to line 255
G0 Z0.0 ; Pen down
G1 X24.946 Y86.361 F1000
G0 Z3.0 ; Pen up

G0 X24.946 Y86.490 F3000 ; Travel to line 256
G0 Z0.0 ; Pen down
G1 X22.500 Y88.679 F1000
G0 Z3.0 ; Pen up

G0 X22.500 Y88.936 F3000 ; Travel to line 257
G0 Z0.0 ; Pen down
G1 X24.946 Y86.748 F1000
G0 Z3.0 ; Pen up

G0 X24.946 Y86.876 F3000 ; Travel to line 258
G0 Z0.0 ; Pen down
G1 X22.500 Y89.065 F1000
G0 Z3.0 ; Pen up

G0 X22.500 Y89.194 F3000 ; Travel to line 259
G0 Z0.0 ; Pen down
G1 X24.946 Y87.005 F1000
G0 Z3.0 ; Pen up

G0 X24.946 Y87.263 F3000 ; Travel to line 260
G0 Z0.0 ; Pen down
G1 X22.500 Y89.451 F1000
G0 Z3.0 ; Pen up

G0 X22.500 Y89.580 F3000 ; Travel to line 261
G0 Z0.0 ; Pen down
G1 X24.946 Y87.391 F1000
G0 Z3.0 ; Pen up

G0 X24.946 Y87.649 F3000 ; Travel to line 262
G0 Z0.0 ; Pen down
G1 X22.500 Y89.838 F1000
G1 X22.500 Y89.838 F1000
G1 X24.946 Y87.778 F1000
G0 Z3.0 ; Pen up

G0 X24.946 Y87.906 F3000 ; Travel to line 263
G0 Z0.0 ; Pen down
G1 X22.500 Y89.966 F1000
G0 Z3.0 ; Pen up

G0 X22.500 Y90.224 F3000 ; Travel to line 264
G0 Z0.0 ; Pen down
G1 X24.946 Y88.164 F1000
G0 Z3.0 ; Pen up

G0 X24.946 Y88.293 F3000 ; Travel to line 265
G0 Z0.0 ; Pen down
G1 X22.500 Y90.353 F1000
G0 Z3.0 ; Pen up

G0 X22.500 Y90.610 F3000 ; Travel to line 266
G0 Z0.0 ; Pen down
G1 X24.946 Y88.550 F1000
G0 Z3.0 ; Pen up

G0 X25.075 Y88.550 F3000 ; Travel to line 267
G0 Z0.0 ; Pen down
G1 X22.500 Y90.739 F1000
G0 Z3.0 ; Pen up

G0 X22.500 Y90.868 F3000 ; Travel to line 268
G0 Z0.0 ; Pen down
G1 X25.075 Y88.679 F1000
G0 Z3.0 ; Pen up

G0 X25.332 Y88.679 F3000 ; Travel to line 269
G0 Z0.0 ; Pen down
G1 X22.500 Y91.125 F1000
G0 Z3.0 ; Pen up

G0 X22.629 Y91.125 F3000 ; Travel to line 270
G0 Z0.0 ; Pen down
G1 X25.461 Y88.679 F1000
G0 Z3.0 ; Pen up

G0 X25.719 Y88.679 F3000 ; Travel to line 271
G0 Z0.0 ; Pen down
G1 X23.015 Y91.125 F1000
G0 Z3.0 ; Pen up

G0 X23.144 Y91.125 F3000 ; Travel to line 272
G0 Z0.0 ; Pen down
G1 X25.848 Y88.679 F1000
G0 Z3.0 ; Pen up

G0 X26.234 Y88.679 F3000 ; Travel to line 273
G0 Z0.0 ; Pen down
G1 X23.401 Y91.125 F1000
G0 Z3.0 ; Pen up

G0 X23.530 Y91.125 F3000 ; Travel to line 274
G0 Z0.0 ; Pen down
G1 X26.363 Y88.679 F1000
G0 Z3.0 ; Pen up

G0 X26.491 Y88.679 F3000 ; Travel to line 275
G0 Z0.0 ; Pen down
G1 X23.659 Y91.125 F1000
G0 Z3.0 ; Pen up

G0 X23.916 Y91.125 F3000 ; Travel to line 276
G0 Z0.0 ; Pen down
G1 X26.749 Y88.679 F1000
G0 Z3.0 ; Pen up

G0 X27.006 Y88.679 F3000 ; Travel to line 277
G0 Z0.0 ; Pen down
G1 X24.303 Y91.125 F1000
G1 X24.303 Y91.125 F1000
G1 X27.135 Y88.679 F1000
G0 Z3.0 ; Pen up

G0 X27.393 Y88.679 F3000 ; Travel to line 278
G0 Z0.0 ; Pen down
G1 X24.560 Y91.125 F1000
G1 X24.560 Y91.125 F1000
G1 X27.521 Y88.679 F1000
G0 Z3.0 ; Pen up

G0 X27.779 Y88.679 F3000 ; Travel to line 279
G0 Z0.0 ; Pen down
G1 X24.946 Y91.125 F1000
G1 X24.946 Y91.125 F1000
G1 X27.907 Y88.679 F1000
G0 Z3.0 ; Pen up

G0 X28.036 Y88.679 F3000 ; Travel to line 280
G0 Z0.0 ; Pen down
G1 X25.075 Y91.125 F1000
G1 X25.075 Y91.125 F1000
G1 X28.036 Y88.679 F1000
G1 X28.036 Y88.679 F1000
G1 X25.075 Y91.125 F1000
G1 X25.075 Y91.125 F1000
G1 X28.036 Y88.679 F1000
G1 X28.036 Y88.679 F1000
G1 X25.075 Y91.125 F1000
G0 Z3.0 ; Pen up

G0 X24.946 Y91.125 F3000 ; Travel to line 281
G0 Z0.0 ; Pen down
G1 X27.907 Y88.679 F1000
G1 X27.907 Y88.679 F1000
G1 X24.946 Y91.125 F1000
G1 X24.946 Y91.125 F1000
G1 X27.907 Y88.679 F1000
G1 X27.907 Y88.679 F1000
G1 X24.946 Y91.125 F1000
G0 Z3.0 ; Pen up

G0 X24.818 Y91.125 F3000 ; Travel to line 282
G0 Z0.0 ; Pen down
G1 X27.779 Y88.679 F1000
G1 X27.779 Y88.679 F1000
G1 X24.818 Y91.125 F1000
G1 X24.818 Y91.125 F1000
G1 X27.779 Y88.679 F1000
G1 X27.779 Y88.679 F1000
G1 X24.818 Y91.125 F1000
G1 X24.818 Y91.125 F1000
G1 X27.650 Y88.679 F1000
G1 X27.650 Y88.679 F1000
G1 X24.818 Y91.125 F1000
G0 Z3.0 ; Pen up

G0 X24.689 Y91.125 F3000 ; Travel to line 283
G0 Z0.0 ; Pen down
G1 X27.650 Y88.679 F1000
G1 X27.650 Y88.679 F1000
G1 X24.689 Y91.125 F1000
G1 X24.689 Y91.125 F1000
G1 X27.521 Y88.679 F1000
G1 X27.521 Y88.679 F1000
G1 X24.689 Y91.125 F1000
G1 X24.689 Y91.125 F1000
G1 X27.521 Y88.679 F1000
G1 X27.521 Y88.679 F1000
G1 X24.560 Y91.125 F1000
G1 X24.560 Y91.125 F1000
G1 X27.393 Y88.679 F1000
G1 X27.393 Y88.679 F1000
G1 X24.560 Y91.125 F1000
G1 X24.560 Y91.125 F1000
G1 X27.393 Y88.679 F1000
G1 X27.393 Y88.679 F1000
G1 X24.431 Y91.125 F1000
G1 X24.431 Y91.125 F1000
G1 X27.264 Y88.679 F1000
G1 X27.264 Y88.679 F1000
G1 X24.431 Y91.125 F1000
G1 X24.431 Y91.125 F1000
G1 X27.264 Y88.679 F1000
G1 X27.264 Y88.679 F1000
G1 X24.431 Y91.125 F1000
G1 X24.431 Y91.125 F1000
G1 X27.135 Y88.679 F1000
G1 X27.135 Y88.679 F1000
G1 X24.303 Y91.125 F1000
G1 X24.303 Y91.125 F1000
G1 X27.135 Y88.679 F1000
G1 X27.135 Y88.679 F1000
G1 X24.303 Y91.125 F1000
G0 Z3.0 ; Pen up

G0 X24.174 Y91.125 F3000 ; Travel to line 284
G0 Z0.0 ; Pen down
G1 X27.006 Y88.679 F1000
G1 X27.006 Y88.679 F1000
G1 X24.174 Y91.125 F1000
G1 X24.174 Y91.125 F1000
G1 X27.006 Y88.679 F1000
G1 X27.006 Y88.679 F1000
G1 X24.174 Y91.125 F1000
G1 X24.174 Y91.125 F1000
G1 X26.878 Y88.679 F1000
G1 X26.878 Y88.679 F1000
G1 X24.174 Y91.125 F1000
G0 Z3.0 ; Pen up

G0 X25.461 Y91.125 F3000 ; Travel to line 285
G0 Z0.0 ; Pen down
G1 X28.551 Y88.679 F1000
G1 X28.551 Y88.679 F1000
G1 X25.461 Y91.125 F1000
G1 X25.461 Y91.125 F1000
G1 X28.422 Y88.679 F1000
G1 X28.422 Y88.679 F1000
G1 X25.332 Y91.125 F1000
G1 X25.332 Y91.125 F1000
G1 X28.422 Y88.679 F1000
G1 X28.422 Y88.679 F1000
G1 X25.332 Y91.125 F1000
G1 X25.332 Y91.125 F1000
G1 X28.294 Y88.679 F1000
G1 X28.294 Y88.679 F1000
G1 X25.332 Y91.125 F1000
G1 X25.332 Y91.125 F1000
G1 X28.294 Y88.679 F1000
G1 X28.294 Y88.679 F1000
G1 X25.204 Y91.125 F1000
G1 X25.204 Y91.125 F1000
G1 X28.165 Y88.679 F1000
G1 X28.165 Y88.679 F1000
G1 X25.204 Y91.125 F1000
G1 X25.204 Y91.125 F1000
G1 X28.165 Y88.679 F1000
G1 X28.165 Y88.679 F1000
G1 X25.204 Y91.125 F1000
G1 X25.204 Y91.125 F1000
G1 X28.294 Y88.679 F1000
G0 Z3.0 ; Pen up

G0 X28.422 Y88.679 F3000 ; Travel to line 286
G0 Z0.0 ; Pen down
G1 X25.461 Y91.125 F1000
G1 X25.461 Y91.125 F1000
G1 X28.551 Y88.679 F1000
G0 Z3.0 ; Pen up

G0 X28.680 Y88.679 F3000 ; Travel to line 287
G0 Z0.0 ; Pen down
G1 X25.719 Y91.125 F1000
G1 X25.719 Y91.125 F1000
G1 X28.809 Y88.679 F1000
G0 Z3.0 ; Pen up

G0 X28.938 Y88.679 F3000 ; Travel to line 288
G0 Z0.0 ; Pen down
G1 X25.848 Y91.125 F1000
G0 Z3.0 ; Pen up

G0 X25.976 Y91.125 F3000 ; Travel to line 289
G0 Z0.0 ; Pen down
G1 X29.066 Y88.679 F1000
G0 Z3.0 ; Pen up

G0 X29.195 Y88.679 F3000 ; Travel to line 290
G0 Z0.0 ; Pen down
G1 X26.105 Y91.125 F1000
G0 Z3.0 ; Pen up

G0 X26.234 Y91.125 F3000 ; Travel to line 291
G0 Z0.0 ; Pen down
G1 X29.324 Y88.679 F1000
G0 Z3.0 ; Pen up

G0 X29.453 Y88.679 F3000 ; Travel to line 292
G0 Z0.0 ; Pen down
G1 X26.363 Y91.125 F1000
G0 Z3.0 ; Pen up

G0 X26.620 Y91.125 F3000 ; Travel to line 293
G0 Z0.0 ; Pen down
G1 X29.710 Y88.679 F1000
G0 Z3.0 ; Pen up

G0 X29.839 Y88.679 F3000 ; Travel to line 294
G0 Z0.0 ; Pen down
G1 X26.749 Y91.125 F1000
G0 Z3.0 ; Pen up

G0 X27.264 Y91.125 F3000 ; Travel to line 295
G0 Z0.0 ; Pen down
G1 X30.354 Y88.679 F1000
G0 Z3.0 ; Pen up

G0 X30.483 Y88.679 F3000 ; Travel to line 296
G0 Z0.0 ; Pen down
G1 X27.393 Y91.125 F1000
G0 Z3.0 ; Pen up

G0 X27.521 Y91.125 F3000 ; Travel to line 297
G0 Z0.0 ; Pen down
G1 X30.611 Y88.679 F1000
G0 Z3.0 ; Pen up

G0 X30.740 Y88.679 F3000 ; Travel to line 298
G0 Z0.0 ; Pen down
G1 X27.779 Y91.125 F1000
G0 Z3.0 ; Pen up

G0 X27.907 Y91.125 F3000 ; Travel to line 299
G0 Z0.0 ; Pen down
G1 X30.869 Y88.679 F1000
G0 Z3.0 ; Pen up

G0 X31.126 Y88.679 F3000 ; Travel to line 300
G0 Z0.0 ; Pen down
G1 X28.036 Y91.125 F1000
G0 Z3.0 ; Pen up

G0 X28.165 Y91.125 F3000 ; Travel to line 301
G0 Z0.0 ; Pen down
G1 X31.255 Y88.679 F1000
G1 X31.255 Y88.679 F1000
G1 X28.294 Y91.125 F1000
G0 Z3.0 ; Pen up

G0 X28.551 Y91.125 F3000 ; Travel to line 302
G0 Z0.0 ; Pen down
G1 X31.512 Y88.679 F1000
G0 Z3.0 ; Pen up

G0 X31.641 Y88.679 F3000 ; Travel to line 303
G0 Z0.0 ; Pen down
G1 X28.680 Y91.125 F1000
G0 Z3.0 ; Pen up

G0 X28.809 Y91.125 F3000 ; Travel to line 304
G0 Z0.0 ; Pen down
G1 X31.899 Y88.679 F1000
G0 Z3.0 ; Pen up

G0 X32.285 Y88.679 F3000 ; Travel to line 305
G0 Z0.0 ; Pen down
G1 X29.324 Y91.125 F1000
G0 Z3.0 ; Pen up

G0 X29.453 Y91.125 F3000 ; Travel to line 306
G0 Z0.0 ; Pen down
G1 X32.414 Y88.679 F1000
G0 Z3.0 ; Pen up

G0 X32.671 Y88.679 F3000 ; Travel to line 307
G0 Z0.0 ; Pen down
G1 X29.710 Y91.125 F1000
G1 X29.710 Y91.125 F1000
G1 X32.800 Y88.679 F1000
G0 Z3.0 ; Pen up

G0 X32.929 Y88.679 F3000 ; Travel to line 308
G0 Z0.0 ; Pen down
G1 X29.968 Y91.125 F1000
G0 Z3.0 ; Pen up

G0 X30.096 Y91.125 F3000 ; Travel to line 309
G0 Z0.0 ; Pen down
G1 X33.058 Y88.679 F1000
G0 Z3.0 ; Pen up

G0 X33.186 Y88.679 F3000 ; Travel to line 310
G0 Z0.0 ; Pen down
G1 X30.225 Y91.125 F1000
G0 Z3.0 ; Pen up

G0 X30.483 Y91.125 F3000 ; Travel to line 311
G0 Z0.0 ; Pen down
G1 X33.444 Y88.679 F1000
G1 X33.444 Y88.679 F1000
G1 X30.611 Y91.125 F1000
G0 Z3.0 ; Pen up

G0 X30.740 Y91.125 F3000 ; Travel to line 312
G0 Z0.0 ; Pen down
G1 X33.701 Y88.679 F1000
G0 Z3.0 ; Pen up

G0 X33.830 Y88.679 F3000 ; Travel to line 313
G0 Z0.0 ; Pen down
G1 X30.869 Y91.125 F1000
G0 Z3.0 ; Pen up

G0 X30.998 Y91.125 F3000 ; Travel to line 314
G0 Z0.0 ; Pen down
G1 X33.959 Y88.679 F1000
G0 Z3.0 ; Pen up

G0 X34.474 Y88.679 F3000 ; Travel to line 315
G0 Z0.0 ; Pen down
G1 X31.512 Y91.125 F1000
G0 Z3.0 ; Pen up

G0 X31.641 Y91.125 F3000 ; Travel to line 316
G0 Z0.0 ; Pen down
G1 X34.602 Y88.679 F1000
G0 Z3.0 ; Pen up

G0 X34.860 Y88.679 F3000 ; Travel to line 317
G0 Z0.0 ; Pen down
G1 X31.899 Y91.125 F1000
G0 Z3.0 ; Pen up

G0 X32.028 Y91.125 F3000 ; Travel to line 318
G0 Z0.0 ; Pen down
G1 X34.989 Y88.679 F1000
G1 X34.989 Y88.679 F1000
G1 X32.156 Y91.125 F1000
G0 Z3.0 ; Pen up

G0 X32.671 Y91.125 F3000 ; Travel to line 319
G0 Z0.0 ; Pen down
G1 X35.633 Y88.679 F1000
G1 X35.633 Y88.679 F1000
G1 X32.800 Y91.125 F1000
G0 Z3.0 ; Pen up

G0 X32.929 Y91.125 F3000 ; Travel to line 320
G0 Z0.0 ; Pen down
G1 X35.761 Y88.679 F1000
G0 Z3.0 ; Pen up

G0 X36.019 Y88.679 F3000 ; Travel to line 321
G0 Z0.0 ; Pen down
G1 X33.186 Y91.125 F1000
G0 Z3.0 ; Pen up

G0 X33.315 Y91.125 F3000 ; Travel to line 322
G0 Z0.0 ; Pen down
G1 X36.148 Y88.679 F1000
G0 Z3.0 ; Pen up

G0 X36.534 Y88.679 F3000 ; Travel to line 323
G0 Z0.0 ; Pen down
G1 X33.701 Y91.125 F1000
G0 Z3.0 ; Pen up

G0 X33.573 Y91.125 F3000 ; Travel to line 324
G0 Z0.0 ; Pen down
G1 X36.405 Y88.679 F1000
G1 X36.405 Y88.679 F1000
G1 X33.444 Y91.125 F1000
G0 Z3.0 ; Pen up

G0 X33.959 Y91.125 F3000 ; Travel to line 325
G0 Z0.0 ; Pen down
G1 X36.791 Y88.679 F1000
G0 Z3.0 ; Pen up

G0 X36.920 Y88.679 F3000 ; Travel to line 326
G0 Z0.0 ; Pen down
G1 X34.088 Y91.125 F1000
G0 Z3.0 ; Pen up

G0 X34.216 Y91.125 F3000 ; Travel to line 327
G0 Z0.0 ; Pen down
G1 X37.178 Y88.679 F1000
G1 X37.178 Y88.679 F1000
G1 X34.345 Y91.125 F1000
G0 Z3.0 ; Pen up

G0 X34.602 Y91.125 F3000 ; Travel to line 328
G0 Z0.0 ; Pen down
G1 X37.435 Y88.679 F1000
G0 Z3.0 ; Pen up

G0 X37.564 Y88.679 F3000 ; Travel to line 329
G0 Z0.0 ; Pen down
G1 X34.731 Y91.125 F1000
G0 Z3.0 ; Pen up

G0 X34.860 Y91.125 F3000 ; Travel to line 330
G0 Z0.0 ; Pen down
G1 X37.692 Y88.679 F1000
G0 Z3.0 ; Pen up

G0 X37.821 Y88.679 F3000 ; Travel to line 331
G0 Z0.0 ; Pen down
G1 X35.117 Y91.125 F1000
G1 X35.117 Y91.125 F1000
G1 X37.950 Y88.679 F1000
G0 Z3.0 ; Pen up

G0 X38.207 Y88.679 F3000 ; Travel to line 332
G0 Z0.0 ; Pen down
G1 X35.375 Y91.125 F1000
G0 Z3.0 ; Pen up

G0 X35.504 Y91.125 F3000 ; Travel to line 333
G0 Z0.0 ; Pen down
G1 X38.336 Y88.679 F1000
G0 Z3.0 ; Pen up

G0 X38.465 Y88.679 F3000 ; Travel to line 334
G0 Z0.0 ; Pen down
G1 X35.633 Y91.125 F1000
G0 Z3.0 ; Pen up

G0 X35.890 Y91.125 F3000 ; Travel to line 335
G0 Z0.0 ; Pen down
G1 X38.594 Y88.679 F1000
G0 Z3.0 ; Pen up

G0 X38.722 Y88.679 F3000 ; Travel to line 336
G0 Z0.0 ; Pen down
G1 X36.019 Y91.125 F1000
G0 Z3.0 ; Pen up

G0 X36.148 Y91.125 F3000 ; Travel to line 337
G0 Z0.0 ; Pen down
G1 X38.980 Y88.679 F1000
G0 Z3.0 ; Pen up

G0 X39.109 Y88.679 F3000 ; Travel to line 338
G0 Z0.0 ; Pen down
G1 X36.276 Y91.125 F1000
G0 Z3.0 ; Pen up

G0 X36.534 Y91.125 F3000 ; Travel to line 339
G0 Z0.0 ; Pen down
G1 X39.366 Y88.679 F1000
G1 X39.366 Y88.679 F1000
G1 X36.663 Y91.125 F1000
G0 Z3.0 ; Pen up

G0 X36.791 Y91.125 F3000 ; Travel to line 340
G0 Z0.0 ; Pen down
G1 X39.495 Y88.679 F1000
G0 Z3.0 ; Pen up

G0 X39.752 Y88.679 F3000 ; Travel to line 341
G0 Z0.0 ; Pen down
G1 X36.920 Y91.125 F1000
G0 Z3.0 ; Pen up

G0 X37.049 Y91.125 F3000 ; Travel to line 342
G0 Z0.0 ; Pen down
G1 X39.881 Y88.679 F1000
G0 Z3.0 ; Pen up

G0 X40.139 Y88.679 F3000 ; Travel to line 343
G0 Z0.0 ; Pen down
G1 X37.306 Y91.125 F1000
G0 Z3.0 ; Pen up

G0 X37.435 Y91.125 F3000 ; Travel to line 344
G0 Z0.0 ; Pen down
G1 X40.267 Y88.679 F1000
G0 Z3.0 ; Pen up

G0 X40.396 Y88.679 F3000 ; Travel to line 345
G0 Z0.0 ; Pen down
G1 X37.564 Y91.125 F1000
G0 Z3.0 ; Pen up

G0 X37.821 Y91.125 F3000 ; Travel to line 346
G0 Z0.0 ; Pen down
G1 X40.654 Y88.679 F1000
G0 Z3.0 ; Pen up

G0 X40.782 Y88.679 F3000 ; Travel to line 347
G0 Z0.0 ; Pen down
G1 X37.950 Y91.125 F1000
G0 Z3.0 ; Pen up

G0 X38.207 Y91.125 F3000 ; Travel to line 348
G0 Z0.0 ; Pen down
G1 X41.040 Y88.679 F1000
G0 Z3.0 ; Pen up

G0 X41.169 Y88.679 F3000 ; Travel to line 349
G0 Z0.0 ; Pen down
G1 X38.336 Y91.125 F1000
G0 Z3.0 ; Pen up

G0 X38.722 Y91.125 F3000 ; Travel to line 350
G0 Z0.0 ; Pen down
G1 X41.426 Y88.679 F1000
G0 Z3.0 ; Pen up

G0 X41.555 Y88.679 F3000 ; Travel to line 351
G0 Z0.0 ; Pen down
G1 X38.851 Y91.125 F1000
G0 Z3.0 ; Pen up

G0 X38.980 Y91.125 F3000 ; Travel to line 352
G0 Z0.0 ; Pen down
G1 X41.684 Y88.679 F1000
G0 Z3.0 ; Pen up

G0 X41.941 Y88.679 F3000 ; Travel to line 353
G0 Z0.0 ; Pen down
G1 X39.237 Y91.125 F1000
G0 Z3.0 ; Pen up

G0 X39.366 Y91.125 F3000 ; Travel to line 354
G0 Z0.0 ; Pen down
G1 X42.070 Y88.679 F1000
G0 Z3.0 ; Pen up

G0 X42.328 Y88.679 F3000 ; Travel to line 355
G0 Z0.0 ; Pen down
G1 X39.624 Y91.125 F1000
G0 Z3.0 ; Pen up

G0 X39.752 Y91.125 F3000 ; Travel to line 356
G0 Z0.0 ; Pen down
G1 X42.456 Y88.679 F1000
G0 Z3.0 ; Pen up

G0 X42.585 Y88.679 F3000 ; Travel to line 357
G0 Z0.0 ; Pen down
G1 X39.881 Y91.125 F1000
G0 Z3.0 ; Pen up

G0 X40.139 Y91.125 F3000 ; Travel to line 358
G0 Z0.0 ; Pen down
G1 X42.843 Y88.679 F1000
G0 Z3.0 ; Pen up

G0 X42.971 Y88.679 F3000 ; Travel to line 359
G0 Z0.0 ; Pen down
G1 X40.267 Y91.125 F1000
G0 Z3.0 ; Pen up

G0 X40.525 Y91.125 F3000 ; Travel to line 360
G0 Z0.0 ; Pen down
G1 X43.229 Y88.679 F1000
G0 Z3.0 ; Pen up

G0 X43.358 Y88.679 F3000 ; Travel to line 361
G0 Z0.0 ; Pen down
G1 X40.654 Y91.125 F1000
G0 Z3.0 ; Pen up

G0 X40.782 Y91.125 F3000 ; Travel to line 362
G0 Z0.0 ; Pen down
G1 X43.486 Y88.679 F1000
G0 Z3.0 ; Pen up

G0 X43.744 Y88.679 F3000 ; Travel to line 363
G0 Z0.0 ; Pen down
G1 X41.040 Y91.125 F1000
G0 Z3.0 ; Pen up

G0 X41.169 Y91.125 F3000 ; Travel to line 364
G0 Z0.0 ; Pen down
G1 X43.873 Y88.679 F1000
G0 Z3.0 ; Pen up

G0 X44.130 Y88.679 F3000 ; Travel to line 365
G0 Z0.0 ; Pen down
G1 X41.426 Y91.125 F1000
G0 Z3.0 ; Pen up

G0 X41.555 Y91.125 F3000 ; Travel to line 366
G0 Z0.0 ; Pen down
G1 X44.259 Y88.679 F1000
G0 Z3.0 ; Pen up

G0 X44.645 Y88.679 F3000 ; Travel to line 367
G0 Z0.0 ; Pen down
G1 X41.812 Y91.125 F1000
G0 Z3.0 ; Pen up

G0 X41.941 Y91.125 F3000 ; Travel to line 368
G0 Z0.0 ; Pen down
G1 X44.774 Y88.679 F1000
G0 Z3.0 ; Pen up

G0 X44.903 Y88.679 F3000 ; Travel to line 369
G0 Z0.0 ; Pen down
G1 X42.070 Y91.125 F1000
G0 Z3.0 ; Pen up

G0 X42.328 Y91.125 F3000 ; Travel to line 370
G0 Z0.0 ; Pen down
G1 X45.160 Y88.679 F1000
G0 Z3.0 ; Pen up

G0 X45.289 Y88.679 F3000 ; Travel to line 371
G0 Z0.0 ; Pen down
G1 X42.456 Y91.125 F1000
G0 Z3.0 ; Pen up

G0 X42.714 Y91.125 F3000 ; Travel to line 372
G0 Z0.0 ; Pen down
G1 X45.546 Y88.679 F1000
G0 Z3.0 ; Pen up

G0 X45.675 Y88.679 F3000 ; Travel to line 373
G0 Z0.0 ; Pen down
G1 X42.843 Y91.125 F1000
G0 Z3.0 ; Pen up

G0 X42.971 Y91.125 F3000 ; Travel to line 374
G0 Z0.0 ; Pen down
G1 X45.804 Y88.679 F1000
G0 Z3.0 ; Pen up

G0 X46.061 Y88.679 F3000 ; Travel to line 375
G0 Z0.0 ; Pen down
G1 X43.229 Y91.125 F1000
G0 Z3.0 ; Pen up

G0 X43.358 Y91.125 F3000 ; Travel to line 376
G0 Z0.0 ; Pen down
G1 X46.190 Y88.679 F1000
G0 Z3.0 ; Pen up

G0 X46.447 Y88.679 F3000 ; Travel to line 377
G0 Z0.0 ; Pen down
G1 X43.615 Y91.125 F1000
G0 Z3.0 ; Pen up

G0 X43.744 Y91.125 F3000 ; Travel to line 378
G0 Z0.0 ; Pen down
G1 X46.576 Y88.679 F1000
G0 Z3.0 ; Pen up

G0 X47.091 Y88.164 F3000 ; Travel to line 379
G0 Z0.0 ; Pen down
G1 X49.409 Y86.104 F1000
G0 Z3.0 ; Pen up

G0 X49.409 Y85.975 F3000 ; Travel to line 380
G0 Z0.0 ; Pen down
G1 X47.091 Y88.035 F1000
G0 Z3.0 ; Pen up

G0 X47.091 Y87.906 F3000 ; Travel to line 381
G0 Z0.0 ; Pen down
G1 X49.409 Y85.846 F1000
G0 Z3.0 ; Pen up

G0 X49.409 Y85.718 F3000 ; Travel to line 382
G0 Z0.0 ; Pen down
G1 X47.091 Y87.778 F1000
G0 Z3.0 ; Pen up

G0 X47.091 Y87.520 F3000 ; Travel to line 383
G0 Z0.0 ; Pen down
G1 X49.409 Y85.460 F1000
G0 Z3.0 ; Pen up

G0 X49.409 Y85.331 F3000 ; Travel to line 384
G0 Z0.0 ; Pen down
G1 X47.091 Y87.391 F1000
G0 Z3.0 ; Pen up

G0 X47.091 Y87.263 F3000 ; Travel to line 385
G0 Z0.0 ; Pen down
G1 X49.409 Y85.203 F1000
G0 Z3.0 ; Pen up

G0 X49.409 Y84.945 F3000 ; Travel to line 386
G0 Z0.0 ; Pen down
G1 X47.091 Y87.005 F1000
G0 Z3.0 ; Pen up

G0 X47.091 Y86.876 F3000 ; Travel to line 387
G0 Z0.0 ; Pen down
G1 X49.409 Y84.816 F1000
G0 Z3.0 ; Pen up

G0 X49.409 Y84.688 F3000 ; Travel to line 388
G0 Z0.0 ; Pen down
G1 X47.091 Y86.619 F1000
G1 X47.091 Y86.619 F1000
G1 X49.409 Y84.559 F1000
G0 Z3.0 ; Pen up

G0 X49.409 Y84.430 F3000 ; Travel to line 389
G0 Z0.0 ; Pen down
G1 X47.091 Y86.490 F1000
G0 Z3.0 ; Pen up

G0 X47.091 Y86.233 F3000 ; Travel to line 390
G0 Z0.0 ; Pen down
G1 X49.409 Y84.172 F1000
G0 Z3.0 ; Pen up

G0 X49.409 Y84.044 F3000 ; Travel to line 391
G0 Z0.0 ; Pen down
G1 X47.091 Y86.104 F1000
G0 Z3.0 ; Pen up

G0 X47.091 Y85.846 F3000 ; Travel to line 392
G0 Z0.0 ; Pen down
G1 X49.409 Y83.786 F1000
G0 Z3.0 ; Pen up

G0 X49.409 Y83.657 F3000 ; Travel to line 393
G0 Z0.0 ; Pen down
G1 X47.091 Y85.718 F1000
G0 Z3.0 ; Pen up

G0 X47.091 Y85.460 F3000 ; Travel to line 394
G0 Z0.0 ; Pen down
G1 X49.409 Y83.400 F1000
G1 X49.409 Y83.400 F1000
G1 X47.091 Y85.460 F1000
G0 Z3.0 ; Pen up

G0 X47.091 Y85.331 F3000 ; Travel to line 395
G0 Z0.0 ; Pen down
G1 X49.409 Y83.271 F1000
G0 Z3.0 ; Pen up

G0 X49.409 Y83.014 F3000 ; Travel to line 396
G0 Z0.0 ; Pen down
G1 X47.091 Y85.074 F1000
G0 Z3.0 ; Pen up

G0 X47.091 Y84.945 F3000 ; Travel to line 397
G0 Z0.0 ; Pen down
G1 X49.409 Y82.885 F1000
G0 Z3.0 ; Pen up

G0 X49.409 Y82.627 F3000 ; Travel to line 398
G0 Z0.0 ; Pen down
G1 X47.091 Y84.688 F1000
G0 Z3.0 ; Pen up

G0 X47.091 Y84.559 F3000 ; Travel to line 399
G0 Z0.0 ; Pen down
G1 X49.409 Y82.499 F1000
G0 Z3.0 ; Pen up

G0 X49.409 Y82.370 F3000 ; Travel to line 400
G0 Z0.0 ; Pen down
G1 X47.091 Y84.430 F1000
G0 Z3.0 ; Pen up

G0 X47.091 Y84.172 F3000 ; Travel to line 401
G0 Z0.0 ; Pen down
G1 X49.409 Y82.112 F1000
G1 X49.409 Y82.112 F1000
G1 X47.091 Y84.172 F1000
G0 Z3.0 ; Pen up

G0 X47.091 Y83.915 F3000 ; Travel to line 402
G0 Z0.0 ; Pen down
G1 X49.409 Y81.855 F1000
G0 Z3.0 ; Pen up

G0 X49.409 Y81.726 F3000 ; Travel to line 403
G0 Z0.0 ; Pen down
G1 X47.091 Y83.786 F1000
G0 Z3.0 ; Pen up

G0 X47.091 Y83.657 F3000 ; Travel to line 404
G0 Z0.0 ; Pen down
G1 X49.409 Y81.597 F1000
G0 Z3.0 ; Pen up

G0 X49.409 Y81.340 F3000 ; Travel to line 405
G0 Z0.0 ; Pen down
G1 X47.091 Y83.400 F1000
G0 Z3.0 ; Pen up

G0 X47.091 Y83.271 F3000 ; Travel to line 406
G0 Z0.0 ; Pen down
G1 X49.409 Y81.211 F1000
G0 Z3.0 ; Pen up

G0 X49.409 Y80.954 F3000 ; Travel to line 407
G0 Z0.0 ; Pen down
G1 X47.091 Y83.014 F1000
G0 Z3.0 ; Pen up

G0 X47.091 Y82.885 F3000 ; Travel to line 408
G0 Z0.0 ; Pen down
G1 X49.409 Y80.825 F1000
G0 Z3.0 ; Pen up

G0 X49.409 Y80.696 F3000 ; Travel to line 409
G0 Z0.0 ; Pen down
G1 X47.091 Y82.756 F1000
G0 Z3.0 ; Pen up

G0 X47.091 Y82.627 F3000 ; Travel to line 410
G0 Z0.0 ; Pen down
G1 X49.409 Y80.567 F1000
G0 Z3.0 ; Pen up

G0 X49.409 Y80.439 F3000 ; Travel to line 411
G0 Z0.0 ; Pen down
G1 X47.091 Y82.499 F1000
G0 Z3.0 ; Pen up

G0 X47.091 Y82.241 F3000 ; Travel to line 412
G0 Z0.0 ; Pen down
G1 X49.409 Y80.181 F1000
G0 Z3.0 ; Pen up

G0 X49.409 Y80.053 F3000 ; Travel to line 413
G0 Z0.0 ; Pen down
G1 X47.091 Y82.112 F1000
G0 Z3.0 ; Pen up

G0 X47.091 Y81.984 F3000 ; Travel to line 414
G0 Z0.0 ; Pen down
G1 X49.409 Y79.924 F1000
G0 Z3.0 ; Pen up

G0 X49.409 Y78.894 F3000 ; Travel to line 415
G0 Z0.0 ; Pen down
G1 X47.091 Y80.954 F1000
G1 X47.091 Y80.954 F1000
G1 X49.409 Y79.023 F1000
G1 X49.409 Y79.023 F1000
G1 X47.091 Y81.082 F1000
G0 Z3.0 ; Pen up

G0 X47.091 Y81.211 F3000 ; Travel to line 416
G0 Z0.0 ; Pen down
G1 X49.409 Y79.280 F1000
G1 X49.409 Y79.280 F1000
G1 X47.091 Y81.340 F1000
G0 Z3.0 ; Pen up

G0 X47.091 Y81.469 F3000 ; Travel to line 417
G0 Z0.0 ; Pen down
G1 X49.409 Y79.538 F1000
G1 X49.409 Y79.538 F1000
G1 X47.091 Y81.597 F1000
G0 Z3.0 ; Pen up

G0 X47.091 Y81.726 F3000 ; Travel to line 418
G0 Z0.0 ; Pen down
G1 X49.409 Y79.795 F1000
G1 X49.409 Y79.795 F1000
G1 X47.091 Y81.855 F1000
G0 Z3.0 ; Pen up

G0 X47.091 Y80.310 F3000 ; Travel to line 419
G0 Z0.0 ; Pen down
G1 X49.409 Y78.250 F1000
G0 Z3.0 ; Pen up

G0 X49.409 Y78.379 F3000 ; Travel to line 420
G0 Z0.0 ; Pen down
G1 X47.091 Y80.439 F1000
G1 X47.091 Y80.439 F1000
G1 X49.409 Y78.508 F1000
G0 Z3.0 ; Pen up

G0 X49.409 Y78.636 F3000 ; Travel to line 421
G0 Z0.0 ; Pen down
G1 X47.091 Y80.696 F1000
G1 X47.091 Y80.696 F1000
G1 X49.409 Y78.765 F1000
G0 Z3.0 ; Pen up

G0 X49.409 Y78.121 F3000 ; Travel to line 422
G0 Z0.0 ; Pen down
G1 X47.091 Y80.181 F1000
G0 Z3.0 ; Pen up

G0 X47.091 Y80.053 F3000 ; Travel to line 423
G0 Z0.0 ; Pen down
G1 X49.409 Y77.993 F1000
G0 Z3.0 ; Pen up

G0 X49.409 Y77.864 F3000 ; Travel to line 424
G0 Z0.0 ; Pen down
G1 X47.091 Y79.924 F1000
G0 Z3.0 ; Pen up

G0 X47.091 Y79.795 F3000 ; Travel to line 425
G0 Z0.0 ; Pen down
G1 X49.409 Y77.735 F1000
G0 Z3.0 ; Pen up

G0 X49.409 Y77.606 F3000 ; Travel to line 426
G0 Z0.0 ; Pen down
G1 X47.091 Y79.666 F1000
G0 Z3.0 ; Pen up

G0 X47.091 Y79.538 F3000 ; Travel to line 427
G0 Z0.0 ; Pen down
G1 X49.409 Y77.478 F1000
G1 X49.409 Y77.478 F1000
G1 X47.091 Y79.409 F1000
G0 Z3.0 ; Pen up

G0 X47.091 Y79.280 F3000 ; Travel to line 428
G0 Z0.0 ; Pen down
G1 X49.409 Y77.349 F1000
G0 Z3.0 ; Pen up

G0 X49.409 Y77.220 F3000 ; Travel to line 429
G0 Z0.0 ; Pen down
G1 X47.091 Y79.151 F1000
G0 Z3.0 ; Pen up

G0 X47.091 Y79.023 F3000 ; Travel to line 430
G0 Z0.0 ; Pen down
G1 X49.409 Y77.091 F1000
G0 Z3.0 ; Pen up

G0 X49.409 Y76.963 F3000 ; Travel to line 431
G0 Z0.0 ; Pen down
G1 X47.091 Y78.894 F1000
G1 X47.091 Y78.894 F1000
G1 X49.409 Y76.834 F1000
G0 Z3.0 ; Pen up

G0 X49.409 Y76.319 F3000 ; Travel to line 432
G0 Z0.0 ; Pen down
G1 X47.091 Y78.250 F1000
G0 Z3.0 ; Pen up

G0 X47.091 Y78.379 F3000 ; Travel to line 433
G0 Z0.0 ; Pen down
G1 X49.409 Y76.448 F1000
G1 X49.409 Y76.448 F1000
G1 X47.091 Y78.508 F1000
G0 Z3.0 ; Pen up

G0 X47.091 Y78.636 F3000 ; Travel to line 434
G0 Z0.0 ; Pen down
G1 X49.409 Y76.705 F1000
G1 X49.409 Y76.705 F1000
G1 X47.091 Y78.636 F1000
G0 Z3.0 ; Pen up

G0 X47.091 Y78.121 F3000 ; Travel to line 435
G0 Z0.0 ; Pen down
G1 X49.409 Y76.190 F1000
G0 Z3.0 ; Pen up

G0 X49.409 Y76.061 F3000 ; Travel to line 436
G0 Z0.0 ; Pen down
G1 X47.091 Y77.993 F1000
G0 Z3.0 ; Pen up

G0 X47.091 Y77.864 F3000 ; Travel to line 437
G0 Z0.0 ; Pen down
G1 X49.409 Y75.933 F1000
G0 Z3.0 ; Pen up

G0 X49.409 Y75.804 F3000 ; Travel to line 438
G0 Z0.0 ; Pen down
G1 X47.091 Y77.735 F1000
G0 Z3.0 ; Pen up

G0 X47.091 Y77.478 F3000 ; Travel to line 439
G0 Z0.0 ; Pen down
G1 X49.409 Y75.546 F1000
G1 X49.409 Y75.546 F1000
G1 X47.091 Y77.606 F1000
G1 X47.091 Y77.606 F1000
G1 X49.409 Y75.675 F1000
G0 Z3.0 ; Pen up

G0 X49.409 Y75.418 F3000 ; Travel to line 440
G0 Z0.0 ; Pen down
G1 X47.091 Y77.349 F1000
G0 Z3.0 ; Pen up

G0 X47.091 Y77.220 F3000 ; Travel to line 441
G0 Z0.0 ; Pen down
G1 X49.409 Y75.289 F1000
G0 Z3.0 ; Pen up

G0 X49.409 Y75.160 F3000 ; Travel to line 442
G0 Z0.0 ; Pen down
G1 X47.091 Y77.091 F1000
G0 Z3.0 ; Pen up

G0 X47.091 Y76.963 F3000 ; Travel to line 443
G0 Z0.0 ; Pen down
G1 X49.409 Y75.031 F1000
G1 X49.409 Y75.031 F1000
G1 X47.091 Y76.963 F1000
G0 Z3.0 ; Pen up

G0 X47.091 Y76.705 F3000 ; Travel to line 444
G0 Z0.0 ; Pen down
G1 X49.409 Y74.774 F1000
G1 X49.409 Y74.774 F1000
G1 X47.091 Y76.705 F1000
G0 Z3.0 ; Pen up

G0 X47.091 Y76.576 F3000 ; Travel to line 445
G0 Z0.0 ; Pen down
G1 X49.409 Y74.645 F1000
G0 Z3.0 ; Pen up

G0 X49.409 Y74.516 F3000 ; Travel to line 446
G0 Z0.0 ; Pen down
G1 X47.091 Y76.448 F1000
G0 Z3.0 ; Pen up

G0 X47.091 Y76.319 F3000 ; Travel to line 447
G0 Z0.0 ; Pen down
G1 X49.409 Y74.388 F1000
G0 Z3.0 ; Pen up

G0 X49.409 Y74.130 F3000 ; Travel to line 448
G0 Z0.0 ; Pen down
G1 X47.091 Y75.933 F1000
G1 X47.091 Y75.933 F1000
G1 X49.409 Y74.001 F1000
G0 Z3.0 ; Pen up

G0 X49.409 Y73.873 F3000 ; Travel to line 449
G0 Z0.0 ; Pen down
G1 X47.091 Y75.804 F1000
G0 Z3.0 ; Pen up

G0 X47.091 Y75.675 F3000 ; Travel to line 450
G0 Z0.0 ; Pen down
G1 X49.409 Y73.744 F1000
G1 X49.409 Y73.744 F1000
G1 X47.091 Y75.546 F1000
G0 Z3.0 ; Pen up

G0 X47.091 Y75.031 F3000 ; Travel to line 451
G0 Z0.0 ; Pen down
G1 X49.409 Y73.229 F1000
G1 X49.409 Y73.229 F1000
G1 X47.091 Y75.160 F1000
G1 X47.091 Y75.160 F1000
G1 X49.409 Y73.358 F1000
G0 Z3.0 ; Pen up

G0 X49.409 Y73.486 F3000 ; Travel to line 452
G0 Z0.0 ; Pen down
G1 X47.091 Y75.418 F1000
G1 X47.091 Y75.418 F1000
G1 X49.409 Y73.615 F1000
G0 Z3.0 ; Pen up

G0 X49.409 Y73.100 F3000 ; Travel to line 453
G0 Z0.0 ; Pen down
G1 X47.091 Y74.903 F1000
G1 X47.091 Y74.903 F1000
G1 X49.409 Y72.971 F1000
G0 Z3.0 ; Pen up

G0 X49.409 Y72.843 F3000 ; Travel to line 454
G0 Z0.0 ; Pen down
G1 X47.091 Y74.645 F1000
G1 X47.091 Y74.645 F1000
G1 X49.409 Y72.714 F1000
G0 Z3.0 ; Pen up

G0 X49.409 Y72.456 F3000 ; Travel to line 455
G0 Z0.0 ; Pen down
G1 X47.091 Y74.388 F1000
G1 X47.091 Y74.388 F1000
G1 X49.409 Y72.585 F1000
G1 X49.409 Y72.585 F1000
G1 X47.091 Y74.516 F1000
G0 Z3.0 ; Pen up

G0 X47.091 Y74.001 F3000 ; Travel to line 456
G0 Z0.0 ; Pen down
G1 X49.409 Y72.199 F1000
G1 X49.409 Y72.199 F1000
G1 X47.091 Y74.001 F1000
G1 X47.091 Y74.001 F1000
G1 X49.409 Y72.199 F1000
G1 X49.409 Y72.199 F1000
G1 X47.091 Y74.001 F1000
G1 X47.091 Y74.001 F1000
G1 X49.409 Y72.199 F1000
G1 X49.409 Y72.199 F1000
G1 X47.091 Y74.001 F1000
G1 X47.091 Y74.001 F1000
G1 X49.409 Y72.199 F1000
G1 X49.409 Y72.199 F1000
G1 X47.091 Y74.001 F1000
G1 X47.091 Y74.001 F1000
G1 X49.409 Y72.199 F1000
G1 X49.409 Y72.199 F1000
G1 X47.091 Y74.001 F1000
G1 X47.091 Y74.001 F1000
G1 X49.409 Y72.199 F1000
G1 X49.409 Y72.199 F1000
G1 X47.091 Y74.001 F1000
G1 X47.091 Y74.001 F1000
G1 X49.409 Y72.199 F1000
G1 X49.409 Y72.199 F1000
G1 X47.091 Y74.001 F1000
G1 X47.091 Y74.001 F1000
G1 X49.409 Y72.199 F1000
G1 X49.409 Y72.199 F1000
G1 X47.091 Y74.001 F1000
G1 X47.091 Y74.001 F1000
G1 X49.409 Y72.199 F1000
G1 X49.409 Y72.199 F1000
G1 X47.091 Y74.001 F1000
G1 X47.091 Y74.001 F1000
G1 X49.409 Y72.199 F1000
G1 X49.409 Y72.199 F1000
G1 X47.091 Y74.001 F1000
G1 X47.091 Y74.001 F1000
G1 X49.409 Y72.199 F1000
G1 X49.409 Y72.199 F1000
G1 X47.091 Y74.001 F1000
G1 X47.091 Y74.001 F1000
G1 X49.409 Y72.199 F1000
G1 X49.409 Y72.199 F1000
G1 X47.091 Y74.001 F1000
G1 X47.091 Y74.001 F1000
G1 X49.409 Y72.199 F1000
G1 X49.409 Y72.199 F1000
G1 X47.091 Y74.001 F1000
G1 X47.091 Y74.001 F1000
G1 X49.409 Y72.199 F1000
G1 X49.409 Y72.199 F1000
G1 X47.091 Y74.001 F1000
G1 X47.091 Y74.001 F1000
G1 X49.409 Y72.199 F1000
G1 X49.409 Y72.199 F1000
G1 X47.091 Y74.001 F1000
G1 X47.091 Y74.001 F1000
G1 X49.409 Y72.199 F1000
G1 X49.409 Y72.199 F1000
G1 X47.091 Y74.001 F1000
G1 X47.091 Y74.001 F1000
G1 X49.409 Y72.199 F1000
G1 X49.409 Y72.199 F1000
G1 X47.091 Y74.001 F1000
G1 X47.091 Y74.001 F1000
G1 X49.409 Y72.199 F1000
G1 X49.409 Y72.199 F1000
G1 X47.091 Y74.001 F1000
G1 X47.091 Y74.001 F1000
G1 X49.409 Y72.199 F1000
G1 X49.409 Y72.199 F1000
G1 X47.091 Y74.001 F1000
G1 X47.091 Y74.001 F1000
G1 X49.409 Y72.199 F1000
G1 X49.409 Y72.199 F1000
G1 X47.091 Y74.001 F1000
G1 X47.091 Y74.001 F1000
G1 X49.409 Y72.199 F1000
G1 X49.409 Y72.199 F1000
G1 X47.091 Y74.001 F1000
G1 X47.091 Y74.001 F1000
G1 X49.409 Y72.199 F1000
G1 X49.409 Y72.199 F1000
G1 X47.091 Y74.001 F1000
G1 X47.091 Y74.001 F1000
G1 X49.409 Y72.199 F1000
G1 X49.409 Y72.199 F1000
G1 X47.091 Y74.001 F1000
G1 X47.091 Y74.001 F1000
G1 X49.409 Y72.199 F1000
G1 X49.409 Y72.199 F1000
G1 X47.091 Y74.001 F1000
G1 X47.091 Y74.001 F1000
G1 X49.409 Y72.199 F1000
G1 X49.409 Y72.199 F1000
G1 X47.091 Y74.001 F1000
G1 X47.091 Y74.001 F1000
G1 X49.409 Y72.199 F1000
G1 X49.409 Y72.199 F1000
G1 X47.091 Y74.001 F1000
G1 X47.091 Y74.001 F1000
G1 X49.409 Y72.199 F1000
G1 X49.409 Y72.199 F1000
G1 X47.091 Y74.001 F1000
G1 X47.091 Y74.001 F1000
G1 X49.409 Y72.199 F1000
G1 X49.409 Y72.199 F1000
G1 X47.091 Y74.001 F1000
G1 X47.091 Y74.001 F1000
G1 X49.409 Y72.199 F1000
G1 X49.409 Y72.199 F1000
G1 X47.091 Y74.001 F1000
G1 X47.091 Y74.001 F1000
G1 X49.409 Y72.199 F1000
G1 X49.409 Y72.199 F1000
G1 X47.091 Y74.001 F1000
G1 X47.091 Y74.001 F1000
G1 X49.409 Y72.199 F1000
G1 X49.409 Y72.199 F1000
G1 X47.091 Y74.001 F1000
G1 X47.091 Y74.001 F1000
G1 X49.409 Y72.199 F1000
G1 X49.409 Y72.199 F1000
G1 X47.091 Y74.001 F1000
G1 X47.091 Y74.001 F1000
G1 X49.409 Y72.199 F1000
G1 X49.409 Y72.199 F1000
G1 X47.091 Y74.001 F1000
G1 X47.091 Y74.001 F1000
G1 X49.409 Y72.199 F1000
G1 X49.409 Y72.199 F1000
G1 X47.091 Y74.001 F1000
G1 X47.091 Y74.001 F1000
G1 X49.409 Y72.199 F1000
G1 X49.409 Y72.199 F1000
G1 X47.091 Y74.001 F1000
G1 X47.091 Y74.001 F1000
G1 X49.409 Y72.199 F1000
G1 X49.409 Y72.199 F1000
G1 X47.091 Y74.001 F1000
G1 X47.091 Y74.001 F1000
G1 X49.409 Y72.199 F1000
G1 X49.409 Y72.199 F1000
G1 X47.091 Y74.001 F1000
G1 X47.091 Y74.001 F1000
G1 X49.409 Y72.199 F1000
G1 X49.409 Y72.199 F1000
G1 X47.091 Y74.001 F1000
G1 X47.091 Y74.001 F1000
G1 X49.409 Y72.199 F1000
G1 X49.409 Y72.199 F1000
G1 X47.091 Y74.001 F1000
G1 X47.091 Y74.001 F1000
G1 X49.409 Y72.199 F1000
G1 X49.409 Y72.199 F1000
G1 X47.091 Y74.001 F1000
G1 X47.091 Y74.001 F1000
G1 X49.409 Y72.199 F1000
G1 X49.409 Y72.199 F1000
G1 X47.091 Y74.001 F1000
G1 X47.091 Y74.001 F1000
G1 X49.409 Y72.199 F1000
G1 X49.409 Y72.199 F1000
G1 X47.091 Y74.001 F1000
G1 X47.091 Y74.001 F1000
G1 X49.409 Y72.199 F1000
G1 X49.409 Y72.199 F1000
G1 X47.091 Y74.001 F1000
G1 X47.091 Y74.001 F1000
G1 X49.409 Y72.199 F1000
G1 X49.409 Y72.199 F1000
G1 X47.091 Y74.001 F1000
G1 X47.091 Y74.001 F1000
G1 X49.409 Y72.199 F1000
G1 X49.409 Y72.199 F1000
G1 X47.091 Y74.001 F1000
G1 X47.091 Y74.001 F1000
G1 X49.409 Y72.199 F1000
G1 X49.409 Y72.199 F1000
G1 X47.091 Y74.001 F1000
G1 X47.091 Y74.001 F1000
G1 X49.409 Y72.199 F1000
G1 X49.409 Y72.199 F1000
G1 X47.091 Y74.001 F1000
G1 X47.091 Y74.001 F1000
G1 X49.409 Y72.199 F1000
G1 X49.409 Y72.199 F1000
G1 X47.091 Y74.001 F1000
G1 X47.091 Y74.001 F1000
G1 X49.409 Y72.199 F1000
G1 X49.409 Y72.199 F1000
G1 X47.091 Y74.001 F1000
G1 X47.091 Y74.001 F1000
G1 X49.409 Y72.199 F1000
G1 X49.409 Y72.199 F1000
G1 X47.091 Y74.001 F1000
G1 X47.091 Y74.001 F1000
G1 X49.409 Y72.199 F1000
G1 X49.409 Y72.199 F1000
G1 X47.091 Y74.001 F1000
G1 X47.091 Y74.001 F1000
G1 X49.409 Y72.199 F1000
G1 X49.409 Y72.199 F1000
G1 X47.091 Y74.001 F1000
G1 X47.091 Y74.001 F1000
G1 X49.409 Y72.199 F1000
G1 X49.409 Y72.199 F1000
G1 X47.091 Y74.001 F1000
G1 X47.091 Y74.001 F1000
G1 X49.409 Y72.199 F1000
G1 X49.409 Y72.199 F1000
G1 X47.091 Y74.001 F1000
G1 X47.091 Y74.001 F1000
G1 X49.409 Y72.199 F1000
G1 X49.409 Y72.199 F1000
G1 X47.091 Y74.001 F1000
G1 X47.091 Y74.001 F1000
G1 X49.409 Y72.199 F1000
G1 X49.409 Y72.199 F1000
G1 X47.091 Y74.001 F1000
G1 X47.091 Y74.001 F1000
G1 X49.409 Y72.199 F1000
G1 X49.409 Y72.199 F1000
G1 X47.091 Y74.001 F1000
G1 X47.091 Y74.001 F1000
G1 X49.409 Y72.199 F1000
G1 X49.409 Y72.199 F1000
G1 X47.091 Y74.001 F1000
G1 X47.091 Y74.001 F1000
G1 X49.409 Y72.199 F1000
G1 X49.409 Y72.199 F1000
G1 X47.091 Y74.001 F1000
G1 X47.091 Y74.001 F1000
G1 X49.409 Y72.199 F1000
G1 X49.409 Y72.199 F1000
G1 X47.091 Y74.001 F1000
G1 X47.091 Y74.001 F1000
G1 X49.409 Y72.199 F1000
G1 X49.409 Y72.199 F1000
G1 X47.091 Y74.001 F1000
G1 X47.091 Y74.001 F1000
G1 X49.409 Y72.199 F1000
G1 X49.409 Y72.199 F1000
G1 X47.091 Y74.001 F1000
G1 X47.091 Y74.001 F1000
G1 X49.409 Y72.199 F1000
G1 X49.409 Y72.199 F1000
G1 X47.091 Y74.001 F1000
G1 X47.091 Y74.001 F1000
G1 X49.409 Y72.199 F1000
G1 X49.409 Y72.199 F1000
G1 X47.091 Y74.001 F1000
G1 X47.091 Y74.001 F1000
G1 X49.409 Y72.199 F1000
G1 X49.409 Y72.199 F1000
G1 X47.091 Y74.001 F1000
G1 X47.091 Y74.001 F1000
G1 X49.409 Y72.199 F1000
G1 X49.409 Y72.199 F1000
G1 X47.091 Y74.001 F1000
G1 X47.091 Y74.001 F1000
G1 X49.409 Y72.199 F1000
G1 X49.409 Y72.199 F1000
G1 X47.091 Y74.001 F1000
G1 X47.091 Y74.001 F1000
G1 X49.409 Y72.199 F1000
G1 X49.409 Y72.199 F1000
G1 X47.091 Y74.001 F1000
G1 X47.091 Y74.001 F1000
G1 X49.409 Y72.199 F1000
G1 X49.409 Y72.199 F1000
G1 X47.091 Y74.001 F1000
G1 X47.091 Y74.001 F1000
G1 X49.409 Y72.199 F1000
G1 X49.409 Y72.199 F1000
G1 X47.091 Y74.001 F1000
G1 X47.091 Y74.001 F1000
G1 X49.409 Y72.199 F1000
G1 X49.409 Y72.199 F1000
G1 X47.091 Y74.001 F1000
G1 X47.091 Y74.001 F1000
G1 X49.409 Y72.199 F1000
G1 X49.409 Y72.199 F1000
G1 X47.091 Y74.001 F1000
G1 X47.091 Y74.001 F1000
G1 X49.409 Y72.199 F1000
G1 X49.409 Y72.199 F1000
G1 X47.091 Y74.001 F1000
G1 X47.091 Y74.001 F1000
G1 X49.409 Y72.199 F1000
G1 X49.409 Y72.199 F1000
G1 X47.091 Y74.001 F1000
G1 X47.091 Y74.001 F1000
G1 X49.409 Y72.199 F1000
G1 X49.409 Y72.199 F1000
G1 X47.091 Y74.001 F1000
G1 X47.091 Y74.001 F1000
G1 X49.409 Y72.199 F1000
G1 X49.409 Y72.199 F1000
G1 X47.091 Y74.001 F1000
G1 X47.091 Y74.001 F1000
G1 X49.409 Y72.199 F1000
G1 X49.409 Y72.199 F1000
G1 X47.091 Y74.001 F1000
G1 X47.091 Y74.001 F1000
G1 X49.409 Y72.199 F1000
G1 X49.409 Y72.199 F1000
G1 X47.091 Y74.001 F1000
G1 X47.091 Y74.001 F1000
G1 X49.409 Y72.199 F1000
G1 X49.409 Y72.199 F1000
G1 X47.091 Y74.001 F1000
G1 X47.091 Y74.001 F1000
G1 X49.409 Y72.199 F1000
G1 X49.409 Y72.199 F1000
G1 X47.091 Y74.001 F1000
G1 X47.091 Y74.001 F1000
G1 X49.409 Y72.199 F1000
G1 X49.409 Y72.199 F1000
G1 X47.091 Y74.001 F1000
G1 X47.091 Y74.001 F1000
G1 X49.409 Y72.199 F1000
G1 X49.409 Y72.199 F1000
G1 X47.091 Y74.001 F1000
G1 X47.091 Y74.001 F1000
G1 X49.409 Y72.199 F1000
G1 X49.409 Y72.199 F1000
G1 X47.091 Y74.001 F1000
G1 X47.091 Y74.001 F1000
G1 X49.409 Y72.199 F1000
G1 X49.409 Y72.199 F1000
G1 X47.091 Y74.001 F1000
G1 X47.091 Y74.001 F1000
G1 X49.409 Y72.199 F1000
G1 X49.409 Y72.199 F1000
G1 X47.091 Y74.001 F1000
G1 X47.091 Y74.001 F1000
G1 X49.409 Y72.199 F1000
G1 X49.409 Y72.199 F1000
G1 X47.091 Y74.001 F1000
G1 X47.091 Y74.001 F1000
G1 X49.409 Y72.199 F1000
G1 X49.409 Y72.199 F1000
G1 X47.091 Y74.001 F1000
G1 X47.091 Y74.001 F1000
G1 X49.409 Y72.199 F1000
G1 X49.409 Y72.199 F1000
G1 X47.091 Y74.001 F1000
G1 X47.091 Y74.001 F1000
G1 X49.409 Y72.199 F1000
G1 X49.409 Y72.199 F1000
G1 X47.091 Y74.001 F1000
G1 X47.091 Y74.001 F1000
G1 X49.409 Y72.199 F1000
G1 X49.409 Y72.199 F1000
G1 X47.091 Y74.001 F1000
G1 X47.091 Y74.001 F1000
G1 X49.409 Y72.199 F1000
G1 X49.409 Y72.199 F1000
G1 X47.091 Y74.001 F1000
G1 X47.091 Y74.001 F1000
G1 X49.409 Y72.199 F1000
G1 X49.409 Y72.199 F1000
G1 X47.091 Y74.001 F1000
G1 X47.091 Y74.001 F1000
G1 X49.409 Y72.199 F1000
G1 X49.409 Y72.199 F1000
G1 X47.091 Y74.001 F1000
G1 X47.091 Y74.001 F1000
G1 X49.409 Y72.199 F1000
G1 X49.409 Y72.199 F1000
G1 X47.091 Y74.001 F1000
G1 X47.091 Y74.001 F1000
G1 X49.409 Y72.199 F1000
G1 X49.409 Y72.199 F1000
G1 X47.091 Y74.001 F1000
G1 X47.091 Y74.001 F1000
G1 X49.409 Y72.199 F1000
G1 X49.409 Y72.199 F1000
G1 X47.091 Y74.001 F1000
G1 X47.091 Y74.001 F1000
G1 X49.409 Y72.199 F1000
G1 X49.409 Y72.199 F1000
G1 X47.091 Y74.001 F1000
G1 X47.091 Y74.001 F1000
G1 X49.409 Y72.199 F1000
G1 X49.409 Y72.199 F1000
G1 X47.091 Y74.001 F1000
G1 X47.091 Y74.001 F1000
G1 X49.409 Y72.199 F1000
G1 X49.409 Y72.199 F1000
G1 X47.091 Y74.001 F1000
G1 X47.091 Y74.001 F1000
G1 X49.409 Y72.199 F1000
G1 X49.409 Y72.199 F1000
G1 X47.091 Y74.001 F1000
G1 X47.091 Y74.001 F1000
G1 X49.409 Y72.199 F1000
G1 X49.409 Y72.199 F1000
G1 X47.091 Y74.001 F1000
G1 X47.091 Y74.001 F1000
G1 X49.409 Y72.199 F1000
G1 X49.409 Y72.199 F1000
G1 X47.091 Y74.001 F1000
G1 X47.091 Y74.001 F1000
G1 X49.409 Y72.199 F1000
G1 X49.409 Y72.199 F1000
G1 X47.091 Y74.001 F1000
G1 X47.091 Y74.001 F1000
G1 X49.409 Y72.199 F1000
G1 X49.409 Y72.199 F1000
G1 X47.091 Y74.001 F1000
G1 X47.091 Y74.001 F1000
G1 X49.409 Y72.199 F1000
G1 X49.409 Y72.199 F1000
G1 X47.091 Y74.001 F1000
G1 X47.091 Y74.001 F1000
G1 X49.409 Y72.199 F1000
G1 X49.409 Y72.199 F1000
G1 X47.091 Y74.001 F1000
G1 X47.091 Y74.001 F1000
G1 X49.409 Y72.199 F1000
G1 X49.409 Y72.199 F1000
G1 X47.091 Y74.001 F1000
G1 X47.091 Y74.001 F1000
G1 X49.409 Y72.199 F1000
G1 X49.409 Y72.199 F1000
G1 X47.091 Y74.001 F1000
G1 X47.091 Y74.001 F1000
G1 X49.409 Y72.199 F1000
G1 X49.409 Y72.199 F1000
G1 X47.091 Y74.001 F1000
G1 X47.091 Y74.001 F1000
G1 X49.409 Y72.199 F1000
G1 X49.409 Y72.199 F1000
G1 X47.091 Y74.001 F1000
G1 X47.091 Y74.001 F1000
G1 X49.409 Y72.199 F1000
G1 X49.409 Y72.199 F1000
G1 X47.091 Y74.001 F1000
G1 X47.091 Y74.001 F1000
G1 X49.409 Y72.199 F1000
G1 X49.409 Y72.199 F1000
G1 X47.091 Y74.001 F1000
G1 X47.091 Y74.001 F1000
G1 X49.409 Y72.199 F1000
G1 X49.409 Y72.199 F1000
G1 X47.091 Y74.001 F1000
G1 X47.091 Y74.001 F1000
G1 X49.409 Y72.199 F1000
G1 X49.409 Y72.199 F1000
G1 X47.091 Y74.001 F1000
G1 X47.091 Y74.001 F1000
G1 X49.409 Y72.199 F1000
G1 X49.409 Y72.199 F1000
G1 X47.091 Y74.001 F1000
G1 X47.091 Y74.001 F1000
G1 X49.409 Y72.199 F1000
G1 X49.409 Y72.199 F1000
G1 X47.091 Y74.001 F1000
G1 X47.091 Y74.001 F1000
G1 X49.409 Y72.199 F1000
G1 X49.409 Y72.199 F1000
G1 X47.091 Y74.001 F1000
G1 X47.091 Y74.001 F1000
G1 X49.409 Y72.199 F1000
G1 X49.409 Y72.199 F1000
G1 X47.091 Y74.001 F1000
G1 X47.091 Y74.001 F1000
G1 X49.409 Y72.199 F1000
G1 X49.409 Y72.199 F1000
G1 X47.091 Y74.001 F1000
G1 X47.091 Y74.001 F1000
G1 X49.409 Y72.199 F1000
G1 X49.409 Y72.199 F1000
G1 X47.091 Y74.001 F1000
G1 X47.091 Y74.001 F1000
G1 X49.409 Y72.199 F1000
G1 X49.409 Y72.199 F1000
G1 X47.091 Y74.001 F1000
G1 X47.091 Y74.001 F1000
G1 X49.409 Y72.199 F1000
G1 X49.409 Y72.199 F1000
G1 X47.091 Y74.001 F1000
G1 X47.091 Y74.001 F1000
G1 X49.409 Y72.199 F1000
G1 X49.409 Y72.199 F1000
G1 X47.091 Y74.001 F1000
G1 X47.091 Y74.001 F1000
G1 X49.409 Y72.199 F1000
G1 X49.409 Y72.199 F1000
G1 X47.091 Y74.001 F1000
G1 X47.091 Y74.001 F1000
G1 X49.409 Y72.199 F1000
G1 X49.409 Y72.199 F1000
G1 X47.091 Y74.001 F1000
G1 X47.091 Y74.001 F1000
G1 X49.409 Y72.199 F1000
G1 X49.409 Y72.199 F1000
G1 X47.091 Y74.001 F1000
G1 X47.091 Y74.001 F1000
G1 X49.409 Y72.199 F1000
G1 X49.409 Y72.199 F1000
G1 X47.091 Y74.001 F1000
G1 X47.091 Y74.001 F1000
G1 X49.409 Y72.199 F1000
G1 X49.409 Y72.199 F1000
G1 X47.091 Y74.001 F1000
G1 X47.091 Y74.001 F1000
G1 X49.409 Y72.199 F1000
G1 X49.409 Y72.199 F1000
G1 X47.091 Y74.001 F1000
G1 X47.091 Y74.001 F1000
G1 X49.409 Y72.199 F1000
G1 X49.409 Y72.199 F1000
G1 X47.091 Y74.001 F1000
G1 X47.091 Y74.001 F1000
G1 X49.409 Y72.199 F1000
G1 X49.409 Y72.199 F1000
G1 X47.091 Y74.001 F1000
G1 X47.091 Y74.001 F1000
G1 X49.409 Y72.199 F1000
G1 X49.409 Y72.199 F1000
G1 X47.091 Y74.001 F1000
G1 X47.091 Y74.001 F1000
G1 X49.409 Y72.199 F1000
G1 X49.409 Y72.199 F1000
G1 X47.091 Y74.001 F1000
G1 X47.091 Y74.001 F1000
G1 X49.409 Y72.199 F1000
G1 X49.409 Y72.199 F1000
G1 X47.091 Y74.001 F1000
G1 X47.091 Y74.001 F1000
G1 X49.409 Y72.199 F1000
G1 X49.409 Y72.199 F1000
G1 X47.091 Y74.001 F1000
G1 X47.091 Y74.001 F1000
G1 X49.409 Y72.199 F1000
G1 X49.409 Y72.199 F1000
G1 X47.091 Y74.001 F1000
G1 X47.091 Y74.001 F1000
G1 X49.409 Y72.199 F1000
G1 X49.409 Y72.199 F1000
G1 X47.091 Y74.001 F1000
G1 X47.091 Y74.001 F1000
G1 X49.409 Y72.199 F1000
G1 X49.409 Y72.199 F1000
G1 X47.091 Y74.001 F1000
G1 X47.091 Y74.001 F1000
G1 X49.409 Y72.199 F1000
G1 X49.409 Y72.199 F1000
G1 X47.091 Y74.001 F1000
G1 X47.091 Y74.001 F1000
G1 X49.409 Y72.199 F1000
G1 X49.409 Y72.199 F1000
G1 X47.091 Y74.001 F1000
G1 X47.091 Y74.001 F1000
G1 X49.409 Y72.199 F1000
G1 X49.409 Y72.199 F1000
G1 X47.091 Y74.001 F1000
G1 X47.091 Y74.001 F1000
G1 X49.409 Y72.199 F1000
G1 X49.409 Y72.199 F1000
G1 X47.091 Y74.001 F1000
G1 X47.091 Y74.001 F1000
G1 X49.409 Y72.199 F1000
G1 X49.409 Y72.199 F1000
G1 X47.091 Y74.001 F1000
G1 X47.091 Y74.001 F1000
G1 X49.409 Y72.199 F1000
G1 X49.409 Y72.199 F1000
G1 X47.091 Y74.001 F1000
G1 X47.091 Y74.001 F1000
G1 X49.409 Y72.199 F1000
G1 X49.409 Y72.199 F1000
G1 X47.091 Y74.001 F1000
G1 X47.091 Y74.001 F1000
G1 X49.409 Y72.199 F1000
G1 X49.409 Y72.199 F1000
G1 X47.091 Y74.001 F1000
G1 X47.091 Y74.001 F1000
G1 X49.409 Y72.199 F1000
G1 X49.409 Y72.199 F1000
G1 X47.091 Y74.001 F1000
G1 X47.091 Y74.001 F1000
G1 X49.409 Y72.199 F1000
G1 X49.409 Y72.199 F1000
G1 X47.091 Y74.001 F1000
G1 X47.091 Y74.001 F1000
G1 X49.409 Y72.199 F1000
G1 X49.409 Y72.199 F1000
G1 X47.091 Y74.001 F1000
G1 X47.091 Y74.001 F1000
G1 X49.409 Y72.199 F1000
G1 X49.409 Y72.199 F1000
G1 X47.091 Y74.001 F1000
G1 X47.091 Y74.001 F1000
G1 X49.409 Y72.199 F1000
G1 X49.409 Y72.199 F1000
G1 X47.091 Y74.001 F1000
G1 X47.091 Y74.001 F1000
G1 X49.409 Y72.199 F1000
G1 X49.409 Y72.199 F1000
G1 X47.091 Y74.001 F1000
G1 X47.091 Y74.001 F1000
G1 X49.409 Y72.199 F1000
G1 X49.409 Y72.199 F1000
G1 X47.091 Y74.001 F1000
G1 X47.091 Y74.001 F1000
G1 X49.409 Y72.199 F1000
G1 X49.409 Y72.199 F1000
G1 X47.091 Y74.001 F1000
G1 X47.091 Y74.001 F1000
G1 X49.409 Y72.199 F1000
G1 X49.409 Y72.199 F1000
G1 X47.091 Y74.001 F1000
G1 X47.091 Y74.001 F1000
G1 X49.409 Y72.199 F1000
G1 X49.409 Y72.199 F1000
G1 X47.091 Y74.001 F1000
G1 X47.091 Y74.001 F1000
G1 X49.409 Y72.199 F1000
G1 X49.409 Y72.199 F1000
G1 X47.091 Y74.001 F1000
G1 X47.091 Y74.001 F1000
G1 X49.409 Y72.199 F1000
G1 X49.409 Y72.199 F1000
G1 X47.091 Y74.001 F1000
G0 Z3.0 ; Pen up

G0 X47.091 Y73.873 F3000 ; Travel to line 457
G0 Z0.0 ; Pen down
G1 X49.409 Y72.070 F1000
G1 X49.409 Y72.070 F1000
G1 X47.091 Y73.873 F1000
G1 X47.091 Y73.873 F1000
G1 X49.409 Y71.941 F1000
G1 X49.409 Y71.941 F1000
G1 X47.091 Y73.744 F1000
G1 X47.091 Y73.744 F1000
G1 X49.409 Y71.812 F1000
G1 X49.409 Y71.812 F1000
G1 X47.091 Y73.744 F1000
G0 Z3.0 ; Pen up

G0 X47.091 Y73.615 F3000 ; Travel to line 458
G0 Z0.0 ; Pen down
G1 X49.409 Y71.684 F1000
G1 X49.409 Y71.684 F1000
G1 X47.091 Y73.486 F1000
G1 X47.091 Y73.486 F1000
G1 X49.409 Y71.555 F1000
G1 X49.409 Y71.555 F1000
G1 X47.091 Y73.486 F1000
G0 Z3.0 ; Pen up

G0 X47.091 Y73.358 F3000 ; Travel to line 459
G0 Z0.0 ; Pen down
G1 X49.409 Y71.426 F1000
G1 X49.409 Y71.426 F1000
G1 X47.091 Y73.229 F1000
G1 X47.091 Y73.229 F1000
G1 X49.409 Y71.297 F1000
G1 X49.409 Y71.297 F1000
G1 X47.091 Y73.229 F1000
G0 Z3.0 ; Pen up

G0 X47.091 Y73.100 F3000 ; Travel to line 460
G0 Z0.0 ; Pen down
G1 X49.409 Y71.169 F1000
G1 X49.409 Y71.169 F1000
G1 X47.091 Y73.100 F1000
G1 X47.091 Y73.100 F1000
G1 X49.409 Y71.169 F1000
G0 Z3.0 ; Pen up

G0 X49.409 Y71.426 F3000 ; Travel to line 461
G0 Z0.0 ; Pen down
G1 X47.091 Y73.358 F1000
G1 X47.091 Y73.358 F1000
G1 X49.409 Y71.555 F1000
G0 Z3.0 ; Pen up

G0 X49.409 Y71.684 F3000 ; Travel to line 462
G0 Z0.0 ; Pen down
G1 X47.091 Y73.615 F1000
G1 X47.091 Y73.615 F1000
G1 X49.409 Y71.812 F1000
G0 Z3.0 ; Pen up

G0 X49.409 Y72.070 F3000 ; Travel to line 463
G0 Z0.0 ; Pen down
G1 X47.091 Y74.001 F1000
G1 X47.091 Y74.001 F1000
G1 X49.409 Y72.199 F1000
G1 X49.409 Y72.199 F1000
G1 X47.091 Y74.130 F1000
G1 X47.091 Y74.130 F1000
G1 X49.409 Y72.328 F1000
G0 Z3.0 ; Pen up

G0 X49.409 Y70.911 F3000 ; Travel to line 464
G0 Z0.0 ; Pen down
G1 X47.091 Y72.843 F1000
G1 X47.091 Y72.843 F1000
G1 X49.409 Y70.911 F1000
G1 X49.409 Y70.911 F1000
G1 X47.091 Y72.843 F1000
G0 Z3.0 ; Pen up

G0 X47.091 Y72.971 F3000 ; Travel to line 465
G0 Z0.0 ; Pen down
G1 X49.409 Y71.040 F1000
G1 X49.409 Y71.040 F1000
G1 X47.091 Y72.971 F1000
G0 Z3.0 ; Pen up

G0 X47.091 Y72.714 F3000 ; Travel to line 466
G0 Z0.0 ; Pen down
G1 X49.409 Y70.782 F1000
G1 X49.409 Y70.782 F1000
G1 X47.091 Y72.714 F1000
G1 X47.091 Y72.714 F1000
G1 X49.409 Y70.654 F1000
G1 X49.409 Y70.654 F1000
G1 X47.091 Y72.585 F1000
G0 Z3.0 ; Pen up

G0 X47.091 Y72.456 F3000 ; Travel to line 467
G0 Z0.0 ; Pen down
G1 X49.409 Y70.525 F1000
G1 X49.409 Y70.525 F1000
G1 X47.091 Y72.456 F1000
G0 Z3.0 ; Pen up

G0 X47.091 Y72.328 F3000 ; Travel to line 468
G0 Z0.0 ; Pen down
G1 X49.409 Y70.396 F1000
G1 X49.409 Y70.396 F1000
G1 X47.091 Y72.328 F1000
G1 X47.091 Y72.328 F1000
G1 X49.409 Y70.267 F1000
G1 X49.409 Y70.267 F1000
G1 X47.091 Y72.199 F1000
G0 Z3.0 ; Pen up

G0 X47.091 Y72.070 F3000 ; Travel to line 469
G0 Z0.0 ; Pen down
G1 X49.409 Y70.139 F1000
G1 X49.409 Y70.139 F1000
G1 X47.091 Y72.070 F1000
G1 X47.091 Y72.070 F1000
G1 X49.409 Y70.010 F1000
G1 X49.409 Y70.010 F1000
G1 X47.091 Y71.941 F1000
G1 X47.091 Y71.941 F1000
G1 X49.409 Y69.881 F1000
G1 X49.409 Y69.881 F1000
G1 X47.091 Y71.812 F1000
G0 Z3.0 ; Pen up

G0 X47.091 Y71.555 F3000 ; Travel to line 470
G0 Z0.0 ; Pen down
G1 X49.409 Y69.624 F1000
G1 X49.409 Y69.624 F1000
G1 X47.091 Y71.555 F1000
G1 X47.091 Y71.555 F1000
G1 X49.409 Y69.495 F1000
G1 X49.409 Y69.495 F1000
G1 X47.091 Y71.426 F1000
G1 X47.091 Y71.426 F1000
G1 X49.409 Y69.366 F1000
G1 X49.409 Y69.366 F1000
G1 X47.091 Y71.297 F1000
G1 X47.091 Y71.297 F1000
G1 X49.409 Y69.237 F1000
G1 X49.409 Y69.237 F1000
G1 X47.091 Y71.297 F1000
G0 Z3.0 ; Pen up

G0 X47.091 Y71.040 F3000 ; Travel to line 471
G0 Z0.0 ; Pen down
G1 X49.409 Y68.980 F1000
G1 X49.409 Y68.980 F1000
G1 X47.091 Y71.040 F1000
G1 X47.091 Y71.040 F1000
G1 X49.409 Y69.109 F1000
G1 X49.409 Y69.109 F1000
G1 X47.091 Y71.169 F1000
G1 X47.091 Y71.169 F1000
G1 X49.409 Y69.237 F1000
G0 Z3.0 ; Pen up

G0 X49.409 Y68.851 F3000 ; Travel to line 472
G0 Z0.0 ; Pen down
G1 X47.091 Y70.911 F1000
G1 X47.091 Y70.911 F1000
G1 X49.409 Y68.851 F1000
G1 X49.409 Y68.851 F1000
G1 X47.091 Y70.911 F1000
G0 Z3.0 ; Pen up

G0 X47.091 Y70.782 F3000 ; Travel to line 473
G0 Z0.0 ; Pen down
G1 X49.409 Y68.722 F1000
G1 X49.409 Y68.722 F1000
G1 X47.091 Y70.782 F1000
G0 Z3.0 ; Pen up

G0 X47.091 Y70.654 F3000 ; Travel to line 474
G0 Z0.0 ; Pen down
G1 X49.409 Y68.594 F1000
G0 Z3.0 ; Pen up

G0 X49.409 Y68.336 F3000 ; Travel to line 475
G0 Z0.0 ; Pen down
G1 X47.091 Y70.396 F1000
G0 Z3.0 ; Pen up

G0 X47.091 Y70.267 F3000 ; Travel to line 476
G0 Z0.0 ; Pen down
G1 X49.409 Y68.207 F1000
G0 Z3.0 ; Pen up

G0 X49.409 Y68.079 F3000 ; Travel to line 477
G0 Z0.0 ; Pen down
G1 X47.091 Y70.139 F1000
G0 Z3.0 ; Pen up

G0 X47.091 Y69.881 F3000 ; Travel to line 478
G0 Z0.0 ; Pen down
G1 X49.409 Y67.821 F1000
G0 Z3.0 ; Pen up

G0 X49.409 Y67.692 F3000 ; Travel to line 479
G0 Z0.0 ; Pen down
G1 X47.091 Y69.752 F1000
G0 Z3.0 ; Pen up

G0 X47.091 Y69.495 F3000 ; Travel to line 480
G0 Z0.0 ; Pen down
G1 X49.409 Y67.435 F1000
G0 Z3.0 ; Pen up

G0 X49.409 Y67.306 F3000 ; Travel to line 481
G0 Z0.0 ; Pen down
G1 X47.091 Y69.366 F1000
G0 Z3.0 ; Pen up

G0 X47.091 Y69.109 F3000 ; Travel to line 482
G0 Z0.0 ; Pen down
G1 X49.409 Y67.049 F1000
G0 Z3.0 ; Pen up

G0 X49.409 Y66.920 F3000 ; Travel to line 483
G0 Z0.0 ; Pen down
G1 X47.091 Y68.980 F1000
G0 Z3.0 ; Pen up

G0 X47.091 Y68.851 F3000 ; Travel to line 484
G0 Z0.0 ; Pen down
G1 X49.409 Y66.791 F1000
G0 Z3.0 ; Pen up

G0 X49.409 Y66.534 F3000 ; Travel to line 485
G0 Z0.0 ; Pen down
G1 X47.091 Y68.594 F1000
G0 Z3.0 ; Pen up

G0 X47.091 Y68.465 F3000 ; Travel to line 486
G0 Z0.0 ; Pen down
G1 X49.409 Y66.405 F1000
G0 Z3.0 ; Pen up

G0 X49.409 Y66.019 F3000 ; Travel to line 487
G0 Z0.0 ; Pen down
G1 X47.091 Y67.950 F1000
G0 Z3.0 ; Pen up

G0 X47.091 Y68.079 F3000 ; Travel to line 488
G0 Z0.0 ; Pen down
G1 X49.409 Y66.148 F1000
G1 X49.409 Y66.148 F1000
G1 X47.091 Y68.207 F1000
G0 Z3.0 ; Pen up

G0 X47.091 Y67.821 F3000 ; Travel to line 489
G0 Z0.0 ; Pen down
G1 X49.409 Y65.761 F1000
G0 Z3.0 ; Pen up

G0 X49.409 Y65.633 F3000 ; Travel to line 490
G0 Z0.0 ; Pen down
G1 X47.091 Y67.692 F1000
G0 Z3.0 ; Pen up

G0 X47.091 Y67.435 F3000 ; Travel to line 491
G0 Z0.0 ; Pen down
G1 X49.409 Y65.375 F1000
G0 Z3.0 ; Pen up

G0 X49.409 Y65.246 F3000 ; Travel to line 492
G0 Z0.0 ; Pen down
G1 X47.091 Y67.306 F1000
G0 Z3.0 ; Pen up

G0 X47.091 Y67.177 F3000 ; Travel to line 493
G0 Z0.0 ; Pen down
G1 X49.409 Y65.118 F1000
G0 Z3.0 ; Pen up

G0 X49.409 Y64.860 F3000 ; Travel to line 494
G0 Z0.0 ; Pen down
G1 X47.091 Y66.920 F1000
G0 Z3.0 ; Pen up

G0 X47.091 Y66.791 F3000 ; Travel to line 495
G0 Z0.0 ; Pen down
G1 X49.409 Y64.731 F1000
G0 Z3.0 ; Pen up

G0 X49.409 Y64.474 F3000 ; Travel to line 496
G0 Z0.0 ; Pen down
G1 X47.091 Y66.534 F1000
G0 Z3.0 ; Pen up

G0 X47.091 Y66.405 F3000 ; Travel to line 497
G0 Z0.0 ; Pen down
G1 X49.409 Y64.345 F1000
G0 Z3.0 ; Pen up

G0 X49.409 Y64.088 F3000 ; Travel to line 498
G0 Z0.0 ; Pen down
G1 X47.091 Y66.148 F1000
G0 Z3.0 ; Pen up

G0 X47.091 Y66.019 F3000 ; Travel to line 499
G0 Z0.0 ; Pen down
G1 X49.409 Y63.959 F1000
G0 Z3.0 ; Pen up

G0 X49.409 Y63.830 F3000 ; Travel to line 500
G0 Z0.0 ; Pen down
G1 X47.091 Y65.890 F1000
G0 Z3.0 ; Pen up

G0 X47.091 Y65.633 F3000 ; Travel to line 501
G0 Z0.0 ; Pen down
G1 X49.409 Y63.573 F1000
G0 Z3.0 ; Pen up

G0 X49.409 Y63.444 F3000 ; Travel to line 502
G0 Z0.0 ; Pen down
G1 X47.091 Y65.504 F1000
G0 Z3.0 ; Pen up

G0 X47.091 Y65.246 F3000 ; Travel to line 503
G0 Z0.0 ; Pen down
G1 X49.409 Y63.186 F1000
G1 X49.409 Y63.186 F1000
G1 X47.091 Y65.118 F1000
G0 Z3.0 ; Pen up

G0 X47.091 Y64.989 F3000 ; Travel to line 504
G0 Z0.0 ; Pen down
G1 X49.409 Y63.058 F1000
G0 Z3.0 ; Pen up

G0 X49.409 Y62.800 F3000 ; Travel to line 505
G0 Z0.0 ; Pen down
G1 X47.091 Y64.731 F1000
G1 X47.091 Y64.731 F1000
G1 X49.409 Y62.671 F1000
G0 Z3.0 ; Pen up

G0 X49.409 Y62.414 F3000 ; Travel to line 506
G0 Z0.0 ; Pen down
G1 X47.091 Y64.474 F1000
G0 Z3.0 ; Pen up

G0 X47.091 Y64.345 F3000 ; Travel to line 507
G0 Z0.0 ; Pen down
G1 X49.409 Y62.285 F1000
G0 Z3.0 ; Pen up

G0 X49.409 Y62.028 F3000 ; Travel to line 508
G0 Z0.0 ; Pen down
G1 X47.091 Y64.088 F1000
G0 Z3.0 ; Pen up

G0 X47.091 Y63.959 F3000 ; Travel to line 509
G0 Z0.0 ; Pen down
G1 X49.409 Y61.899 F1000
G0 Z3.0 ; Pen up

G0 X49.409 Y61.770 F3000 ; Travel to line 510
G0 Z0.0 ; Pen down
G1 X47.091 Y63.830 F1000
G0 Z3.0 ; Pen up

G0 X47.091 Y63.573 F3000 ; Travel to line 511
G0 Z0.0 ; Pen down
G1 X49.409 Y61.513 F1000
G0 Z3.0 ; Pen up

G0 X49.409 Y61.384 F3000 ; Travel to line 512
G0 Z0.0 ; Pen down
G1 X47.091 Y63.444 F1000
G0 Z3.0 ; Pen up

G0 X47.091 Y63.186 F3000 ; Travel to line 513
G0 Z0.0 ; Pen down
G1 X49.409 Y61.126 F1000
G0 Z3.0 ; Pen up

G0 X49.409 Y60.998 F3000 ; Travel to line 514
G0 Z0.0 ; Pen down
G1 X47.091 Y63.058 F1000
G0 Z3.0 ; Pen up

G0 X47.091 Y62.929 F3000 ; Travel to line 515
G0 Z0.0 ; Pen down
G1 X49.409 Y60.869 F1000
G0 Z3.0 ; Pen up

G0 X49.409 Y60.611 F3000 ; Travel to line 516
G0 Z0.0 ; Pen down
G1 X47.091 Y62.671 F1000
G0 Z3.0 ; Pen up

G0 X47.091 Y62.543 F3000 ; Travel to line 517
G0 Z0.0 ; Pen down
G1 X49.409 Y60.483 F1000
G0 Z3.0 ; Pen up

G0 X49.409 Y60.354 F3000 ; Travel to line 518
G0 Z0.0 ; Pen down
G1 X47.091 Y62.285 F1000
G0 Z3.0 ; Pen up

G0 X47.091 Y62.156 F3000 ; Travel to line 519
G0 Z0.0 ; Pen down
G1 X49.409 Y60.225 F1000
G0 Z3.0 ; Pen up

G0 X49.409 Y60.096 F3000 ; Travel to line 520
G0 Z0.0 ; Pen down
G1 X47.091 Y62.028 F1000
G0 Z3.0 ; Pen up

G0 X47.091 Y61.513 F3000 ; Travel to line 521
G0 Z0.0 ; Pen down
G1 X49.409 Y59.453 F1000
G0 Z3.0 ; Pen up

G0 X49.409 Y59.324 F3000 ; Travel to line 522
G0 Z0.0 ; Pen down
G1 X47.091 Y61.384 F1000
G0 Z3.0 ; Pen up

G0 X47.091 Y61.126 F3000 ; Travel to line 523
G0 Z0.0 ; Pen down
G1 X49.409 Y59.066 F1000
G0 Z3.0 ; Pen up

G0 X49.409 Y58.938 F3000 ; Travel to line 524
G0 Z0.0 ; Pen down
G1 X47.091 Y60.998 F1000
G0 Z3.0 ; Pen up

G0 X47.091 Y60.869 F3000 ; Travel to line 525
G0 Z0.0 ; Pen down
G1 X49.409 Y58.809 F1000
G0 Z3.0 ; Pen up

G0 X49.409 Y58.551 F3000 ; Travel to line 526
G0 Z0.0 ; Pen down
G1 X47.091 Y60.611 F1000
G0 Z3.0 ; Pen up

G0 X47.091 Y60.483 F3000 ; Travel to line 527
G0 Z0.0 ; Pen down
G1 X49.409 Y58.422 F1000
G0 Z3.0 ; Pen up

G0 X49.409 Y58.165 F3000 ; Travel to line 528
G0 Z0.0 ; Pen down
G1 X47.091 Y60.225 F1000
G0 Z3.0 ; Pen up

G0 X47.091 Y60.096 F3000 ; Travel to line 529
G0 Z0.0 ; Pen down
G1 X49.409 Y58.036 F1000
G0 Z3.0 ; Pen up

G0 X49.409 Y57.907 F3000 ; Travel to line 530
G0 Z0.0 ; Pen down
G1 X47.091 Y59.968 F1000
G0 Z3.0 ; Pen up

G0 X47.091 Y59.710 F3000 ; Travel to line 531
G0 Z0.0 ; Pen down
G1 X49.409 Y57.650 F1000
G1 X49.409 Y57.650 F1000
G1 X47.091 Y59.581 F1000
G0 Z3.0 ; Pen up

G0 X47.091 Y59.324 F3000 ; Travel to line 532
G0 Z0.0 ; Pen down
G1 X49.409 Y57.392 F1000
G0 Z3.0 ; Pen up

G0 X49.409 Y57.264 F3000 ; Travel to line 533
G0 Z0.0 ; Pen down
G1 X47.091 Y59.195 F1000
G0 Z3.0 ; Pen up

G0 X47.091 Y59.066 F3000 ; Travel to line 534
G0 Z0.0 ; Pen down
G1 X49.409 Y57.006 F1000
G0 Z3.0 ; Pen up

G0 X49.409 Y56.878 F3000 ; Travel to line 535
G0 Z0.0 ; Pen down
G1 X47.091 Y58.938 F1000
G0 Z3.0 ; Pen up

G0 X47.091 Y58.809 F3000 ; Travel to line 536
G0 Z0.0 ; Pen down
G1 X49.409 Y56.749 F1000
G0 Z3.0 ; Pen up

G0 X49.409 Y56.491 F3000 ; Travel to line 537
G0 Z0.0 ; Pen down
G1 X47.091 Y58.551 F1000
G0 Z3.0 ; Pen up

G0 X47.091 Y58.422 F3000 ; Travel to line 538
G0 Z0.0 ; Pen down
G1 X49.409 Y56.363 F1000
G0 Z3.0 ; Pen up

G0 X49.409 Y56.105 F3000 ; Travel to line 539
G0 Z0.0 ; Pen down
G1 X47.091 Y58.165 F1000
G0 Z3.0 ; Pen up

G0 X47.091 Y58.036 F3000 ; Travel to line 540
G0 Z0.0 ; Pen down
G1 X49.409 Y55.976 F1000
G0 Z3.0 ; Pen up

G0 X49.409 Y55.848 F3000 ; Travel to line 541
G0 Z0.0 ; Pen down
G1 X47.091 Y57.907 F1000
G0 Z3.0 ; Pen up

G0 X47.091 Y57.650 F3000 ; Travel to line 542
G0 Z0.0 ; Pen down
G1 X49.409 Y55.590 F1000
G0 Z3.0 ; Pen up

G0 X49.409 Y55.461 F3000 ; Travel to line 543
G0 Z0.0 ; Pen down
G1 X47.091 Y57.521 F1000
G0 Z3.0 ; Pen up

G0 X47.091 Y57.264 F3000 ; Travel to line 544
G0 Z0.0 ; Pen down
G1 X49.409 Y55.204 F1000
G1 X49.409 Y55.204 F1000
G1 X47.091 Y57.135 F1000
G0 Z3.0 ; Pen up

G0 X47.091 Y56.878 F3000 ; Travel to line 545
G0 Z0.0 ; Pen down
G1 X49.409 Y54.946 F1000
G0 Z3.0 ; Pen up

G0 X49.409 Y54.818 F3000 ; Travel to line 546
G0 Z0.0 ; Pen down
G1 X47.091 Y56.749 F1000
G0 Z3.0 ; Pen up

G0 X47.091 Y56.620 F3000 ; Travel to line 547
G0 Z0.0 ; Pen down
G1 X49.409 Y54.689 F1000
G0 Z3.0 ; Pen up

G0 X49.409 Y54.431 F3000 ; Travel to line 548
G0 Z0.0 ; Pen down
G1 X47.091 Y56.363 F1000
G1 X47.091 Y56.363 F1000
G1 X49.409 Y54.303 F1000
G0 Z3.0 ; Pen up

G0 X49.409 Y54.045 F3000 ; Travel to line 549
G0 Z0.0 ; Pen down
G1 X47.091 Y56.105 F1000
G0 Z3.0 ; Pen up

G0 X47.091 Y55.976 F3000 ; Travel to line 550
G0 Z0.0 ; Pen down
G1 X52.370 Y51.341 F1000
G0 Z3.0 ; Pen up

G0 X52.499 Y51.341 F3000 ; Travel to line 551
G0 Z0.0 ; Pen down
G1 X49.795 Y53.659 F1000
G0 Z3.0 ; Pen up

G0 X50.181 Y53.659 F3000 ; Travel to line 552
G0 Z0.0 ; Pen down
G1 X52.756 Y51.341 F1000
G0 Z3.0 ; Pen up

G0 X52.885 Y51.341 F3000 ; Travel to line 553
G0 Z0.0 ; Pen down
G1 X50.310 Y53.659 F1000
G0 Z3.0 ; Pen up

G0 X50.568 Y53.659 F3000 ; Travel to line 554
G0 Z0.0 ; Pen down
G1 X53.271 Y51.341 F1000
G0 Z3.0 ; Pen up

G0 X53.400 Y51.341 F3000 ; Travel to line 555
G0 Z0.0 ; Pen down
G1 X50.696 Y53.659 F1000
G0 Z3.0 ; Pen up

G0 X50.825 Y53.659 F3000 ; Travel to line 556
G0 Z0.0 ; Pen down
G1 X53.529 Y51.341 F1000
G0 Z3.0 ; Pen up

G0 X53.786 Y51.341 F3000 ; Travel to line 557
G0 Z0.0 ; Pen down
G1 X51.083 Y53.659 F1000
G0 Z3.0 ; Pen up

G0 X51.211 Y53.659 F3000 ; Travel to line 558
G0 Z0.0 ; Pen down
G1 X53.915 Y51.341 F1000
G0 Z3.0 ; Pen up

G0 X54.172 Y51.341 F3000 ; Travel to line 559
G0 Z0.0 ; Pen down
G1 X51.469 Y53.659 F1000
G0 Z3.0 ; Pen up

G0 X51.598 Y53.659 F3000 ; Travel to line 560
G0 Z0.0 ; Pen down
G1 X54.301 Y51.341 F1000
G0 Z3.0 ; Pen up

G0 X54.559 Y51.341 F3000 ; Travel to line 561
G0 Z0.0 ; Pen down
G1 X51.984 Y53.659 F1000
G0 Z3.0 ; Pen up

G0 X52.113 Y53.659 F3000 ; Travel to line 562
G0 Z0.0 ; Pen down
G1 X54.688 Y51.341 F1000
G0 Z3.0 ; Pen up

G0 X54.945 Y51.341 F3000 ; Travel to line 563
G0 Z0.0 ; Pen down
G1 X52.241 Y53.659 F1000
G0 Z3.0 ; Pen up

G0 X52.499 Y53.659 F3000 ; Travel to line 564
G0 Z0.0 ; Pen down
G1 X55.203 Y51.341 F1000
G0 Z3.0 ; Pen up

G0 X55.331 Y51.341 F3000 ; Travel to line 565
G0 Z0.0 ; Pen down
G1 X52.627 Y53.659 F1000
G0 Z3.0 ; Pen up

G0 X52.885 Y53.659 F3000 ; Travel to line 566
G0 Z0.0 ; Pen down
G1 X55.589 Y51.341 F1000
G0 Z3.0 ; Pen up

G0 X55.718 Y51.341 F3000 ; Travel to line 567
G0 Z0.0 ; Pen down
G1 X53.014 Y53.659 F1000
G0 Z3.0 ; Pen up

G0 X53.142 Y53.659 F3000 ; Travel to line 568
G0 Z0.0 ; Pen down
G1 X55.846 Y51.341 F1000
G0 Z3.0 ; Pen up

G0 X56.104 Y51.341 F3000 ; Travel to line 569
G0 Z0.0 ; Pen down
G1 X53.529 Y53.659 F1000
G0 Z3.0 ; Pen up

G0 X53.657 Y53.659 F3000 ; Travel to line 570
G0 Z0.0 ; Pen down
G1 X56.233 Y51.341 F1000
G0 Z3.0 ; Pen up

G0 X56.619 Y51.341 F3000 ; Travel to line 571
G0 Z0.0 ; Pen down
G1 X53.915 Y53.659 F1000
G0 Z3.0 ; Pen up

G0 X54.044 Y53.659 F3000 ; Travel to line 572
G0 Z0.0 ; Pen down
G1 X56.748 Y51.341 F1000
G0 Z3.0 ; Pen up

G0 X57.005 Y51.341 F3000 ; Travel to line 573
G0 Z0.0 ; Pen down
G1 X54.301 Y53.659 F1000
G0 Z3.0 ; Pen up

G0 X54.430 Y53.659 F3000 ; Travel to line 574
G0 Z0.0 ; Pen down
G1 X57.134 Y51.341 F1000
G0 Z3.0 ; Pen up

G0 X57.263 Y51.341 F3000 ; Travel to line 575
G0 Z0.0 ; Pen down
G1 X54.559 Y53.659 F1000
G0 Z3.0 ; Pen up

G0 X54.816 Y53.659 F3000 ; Travel to line 576
G0 Z0.0 ; Pen down
G1 X57.520 Y51.341 F1000
G0 Z3.0 ; Pen up

G0 X57.649 Y51.341 F3000 ; Travel to line 577
G0 Z0.0 ; Pen down
G1 X54.945 Y53.659 F1000
G0 Z3.0 ; Pen up

G0 X55.331 Y53.659 F3000 ; Travel to line 578
G0 Z0.0 ; Pen down
G1 X57.906 Y51.341 F1000
G0 Z3.0 ; Pen up

G0 X58.035 Y51.341 F3000 ; Travel to line 579
G0 Z0.0 ; Pen down
G1 X55.460 Y53.659 F1000
G0 Z3.0 ; Pen up

G0 X55.589 Y53.659 F3000 ; Travel to line 580
G0 Z0.0 ; Pen down
G1 X58.164 Y51.341 F1000
G0 Z3.0 ; Pen up

G0 X58.550 Y51.341 F3000 ; Travel to line 581
G0 Z0.0 ; Pen down
G1 X55.846 Y53.659 F1000
G0 Z3.0 ; Pen up

G0 X55.975 Y53.659 F3000 ; Travel to line 582
G0 Z0.0 ; Pen down
G1 X58.679 Y51.341 F1000
G0 Z3.0 ; Pen up

G0 X58.936 Y51.341 F3000 ; Travel to line 583
G0 Z0.0 ; Pen down
G1 X56.233 Y53.659 F1000
G0 Z3.0 ; Pen up

G0 X56.361 Y53.659 F3000 ; Travel to line 584
G0 Z0.0 ; Pen down
G1 X59.065 Y51.341 F1000
G0 Z3.0 ; Pen up

G0 X59.322 Y51.341 F3000 ; Travel to line 585
G0 Z0.0 ; Pen down
G1 X56.619 Y53.659 F1000
G0 Z3.0 ; Pen up

G0 X56.748 Y53.659 F3000 ; Travel to line 586
G0 Z0.0 ; Pen down
G1 X59.451 Y51.341 F1000
G0 Z3.0 ; Pen up

G0 X59.580 Y51.341 F3000 ; Travel to line 587
G0 Z0.0 ; Pen down
G1 X57.005 Y53.659 F1000
G0 Z3.0 ; Pen up

G0 X57.263 Y53.659 F3000 ; Travel to line 588
G0 Z0.0 ; Pen down
G1 X59.837 Y51.341 F1000
G0 Z3.0 ; Pen up

G0 X59.966 Y51.341 F3000 ; Travel to line 589
G0 Z0.0 ; Pen down
G1 X57.391 Y53.659 F1000
G0 Z3.0 ; Pen up

G0 X57.649 Y53.659 F3000 ; Travel to line 590
G0 Z0.0 ; Pen down
G1 X60.352 Y51.341 F1000
G0 Z3.0 ; Pen up

G0 X60.481 Y51.341 F3000 ; Travel to line 591
G0 Z0.0 ; Pen down
G1 X57.778 Y53.659 F1000
G0 Z3.0 ; Pen up

G0 X57.906 Y53.659 F3000 ; Travel to line 592
G0 Z0.0 ; Pen down
G1 X60.610 Y51.341 F1000
G0 Z3.0 ; Pen up

G0 X60.867 Y51.341 F3000 ; Travel to line 593
G0 Z0.0 ; Pen down
G1 X58.164 Y53.659 F1000
G0 Z3.0 ; Pen up

G0 X58.293 Y53.659 F3000 ; Travel to line 594
G0 Z0.0 ; Pen down
G1 X60.996 Y51.341 F1000
G0 Z3.0 ; Pen up

G0 X61.254 Y51.341 F3000 ; Travel to line 595
G0 Z0.0 ; Pen down
G1 X58.550 Y53.659 F1000
G0 Z3.0 ; Pen up

G0 X58.808 Y53.659 F3000 ; Travel to line 596
G0 Z0.0 ; Pen down
G1 X61.383 Y51.341 F1000
G0 Z3.0 ; Pen up

G0 X61.511 Y51.341 F3000 ; Travel to line 597
G0 Z0.0 ; Pen down
G1 X58.936 Y53.659 F1000
G0 Z3.0 ; Pen up

G0 X59.194 Y53.659 F3000 ; Travel to line 598
G0 Z0.0 ; Pen down
G1 X61.769 Y51.341 F1000
G0 Z3.0 ; Pen up

G0 X61.898 Y51.341 F3000 ; Travel to line 599
G0 Z0.0 ; Pen down
G1 X59.322 Y53.659 F1000
G0 Z3.0 ; Pen up

G0 X59.580 Y53.659 F3000 ; Travel to line 600
G0 Z0.0 ; Pen down
G1 X62.284 Y51.341 F1000
G0 Z3.0 ; Pen up

G0 X62.413 Y51.341 F3000 ; Travel to line 601
G0 Z0.0 ; Pen down
G1 X59.709 Y53.659 F1000
G0 Z3.0 ; Pen up

G0 X59.966 Y53.659 F3000 ; Travel to line 602
G0 Z0.0 ; Pen down
G1 X62.670 Y51.341 F1000
G0 Z3.0 ; Pen up

G0 X62.799 Y51.341 F3000 ; Travel to line 603
G0 Z0.0 ; Pen down
G1 X60.095 Y53.659 F1000
G0 Z3.0 ; Pen up

G0 X60.224 Y53.659 F3000 ; Travel to line 604
G0 Z0.0 ; Pen down
G1 X62.928 Y51.341 F1000
G0 Z3.0 ; Pen up

G0 X63.185 Y51.341 F3000 ; Travel to line 605
G0 Z0.0 ; Pen down
G1 X60.481 Y53.659 F1000
G0 Z3.0 ; Pen up

G0 X60.739 Y53.659 F3000 ; Travel to line 606
G0 Z0.0 ; Pen down
G1 X63.314 Y51.341 F1000
G0 Z3.0 ; Pen up

G0 X63.571 Y51.341 F3000 ; Travel to line 607
G0 Z0.0 ; Pen down
G1 X60.996 Y53.659 F1000
G0 Z3.0 ; Pen up

G0 X61.125 Y53.659 F3000 ; Travel to line 608
G0 Z0.0 ; Pen down
G1 X63.700 Y51.341 F1000
G0 Z3.0 ; Pen up

G0 X63.829 Y51.341 F3000 ; Travel to line 609
G0 Z0.0 ; Pen down
G1 X61.254 Y53.659 F1000
G0 Z3.0 ; Pen up

G0 X61.511 Y53.659 F3000 ; Travel to line 610
G0 Z0.0 ; Pen down
G1 X64.215 Y51.341 F1000
G0 Z3.0 ; Pen up

G0 X64.344 Y51.341 F3000 ; Travel to line 611
G0 Z0.0 ; Pen down
G1 X61.640 Y53.659 F1000
G0 Z3.0 ; Pen up

G0 X61.898 Y53.659 F3000 ; Travel to line 612
G0 Z0.0 ; Pen down
G1 X64.601 Y51.341 F1000
G0 Z3.0 ; Pen up

G0 X64.730 Y51.341 F3000 ; Travel to line 613
G0 Z0.0 ; Pen down
G1 X62.026 Y53.659 F1000
G0 Z3.0 ; Pen up

G0 X62.284 Y53.659 F3000 ; Travel to line 614
G0 Z0.0 ; Pen down
G1 X64.988 Y51.341 F1000
G0 Z3.0 ; Pen up

G0 X65.116 Y51.341 F3000 ; Travel to line 615
G0 Z0.0 ; Pen down
G1 X62.413 Y53.659 F1000
G0 Z3.0 ; Pen up

G0 X62.670 Y53.659 F3000 ; Travel to line 616
G0 Z0.0 ; Pen down
G1 X65.245 Y51.341 F1000
G0 Z3.0 ; Pen up

G0 X65.502 Y51.341 F3000 ; Travel to line 617
G0 Z0.0 ; Pen down
G1 X62.928 Y53.659 F1000
G0 Z3.0 ; Pen up

G0 X63.056 Y53.659 F3000 ; Travel to line 618
G0 Z0.0 ; Pen down
G1 X65.631 Y51.341 F1000
G0 Z3.0 ; Pen up

G0 X65.889 Y51.341 F3000 ; Travel to line 619
G0 Z0.0 ; Pen down
G1 X63.314 Y53.659 F1000
G0 Z3.0 ; Pen up

G0 X63.443 Y53.659 F3000 ; Travel to line 620
G0 Z0.0 ; Pen down
G1 X66.017 Y51.341 F1000
G0 Z3.0 ; Pen up

G0 X66.275 Y51.341 F3000 ; Travel to line 621
G0 Z0.0 ; Pen down
G1 X63.571 Y53.659 F1000
G0 Z3.0 ; Pen up

G0 X63.829 Y53.659 F3000 ; Travel to line 622
G0 Z0.0 ; Pen down
G1 X66.532 Y51.341 F1000
G0 Z3.0 ; Pen up

G0 X66.661 Y51.341 F3000 ; Travel to line 623
G0 Z0.0 ; Pen down
G1 X63.958 Y53.659 F1000
G0 Z3.0 ; Pen up

G0 X64.215 Y53.659 F3000 ; Travel to line 624
G0 Z0.0 ; Pen down
G1 X66.919 Y51.341 F1000
G0 Z3.0 ; Pen up

G0 X67.047 Y51.341 F3000 ; Travel to line 625
G0 Z0.0 ; Pen down
G1 X64.344 Y53.659 F1000
G0 Z3.0 ; Pen up

G0 X64.601 Y53.659 F3000 ; Travel to line 626
G0 Z0.0 ; Pen down
G1 X67.176 Y51.341 F1000
G0 Z3.0 ; Pen up

G0 X67.434 Y51.341 F3000 ; Travel to line 627
G0 Z0.0 ; Pen down
G1 X64.859 Y53.659 F1000
G0 Z3.0 ; Pen up

G0 X64.988 Y53.659 F3000 ; Travel to line 628
G0 Z0.0 ; Pen down
G1 X67.562 Y51.341 F1000
G0 Z3.0 ; Pen up

G0 X67.820 Y51.341 F3000 ; Travel to line 629
G0 Z0.0 ; Pen down
G1 X65.245 Y53.659 F1000
G0 Z3.0 ; Pen up

G0 X65.374 Y53.659 F3000 ; Travel to line 630
G0 Z0.0 ; Pen down
G1 X67.949 Y51.341 F1000
G0 Z3.0 ; Pen up

G0 X68.206 Y51.341 F3000 ; Travel to line 631
G0 Z0.0 ; Pen down
G1 X65.631 Y53.659 F1000
G0 Z3.0 ; Pen up

G0 X65.760 Y53.659 F3000 ; Travel to line 632
G0 Z0.0 ; Pen down
G1 X68.464 Y51.341 F1000
G0 Z3.0 ; Pen up

G0 X68.593 Y51.341 F3000 ; Travel to line 633
G0 Z0.0 ; Pen down
G1 X65.889 Y53.659 F1000
G0 Z3.0 ; Pen up

G0 X66.146 Y53.659 F3000 ; Travel to line 634
G0 Z0.0 ; Pen down
G1 X68.850 Y51.341 F1000
G0 Z3.0 ; Pen up

G0 X68.979 Y51.341 F3000 ; Travel to line 635
G0 Z0.0 ; Pen down
G1 X66.275 Y53.659 F1000
G0 Z3.0 ; Pen up

G0 X66.404 Y53.659 F3000 ; Travel to line 636
G0 Z0.0 ; Pen down
G1 X69.108 Y51.341 F1000
G1 X69.108 Y51.341 F1000
G1 X66.532 Y53.659 F1000
G1 X66.532 Y53.659 F1000
G1 X69.236 Y51.341 F1000
G0 Z3.0 ; Pen up

G0 X69.494 Y51.341 F3000 ; Travel to line 637
G0 Z0.0 ; Pen down
G1 X66.919 Y53.659 F1000
G1 X66.919 Y53.659 F1000
G1 X69.623 Y51.341 F1000
G0 Z3.0 ; Pen up

G0 X69.880 Y51.341 F3000 ; Travel to line 638
G0 Z0.0 ; Pen down
G1 X67.176 Y53.659 F1000
G1 X67.176 Y53.659 F1000
G1 X69.751 Y51.341 F1000
G1 X69.751 Y51.341 F1000
G1 X67.047 Y53.659 F1000
G0 Z3.0 ; Pen up

G0 X67.305 Y53.659 F3000 ; Travel to line 639
G0 Z0.0 ; Pen down
G1 X70.009 Y51.341 F1000
G1 X70.009 Y51.341 F1000
G1 X67.434 Y53.659 F1000
G0 Z3.0 ; Pen up

G0 X67.562 Y53.659 F3000 ; Travel to line 640
G0 Z0.0 ; Pen down
G1 X70.266 Y51.341 F1000
G1 X70.266 Y51.341 F1000
G1 X67.562 Y53.659 F1000
G0 Z3.0 ; Pen up

G0 X67.691 Y53.659 F3000 ; Travel to line 641
G0 Z0.0 ; Pen down
G1 X70.395 Y51.341 F1000
G0 Z3.0 ; Pen up

G0 X70.653 Y51.341 F3000 ; Travel to line 642
G0 Z0.0 ; Pen down
G1 X67.949 Y53.659 F1000
G0 Z3.0 ; Pen up

G0 X68.078 Y53.659 F3000 ; Travel to line 643
G0 Z0.0 ; Pen down
G1 X70.781 Y51.341 F1000
G0 Z3.0 ; Pen up

G0 X71.039 Y51.341 F3000 ; Travel to line 644
G0 Z0.0 ; Pen down
G1 X68.335 Y53.659 F1000
G1 X68.335 Y53.659 F1000
G1 X71.168 Y51.341 F1000
G1 X71.168 Y51.341 F1000
G1 X68.464 Y53.659 F1000
G0 Z3.0 ; Pen up

G0 X68.721 Y53.659 F3000 ; Travel to line 645
G0 Z0.0 ; Pen down
G1 X71.425 Y51.341 F1000
G1 X71.425 Y51.341 F1000
G1 X68.593 Y53.659 F1000
G1 X68.593 Y53.659 F1000
G1 X71.296 Y51.341 F1000
G0 Z3.0 ; Pen up

G0 X71.554 Y51.341 F3000 ; Travel to line 646
G0 Z0.0 ; Pen down
G1 X68.850 Y53.659 F1000
G1 X68.850 Y53.659 F1000
G1 X71.683 Y51.341 F1000
G0 Z3.0 ; Pen up

G0 X71.940 Y51.341 F3000 ; Travel to line 647
G0 Z0.0 ; Pen down
G1 X69.108 Y53.659 F1000
G1 X69.108 Y53.659 F1000
G1 X71.811 Y51.341 F1000
G1 X71.811 Y51.341 F1000
G1 X68.979 Y53.659 F1000
G0 Z3.0 ; Pen up

G0 X69.236 Y53.659 F3000 ; Travel to line 648
G0 Z0.0 ; Pen down
G1 X72.069 Y51.341 F1000
G1 X72.069 Y51.341 F1000
G1 X69.365 Y53.659 F1000
G0 Z3.0 ; Pen up

G0 X69.623 Y53.659 F3000 ; Travel to line 649
G0 Z0.0 ; Pen down
G1 X72.455 Y51.341 F1000
G1 X72.455 Y51.341 F1000
G1 X69.751 Y53.659 F1000
G1 X69.751 Y53.659 F1000
G1 X72.584 Y51.341 F1000
G0 Z3.0 ; Pen up

G0 X72.326 Y51.341 F3000 ; Travel to line 650
G0 Z0.0 ; Pen down
G1 X69.494 Y53.659 F1000
G1 X69.494 Y53.659 F1000
G1 X72.198 Y51.341 F1000
G0 Z3.0 ; Pen up

G0 X73.099 Y51.341 F3000 ; Travel to line 651
G0 Z0.0 ; Pen down
G1 X70.266 Y53.659 F1000
G0 Z3.0 ; Pen up

G0 X70.138 Y53.659 F3000 ; Travel to line 652
G0 Z0.0 ; Pen down
G1 X72.970 Y51.341 F1000
G1 X72.970 Y51.341 F1000
G1 X70.138 Y53.659 F1000
G0 Z3.0 ; Pen up

G0 X70.009 Y53.659 F3000 ; Travel to line 653
G0 Z0.0 ; Pen down
G1 X72.713 Y51.341 F1000
G1 X72.713 Y51.341 F1000
G1 X69.880 Y53.659 F1000
G0 Z3.0 ; Pen up

G0 X70.395 Y53.659 F3000 ; Travel to line 654
G0 Z0.0 ; Pen down
G1 X73.227 Y51.341 F1000
G1 X73.227 Y51.341 F1000
G1 X70.395 Y53.659 F1000
G0 Z3.0 ; Pen up

G0 X70.524 Y53.659 F3000 ; Travel to line 655
G0 Z0.0 ; Pen down
G1 X73.356 Y51.341 F1000
G0 Z3.0 ; Pen up

G0 X73.485 Y51.341 F3000 ; Travel to line 656
G0 Z0.0 ; Pen down
G1 X70.653 Y53.659 F1000
G0 Z3.0 ; Pen up

G0 X70.781 Y53.659 F3000 ; Travel to line 657
G0 Z0.0 ; Pen down
G1 X73.614 Y51.341 F1000
G1 X73.614 Y51.341 F1000
G1 X70.781 Y53.659 F1000
G0 Z3.0 ; Pen up

G0 X70.910 Y53.659 F3000 ; Travel to line 658
G0 Z0.0 ; Pen down
G1 X73.743 Y51.341 F1000
G0 Z3.0 ; Pen up

G0 X74.000 Y51.341 F3000 ; Travel to line 659
G0 Z0.0 ; Pen down
G1 X71.168 Y53.659 F1000
G1 X71.168 Y53.659 F1000
G1 X74.129 Y51.341 F1000
G1 X74.129 Y51.341 F1000
G1 X71.296 Y53.659 F1000
G0 Z3.0 ; Pen up

G0 X71.554 Y53.659 F3000 ; Travel to line 660
G0 Z0.0 ; Pen down
G1 X74.515 Y51.341 F1000
G1 X74.515 Y51.341 F1000
G1 X71.683 Y53.659 F1000
G1 X71.683 Y53.659 F1000
G1 X74.644 Y51.341 F1000
G0 Z3.0 ; Pen up

G0 X74.386 Y51.341 F3000 ; Travel to line 661
G0 Z0.0 ; Pen down
G1 X71.425 Y53.659 F1000
G1 X71.425 Y53.659 F1000
G1 X74.258 Y51.341 F1000
G0 Z3.0 ; Pen up

G0 X74.901 Y51.341 F3000 ; Travel to line 662
G0 Z0.0 ; Pen down
G1 X72.069 Y53.659 F1000
G1 X72.069 Y53.659 F1000
G1 X75.030 Y51.341 F1000
G0 Z3.0 ; Pen up

G0 X75.288 Y51.341 F3000 ; Travel to line 663
G0 Z0.0 ; Pen down
G1 X72.326 Y53.659 F1000
G1 X72.326 Y53.659 F1000
G1 X75.159 Y51.341 F1000
G1 X75.159 Y51.341 F1000
G1 X72.198 Y53.659 F1000
G0 Z3.0 ; Pen up

G0 X72.455 Y53.659 F3000 ; Travel to line 664
G0 Z0.0 ; Pen down
G1 X75.416 Y51.341 F1000
G0 Z3.0 ; Pen up

G0 X75.674 Y51.341 F3000 ; Travel to line 665
G0 Z0.0 ; Pen down
G1 X72.841 Y53.659 F1000
G1 X72.841 Y53.659 F1000
G1 X75.802 Y51.341 F1000
G1 X75.802 Y51.341 F1000
G1 X72.970 Y53.659 F1000
G0 Z3.0 ; Pen up

G0 X73.227 Y53.659 F3000 ; Travel to line 666
G0 Z0.0 ; Pen down
G1 X76.189 Y51.341 F1000
G1 X76.189 Y51.341 F1000
G1 X73.356 Y53.659 F1000
G0 Z3.0 ; Pen up

G0 X73.614 Y53.659 F3000 ; Travel to line 667
G0 Z0.0 ; Pen down
G1 X76.446 Y51.341 F1000
G1 X76.446 Y51.341 F1000
G1 X73.485 Y53.659 F1000
G1 X73.485 Y53.659 F1000
G1 X76.317 Y51.341 F1000
G0 Z3.0 ; Pen up

G0 X76.060 Y51.341 F3000 ; Travel to line 668
G0 Z0.0 ; Pen down
G1 X73.099 Y53.659 F1000
G1 X73.099 Y53.659 F1000
G1 X75.931 Y51.341 F1000
G0 Z3.0 ; Pen up

G0 X76.575 Y51.341 F3000 ; Travel to line 669
G0 Z0.0 ; Pen down
G1 X73.743 Y53.659 F1000
G1 X73.743 Y53.659 F1000
G1 X76.704 Y51.341 F1000
G0 Z3.0 ; Pen up

G0 X76.961 Y51.341 F3000 ; Travel to line 670
G0 Z0.0 ; Pen down
G1 X74.129 Y53.659 F1000
G0 Z3.0 ; Pen up

G0 X74.000 Y53.659 F3000 ; Travel to line 671
G0 Z0.0 ; Pen down
G1 X76.832 Y51.341 F1000
G1 X76.832 Y51.341 F1000
G1 X73.871 Y53.659 F1000
G0 Z3.0 ; Pen up

G0 X74.258 Y53.659 F3000 ; Travel to line 672
G0 Z0.0 ; Pen down
G1 X77.090 Y51.341 F1000
G1 X77.090 Y51.341 F1000
G1 X74.258 Y53.659 F1000
G0 Z3.0 ; Pen up

G0 X74.386 Y53.659 F3000 ; Travel to line 673
G0 Z0.0 ; Pen down
G1 X77.219 Y51.341 F1000
G0 Z3.0 ; Pen up

G0 X77.476 Y51.341 F3000 ; Travel to line 674
G0 Z0.0 ; Pen down
G1 X74.644 Y53.659 F1000
G0 Z3.0 ; Pen up

G0 X74.515 Y53.659 F3000 ; Travel to line 675
G0 Z0.0 ; Pen down
G1 X77.347 Y51.341 F1000
G1 X77.347 Y51.341 F1000
G1 X74.515 Y53.659 F1000
G0 Z3.0 ; Pen up

G0 X74.773 Y53.659 F3000 ; Travel to line 676
G0 Z0.0 ; Pen down
G1 X77.605 Y51.341 F1000
G0 Z3.0 ; Pen up

G0 X77.862 Y51.341 F3000 ; Travel to line 677
G0 Z0.0 ; Pen down
G1 X75.030 Y53.659 F1000
G0 Z3.0 ; Pen up

G0 X75.159 Y53.659 F3000 ; Travel to line 678
G0 Z0.0 ; Pen down
G1 X77.991 Y51.341 F1000
G1 X77.991 Y51.341 F1000
G1 X75.159 Y53.659 F1000
G0 Z3.0 ; Pen up

G0 X75.288 Y53.659 F3000 ; Travel to line 679
G0 Z0.0 ; Pen down
G1 X78.120 Y51.341 F1000
G1 X78.120 Y51.341 F1000
G1 X75.416 Y53.659 F1000
G0 Z3.0 ; Pen up

G0 X75.674 Y53.659 F3000 ; Travel to line 680
G0 Z0.0 ; Pen down
G1 X78.377 Y51.341 F1000
G1 X78.377 Y51.341 F1000
G1 X75.545 Y53.659 F1000
G1 X75.545 Y53.659 F1000
G1 X78.249 Y51.341 F1000
G0 Z3.0 ; Pen up

G0 X78.506 Y51.341 F3000 ; Travel to line 681
G0 Z0.0 ; Pen down
G1 X75.802 Y53.659 F1000
G1 X75.802 Y53.659 F1000
G1 X78.635 Y51.341 F1000
G0 Z3.0 ; Pen up

G0 X78.892 Y51.341 F3000 ; Travel to line 682
G0 Z0.0 ; Pen down
G1 X76.189 Y53.659 F1000
G1 X76.189 Y53.659 F1000
G1 X79.021 Y51.341 F1000
G1 X79.021 Y51.341 F1000
G1 X76.317 Y53.659 F1000
G0 Z3.0 ; Pen up

G0 X76.060 Y53.659 F3000 ; Travel to line 683
G0 Z0.0 ; Pen down
G1 X78.764 Y51.341 F1000
G1 X78.764 Y51.341 F1000
G1 X75.931 Y53.659 F1000
G0 Z3.0 ; Pen up

G0 X76.575 Y53.659 F3000 ; Travel to line 684
G0 Z0.0 ; Pen down
G1 X79.407 Y51.341 F1000
G1 X79.407 Y51.341 F1000
G1 X76.704 Y53.659 F1000
G1 X76.704 Y53.659 F1000
G1 X79.536 Y51.341 F1000
G0 Z3.0 ; Pen up

G0 X79.279 Y51.341 F3000 ; Travel to line 685
G0 Z0.0 ; Pen down
G1 X76.446 Y53.659 F1000
G1 X76.446 Y53.659 F1000
G1 X79.150 Y51.341 F1000
G0 Z3.0 ; Pen up

G0 X79.794 Y51.341 F3000 ; Travel to line 686
G0 Z0.0 ; Pen down
G1 X77.090 Y53.659 F1000
G0 Z3.0 ; Pen up

G0 X77.219 Y53.659 F3000 ; Travel to line 687
G0 Z0.0 ; Pen down
G1 X79.922 Y51.341 F1000
G1 X79.922 Y51.341 F1000
G1 X77.219 Y53.659 F1000
G0 Z3.0 ; Pen up

