; Blueprint to G-code
; Input: test_data/test_images_solid/test5_mechanical_part.png
; Generated with blueprint2gcode.py
;
; Generation Parameters:
;   Paper size: A4 (210x297mm)
;   Orientation: landscape
;   Margin: 1.0mm
;   Z up: 3.0mm
;   Z down: 0.0mm
;   Feed rate: 1000mm/min
;   Travel rate: 3000mm/min
;   Join tolerance: 0.02mm
;   Min line length: 0.01mm
;   Simplify epsilon: 0.000001
;   Fill solid areas: True
;   Hatch spacing: 1.5px
;   Hatch angle: 45.0°
;   Crosshatch: False
;   Min solid area: 10.0px²
;   Invert colors: False

G21 ; Set units to millimeters
G90 ; Absolute positioning
G0 Z3.0 ; Pen up
G0 X0 Y0 ; Move to origin

G0 X85.060 Y119.300 F3000 ; Travel to line 1
G0 Z0.0 ; Pen down
G1 X44.500 Y157.000 F1000
G1 X44.500 Y157.000 F1000
G1 X44.500 Y53.000 F1000
G1 X141.740 Y53.000 F1000
G1 X138.880 Y53.000 F1000
G1 X138.620 Y53.260 F1000
G1 X137.580 Y53.260 F1000
G1 X137.320 Y53.520 F1000
G1 X135.760 Y53.780 F1000
G1 X134.980 Y54.300 F1000
G1 X134.460 Y54.300 F1000
G1 X131.860 Y55.600 F1000
G1 X131.340 Y56.120 F1000
G1 X130.300 Y56.640 F1000
G1 X128.740 Y58.200 F1000
G1 X128.480 Y58.200 F1000
G1 X126.140 Y60.800 F1000
G1 X126.140 Y61.060 F1000
G1 X125.100 Y62.360 F1000
G1 X123.800 Y64.960 F1000
G1 X123.800 Y65.480 F1000
G1 X123.280 Y66.260 F1000
G1 X123.020 Y67.820 F1000
G1 X122.760 Y68.080 F1000
G1 X122.760 Y69.120 F1000
G1 X122.500 Y69.380 F1000
G1 X122.500 Y72.240 F1000
G1 X122.240 Y72.500 F1000
G1 X122.500 Y72.760 F1000
G1 X122.500 Y75.620 F1000
G1 X122.760 Y75.880 F1000
G1 X122.760 Y76.920 F1000
G1 X123.020 Y77.180 F1000
G1 X123.020 Y77.960 F1000
G1 X123.800 Y79.520 F1000
G1 X123.800 Y80.040 F1000
G1 X125.100 Y82.640 F1000
G1 X125.620 Y83.160 F1000
G1 X126.140 Y84.200 F1000
G1 X127.700 Y85.760 F1000
G1 X127.700 Y86.020 F1000
G1 X130.300 Y88.360 F1000
G1 X130.560 Y88.360 F1000
G1 X131.860 Y89.400 F1000
G1 X134.460 Y90.700 F1000
G1 X134.980 Y90.700 F1000
G1 X135.760 Y91.220 F1000
G1 X137.320 Y91.480 F1000
G1 X137.580 Y91.740 F1000
G1 X138.620 Y91.740 F1000
G1 X138.880 Y92.000 F1000
G1 X141.740 Y92.000 F1000
G1 X142.000 Y92.260 F1000
G1 X142.260 Y92.000 F1000
G1 X145.120 Y92.000 F1000
G1 X145.380 Y91.740 F1000
G1 X146.420 Y91.740 F1000
G1 X146.680 Y91.480 F1000
G1 X147.460 Y91.480 F1000
G1 X149.020 Y90.700 F1000
G1 X149.540 Y90.700 F1000
G1 X152.140 Y89.400 F1000
G1 X152.660 Y88.880 F1000
G1 X153.700 Y88.360 F1000
G1 X155.260 Y86.800 F1000
G1 X155.520 Y86.800 F1000
G1 X157.860 Y84.200 F1000
G1 X157.860 Y83.940 F1000
G1 X158.900 Y82.640 F1000
G1 X160.200 Y80.040 F1000
G1 X160.200 Y79.520 F1000
G1 X160.720 Y78.740 F1000
G1 X160.980 Y77.180 F1000
G1 X161.240 Y76.920 F1000
G1 X161.240 Y75.880 F1000
G1 X161.500 Y75.620 F1000
G1 X161.500 Y72.760 F1000
G1 X161.760 Y72.500 F1000
G1 X161.500 Y72.240 F1000
G1 X161.500 Y69.380 F1000
G1 X161.240 Y69.120 F1000
G1 X161.240 Y68.080 F1000
G1 X160.980 Y67.820 F1000
G1 X160.980 Y67.040 F1000
G1 X160.200 Y65.480 F1000
G1 X160.200 Y64.960 F1000
G1 X158.900 Y62.360 F1000
G1 X158.380 Y61.840 F1000
G1 X157.860 Y60.800 F1000
G1 X156.300 Y59.240 F1000
G1 X156.300 Y58.980 F1000
G1 X153.700 Y56.640 F1000
G1 X153.440 Y56.640 F1000
G1 X152.140 Y55.600 F1000
G1 X149.540 Y54.300 F1000
G1 X149.020 Y54.300 F1000
G1 X147.460 Y53.520 F1000
G1 X145.380 Y53.260 F1000
G1 X145.120 Y53.000 F1000
G1 X142.260 Y53.000 F1000
G1 X226.500 Y53.000 F1000
G1 X226.500 Y157.000 F1000
G1 X44.500 Y157.000 F1000
G0 Z3.0 ; Pen up

G0 X45.540 Y157.000 F3000 ; Travel to line 2
G0 Z0.0 ; Pen down
G1 X85.320 Y120.080 F1000
G0 Z3.0 ; Pen up

G0 X85.580 Y120.600 F3000 ; Travel to line 3
G0 Z0.0 ; Pen down
G1 X46.580 Y157.000 F1000
G0 Z3.0 ; Pen up

G0 X47.620 Y157.000 F3000 ; Travel to line 4
G0 Z0.0 ; Pen down
G1 X86.100 Y121.380 F1000
G0 Z3.0 ; Pen up

G0 X86.360 Y121.900 F3000 ; Travel to line 5
G0 Z0.0 ; Pen down
G1 X48.400 Y157.000 F1000
G1 X48.400 Y157.000 F1000
G1 X86.360 Y121.900 F1000
G1 X86.360 Y121.900 F1000
G1 X48.920 Y157.000 F1000
G1 X48.920 Y157.000 F1000
G1 X86.360 Y121.900 F1000
G1 X86.360 Y121.900 F1000
G1 X48.920 Y157.000 F1000
G0 Z3.0 ; Pen up

G0 X49.960 Y157.000 F3000 ; Travel to line 6
G0 Z0.0 ; Pen down
G1 X86.880 Y122.680 F1000
G0 Z3.0 ; Pen up

G0 X87.140 Y123.200 F3000 ; Travel to line 7
G0 Z0.0 ; Pen down
G1 X51.000 Y157.000 F1000
G0 Z3.0 ; Pen up

G0 X52.040 Y157.000 F3000 ; Travel to line 8
G0 Z0.0 ; Pen down
G1 X87.660 Y123.720 F1000
G0 Z3.0 ; Pen up

G0 X88.440 Y124.240 F3000 ; Travel to line 9
G0 Z0.0 ; Pen down
G1 X53.340 Y157.000 F1000
G0 Z3.0 ; Pen up

G0 X54.380 Y157.000 F3000 ; Travel to line 10
G0 Z0.0 ; Pen down
G1 X88.700 Y125.020 F1000
G0 Z3.0 ; Pen up

G0 X89.480 Y125.800 F3000 ; Travel to line 11
G0 Z0.0 ; Pen down
G1 X55.680 Y157.000 F1000
G0 Z3.0 ; Pen up

G0 X56.720 Y157.000 F3000 ; Travel to line 12
G0 Z0.0 ; Pen down
G1 X90.000 Y126.060 F1000
G0 Z3.0 ; Pen up

G0 X90.520 Y126.580 F3000 ; Travel to line 13
G0 Z0.0 ; Pen down
G1 X57.760 Y157.000 F1000
G0 Z3.0 ; Pen up

G0 X59.060 Y157.000 F3000 ; Travel to line 14
G0 Z0.0 ; Pen down
G1 X91.040 Y127.100 F1000
G0 Z3.0 ; Pen up

G0 X91.820 Y127.620 F3000 ; Travel to line 15
G0 Z0.0 ; Pen down
G1 X60.100 Y157.000 F1000
G0 Z3.0 ; Pen up

G0 X61.140 Y157.000 F3000 ; Travel to line 16
G0 Z0.0 ; Pen down
G1 X92.340 Y127.880 F1000
G0 Z3.0 ; Pen up

G0 X92.860 Y128.400 F3000 ; Travel to line 17
G0 Z0.0 ; Pen down
G1 X62.180 Y157.000 F1000
G0 Z3.0 ; Pen up

G0 X63.480 Y157.000 F3000 ; Travel to line 18
G0 Z0.0 ; Pen down
G1 X93.640 Y128.660 F1000
G0 Z3.0 ; Pen up

G0 X94.420 Y129.180 F3000 ; Travel to line 19
G0 Z0.0 ; Pen down
G1 X64.520 Y157.000 F1000
G0 Z3.0 ; Pen up

G0 X65.560 Y157.000 F3000 ; Travel to line 20
G0 Z0.0 ; Pen down
G1 X94.940 Y129.440 F1000
G0 Z3.0 ; Pen up

G0 X95.720 Y129.700 F3000 ; Travel to line 21
G0 Z0.0 ; Pen down
G1 X66.600 Y157.000 F1000
G0 Z3.0 ; Pen up

G0 X67.640 Y157.000 F3000 ; Travel to line 22
G0 Z0.0 ; Pen down
G1 X96.500 Y129.960 F1000
G0 Z3.0 ; Pen up

G0 X97.280 Y130.220 F3000 ; Travel to line 23
G0 Z0.0 ; Pen down
G1 X68.940 Y157.000 F1000
G0 Z3.0 ; Pen up

G0 X70.240 Y157.000 F3000 ; Travel to line 24
G0 Z0.0 ; Pen down
G1 X98.580 Y130.740 F1000
G0 Z3.0 ; Pen up

G0 X99.360 Y130.740 F3000 ; Travel to line 25
G0 Z0.0 ; Pen down
G1 X71.280 Y157.000 F1000
G0 Z3.0 ; Pen up

G0 X72.320 Y157.000 F3000 ; Travel to line 26
G0 Z0.0 ; Pen down
G1 X100.140 Y131.000 F1000
G0 Z3.0 ; Pen up

G0 X101.180 Y131.000 F3000 ; Travel to line 27
G0 Z0.0 ; Pen down
G1 X73.360 Y157.000 F1000
G0 Z3.0 ; Pen up

G0 X73.880 Y157.000 F3000 ; Travel to line 28
G0 Z0.0 ; Pen down
G1 X101.700 Y131.000 F1000
G0 Z3.0 ; Pen up

G0 X102.220 Y131.000 F3000 ; Travel to line 29
G0 Z0.0 ; Pen down
G1 X74.140 Y157.000 F1000
G0 Z3.0 ; Pen up

G0 X74.400 Y157.000 F3000 ; Travel to line 30
G0 Z0.0 ; Pen down
G1 X102.480 Y131.000 F1000
G0 Z3.0 ; Pen up

G0 X103.260 Y131.000 F3000 ; Travel to line 31
G0 Z0.0 ; Pen down
G1 X103.260 Y131.260 F1000
G0 Z3.0 ; Pen up

G0 X103.780 Y131.000 F3000 ; Travel to line 32
G0 Z0.0 ; Pen down
G1 X75.180 Y157.000 F1000
G0 Z3.0 ; Pen up

G0 X75.440 Y157.000 F3000 ; Travel to line 33
G0 Z0.0 ; Pen down
G1 X104.040 Y131.000 F1000
G0 Z3.0 ; Pen up

G0 X104.560 Y131.000 F3000 ; Travel to line 34
G0 Z0.0 ; Pen down
G1 X75.700 Y157.000 F1000
G0 Z3.0 ; Pen up

G0 X74.920 Y157.000 F3000 ; Travel to line 35
G0 Z0.0 ; Pen down
G1 X103.000 Y131.260 F1000
G1 X103.000 Y131.260 F1000
G1 X74.660 Y157.000 F1000
G0 Z3.0 ; Pen up

G0 X79.340 Y157.000 F3000 ; Travel to line 36
G0 Z0.0 ; Pen down
G1 X112.100 Y128.920 F1000
G0 Z3.0 ; Pen up

G0 X112.360 Y128.920 F3000 ; Travel to line 37
G0 Z0.0 ; Pen down
G1 X112.360 Y128.660 F1000
G0 Z3.0 ; Pen up

G0 X113.140 Y128.400 F3000 ; Travel to line 38
G0 Z0.0 ; Pen down
G1 X79.600 Y157.000 F1000
G0 Z3.0 ; Pen up

G0 X79.860 Y157.000 F3000 ; Travel to line 39
G0 Z0.0 ; Pen down
G1 X114.960 Y127.360 F1000
G0 Z3.0 ; Pen up

G0 X113.660 Y127.880 F3000 ; Travel to line 40
G0 Z0.0 ; Pen down
G1 X113.660 Y128.140 F1000
G0 Z3.0 ; Pen up

G0 X113.400 Y128.140 F3000 ; Travel to line 41
G0 Z0.0 ; Pen down
G1 X113.400 Y128.400 F1000
G0 Z3.0 ; Pen up

G0 X111.320 Y129.180 F3000 ; Travel to line 42
G0 Z0.0 ; Pen down
G1 X111.320 Y129.440 F1000
G0 Z3.0 ; Pen up

G0 X111.060 Y129.440 F3000 ; Travel to line 43
G0 Z0.0 ; Pen down
G1 X78.820 Y157.000 F1000
G1 X78.820 Y157.000 F1000
G1 X110.280 Y129.700 F1000
G0 Z3.0 ; Pen up

G0 X109.760 Y129.960 F3000 ; Travel to line 44
G0 Z0.0 ; Pen down
G1 X82.720 Y157.000 F1000
G1 X82.720 Y157.000 F1000
G1 X211.680 Y52.740 F1000
G0 Z3.0 ; Pen up

G0 X212.460 Y52.740 F3000 ; Travel to line 45
G0 Z0.0 ; Pen down
G1 X82.980 Y157.000 F1000
G0 Z3.0 ; Pen up

G0 X83.240 Y157.000 F3000 ; Travel to line 46
G0 Z0.0 ; Pen down
G1 X213.760 Y52.740 F1000
G1 X213.760 Y52.740 F1000
G1 X83.240 Y157.000 F1000
G1 X83.240 Y157.000 F1000
G1 X213.760 Y52.740 F1000
G1 X213.760 Y52.740 F1000
G1 X83.240 Y157.000 F1000
G1 X83.240 Y157.000 F1000
G1 X213.760 Y52.740 F1000
G1 X213.760 Y52.740 F1000
G1 X83.240 Y157.000 F1000
G1 X83.240 Y157.000 F1000
G1 X213.760 Y52.740 F1000
G1 X213.760 Y52.740 F1000
G1 X83.240 Y157.000 F1000
G1 X83.240 Y157.000 F1000
G1 X213.760 Y52.740 F1000
G1 X213.760 Y52.740 F1000
G1 X83.240 Y157.000 F1000
G1 X83.240 Y157.000 F1000
G1 X213.760 Y52.740 F1000
G1 X213.760 Y52.740 F1000
G1 X83.240 Y157.000 F1000
G1 X83.240 Y157.000 F1000
G1 X213.760 Y52.740 F1000
G1 X213.760 Y52.740 F1000
G1 X83.240 Y157.000 F1000
G1 X83.240 Y157.000 F1000
G1 X213.760 Y52.740 F1000
G1 X213.760 Y52.740 F1000
G1 X83.240 Y157.000 F1000
G1 X83.240 Y157.000 F1000
G1 X213.760 Y52.740 F1000
G1 X213.760 Y52.740 F1000
G1 X83.240 Y157.000 F1000
G1 X83.240 Y157.000 F1000
G1 X213.760 Y52.740 F1000
G1 X213.760 Y52.740 F1000
G1 X83.240 Y157.000 F1000
G1 X83.240 Y157.000 F1000
G1 X213.760 Y52.740 F1000
G1 X213.760 Y52.740 F1000
G1 X83.240 Y157.000 F1000
G1 X83.240 Y157.000 F1000
G1 X213.760 Y52.740 F1000
G1 X213.760 Y52.740 F1000
G1 X83.240 Y157.000 F1000
G1 X83.240 Y157.000 F1000
G1 X213.760 Y52.740 F1000
G1 X213.760 Y52.740 F1000
G1 X83.240 Y157.000 F1000
G1 X83.240 Y157.000 F1000
G1 X213.760 Y52.740 F1000
G1 X213.760 Y52.740 F1000
G1 X83.240 Y157.000 F1000
G1 X83.240 Y157.000 F1000
G1 X213.760 Y52.740 F1000
G1 X213.760 Y52.740 F1000
G1 X83.240 Y157.000 F1000
G1 X83.240 Y157.000 F1000
G1 X213.760 Y52.740 F1000
G1 X213.760 Y52.740 F1000
G1 X83.240 Y157.000 F1000
G1 X83.240 Y157.000 F1000
G1 X213.760 Y52.740 F1000
G1 X213.760 Y52.740 F1000
G1 X83.240 Y157.000 F1000
G1 X83.240 Y157.000 F1000
G1 X213.760 Y52.740 F1000
G1 X213.760 Y52.740 F1000
G1 X83.240 Y157.000 F1000
G1 X83.240 Y157.000 F1000
G1 X213.760 Y52.740 F1000
G1 X213.760 Y52.740 F1000
G1 X83.240 Y157.000 F1000
G1 X83.240 Y157.000 F1000
G1 X213.760 Y52.740 F1000
G1 X213.760 Y52.740 F1000
G1 X83.240 Y157.000 F1000
G1 X83.240 Y157.000 F1000
G1 X213.760 Y52.740 F1000
G1 X213.760 Y52.740 F1000
G1 X83.240 Y157.000 F1000
G1 X83.240 Y157.000 F1000
G1 X213.760 Y52.740 F1000
G1 X213.760 Y52.740 F1000
G1 X83.240 Y157.000 F1000
G1 X83.240 Y157.000 F1000
G1 X213.760 Y52.740 F1000
G1 X213.760 Y52.740 F1000
G1 X83.240 Y157.000 F1000
G1 X83.240 Y157.000 F1000
G1 X213.240 Y52.740 F1000
G0 Z3.0 ; Pen up

G0 X214.020 Y52.740 F3000 ; Travel to line 47
G0 Z0.0 ; Pen down
G1 X84.020 Y157.000 F1000
G0 Z3.0 ; Pen up

G0 X84.800 Y157.000 F3000 ; Travel to line 48
G0 Z0.0 ; Pen down
G1 X214.280 Y52.740 F1000
G0 Z3.0 ; Pen up

G0 X214.540 Y52.740 F3000 ; Travel to line 49
G0 Z0.0 ; Pen down
G1 X85.580 Y157.000 F1000
G1 X85.580 Y157.000 F1000
G1 X202.840 Y52.740 F1000
G0 Z3.0 ; Pen up

G0 X202.320 Y52.740 F3000 ; Travel to line 50
G0 Z0.0 ; Pen down
G1 X117.560 Y125.020 F1000
G0 Z3.0 ; Pen up

G0 X119.120 Y123.200 F3000 ; Travel to line 51
G0 Z0.0 ; Pen down
G1 X201.280 Y52.740 F1000
G0 Z3.0 ; Pen up

G0 X200.500 Y52.740 F3000 ; Travel to line 52
G0 Z0.0 ; Pen down
G1 X119.640 Y122.420 F1000
G1 X119.640 Y122.420 F1000
G1 X155.520 Y86.540 F1000
G0 Z3.0 ; Pen up

G0 X155.780 Y86.540 F3000 ; Travel to line 53
G0 Z0.0 ; Pen down
G1 X155.780 Y86.280 F1000
G0 Z3.0 ; Pen up

G0 X156.040 Y86.280 F3000 ; Travel to line 54
G0 Z0.0 ; Pen down
G1 X156.040 Y86.020 F1000
G0 Z3.0 ; Pen up

G0 X156.300 Y86.020 F3000 ; Travel to line 55
G0 Z0.0 ; Pen down
G1 X193.480 Y52.740 F1000
G0 Z3.0 ; Pen up

G0 X194.260 Y52.740 F3000 ; Travel to line 56
G0 Z0.0 ; Pen down
G1 X122.240 Y116.960 F1000
G0 Z3.0 ; Pen up

G0 X122.240 Y116.440 F3000 ; Travel to line 57
G0 Z0.0 ; Pen down
G1 X153.700 Y88.100 F1000
G0 Z3.0 ; Pen up

G0 X153.960 Y88.100 F3000 ; Travel to line 58
G0 Z0.0 ; Pen down
G1 X154.220 Y87.840 F1000
G0 Z3.0 ; Pen up

G0 X153.440 Y89.140 F3000 ; Travel to line 59
G0 Z0.0 ; Pen down
G1 X85.060 Y157.000 F1000
G0 Z3.0 ; Pen up

G0 X86.360 Y157.000 F3000 ; Travel to line 60
G0 Z0.0 ; Pen down
G1 X214.800 Y52.740 F1000
G0 Z3.0 ; Pen up

G0 X215.060 Y52.740 F3000 ; Travel to line 61
G0 Z0.0 ; Pen down
G1 X87.140 Y157.000 F1000
G0 Z3.0 ; Pen up

G0 X87.920 Y157.000 F3000 ; Travel to line 62
G0 Z0.0 ; Pen down
G1 X215.320 Y52.740 F1000
G0 Z3.0 ; Pen up

G0 X215.580 Y52.740 F3000 ; Travel to line 63
G0 Z0.0 ; Pen down
G1 X88.700 Y157.000 F1000
G0 Z3.0 ; Pen up

G0 X89.480 Y157.000 F3000 ; Travel to line 64
G0 Z0.0 ; Pen down
G1 X215.840 Y52.740 F1000
G0 Z3.0 ; Pen up

G0 X216.100 Y52.740 F3000 ; Travel to line 65
G0 Z0.0 ; Pen down
G1 X90.260 Y157.000 F1000
G0 Z3.0 ; Pen up

G0 X91.040 Y157.000 F3000 ; Travel to line 66
G0 Z0.0 ; Pen down
G1 X216.360 Y52.740 F1000
G0 Z3.0 ; Pen up

G0 X216.620 Y52.740 F3000 ; Travel to line 67
G0 Z0.0 ; Pen down
G1 X91.820 Y157.000 F1000
G0 Z3.0 ; Pen up

G0 X92.600 Y157.000 F3000 ; Travel to line 68
G0 Z0.0 ; Pen down
G1 X216.880 Y52.740 F1000
G0 Z3.0 ; Pen up

G0 X217.140 Y52.740 F3000 ; Travel to line 69
G0 Z0.0 ; Pen down
G1 X93.380 Y157.000 F1000
G0 Z3.0 ; Pen up

G0 X94.680 Y157.000 F3000 ; Travel to line 70
G0 Z0.0 ; Pen down
G1 X218.180 Y52.740 F1000
G0 Z3.0 ; Pen up

G0 X219.480 Y52.740 F3000 ; Travel to line 71
G0 Z0.0 ; Pen down
G1 X95.720 Y157.000 F1000
G0 Z3.0 ; Pen up

G0 X96.760 Y157.000 F3000 ; Travel to line 72
G0 Z0.0 ; Pen down
G1 X220.520 Y52.740 F1000
G0 Z3.0 ; Pen up

G0 X221.820 Y52.740 F3000 ; Travel to line 73
G0 Z0.0 ; Pen down
G1 X97.800 Y157.000 F1000
G0 Z3.0 ; Pen up

G0 X98.840 Y157.000 F3000 ; Travel to line 74
G0 Z0.0 ; Pen down
G1 X223.120 Y52.740 F1000
G0 Z3.0 ; Pen up

G0 X224.160 Y52.740 F3000 ; Travel to line 75
G0 Z0.0 ; Pen down
G1 X100.140 Y157.000 F1000
G0 Z3.0 ; Pen up

G0 X101.180 Y157.000 F3000 ; Travel to line 76
G0 Z0.0 ; Pen down
G1 X225.460 Y52.740 F1000
G0 Z3.0 ; Pen up

G0 X226.500 Y52.740 F3000 ; Travel to line 77
G0 Z0.0 ; Pen down
G1 X102.220 Y157.000 F1000
G0 Z3.0 ; Pen up

G0 X103.260 Y157.000 F3000 ; Travel to line 78
G0 Z0.0 ; Pen down
G1 X226.760 Y53.780 F1000
G0 Z3.0 ; Pen up

G0 X226.760 Y54.820 F3000 ; Travel to line 79
G0 Z0.0 ; Pen down
G1 X104.300 Y157.000 F1000
G0 Z3.0 ; Pen up

G0 X105.600 Y157.000 F3000 ; Travel to line 80
G0 Z0.0 ; Pen down
G1 X226.760 Y55.860 F1000
G0 Z3.0 ; Pen up

G0 X226.760 Y56.900 F3000 ; Travel to line 81
G0 Z0.0 ; Pen down
G1 X106.640 Y157.000 F1000
G0 Z3.0 ; Pen up

G0 X107.940 Y157.000 F3000 ; Travel to line 82
G0 Z0.0 ; Pen down
G1 X226.760 Y58.200 F1000
G0 Z3.0 ; Pen up

G0 X226.760 Y58.980 F3000 ; Travel to line 83
G0 Z0.0 ; Pen down
G1 X184.900 Y93.820 F1000
G0 Z3.0 ; Pen up

G0 X184.900 Y94.080 F3000 ; Travel to line 84
G0 Z0.0 ; Pen down
G1 X184.640 Y94.080 F1000
G0 Z3.0 ; Pen up

G0 X186.980 Y93.040 F3000 ; Travel to line 85
G0 Z0.0 ; Pen down
G1 X187.240 Y93.040 F1000
G0 Z3.0 ; Pen up

G0 X187.240 Y92.780 F3000 ; Travel to line 86
G0 Z0.0 ; Pen down
G1 X226.760 Y60.020 F1000
G0 Z3.0 ; Pen up

G0 X226.760 Y61.060 F3000 ; Travel to line 87
G0 Z0.0 ; Pen down
G1 X189.060 Y92.260 F1000
G0 Z3.0 ; Pen up

G0 X190.620 Y92.000 F3000 ; Travel to line 88
G0 Z0.0 ; Pen down
G1 X190.880 Y92.000 F1000
G0 Z3.0 ; Pen up

G0 X190.880 Y91.740 F3000 ; Travel to line 89
G0 Z0.0 ; Pen down
G1 X226.760 Y62.100 F1000
G0 Z3.0 ; Pen up

G0 X226.760 Y63.140 F3000 ; Travel to line 90
G0 Z0.0 ; Pen down
G1 X191.920 Y91.740 F1000
G0 Z3.0 ; Pen up

G0 X193.220 Y91.740 F3000 ; Travel to line 91
G0 Z0.0 ; Pen down
G1 X226.760 Y64.180 F1000
G0 Z3.0 ; Pen up

G0 X226.760 Y65.220 F3000 ; Travel to line 92
G0 Z0.0 ; Pen down
G1 X194.260 Y91.740 F1000
G0 Z3.0 ; Pen up

G0 X195.560 Y91.740 F3000 ; Travel to line 93
G0 Z0.0 ; Pen down
G1 X226.760 Y66.000 F1000
G0 Z3.0 ; Pen up

G0 X226.760 Y67.040 F3000 ; Travel to line 94
G0 Z0.0 ; Pen down
G1 X196.600 Y91.740 F1000
G1 X196.600 Y91.740 F1000
G1 X226.760 Y67.040 F1000
G1 X226.760 Y67.040 F1000
G1 X196.600 Y91.740 F1000
G0 Z3.0 ; Pen up

G0 X197.120 Y91.740 F3000 ; Travel to line 95
G0 Z0.0 ; Pen down
G1 X226.760 Y67.300 F1000
G1 X226.760 Y67.300 F1000
G1 X197.120 Y91.740 F1000
G0 Z3.0 ; Pen up

G0 X197.640 Y92.000 F3000 ; Travel to line 96
G0 Z0.0 ; Pen down
G1 X226.760 Y68.080 F1000
G0 Z3.0 ; Pen up

G0 X226.760 Y69.120 F3000 ; Travel to line 97
G0 Z0.0 ; Pen down
G1 X198.680 Y92.260 F1000
G0 Z3.0 ; Pen up

G0 X179.440 Y98.240 F3000 ; Travel to line 98
G0 Z0.0 ; Pen down
G1 X108.980 Y157.000 F1000
G0 Z3.0 ; Pen up

G0 X110.280 Y157.000 F3000 ; Travel to line 99
G0 Z0.0 ; Pen down
G1 X177.100 Y101.360 F1000
G0 Z3.0 ; Pen up

G0 X176.320 Y103.180 F3000 ; Travel to line 100
G0 Z0.0 ; Pen down
G1 X111.320 Y157.000 F1000
G0 Z3.0 ; Pen up

G0 X112.360 Y157.000 F3000 ; Travel to line 101
G0 Z0.0 ; Pen down
G1 X175.540 Y104.740 F1000
G0 Z3.0 ; Pen up

G0 X175.540 Y104.480 F3000 ; Travel to line 102
G0 Z0.0 ; Pen down
G1 X175.800 Y104.480 F1000
G0 Z3.0 ; Pen up

G0 X175.020 Y106.040 F3000 ; Travel to line 103
G0 Z0.0 ; Pen down
G1 X113.400 Y157.000 F1000
G0 Z3.0 ; Pen up

G0 X114.440 Y157.000 F3000 ; Travel to line 104
G0 Z0.0 ; Pen down
G1 X174.760 Y107.340 F1000
G0 Z3.0 ; Pen up

G0 X174.500 Y108.380 F3000 ; Travel to line 105
G0 Z0.0 ; Pen down
G1 X115.740 Y157.000 F1000
G0 Z3.0 ; Pen up

G0 X116.780 Y157.000 F3000 ; Travel to line 106
G0 Z0.0 ; Pen down
G1 X174.500 Y109.420 F1000
G0 Z3.0 ; Pen up

G0 X174.500 Y110.460 F3000 ; Travel to line 107
G0 Z0.0 ; Pen down
G1 X117.820 Y157.000 F1000
G1 X117.820 Y157.000 F1000
G1 X174.500 Y110.460 F1000
G1 X174.500 Y110.460 F1000
G1 X117.820 Y157.000 F1000
G0 Z3.0 ; Pen up

G0 X118.080 Y157.000 F3000 ; Travel to line 108
G0 Z0.0 ; Pen down
G1 X174.500 Y110.460 F1000
G1 X174.500 Y110.460 F1000
G1 X118.080 Y157.000 F1000
G0 Z3.0 ; Pen up

G0 X118.860 Y157.000 F3000 ; Travel to line 109
G0 Z0.0 ; Pen down
G1 X174.240 Y111.500 F1000
G0 Z3.0 ; Pen up

G0 X174.500 Y112.280 F3000 ; Travel to line 110
G0 Z0.0 ; Pen down
G1 X120.160 Y157.000 F1000
G0 Z3.0 ; Pen up

G0 X109.500 Y130.220 F3000 ; Travel to line 111
G0 Z0.0 ; Pen down
G1 X78.300 Y157.000 F1000
G1 X78.300 Y157.000 F1000
G1 X108.980 Y130.220 F1000
G0 Z3.0 ; Pen up

G0 X108.200 Y130.480 F3000 ; Travel to line 112
G0 Z0.0 ; Pen down
G1 X77.780 Y157.000 F1000
G1 X77.780 Y157.000 F1000
G1 X107.940 Y130.480 F1000
G0 Z3.0 ; Pen up

G0 X107.160 Y130.740 F3000 ; Travel to line 113
G0 Z0.0 ; Pen down
G1 X77.260 Y157.000 F1000
G1 X77.260 Y157.000 F1000
G1 X106.900 Y130.740 F1000
G0 Z3.0 ; Pen up

G0 X106.380 Y130.740 F3000 ; Travel to line 114
G0 Z0.0 ; Pen down
G1 X106.380 Y131.000 F1000
G0 Z3.0 ; Pen up

G0 X106.120 Y131.000 F3000 ; Travel to line 115
G0 Z0.0 ; Pen down
G1 X76.740 Y157.000 F1000
G1 X76.740 Y157.000 F1000
G1 X105.860 Y131.000 F1000
G0 Z3.0 ; Pen up

G0 X105.340 Y131.000 F3000 ; Travel to line 116
G0 Z0.0 ; Pen down
G1 X76.220 Y157.000 F1000
G1 X76.220 Y157.000 F1000
G1 X105.080 Y131.000 F1000
G0 Z3.0 ; Pen up

G0 X120.160 Y121.380 F3000 ; Travel to line 117
G0 Z0.0 ; Pen down
G1 X199.720 Y52.740 F1000
G0 Z3.0 ; Pen up

G0 X198.940 Y52.740 F3000 ; Travel to line 118
G0 Z0.0 ; Pen down
G1 X120.680 Y120.600 F1000
G1 X120.680 Y120.600 F1000
G1 X152.140 Y89.140 F1000
G0 Z3.0 ; Pen up

G0 X151.880 Y89.400 F3000 ; Travel to line 119
G0 Z0.0 ; Pen down
G1 X122.500 Y115.920 F1000
G0 Z3.0 ; Pen up

G0 X122.500 Y115.400 F3000 ; Travel to line 120
G0 Z0.0 ; Pen down
G1 X150.580 Y89.920 F1000
G0 Z3.0 ; Pen up

G0 X150.840 Y89.920 F3000 ; Travel to line 121
G0 Z0.0 ; Pen down
G1 X150.840 Y89.660 F1000
G0 Z3.0 ; Pen up

G0 X149.280 Y90.440 F3000 ; Travel to line 122
G0 Z0.0 ; Pen down
G1 X122.760 Y114.620 F1000
G0 Z3.0 ; Pen up

G0 X122.500 Y114.620 F3000 ; Travel to line 123
G0 Z0.0 ; Pen down
G1 X122.500 Y114.880 F1000
G0 Z3.0 ; Pen up

G0 X122.760 Y114.360 F3000 ; Travel to line 124
G0 Z0.0 ; Pen down
G1 X147.980 Y90.960 F1000
G0 Z3.0 ; Pen up

G0 X147.200 Y91.220 F3000 ; Travel to line 125
G0 Z0.0 ; Pen down
G1 X122.760 Y113.840 F1000
G0 Z3.0 ; Pen up

G0 X122.760 Y113.320 F3000 ; Travel to line 126
G0 Z0.0 ; Pen down
G1 X146.420 Y91.480 F1000
G0 Z3.0 ; Pen up

G0 X145.640 Y91.480 F3000 ; Travel to line 127
G0 Z0.0 ; Pen down
G1 X122.760 Y112.800 F1000
G0 Z3.0 ; Pen up

G0 X122.760 Y112.540 F3000 ; Travel to line 128
G0 Z0.0 ; Pen down
G1 X144.860 Y91.740 F1000
G0 Z3.0 ; Pen up

G0 X144.340 Y91.740 F3000 ; Travel to line 129
G0 Z0.0 ; Pen down
G1 X122.760 Y112.020 F1000
G0 Z3.0 ; Pen up

G0 X122.760 Y111.240 F3000 ; Travel to line 130
G0 Z0.0 ; Pen down
G1 X143.820 Y91.740 F1000
G0 Z3.0 ; Pen up

G0 X143.040 Y91.740 F3000 ; Travel to line 131
G0 Z0.0 ; Pen down
G1 X122.760 Y110.980 F1000
G0 Z3.0 ; Pen up

G0 X122.760 Y109.940 F3000 ; Travel to line 132
G0 Z0.0 ; Pen down
G1 X142.000 Y92.000 F1000
G0 Z3.0 ; Pen up

G0 X140.960 Y91.740 F3000 ; Travel to line 133
G0 Z0.0 ; Pen down
G1 X122.760 Y108.900 F1000
G0 Z3.0 ; Pen up

G0 X122.500 Y108.120 F3000 ; Travel to line 134
G0 Z0.0 ; Pen down
G1 X139.660 Y91.740 F1000
G0 Z3.0 ; Pen up

G0 X138.620 Y91.480 F3000 ; Travel to line 135
G0 Z0.0 ; Pen down
G1 X122.240 Y106.820 F1000
G0 Z3.0 ; Pen up

G0 X122.240 Y106.040 F3000 ; Travel to line 136
G0 Z0.0 ; Pen down
G1 X137.580 Y91.480 F1000
G0 Z3.0 ; Pen up

G0 X136.800 Y91.220 F3000 ; Travel to line 137
G0 Z0.0 ; Pen down
G1 X121.980 Y105.260 F1000
G0 Z3.0 ; Pen up

G0 X121.720 Y104.740 F3000 ; Travel to line 138
G0 Z0.0 ; Pen down
G1 X136.020 Y90.960 F1000
G0 Z3.0 ; Pen up

G0 X135.240 Y90.700 F3000 ; Travel to line 139
G0 Z0.0 ; Pen down
G1 X121.460 Y103.960 F1000
G0 Z3.0 ; Pen up

G0 X120.940 Y103.180 F3000 ; Travel to line 140
G0 Z0.0 ; Pen down
G1 X134.460 Y90.440 F1000
G0 Z3.0 ; Pen up

G0 X133.940 Y90.180 F3000 ; Travel to line 141
G0 Z0.0 ; Pen down
G1 X120.680 Y102.660 F1000
G0 Z3.0 ; Pen up

G0 X120.420 Y101.880 F3000 ; Travel to line 142
G0 Z0.0 ; Pen down
G1 X133.160 Y89.660 F1000
G0 Z3.0 ; Pen up

G0 X132.380 Y89.400 F3000 ; Travel to line 143
G0 Z0.0 ; Pen down
G1 X119.900 Y101.100 F1000
G0 Z3.0 ; Pen up

G0 X119.640 Y100.580 F3000 ; Travel to line 144
G0 Z0.0 ; Pen down
G1 X131.860 Y89.140 F1000
G0 Z3.0 ; Pen up

G0 X131.080 Y88.620 F3000 ; Travel to line 145
G0 Z0.0 ; Pen down
G1 X119.120 Y100.060 F1000
G0 Z3.0 ; Pen up

G0 X118.600 Y99.280 F3000 ; Travel to line 146
G0 Z0.0 ; Pen down
G1 X130.560 Y88.100 F1000
G0 Z3.0 ; Pen up

G0 X130.040 Y87.840 F3000 ; Travel to line 147
G0 Z0.0 ; Pen down
G1 X118.080 Y98.760 F1000
G0 Z3.0 ; Pen up

G0 X117.560 Y98.240 F3000 ; Travel to line 148
G0 Z0.0 ; Pen down
G1 X129.260 Y87.060 F1000
G0 Z3.0 ; Pen up

G0 X128.740 Y86.540 F3000 ; Travel to line 149
G0 Z0.0 ; Pen down
G1 X117.040 Y97.460 F1000
G0 Z3.0 ; Pen up

G0 X116.520 Y96.940 F3000 ; Travel to line 150
G0 Z0.0 ; Pen down
G1 X128.220 Y86.280 F1000
G0 Z3.0 ; Pen up

G0 X127.700 Y85.500 F3000 ; Travel to line 151
G0 Z0.0 ; Pen down
G1 X116.000 Y96.680 F1000
G0 Z3.0 ; Pen up

G0 X115.480 Y96.160 F3000 ; Travel to line 152
G0 Z0.0 ; Pen down
G1 X127.180 Y84.980 F1000
G0 Z3.0 ; Pen up

G0 X126.660 Y84.460 F3000 ; Travel to line 153
G0 Z0.0 ; Pen down
G1 X114.700 Y95.380 F1000
G1 X114.700 Y95.380 F1000
G1 X126.660 Y84.460 F1000
G1 X126.660 Y84.460 F1000
G1 X114.960 Y95.640 F1000
G1 X114.960 Y95.640 F1000
G1 X126.660 Y84.460 F1000
G1 X126.660 Y84.460 F1000
G1 X114.960 Y95.640 F1000
G0 Z3.0 ; Pen up

G0 X114.180 Y95.120 F3000 ; Travel to line 154
G0 Z0.0 ; Pen down
G1 X126.400 Y83.940 F1000
G0 Z3.0 ; Pen up

G0 X125.880 Y83.420 F3000 ; Travel to line 155
G0 Z0.0 ; Pen down
G1 X113.660 Y94.860 F1000
G0 Z3.0 ; Pen up

G0 X112.880 Y94.340 F3000 ; Travel to line 156
G0 Z0.0 ; Pen down
G1 X125.360 Y82.640 F1000
G0 Z3.0 ; Pen up

G0 X125.100 Y82.120 F3000 ; Travel to line 157
G0 Z0.0 ; Pen down
G1 X112.360 Y94.080 F1000
G0 Z3.0 ; Pen up

G0 X121.980 Y117.480 F3000 ; Travel to line 158
G0 Z0.0 ; Pen down
G1 X195.040 Y52.740 F1000
G0 Z3.0 ; Pen up

G0 X195.820 Y52.740 F3000 ; Travel to line 159
G0 Z0.0 ; Pen down
G1 X121.720 Y118.260 F1000
G0 Z3.0 ; Pen up

G0 X121.460 Y118.780 F3000 ; Travel to line 160
G0 Z0.0 ; Pen down
G1 X196.600 Y52.740 F1000
G0 Z3.0 ; Pen up

G0 X197.380 Y52.740 F3000 ; Travel to line 161
G0 Z0.0 ; Pen down
G1 X121.200 Y119.300 F1000
G0 Z3.0 ; Pen up

G0 X120.940 Y120.080 F3000 ; Travel to line 162
G0 Z0.0 ; Pen down
G1 X198.160 Y52.740 F1000
G0 Z3.0 ; Pen up

G0 X192.700 Y52.740 F3000 ; Travel to line 163
G0 Z0.0 ; Pen down
G1 X157.860 Y84.200 F1000
G0 Z3.0 ; Pen up

G0 X158.640 Y82.900 F3000 ; Travel to line 164
G0 Z0.0 ; Pen down
G1 X158.640 Y82.640 F1000
G0 Z3.0 ; Pen up

G0 X158.900 Y82.640 F3000 ; Travel to line 165
G0 Z0.0 ; Pen down
G1 X191.920 Y52.740 F1000
G0 Z3.0 ; Pen up

G0 X190.880 Y52.740 F3000 ; Travel to line 166
G0 Z0.0 ; Pen down
G1 X159.420 Y81.340 F1000
G0 Z3.0 ; Pen up

G0 X159.940 Y80.300 F3000 ; Travel to line 167
G0 Z0.0 ; Pen down
G1 X190.100 Y52.740 F1000
G0 Z3.0 ; Pen up

G0 X189.320 Y52.740 F3000 ; Travel to line 168
G0 Z0.0 ; Pen down
G1 X160.460 Y79.260 F1000
G0 Z3.0 ; Pen up

G0 X160.200 Y79.260 F3000 ; Travel to line 169
G0 Z0.0 ; Pen down
G1 X160.200 Y79.520 F1000
G0 Z3.0 ; Pen up

G0 X160.720 Y78.480 F3000 ; Travel to line 170
G0 Z0.0 ; Pen down
G1 X188.540 Y52.740 F1000
G0 Z3.0 ; Pen up

G0 X187.760 Y52.740 F3000 ; Travel to line 171
G0 Z0.0 ; Pen down
G1 X160.980 Y77.700 F1000
G0 Z3.0 ; Pen up

G0 X161.240 Y76.920 F3000 ; Travel to line 172
G0 Z0.0 ; Pen down
G1 X186.980 Y52.740 F1000
G0 Z3.0 ; Pen up

G0 X186.200 Y52.740 F3000 ; Travel to line 173
G0 Z0.0 ; Pen down
G1 X161.240 Y76.140 F1000
G0 Z3.0 ; Pen up

G0 X161.500 Y75.360 F3000 ; Travel to line 174
G0 Z0.0 ; Pen down
G1 X185.420 Y52.740 F1000
G0 Z3.0 ; Pen up

G0 X184.640 Y52.740 F3000 ; Travel to line 175
G0 Z0.0 ; Pen down
G1 X161.500 Y74.580 F1000
G0 Z3.0 ; Pen up

G0 X161.500 Y73.540 F3000 ; Travel to line 176
G0 Z0.0 ; Pen down
G1 X183.600 Y52.740 F1000
G0 Z3.0 ; Pen up

G0 X182.300 Y52.740 F3000 ; Travel to line 177
G0 Z0.0 ; Pen down
G1 X161.760 Y72.240 F1000
G0 Z3.0 ; Pen up

G0 X161.500 Y71.720 F3000 ; Travel to line 178
G0 Z0.0 ; Pen down
G1 X181.260 Y52.740 F1000
G0 Z3.0 ; Pen up

G0 X179.960 Y52.740 F3000 ; Travel to line 179
G0 Z0.0 ; Pen down
G1 X161.500 Y70.420 F1000
G0 Z3.0 ; Pen up

G0 X161.500 Y69.380 F3000 ; Travel to line 180
G0 Z0.0 ; Pen down
G1 X178.920 Y52.740 F1000
G0 Z3.0 ; Pen up

G0 X177.880 Y52.740 F3000 ; Travel to line 181
G0 Z0.0 ; Pen down
G1 X161.240 Y68.600 F1000
G0 Z3.0 ; Pen up

G0 X160.980 Y67.820 F3000 ; Travel to line 182
G0 Z0.0 ; Pen down
G1 X176.840 Y52.740 F1000
G0 Z3.0 ; Pen up

G0 X175.800 Y52.740 F3000 ; Travel to line 183
G0 Z0.0 ; Pen down
G1 X160.720 Y66.780 F1000
G0 Z3.0 ; Pen up

G0 X160.720 Y66.000 F3000 ; Travel to line 184
G0 Z0.0 ; Pen down
G1 X174.760 Y52.740 F1000
G0 Z3.0 ; Pen up

G0 X173.720 Y52.740 F3000 ; Travel to line 185
G0 Z0.0 ; Pen down
G1 X160.200 Y65.480 F1000
G0 Z3.0 ; Pen up

G0 X159.940 Y64.700 F3000 ; Travel to line 186
G0 Z0.0 ; Pen down
G1 X172.680 Y52.740 F1000
G0 Z3.0 ; Pen up

G0 X171.640 Y52.740 F3000 ; Travel to line 187
G0 Z0.0 ; Pen down
G1 X159.680 Y64.180 F1000
G0 Z3.0 ; Pen up

G0 X159.420 Y63.400 F3000 ; Travel to line 188
G0 Z0.0 ; Pen down
G1 X170.600 Y52.740 F1000
G0 Z3.0 ; Pen up

G0 X169.560 Y52.740 F3000 ; Travel to line 189
G0 Z0.0 ; Pen down
G1 X158.900 Y62.620 F1000
G0 Z3.0 ; Pen up

G0 X158.640 Y62.100 F3000 ; Travel to line 190
G0 Z0.0 ; Pen down
G1 X168.520 Y52.740 F1000
G0 Z3.0 ; Pen up

G0 X167.220 Y52.740 F3000 ; Travel to line 191
G0 Z0.0 ; Pen down
G1 X158.120 Y61.320 F1000
G0 Z3.0 ; Pen up

G0 X157.600 Y60.540 F3000 ; Travel to line 192
G0 Z0.0 ; Pen down
G1 X165.920 Y52.740 F1000
G0 Z3.0 ; Pen up

G0 X164.880 Y52.740 F3000 ; Travel to line 193
G0 Z0.0 ; Pen down
G1 X157.080 Y60.020 F1000
G0 Z3.0 ; Pen up

G0 X156.560 Y59.500 F3000 ; Travel to line 194
G0 Z0.0 ; Pen down
G1 X163.840 Y52.740 F1000
G0 Z3.0 ; Pen up

G0 X162.800 Y52.740 F3000 ; Travel to line 195
G0 Z0.0 ; Pen down
G1 X156.300 Y58.980 F1000
G0 Z3.0 ; Pen up

G0 X155.780 Y58.460 F3000 ; Travel to line 196
G0 Z0.0 ; Pen down
G1 X161.760 Y52.740 F1000
G0 Z3.0 ; Pen up

G0 X160.720 Y52.740 F3000 ; Travel to line 197
G0 Z0.0 ; Pen down
G1 X155.000 Y57.940 F1000
G1 X155.000 Y57.940 F1000
G1 X160.460 Y52.740 F1000
G1 X160.460 Y52.740 F1000
G1 X155.000 Y57.940 F1000
G1 X155.000 Y57.940 F1000
G1 X160.720 Y52.740 F1000
G1 X160.720 Y52.740 F1000
G1 X155.000 Y57.940 F1000
G0 Z3.0 ; Pen up

G0 X154.740 Y57.420 F3000 ; Travel to line 198
G0 Z0.0 ; Pen down
G1 X159.680 Y52.740 F1000
G0 Z3.0 ; Pen up

G0 X158.640 Y52.740 F3000 ; Travel to line 199
G0 Z0.0 ; Pen down
G1 X154.220 Y57.160 F1000
G0 Z3.0 ; Pen up

G0 X153.440 Y56.640 F3000 ; Travel to line 200
G0 Z0.0 ; Pen down
G1 X157.600 Y52.740 F1000
G0 Z3.0 ; Pen up

G0 X156.560 Y52.740 F3000 ; Travel to line 201
G0 Z0.0 ; Pen down
G1 X152.920 Y56.120 F1000
G0 Z3.0 ; Pen up

G0 X178.920 Y98.760 F3000 ; Travel to line 202
G0 Z0.0 ; Pen down
G1 X179.180 Y98.760 F1000
G0 Z3.0 ; Pen up

G0 X178.920 Y99.020 F3000 ; Travel to line 203
G0 Z0.0 ; Pen down
G1 X178.660 Y99.020 F1000
G0 Z3.0 ; Pen up

G0 X178.660 Y99.280 F3000 ; Travel to line 204
G0 Z0.0 ; Pen down
G1 X141.480 Y136.200 F1000
G0 Z3.0 ; Pen up

G0 X120.420 Y120.860 F3000 ; Travel to line 205
G0 Z0.0 ; Pen down
G1 X120.420 Y120.600 F1000
G0 Z3.0 ; Pen up

G0 X82.460 Y157.000 F3000 ; Travel to line 206
G0 Z0.0 ; Pen down
G1 X210.900 Y52.740 F1000
G0 Z3.0 ; Pen up

G0 X210.120 Y52.740 F3000 ; Travel to line 207
G0 Z0.0 ; Pen down
G1 X82.200 Y157.000 F1000
G0 Z3.0 ; Pen up

G0 X81.940 Y157.000 F3000 ; Travel to line 208
G0 Z0.0 ; Pen down
G1 X209.340 Y52.740 F1000
G0 Z3.0 ; Pen up

G0 X208.560 Y52.740 F3000 ; Travel to line 209
G0 Z0.0 ; Pen down
G1 X81.680 Y157.000 F1000
G0 Z3.0 ; Pen up

G0 X81.420 Y157.000 F3000 ; Travel to line 210
G0 Z0.0 ; Pen down
G1 X207.780 Y52.740 F1000
G0 Z3.0 ; Pen up

G0 X207.000 Y52.740 F3000 ; Travel to line 211
G0 Z0.0 ; Pen down
G1 X81.160 Y157.000 F1000
G0 Z3.0 ; Pen up

G0 X80.900 Y157.000 F3000 ; Travel to line 212
G0 Z0.0 ; Pen down
G1 X206.220 Y52.740 F1000
G1 X206.220 Y52.740 F1000
G1 X80.900 Y157.000 F1000
G1 X80.900 Y157.000 F1000
G1 X206.220 Y52.740 F1000
G1 X206.220 Y52.740 F1000
G1 X80.900 Y157.000 F1000
G1 X80.900 Y157.000 F1000
G1 X206.220 Y52.740 F1000
G0 Z3.0 ; Pen up

G0 X205.440 Y52.740 F3000 ; Travel to line 213
G0 Z0.0 ; Pen down
G1 X80.640 Y157.000 F1000
G0 Z3.0 ; Pen up

G0 X80.380 Y157.000 F3000 ; Travel to line 214
G0 Z0.0 ; Pen down
G1 X204.660 Y52.740 F1000
G0 Z3.0 ; Pen up

G0 X203.880 Y52.740 F3000 ; Travel to line 215
G0 Z0.0 ; Pen down
G1 X80.120 Y157.000 F1000
G0 Z3.0 ; Pen up

; Return to origin
G0 X0 Y0
G0 Z3.0

; Total drawing distance: 23221.66 mm
; Total travel distance: 546.87 mm
; Total lines: 215
; Estimated time: 1404.2 seconds (23.4 minutes)
M2 ; End program