; Blueprint to G-code
; Input: test_images_solid/test5_mechanical_part.png
; Generated with blueprint2gcode.py

G21 ; Set units to millimeters
G90 ; Absolute positioning
G0 Z3.0 ; Pen up
G0 X0 Y0 ; Move to origin

G0 X70.500 Y63.660 F3000 ; Travel to line 1
G0 Z0.0 ; Pen down
G1 X83.760 Y53.000 F1000
G1 X83.760 Y53.000 F1000
G1 X70.500 Y63.400 F1000
G1 X70.500 Y63.400 F1000
G1 X83.500 Y53.000 F1000
G0 Z3.0 ; Pen up

G0 X84.020 Y53.000 F3000 ; Travel to line 2
G0 Z0.0 ; Pen down
G1 X70.500 Y63.920 F1000
G0 Z3.0 ; Pen up

G0 X70.500 Y64.180 F3000 ; Travel to line 3
G0 Z0.0 ; Pen down
G1 X84.540 Y53.000 F1000
G1 X84.540 Y53.000 F1000
G1 X70.500 Y64.180 F1000
G1 X70.500 Y64.180 F1000
G1 X84.800 Y53.000 F1000
G0 Z3.0 ; Pen up

G0 X85.320 Y53.000 F3000 ; Travel to line 4
G0 Z0.0 ; Pen down
G1 X70.500 Y64.700 F1000
G0 Z3.0 ; Pen up

G0 X70.500 Y64.960 F3000 ; Travel to line 5
G0 Z0.0 ; Pen down
G1 X85.580 Y53.000 F1000
G0 Z3.0 ; Pen up

G0 X86.100 Y53.000 F3000 ; Travel to line 6
G0 Z0.0 ; Pen down
G1 X70.500 Y65.480 F1000
G0 Z3.0 ; Pen up

G0 X70.500 Y65.740 F3000 ; Travel to line 7
G0 Z0.0 ; Pen down
G1 X86.360 Y53.000 F1000
G1 X86.360 Y53.000 F1000
G1 X70.500 Y65.740 F1000
G0 Z3.0 ; Pen up

G0 X70.500 Y66.000 F3000 ; Travel to line 8
G0 Z0.0 ; Pen down
G1 X86.620 Y53.000 F1000
G0 Z3.0 ; Pen up

G0 X87.140 Y53.000 F3000 ; Travel to line 9
G0 Z0.0 ; Pen down
G1 X70.500 Y66.260 F1000
G0 Z3.0 ; Pen up

G0 X70.500 Y66.520 F3000 ; Travel to line 10
G0 Z0.0 ; Pen down
G1 X87.400 Y53.000 F1000
G1 X87.400 Y53.000 F1000
G1 X70.500 Y66.520 F1000
G0 Z3.0 ; Pen up

G0 X70.500 Y66.780 F3000 ; Travel to line 11
G0 Z0.0 ; Pen down
G1 X87.660 Y53.000 F1000
G0 Z3.0 ; Pen up

G0 X88.180 Y53.000 F3000 ; Travel to line 12
G0 Z0.0 ; Pen down
G1 X70.500 Y67.300 F1000
G1 X70.500 Y67.300 F1000
G1 X88.440 Y53.000 F1000
G1 X88.440 Y53.000 F1000
G1 X70.500 Y67.300 F1000
G0 Z3.0 ; Pen up

G0 X70.500 Y67.040 F3000 ; Travel to line 13
G0 Z0.0 ; Pen down
G1 X87.920 Y53.000 F1000
G1 X87.920 Y53.000 F1000
G1 X70.500 Y67.040 F1000
G0 Z3.0 ; Pen up

G0 X70.500 Y67.560 F3000 ; Travel to line 14
G0 Z0.0 ; Pen down
G1 X88.700 Y53.000 F1000
G0 Z3.0 ; Pen up

G0 X88.960 Y53.000 F3000 ; Travel to line 15
G0 Z0.0 ; Pen down
G1 X70.500 Y67.820 F1000
G0 Z3.0 ; Pen up

G0 X70.500 Y68.080 F3000 ; Travel to line 16
G0 Z0.0 ; Pen down
G1 X89.480 Y53.000 F1000
G1 X89.480 Y53.000 F1000
G1 X70.500 Y68.080 F1000
G0 Z3.0 ; Pen up

G0 X70.500 Y68.340 F3000 ; Travel to line 17
G0 Z0.0 ; Pen down
G1 X89.740 Y53.000 F1000
G0 Z3.0 ; Pen up

G0 X90.260 Y53.000 F3000 ; Travel to line 18
G0 Z0.0 ; Pen down
G1 X70.500 Y68.860 F1000
G0 Z3.0 ; Pen up

G0 X70.500 Y68.600 F3000 ; Travel to line 19
G0 Z0.0 ; Pen down
G1 X90.000 Y53.000 F1000
G1 X90.000 Y53.000 F1000
G1 X70.500 Y68.600 F1000
G0 Z3.0 ; Pen up

G0 X70.500 Y69.120 F3000 ; Travel to line 20
G0 Z0.0 ; Pen down
G1 X90.520 Y53.000 F1000
G0 Z3.0 ; Pen up

G0 X91.040 Y53.000 F3000 ; Travel to line 21
G0 Z0.0 ; Pen down
G1 X70.500 Y69.640 F1000
G0 Z3.0 ; Pen up

G0 X70.500 Y69.900 F3000 ; Travel to line 22
G0 Z0.0 ; Pen down
G1 X91.300 Y53.000 F1000
G1 X91.300 Y53.000 F1000
G1 X70.500 Y69.900 F1000
G0 Z3.0 ; Pen up

G0 X70.500 Y70.160 F3000 ; Travel to line 23
G0 Z0.0 ; Pen down
G1 X91.560 Y53.000 F1000
G0 Z3.0 ; Pen up

G0 X92.340 Y53.000 F3000 ; Travel to line 24
G0 Z0.0 ; Pen down
G1 X70.500 Y70.420 F1000
G1 X70.500 Y70.420 F1000
G1 X92.080 Y53.000 F1000
G1 X92.080 Y53.000 F1000
G1 X70.500 Y70.420 F1000
G0 Z3.0 ; Pen up

G0 X70.500 Y70.680 F3000 ; Travel to line 25
G0 Z0.0 ; Pen down
G1 X92.600 Y53.000 F1000
G0 Z3.0 ; Pen up

G0 X93.120 Y53.000 F3000 ; Travel to line 26
G0 Z0.0 ; Pen down
G1 X70.500 Y71.200 F1000
G0 Z3.0 ; Pen up

G0 X70.500 Y71.460 F3000 ; Travel to line 27
G0 Z0.0 ; Pen down
G1 X93.380 Y53.000 F1000
G1 X93.380 Y53.000 F1000
G1 X70.500 Y71.460 F1000
G0 Z3.0 ; Pen up

G0 X70.500 Y71.720 F3000 ; Travel to line 28
G0 Z0.0 ; Pen down
G1 X93.640 Y53.000 F1000
G0 Z3.0 ; Pen up

G0 X93.900 Y53.000 F3000 ; Travel to line 29
G0 Z0.0 ; Pen down
G1 X70.500 Y71.980 F1000
G0 Z3.0 ; Pen up

G0 X70.500 Y72.240 F3000 ; Travel to line 30
G0 Z0.0 ; Pen down
G1 X94.160 Y53.000 F1000
G1 X94.160 Y53.000 F1000
G1 X70.500 Y72.240 F1000
G0 Z3.0 ; Pen up

G0 X70.500 Y72.500 F3000 ; Travel to line 31
G0 Z0.0 ; Pen down
G1 X94.680 Y53.000 F1000
G0 Z3.0 ; Pen up

G0 X95.200 Y53.000 F3000 ; Travel to line 32
G0 Z0.0 ; Pen down
G1 X70.500 Y73.020 F1000
G0 Z3.0 ; Pen up

G0 X70.500 Y72.760 F3000 ; Travel to line 33
G0 Z0.0 ; Pen down
G1 X94.940 Y53.000 F1000
G1 X94.940 Y53.000 F1000
G1 X70.500 Y72.760 F1000
G0 Z3.0 ; Pen up

G0 X70.500 Y73.280 F3000 ; Travel to line 34
G0 Z0.0 ; Pen down
G1 X95.460 Y53.000 F1000
G0 Z3.0 ; Pen up

G0 X95.980 Y53.000 F3000 ; Travel to line 35
G0 Z0.0 ; Pen down
G1 X70.500 Y73.800 F1000
G0 Z3.0 ; Pen up

G0 X70.500 Y73.540 F3000 ; Travel to line 36
G0 Z0.0 ; Pen down
G1 X95.720 Y53.000 F1000
G1 X95.720 Y53.000 F1000
G1 X70.500 Y73.540 F1000
G0 Z3.0 ; Pen up

G0 X70.500 Y74.060 F3000 ; Travel to line 37
G0 Z0.0 ; Pen down
G1 X96.240 Y53.000 F1000
G1 X96.240 Y53.000 F1000
G1 X70.500 Y74.060 F1000
G1 X70.500 Y74.060 F1000
G1 X96.500 Y53.000 F1000
G0 Z3.0 ; Pen up

G0 X97.280 Y53.000 F3000 ; Travel to line 38
G0 Z0.0 ; Pen down
G1 X70.500 Y74.580 F1000
G0 Z3.0 ; Pen up

G0 X70.500 Y74.320 F3000 ; Travel to line 39
G0 Z0.0 ; Pen down
G1 X96.760 Y53.000 F1000
G1 X96.760 Y53.000 F1000
G1 X70.500 Y74.320 F1000
G0 Z3.0 ; Pen up

G0 X70.500 Y74.840 F3000 ; Travel to line 40
G0 Z0.0 ; Pen down
G1 X97.540 Y53.000 F1000
G0 Z3.0 ; Pen up

G0 X98.060 Y53.000 F3000 ; Travel to line 41
G0 Z0.0 ; Pen down
G1 X70.500 Y75.360 F1000
G0 Z3.0 ; Pen up

G0 X70.500 Y75.100 F3000 ; Travel to line 42
G0 Z0.0 ; Pen down
G1 X97.800 Y53.000 F1000
G1 X97.800 Y53.000 F1000
G1 X70.500 Y75.100 F1000
G0 Z3.0 ; Pen up

G0 X70.500 Y75.620 F3000 ; Travel to line 43
G0 Z0.0 ; Pen down
G1 X98.320 Y53.000 F1000
G1 X98.320 Y53.000 F1000
G1 X70.500 Y75.620 F1000
G0 Z3.0 ; Pen up

G0 X70.500 Y75.880 F3000 ; Travel to line 44
G0 Z0.0 ; Pen down
G1 X98.580 Y53.000 F1000
G0 Z3.0 ; Pen up

G0 X98.840 Y53.000 F3000 ; Travel to line 45
G0 Z0.0 ; Pen down
G1 X70.500 Y76.140 F1000
G0 Z3.0 ; Pen up

G0 X70.500 Y76.400 F3000 ; Travel to line 46
G0 Z0.0 ; Pen down
G1 X99.100 Y53.000 F1000
G1 X99.100 Y53.000 F1000
G1 X70.500 Y76.400 F1000
G0 Z3.0 ; Pen up

G0 X70.500 Y76.660 F3000 ; Travel to line 47
G0 Z0.0 ; Pen down
G1 X99.360 Y53.000 F1000
G0 Z3.0 ; Pen up

G0 X100.140 Y53.000 F3000 ; Travel to line 48
G0 Z0.0 ; Pen down
G1 X70.500 Y77.180 F1000
G0 Z3.0 ; Pen up

G0 X70.500 Y77.440 F3000 ; Travel to line 49
G0 Z0.0 ; Pen down
G1 X100.400 Y53.000 F1000
G1 X100.400 Y53.000 F1000
G1 X70.500 Y77.440 F1000
G1 X70.500 Y77.440 F1000
G1 X100.660 Y53.000 F1000
G0 Z3.0 ; Pen up

G0 X100.920 Y53.000 F3000 ; Travel to line 50
G0 Z0.0 ; Pen down
G1 X70.500 Y77.700 F1000
G0 Z3.0 ; Pen up

G0 X70.500 Y77.960 F3000 ; Travel to line 51
G0 Z0.0 ; Pen down
G1 X101.180 Y53.000 F1000
G1 X101.180 Y53.000 F1000
G1 X70.500 Y77.960 F1000
G0 Z3.0 ; Pen up

G0 X70.500 Y78.220 F3000 ; Travel to line 52
G0 Z0.0 ; Pen down
G1 X101.440 Y53.000 F1000
G0 Z3.0 ; Pen up

G0 X101.960 Y53.000 F3000 ; Travel to line 53
G0 Z0.0 ; Pen down
G1 X70.500 Y78.740 F1000
G0 Z3.0 ; Pen up

G0 X70.500 Y79.000 F3000 ; Travel to line 54
G0 Z0.0 ; Pen down
G1 X102.220 Y53.000 F1000
G0 Z3.0 ; Pen up

G0 X102.740 Y53.000 F3000 ; Travel to line 55
G0 Z0.0 ; Pen down
G1 X70.500 Y79.520 F1000
G0 Z3.0 ; Pen up

G0 X70.500 Y79.260 F3000 ; Travel to line 56
G0 Z0.0 ; Pen down
G1 X102.480 Y53.000 F1000
G1 X102.480 Y53.000 F1000
G1 X70.500 Y79.260 F1000
G0 Z3.0 ; Pen up

G0 X70.500 Y79.780 F3000 ; Travel to line 57
G0 Z0.0 ; Pen down
G1 X103.260 Y53.000 F1000
G1 X103.260 Y53.000 F1000
G1 X70.500 Y79.780 F1000
G0 Z3.0 ; Pen up

G0 X70.500 Y80.040 F3000 ; Travel to line 58
G0 Z0.0 ; Pen down
G1 X103.520 Y53.000 F1000
G0 Z3.0 ; Pen up

G0 X103.780 Y53.000 F3000 ; Travel to line 59
G0 Z0.0 ; Pen down
G1 X70.500 Y80.300 F1000
G0 Z3.0 ; Pen up

G0 X70.500 Y80.560 F3000 ; Travel to line 60
G0 Z0.0 ; Pen down
G1 X104.040 Y53.000 F1000
G1 X104.040 Y53.000 F1000
G1 X70.500 Y80.560 F1000
G0 Z3.0 ; Pen up

G0 X70.500 Y80.820 F3000 ; Travel to line 61
G0 Z0.0 ; Pen down
G1 X104.300 Y53.000 F1000
G0 Z3.0 ; Pen up

G0 X104.820 Y53.000 F3000 ; Travel to line 62
G0 Z0.0 ; Pen down
G1 X70.500 Y81.340 F1000
G1 X70.500 Y81.340 F1000
G1 X105.080 Y53.000 F1000
G1 X105.080 Y53.000 F1000
G1 X70.500 Y81.340 F1000
G0 Z3.0 ; Pen up

G0 X70.500 Y81.600 F3000 ; Travel to line 63
G0 Z0.0 ; Pen down
G1 X105.340 Y53.000 F1000
G0 Z3.0 ; Pen up

G0 X105.600 Y53.000 F3000 ; Travel to line 64
G0 Z0.0 ; Pen down
G1 X70.500 Y81.860 F1000
G0 Z3.0 ; Pen up

G0 X70.500 Y82.120 F3000 ; Travel to line 65
G0 Z0.0 ; Pen down
G1 X105.860 Y53.000 F1000
G1 X105.860 Y53.000 F1000
G1 X70.500 Y82.120 F1000
G0 Z3.0 ; Pen up

G0 X70.500 Y82.380 F3000 ; Travel to line 66
G0 Z0.0 ; Pen down
G1 X106.380 Y53.000 F1000
G0 Z3.0 ; Pen up

G0 X106.900 Y53.000 F3000 ; Travel to line 67
G0 Z0.0 ; Pen down
G1 X70.500 Y82.900 F1000
G0 Z3.0 ; Pen up

G0 X70.500 Y83.160 F3000 ; Travel to line 68
G0 Z0.0 ; Pen down
G1 X107.160 Y53.000 F1000
G0 Z3.0 ; Pen up

G0 X107.680 Y53.000 F3000 ; Travel to line 69
G0 Z0.0 ; Pen down
G1 X70.500 Y83.680 F1000
G0 Z3.0 ; Pen up

G0 X70.500 Y83.940 F3000 ; Travel to line 70
G0 Z0.0 ; Pen down
G1 X107.940 Y53.000 F1000
G1 X107.940 Y53.000 F1000
G1 X70.500 Y83.940 F1000
G0 Z3.0 ; Pen up

G0 X70.500 Y84.200 F3000 ; Travel to line 71
G0 Z0.0 ; Pen down
G1 X108.200 Y53.000 F1000
G0 Z3.0 ; Pen up

G0 X108.720 Y53.000 F3000 ; Travel to line 72
G0 Z0.0 ; Pen down
G1 X70.500 Y84.720 F1000
G0 Z3.0 ; Pen up

G0 X70.500 Y84.460 F3000 ; Travel to line 73
G0 Z0.0 ; Pen down
G1 X108.460 Y53.000 F1000
G1 X108.460 Y53.000 F1000
G1 X70.500 Y84.460 F1000
G0 Z3.0 ; Pen up

G0 X70.500 Y84.980 F3000 ; Travel to line 74
G0 Z0.0 ; Pen down
G1 X108.980 Y53.000 F1000
G0 Z3.0 ; Pen up

G0 X109.760 Y53.000 F3000 ; Travel to line 75
G0 Z0.0 ; Pen down
G1 X70.500 Y85.500 F1000
G1 X70.500 Y85.500 F1000
G1 X110.020 Y53.000 F1000
G1 X110.020 Y53.000 F1000
G1 X70.500 Y85.500 F1000
G0 Z3.0 ; Pen up

G0 X70.500 Y85.240 F3000 ; Travel to line 76
G0 Z0.0 ; Pen down
G1 X109.500 Y53.000 F1000
G1 X109.500 Y53.000 F1000
G1 X70.500 Y85.240 F1000
G0 Z3.0 ; Pen up

G0 X70.500 Y85.760 F3000 ; Travel to line 77
G0 Z0.0 ; Pen down
G1 X110.280 Y53.000 F1000
G0 Z3.0 ; Pen up

G0 X110.540 Y53.000 F3000 ; Travel to line 78
G0 Z0.0 ; Pen down
G1 X70.500 Y86.020 F1000
G0 Z3.0 ; Pen up

G0 X70.500 Y86.280 F3000 ; Travel to line 79
G0 Z0.0 ; Pen down
G1 X110.800 Y53.000 F1000
G1 X110.800 Y53.000 F1000
G1 X70.500 Y86.280 F1000
G0 Z3.0 ; Pen up

G0 X70.500 Y86.540 F3000 ; Travel to line 80
G0 Z0.0 ; Pen down
G1 X111.060 Y53.000 F1000
G0 Z3.0 ; Pen up

G0 X111.580 Y53.000 F3000 ; Travel to line 81
G0 Z0.0 ; Pen down
G1 X70.500 Y87.060 F1000
G0 Z3.0 ; Pen up

G0 X70.500 Y87.320 F3000 ; Travel to line 82
G0 Z0.0 ; Pen down
G1 X111.840 Y53.000 F1000
G1 X111.840 Y53.000 F1000
G1 X70.500 Y87.320 F1000
G0 Z3.0 ; Pen up

G0 X70.500 Y87.580 F3000 ; Travel to line 83
G0 Z0.0 ; Pen down
G1 X112.100 Y53.000 F1000
G0 Z3.0 ; Pen up

G0 X112.360 Y53.000 F3000 ; Travel to line 84
G0 Z0.0 ; Pen down
G1 X70.500 Y87.840 F1000
G0 Z3.0 ; Pen up

G0 X70.500 Y88.100 F3000 ; Travel to line 85
G0 Z0.0 ; Pen down
G1 X112.880 Y53.000 F1000
G1 X112.880 Y53.000 F1000
G1 X70.500 Y88.100 F1000
G0 Z3.0 ; Pen up

G0 X70.500 Y88.360 F3000 ; Travel to line 86
G0 Z0.0 ; Pen down
G1 X113.140 Y53.000 F1000
G0 Z3.0 ; Pen up

G0 X113.660 Y53.000 F3000 ; Travel to line 87
G0 Z0.0 ; Pen down
G1 X70.500 Y88.880 F1000
G0 Z3.0 ; Pen up

G0 X70.500 Y89.140 F3000 ; Travel to line 88
G0 Z0.0 ; Pen down
G1 X113.920 Y53.000 F1000
G0 Z3.0 ; Pen up

G0 X114.440 Y53.000 F3000 ; Travel to line 89
G0 Z0.0 ; Pen down
G1 X70.500 Y89.660 F1000
G1 X70.500 Y89.660 F1000
G1 X114.700 Y53.000 F1000
G1 X114.700 Y53.000 F1000
G1 X70.500 Y89.660 F1000
G0 Z3.0 ; Pen up

G0 X70.500 Y89.400 F3000 ; Travel to line 90
G0 Z0.0 ; Pen down
G1 X114.180 Y53.000 F1000
G1 X114.180 Y53.000 F1000
G1 X70.500 Y89.400 F1000
G0 Z3.0 ; Pen up

G0 X70.500 Y89.920 F3000 ; Travel to line 91
G0 Z0.0 ; Pen down
G1 X114.960 Y53.000 F1000
G0 Z3.0 ; Pen up

G0 X115.220 Y53.000 F3000 ; Travel to line 92
G0 Z0.0 ; Pen down
G1 X70.500 Y90.180 F1000
G0 Z3.0 ; Pen up

G0 X70.500 Y90.440 F3000 ; Travel to line 93
G0 Z0.0 ; Pen down
G1 X115.480 Y53.000 F1000
G1 X115.480 Y53.000 F1000
G1 X70.500 Y90.440 F1000
G0 Z3.0 ; Pen up

G0 X70.500 Y90.700 F3000 ; Travel to line 94
G0 Z0.0 ; Pen down
G1 X115.740 Y53.000 F1000
G0 Z3.0 ; Pen up

G0 X116.520 Y53.000 F3000 ; Travel to line 95
G0 Z0.0 ; Pen down
G1 X70.500 Y91.220 F1000
G0 Z3.0 ; Pen up

G0 X70.500 Y90.960 F3000 ; Travel to line 96
G0 Z0.0 ; Pen down
G1 X116.000 Y53.000 F1000
G1 X116.000 Y53.000 F1000
G1 X70.500 Y90.960 F1000
G0 Z3.0 ; Pen up

G0 X70.500 Y91.480 F3000 ; Travel to line 97
G0 Z0.0 ; Pen down
G1 X116.780 Y53.000 F1000
G1 X116.780 Y53.000 F1000
G1 X70.500 Y91.480 F1000
G0 Z3.0 ; Pen up

G0 X70.500 Y91.740 F3000 ; Travel to line 98
G0 Z0.0 ; Pen down
G1 X117.040 Y53.000 F1000
G0 Z3.0 ; Pen up

G0 X117.300 Y53.000 F3000 ; Travel to line 99
G0 Z0.0 ; Pen down
G1 X70.500 Y92.000 F1000
G0 Z3.0 ; Pen up

G0 X70.500 Y92.260 F3000 ; Travel to line 100
G0 Z0.0 ; Pen down
G1 X117.560 Y53.000 F1000
G1 X117.560 Y53.000 F1000
G1 X70.500 Y92.260 F1000
G0 Z3.0 ; Pen up

G0 X70.500 Y92.520 F3000 ; Travel to line 101
G0 Z0.0 ; Pen down
G1 X117.820 Y53.000 F1000
G0 Z3.0 ; Pen up

G0 X118.340 Y53.000 F3000 ; Travel to line 102
G0 Z0.0 ; Pen down
G1 X70.500 Y93.040 F1000
G0 Z3.0 ; Pen up

G0 X70.500 Y93.300 F3000 ; Travel to line 103
G0 Z0.0 ; Pen down
G1 X118.600 Y53.000 F1000
G0 Z3.0 ; Pen up

G0 X119.120 Y53.000 F3000 ; Travel to line 104
G0 Z0.0 ; Pen down
G1 X70.500 Y93.820 F1000
G0 Z3.0 ; Pen up

G0 X70.500 Y94.080 F3000 ; Travel to line 105
G0 Z0.0 ; Pen down
G1 X119.380 Y53.000 F1000
G1 X119.380 Y53.000 F1000
G1 X70.500 Y94.080 F1000
G0 Z3.0 ; Pen up

G0 X70.500 Y94.340 F3000 ; Travel to line 106
G0 Z0.0 ; Pen down
G1 X120.160 Y53.000 F1000
G1 X120.160 Y53.000 F1000
G1 X70.500 Y94.340 F1000
G1 X70.500 Y94.340 F1000
G1 X119.640 Y53.000 F1000
G0 Z3.0 ; Pen up

G0 X120.420 Y53.000 F3000 ; Travel to line 107
G0 Z0.0 ; Pen down
G1 X70.500 Y94.600 F1000
G0 Z3.0 ; Pen up

G0 X70.500 Y94.860 F3000 ; Travel to line 108
G0 Z0.0 ; Pen down
G1 X120.680 Y53.000 F1000
G0 Z3.0 ; Pen up

G0 X121.200 Y53.000 F3000 ; Travel to line 109
G0 Z0.0 ; Pen down
G1 X70.500 Y95.380 F1000
G0 Z3.0 ; Pen up

G0 X70.500 Y95.640 F3000 ; Travel to line 110
G0 Z0.0 ; Pen down
G1 X121.460 Y53.000 F1000
G1 X121.460 Y53.000 F1000
G1 X70.500 Y95.640 F1000
G0 Z3.0 ; Pen up

G0 X70.500 Y95.900 F3000 ; Travel to line 111
G0 Z0.0 ; Pen down
G1 X121.720 Y53.000 F1000
G0 Z3.0 ; Pen up

G0 X121.980 Y53.000 F3000 ; Travel to line 112
G0 Z0.0 ; Pen down
G1 X70.500 Y96.160 F1000
G0 Z3.0 ; Pen up

G0 X70.500 Y96.420 F3000 ; Travel to line 113
G0 Z0.0 ; Pen down
G1 X122.240 Y53.000 F1000
G1 X122.240 Y53.000 F1000
G1 X70.500 Y96.420 F1000
G0 Z3.0 ; Pen up

G0 X70.500 Y96.680 F3000 ; Travel to line 114
G0 Z0.0 ; Pen down
G1 X122.500 Y53.000 F1000
G0 Z3.0 ; Pen up

G0 X123.020 Y53.000 F3000 ; Travel to line 115
G0 Z0.0 ; Pen down
G1 X70.500 Y97.200 F1000
G0 Z3.0 ; Pen up

G0 X70.500 Y97.460 F3000 ; Travel to line 116
G0 Z0.0 ; Pen down
G1 X123.280 Y53.000 F1000
G0 Z3.0 ; Pen up

G0 X124.060 Y53.000 F3000 ; Travel to line 117
G0 Z0.0 ; Pen down
G1 X70.500 Y97.980 F1000
G0 Z3.0 ; Pen up

G0 X70.500 Y98.240 F3000 ; Travel to line 118
G0 Z0.0 ; Pen down
G1 X124.320 Y53.000 F1000
G1 X124.320 Y53.000 F1000
G1 X70.500 Y98.240 F1000
G0 Z3.0 ; Pen up

G0 X70.500 Y98.500 F3000 ; Travel to line 119
G0 Z0.0 ; Pen down
G1 X124.580 Y53.000 F1000
G0 Z3.0 ; Pen up

G0 X125.100 Y53.000 F3000 ; Travel to line 120
G0 Z0.0 ; Pen down
G1 X70.500 Y99.020 F1000
G0 Z3.0 ; Pen up

G0 X70.500 Y99.280 F3000 ; Travel to line 121
G0 Z0.0 ; Pen down
G1 X125.620 Y53.000 F1000
G1 X125.620 Y53.000 F1000
G1 X70.500 Y99.280 F1000
G1 X70.500 Y99.280 F1000
G1 X125.360 Y53.000 F1000
G0 Z3.0 ; Pen up

G0 X125.880 Y53.000 F3000 ; Travel to line 122
G0 Z0.0 ; Pen down
G1 X70.500 Y99.540 F1000
G0 Z3.0 ; Pen up

G0 X70.500 Y99.800 F3000 ; Travel to line 123
G0 Z0.0 ; Pen down
G1 X126.140 Y53.000 F1000
G1 X126.140 Y53.000 F1000
G1 X70.500 Y99.800 F1000
G0 Z3.0 ; Pen up

G0 X70.500 Y100.060 F3000 ; Travel to line 124
G0 Z0.0 ; Pen down
G1 X126.400 Y53.000 F1000
G0 Z3.0 ; Pen up

G0 X126.660 Y53.000 F3000 ; Travel to line 125
G0 Z0.0 ; Pen down
G1 X70.500 Y100.320 F1000
G0 Z3.0 ; Pen up

G0 X70.500 Y100.580 F3000 ; Travel to line 126
G0 Z0.0 ; Pen down
G1 X126.920 Y53.000 F1000
G1 X126.920 Y53.000 F1000
G1 X70.500 Y100.580 F1000
G0 Z3.0 ; Pen up

G0 X70.500 Y100.840 F3000 ; Travel to line 127
G0 Z0.0 ; Pen down
G1 X127.180 Y53.000 F1000
G0 Z3.0 ; Pen up

G0 X127.700 Y53.000 F3000 ; Travel to line 128
G0 Z0.0 ; Pen down
G1 X70.500 Y101.360 F1000
G0 Z3.0 ; Pen up

G0 X70.500 Y101.100 F3000 ; Travel to line 129
G0 Z0.0 ; Pen down
G1 X127.440 Y53.000 F1000
G1 X127.440 Y53.000 F1000
G1 X70.500 Y101.100 F1000
G0 Z3.0 ; Pen up

G0 X70.500 Y101.620 F3000 ; Travel to line 130
G0 Z0.0 ; Pen down
G1 X128.220 Y53.000 F1000
G1 X128.220 Y53.000 F1000
G1 X70.500 Y101.620 F1000
G0 Z3.0 ; Pen up

G0 X70.500 Y101.880 F3000 ; Travel to line 131
G0 Z0.0 ; Pen down
G1 X128.480 Y53.000 F1000
G0 Z3.0 ; Pen up

G0 X128.740 Y53.000 F3000 ; Travel to line 132
G0 Z0.0 ; Pen down
G1 X70.500 Y102.140 F1000
G0 Z3.0 ; Pen up

G0 X70.500 Y102.400 F3000 ; Travel to line 133
G0 Z0.0 ; Pen down
G1 X129.000 Y53.000 F1000
G1 X129.000 Y53.000 F1000
G1 X70.500 Y102.400 F1000
G0 Z3.0 ; Pen up

G0 X70.500 Y102.660 F3000 ; Travel to line 134
G0 Z0.0 ; Pen down
G1 X129.260 Y53.000 F1000
G0 Z3.0 ; Pen up

G0 X129.780 Y53.000 F3000 ; Travel to line 135
G0 Z0.0 ; Pen down
G1 X70.500 Y103.180 F1000
G0 Z3.0 ; Pen up

G0 X70.500 Y103.440 F3000 ; Travel to line 136
G0 Z0.0 ; Pen down
G1 X130.040 Y53.000 F1000
G0 Z3.0 ; Pen up

G0 X130.560 Y53.000 F3000 ; Travel to line 137
G0 Z0.0 ; Pen down
G1 X70.500 Y103.960 F1000
G0 Z3.0 ; Pen up

G0 X70.500 Y104.220 F3000 ; Travel to line 138
G0 Z0.0 ; Pen down
G1 X130.820 Y53.000 F1000
G1 X130.820 Y53.000 F1000
G1 X70.500 Y104.220 F1000
G0 Z3.0 ; Pen up

G0 X70.500 Y103.700 F3000 ; Travel to line 139
G0 Z0.0 ; Pen down
G1 X130.300 Y53.000 F1000
G1 X130.300 Y53.000 F1000
G1 X70.500 Y103.700 F1000
G0 Z3.0 ; Pen up

G0 X70.500 Y102.920 F3000 ; Travel to line 140
G0 Z0.0 ; Pen down
G1 X129.520 Y53.000 F1000
G1 X129.520 Y53.000 F1000
G1 X70.500 Y102.920 F1000
G0 Z3.0 ; Pen up

G0 X70.500 Y105.000 F3000 ; Travel to line 141
G0 Z0.0 ; Pen down
G1 X131.860 Y53.000 F1000
G0 Z3.0 ; Pen up

G0 X131.600 Y53.000 F3000 ; Travel to line 142
G0 Z0.0 ; Pen down
G1 X70.240 Y105.000 F1000
G0 Z3.0 ; Pen up

G0 X69.980 Y105.000 F3000 ; Travel to line 143
G0 Z0.0 ; Pen down
G1 X131.340 Y53.000 F1000
G1 X131.340 Y53.000 F1000
G1 X69.980 Y105.000 F1000
G0 Z3.0 ; Pen up

G0 X69.720 Y105.000 F3000 ; Travel to line 144
G0 Z0.0 ; Pen down
G1 X131.080 Y53.000 F1000
G0 Z3.0 ; Pen up

G0 X132.640 Y53.000 F3000 ; Travel to line 145
G0 Z0.0 ; Pen down
G1 X70.500 Y105.520 F1000
G0 Z3.0 ; Pen up

G0 X70.500 Y105.780 F3000 ; Travel to line 146
G0 Z0.0 ; Pen down
G1 X132.900 Y53.000 F1000
G1 X132.900 Y53.000 F1000
G1 X70.500 Y105.780 F1000
G0 Z3.0 ; Pen up

G0 X70.500 Y106.040 F3000 ; Travel to line 147
G0 Z0.0 ; Pen down
G1 X133.160 Y53.000 F1000
G0 Z3.0 ; Pen up

G0 X133.420 Y53.000 F3000 ; Travel to line 148
G0 Z0.0 ; Pen down
G1 X70.500 Y106.300 F1000
G0 Z3.0 ; Pen up

G0 X70.500 Y106.560 F3000 ; Travel to line 149
G0 Z0.0 ; Pen down
G1 X133.680 Y53.000 F1000
G1 X133.680 Y53.000 F1000
G1 X70.500 Y106.560 F1000
G0 Z3.0 ; Pen up

G0 X70.500 Y106.820 F3000 ; Travel to line 150
G0 Z0.0 ; Pen down
G1 X133.940 Y53.000 F1000
G0 Z3.0 ; Pen up

G0 X134.460 Y53.000 F3000 ; Travel to line 151
G0 Z0.0 ; Pen down
G1 X70.500 Y107.340 F1000
G0 Z3.0 ; Pen up

G0 X70.500 Y107.600 F3000 ; Travel to line 152
G0 Z0.0 ; Pen down
G1 X134.720 Y53.000 F1000
G0 Z3.0 ; Pen up

G0 X135.240 Y53.000 F3000 ; Travel to line 153
G0 Z0.0 ; Pen down
G1 X70.500 Y108.120 F1000
G0 Z3.0 ; Pen up

G0 X70.500 Y108.380 F3000 ; Travel to line 154
G0 Z0.0 ; Pen down
G1 X135.500 Y53.000 F1000
G1 X135.500 Y53.000 F1000
G1 X70.500 Y108.380 F1000
G0 Z3.0 ; Pen up

G0 X70.500 Y108.640 F3000 ; Travel to line 155
G0 Z0.0 ; Pen down
G1 X135.760 Y53.000 F1000
G0 Z3.0 ; Pen up

G0 X136.280 Y53.000 F3000 ; Travel to line 156
G0 Z0.0 ; Pen down
G1 X70.500 Y109.160 F1000
G0 Z3.0 ; Pen up

G0 X70.500 Y108.900 F3000 ; Travel to line 157
G0 Z0.0 ; Pen down
G1 X136.020 Y53.000 F1000
G1 X136.020 Y53.000 F1000
G1 X70.500 Y108.900 F1000
G0 Z3.0 ; Pen up

G0 X70.500 Y109.420 F3000 ; Travel to line 158
G0 Z0.0 ; Pen down
G1 X136.540 Y53.000 F1000
G0 Z3.0 ; Pen up

G0 X137.320 Y53.000 F3000 ; Travel to line 159
G0 Z0.0 ; Pen down
G1 X70.500 Y109.940 F1000
G0 Z3.0 ; Pen up

G0 X70.500 Y109.680 F3000 ; Travel to line 160
G0 Z0.0 ; Pen down
G1 X137.060 Y53.000 F1000
G1 X137.060 Y53.000 F1000
G1 X70.500 Y109.680 F1000
G0 Z3.0 ; Pen up

G0 X70.500 Y110.200 F3000 ; Travel to line 161
G0 Z0.0 ; Pen down
G1 X137.580 Y53.000 F1000
G1 X137.580 Y53.000 F1000
G1 X70.500 Y110.200 F1000
G1 X70.500 Y110.200 F1000
G1 X137.840 Y53.000 F1000
G0 Z3.0 ; Pen up

G0 X138.100 Y53.000 F3000 ; Travel to line 162
G0 Z0.0 ; Pen down
G1 X70.500 Y110.460 F1000
G0 Z3.0 ; Pen up

G0 X70.500 Y110.720 F3000 ; Travel to line 163
G0 Z0.0 ; Pen down
G1 X138.360 Y53.000 F1000
G1 X138.360 Y53.000 F1000
G1 X70.500 Y110.720 F1000
G0 Z3.0 ; Pen up

G0 X70.500 Y110.980 F3000 ; Travel to line 164
G0 Z0.0 ; Pen down
G1 X138.620 Y53.000 F1000
G0 Z3.0 ; Pen up

G0 X139.140 Y53.000 F3000 ; Travel to line 165
G0 Z0.0 ; Pen down
G1 X70.500 Y111.500 F1000
G0 Z3.0 ; Pen up

G0 X70.500 Y111.240 F3000 ; Travel to line 166
G0 Z0.0 ; Pen down
G1 X138.880 Y53.000 F1000
G1 X138.880 Y53.000 F1000
G1 X70.500 Y111.240 F1000
G0 Z3.0 ; Pen up

G0 X70.500 Y111.760 F3000 ; Travel to line 167
G0 Z0.0 ; Pen down
G1 X139.400 Y53.000 F1000
G1 X139.400 Y53.000 F1000
G1 X70.500 Y111.760 F1000
G0 Z3.0 ; Pen up

G0 X70.500 Y112.020 F3000 ; Travel to line 168
G0 Z0.0 ; Pen down
G1 X139.660 Y53.000 F1000
G0 Z3.0 ; Pen up

G0 X139.920 Y53.000 F3000 ; Travel to line 169
G0 Z0.0 ; Pen down
G1 X70.500 Y112.280 F1000
G0 Z3.0 ; Pen up

G0 X70.500 Y112.540 F3000 ; Travel to line 170
G0 Z0.0 ; Pen down
G1 X140.180 Y53.000 F1000
G1 X140.180 Y53.000 F1000
G1 X70.500 Y112.540 F1000
G0 Z3.0 ; Pen up

G0 X70.500 Y112.800 F3000 ; Travel to line 171
G0 Z0.0 ; Pen down
G1 X140.440 Y53.000 F1000
G0 Z3.0 ; Pen up

G0 X140.960 Y53.000 F3000 ; Travel to line 172
G0 Z0.0 ; Pen down
G1 X70.500 Y113.320 F1000
G0 Z3.0 ; Pen up

G0 X70.500 Y113.580 F3000 ; Travel to line 173
G0 Z0.0 ; Pen down
G1 X141.220 Y53.000 F1000
G0 Z3.0 ; Pen up

G0 X142.000 Y53.000 F3000 ; Travel to line 174
G0 Z0.0 ; Pen down
G1 X70.500 Y114.100 F1000
G0 Z3.0 ; Pen up

G0 X70.500 Y114.360 F3000 ; Travel to line 175
G0 Z0.0 ; Pen down
G1 X142.260 Y53.000 F1000
G1 X142.260 Y53.000 F1000
G1 X70.500 Y114.360 F1000
G0 Z3.0 ; Pen up

G0 X70.500 Y114.620 F3000 ; Travel to line 176
G0 Z0.0 ; Pen down
G1 X142.520 Y53.000 F1000
G0 Z3.0 ; Pen up

G0 X142.780 Y53.000 F3000 ; Travel to line 177
G0 Z0.0 ; Pen down
G1 X70.500 Y114.880 F1000
G0 Z3.0 ; Pen up

G0 X70.500 Y115.140 F3000 ; Travel to line 178
G0 Z0.0 ; Pen down
G1 X143.040 Y53.000 F1000
G1 X143.040 Y53.000 F1000
G1 X70.500 Y115.140 F1000
G0 Z3.0 ; Pen up

G0 X70.500 Y115.400 F3000 ; Travel to line 179
G0 Z0.0 ; Pen down
G1 X143.300 Y53.000 F1000
G0 Z3.0 ; Pen up

G0 X143.820 Y53.000 F3000 ; Travel to line 180
G0 Z0.0 ; Pen down
G1 X70.500 Y115.920 F1000
G0 Z3.0 ; Pen up

G0 X70.500 Y115.660 F3000 ; Travel to line 181
G0 Z0.0 ; Pen down
G1 X143.560 Y53.000 F1000
G1 X143.560 Y53.000 F1000
G1 X70.500 Y115.660 F1000
G0 Z3.0 ; Pen up

G0 X70.500 Y116.180 F3000 ; Travel to line 182
G0 Z0.0 ; Pen down
G1 X144.080 Y53.000 F1000
G1 X144.080 Y53.000 F1000
G1 X70.500 Y116.180 F1000
G1 X70.500 Y116.180 F1000
G1 X144.340 Y53.000 F1000
G0 Z3.0 ; Pen up

G0 X144.600 Y53.000 F3000 ; Travel to line 183
G0 Z0.0 ; Pen down
G1 X70.500 Y116.440 F1000
G0 Z3.0 ; Pen up

G0 X70.500 Y116.700 F3000 ; Travel to line 184
G0 Z0.0 ; Pen down
G1 X144.860 Y53.000 F1000
G1 X144.860 Y53.000 F1000
G1 X70.500 Y116.700 F1000
G0 Z3.0 ; Pen up

G0 X70.500 Y116.960 F3000 ; Travel to line 185
G0 Z0.0 ; Pen down
G1 X145.120 Y53.000 F1000
G0 Z3.0 ; Pen up

G0 X145.640 Y53.000 F3000 ; Travel to line 186
G0 Z0.0 ; Pen down
G1 X70.500 Y117.480 F1000
G0 Z3.0 ; Pen up

G0 X70.500 Y117.740 F3000 ; Travel to line 187
G0 Z0.0 ; Pen down
G1 X145.900 Y53.000 F1000
G0 Z3.0 ; Pen up

G0 X146.420 Y53.000 F3000 ; Travel to line 188
G0 Z0.0 ; Pen down
G1 X70.500 Y118.260 F1000
G0 Z3.0 ; Pen up

G0 X70.500 Y118.520 F3000 ; Travel to line 189
G0 Z0.0 ; Pen down
G1 X146.940 Y53.000 F1000
G1 X146.940 Y53.000 F1000
G1 X70.500 Y118.520 F1000
G0 Z3.0 ; Pen up

G0 X70.500 Y118.780 F3000 ; Travel to line 190
G0 Z0.0 ; Pen down
G1 X147.200 Y53.000 F1000
G0 Z3.0 ; Pen up

G0 X147.720 Y53.000 F3000 ; Travel to line 191
G0 Z0.0 ; Pen down
G1 X70.500 Y119.300 F1000
G0 Z3.0 ; Pen up

G0 X70.500 Y119.040 F3000 ; Travel to line 192
G0 Z0.0 ; Pen down
G1 X147.460 Y53.000 F1000
G1 X147.460 Y53.000 F1000
G1 X70.500 Y119.040 F1000
G0 Z3.0 ; Pen up

G0 X70.500 Y119.560 F3000 ; Travel to line 193
G0 Z0.0 ; Pen down
G1 X148.760 Y52.220 F1000
G0 Z3.0 ; Pen up

G0 X148.500 Y52.220 F3000 ; Travel to line 194
G0 Z0.0 ; Pen down
G1 X148.760 Y51.960 F1000
G0 Z3.0 ; Pen up

G0 X148.500 Y51.960 F3000 ; Travel to line 195
G0 Z0.0 ; Pen down
G1 X148.760 Y51.700 F1000
G1 X148.760 Y51.700 F1000
G1 X148.500 Y51.960 F1000
G0 Z3.0 ; Pen up

G0 X148.500 Y51.700 F3000 ; Travel to line 196
G0 Z0.0 ; Pen down
G1 X148.760 Y51.440 F1000
G0 Z3.0 ; Pen up

G0 X148.500 Y51.440 F3000 ; Travel to line 197
G0 Z0.0 ; Pen down
G1 X148.760 Y51.180 F1000
G1 X148.760 Y51.180 F1000
G1 X148.500 Y51.440 F1000
G0 Z3.0 ; Pen up

G0 X148.500 Y51.180 F3000 ; Travel to line 198
G0 Z0.0 ; Pen down
G1 X148.760 Y50.920 F1000
G1 X148.760 Y50.920 F1000
G1 X148.500 Y51.180 F1000
G1 X148.500 Y51.180 F1000
G1 X148.760 Y51.180 F1000
G0 Z3.0 ; Pen up

G0 X148.500 Y50.920 F3000 ; Travel to line 199
G0 Z0.0 ; Pen down
G1 X148.760 Y50.660 F1000
G0 Z3.0 ; Pen up

G0 X148.500 Y50.660 F3000 ; Travel to line 200
G0 Z0.0 ; Pen down
G1 X148.760 Y50.400 F1000
G0 Z3.0 ; Pen up

G0 X148.500 Y50.400 F3000 ; Travel to line 201
G0 Z0.0 ; Pen down
G1 X148.760 Y50.140 F1000
G1 X148.760 Y50.140 F1000
G1 X148.500 Y50.400 F1000
G0 Z3.0 ; Pen up

G0 X148.500 Y50.140 F3000 ; Travel to line 202
G0 Z0.0 ; Pen down
G1 X148.760 Y49.880 F1000
G0 Z3.0 ; Pen up

G0 X148.500 Y49.880 F3000 ; Travel to line 203
G0 Z0.0 ; Pen down
G1 X148.760 Y49.620 F1000
G1 X148.760 Y49.620 F1000
G1 X148.500 Y49.880 F1000
G0 Z3.0 ; Pen up

G0 X148.500 Y49.620 F3000 ; Travel to line 204
G0 Z0.0 ; Pen down
G1 X148.760 Y49.360 F1000
G0 Z3.0 ; Pen up

G0 X148.500 Y49.360 F3000 ; Travel to line 205
G0 Z0.0 ; Pen down
G1 X148.760 Y49.100 F1000
G0 Z3.0 ; Pen up

G0 X148.500 Y49.100 F3000 ; Travel to line 206
G0 Z0.0 ; Pen down
G1 X148.760 Y48.840 F1000
G1 X148.760 Y48.840 F1000
G1 X148.500 Y49.100 F1000
G0 Z3.0 ; Pen up

G0 X148.500 Y48.840 F3000 ; Travel to line 207
G0 Z0.0 ; Pen down
G1 X148.760 Y48.580 F1000
G1 X148.760 Y48.580 F1000
G1 X148.500 Y48.840 F1000
G1 X148.500 Y48.840 F1000
G1 X148.760 Y48.840 F1000
G0 Z3.0 ; Pen up

G0 X148.500 Y48.580 F3000 ; Travel to line 208
G0 Z0.0 ; Pen down
G1 X148.760 Y48.320 F1000
G0 Z3.0 ; Pen up

G0 X148.500 Y48.320 F3000 ; Travel to line 209
G0 Z0.0 ; Pen down
G1 X148.760 Y48.060 F1000
G1 X148.760 Y48.060 F1000
G1 X148.500 Y48.320 F1000
G0 Z3.0 ; Pen up

G0 X148.500 Y48.060 F3000 ; Travel to line 210
G0 Z0.0 ; Pen down
G1 X148.760 Y47.800 F1000
G0 Z3.0 ; Pen up

G0 X148.500 Y47.800 F3000 ; Travel to line 211
G0 Z0.0 ; Pen down
G1 X148.760 Y47.540 F1000
G0 Z3.0 ; Pen up

G0 X148.500 Y47.540 F3000 ; Travel to line 212
G0 Z0.0 ; Pen down
G1 X148.760 Y47.280 F1000
G1 X148.760 Y47.280 F1000
G1 X148.500 Y47.540 F1000
G0 Z3.0 ; Pen up

G0 X148.500 Y47.280 F3000 ; Travel to line 213
G0 Z0.0 ; Pen down
G1 X148.760 Y47.020 F1000
G0 Z3.0 ; Pen up

G0 X148.500 Y47.020 F3000 ; Travel to line 214
G0 Z0.0 ; Pen down
G1 X148.760 Y46.760 F1000
G1 X148.760 Y46.760 F1000
G1 X148.500 Y47.020 F1000
G0 Z3.0 ; Pen up

G0 X148.500 Y46.760 F3000 ; Travel to line 215
G0 Z0.0 ; Pen down
G1 X148.760 Y46.500 F1000
G1 X148.760 Y46.500 F1000
G1 X148.500 Y46.500 F1000
G1 X148.500 Y46.500 F1000
G1 X148.760 Y46.240 F1000
G1 X148.760 Y46.240 F1000
G1 X148.500 Y46.500 F1000
G0 Z3.0 ; Pen up

G0 X148.500 Y46.240 F3000 ; Travel to line 216
G0 Z0.0 ; Pen down
G1 X148.760 Y45.980 F1000
G0 Z3.0 ; Pen up

G0 X148.500 Y45.980 F3000 ; Travel to line 217
G0 Z0.0 ; Pen down
G1 X148.760 Y45.720 F1000
G1 X148.760 Y45.720 F1000
G1 X148.500 Y45.980 F1000
G0 Z3.0 ; Pen up

G0 X148.500 Y45.720 F3000 ; Travel to line 218
G0 Z0.0 ; Pen down
G1 X148.760 Y45.460 F1000
G0 Z3.0 ; Pen up

G0 X148.500 Y45.460 F3000 ; Travel to line 219
G0 Z0.0 ; Pen down
G1 X148.760 Y45.200 F1000
G0 Z3.0 ; Pen up

G0 X148.500 Y45.200 F3000 ; Travel to line 220
G0 Z0.0 ; Pen down
G1 X148.760 Y44.940 F1000
G1 X148.760 Y44.940 F1000
G1 X148.500 Y45.200 F1000
G0 Z3.0 ; Pen up

G0 X148.500 Y44.940 F3000 ; Travel to line 221
G0 Z0.0 ; Pen down
G1 X148.760 Y44.680 F1000
G0 Z3.0 ; Pen up

G0 X148.500 Y44.680 F3000 ; Travel to line 222
G0 Z0.0 ; Pen down
G1 X148.760 Y44.420 F1000
G1 X148.760 Y44.420 F1000
G1 X148.500 Y44.680 F1000
G0 Z3.0 ; Pen up

G0 X148.500 Y44.420 F3000 ; Travel to line 223
G0 Z0.0 ; Pen down
G1 X148.760 Y44.420 F1000
G0 Z3.0 ; Pen up

G0 X148.500 Y44.160 F3000 ; Travel to line 224
G0 Z0.0 ; Pen down
G1 X148.760 Y44.160 F1000
G1 X148.760 Y44.160 F1000
G1 X148.500 Y44.160 F1000
G1 X148.500 Y44.160 F1000
G1 X148.760 Y43.900 F1000
G0 Z3.0 ; Pen up

G0 X148.500 Y43.900 F3000 ; Travel to line 225
G0 Z0.0 ; Pen down
G1 X148.760 Y43.640 F1000
G0 Z3.0 ; Pen up

G0 X148.500 Y43.640 F3000 ; Travel to line 226
G0 Z0.0 ; Pen down
G1 X148.760 Y43.380 F1000
G1 X148.760 Y43.380 F1000
G1 X148.500 Y43.640 F1000
G0 Z3.0 ; Pen up

G0 X148.500 Y43.380 F3000 ; Travel to line 227
G0 Z0.0 ; Pen down
G1 X148.760 Y43.120 F1000
G0 Z3.0 ; Pen up

G0 X148.500 Y43.120 F3000 ; Travel to line 228
G0 Z0.0 ; Pen down
G1 X148.760 Y42.860 F1000
G1 X148.760 Y42.860 F1000
G1 X148.500 Y43.120 F1000
G0 Z3.0 ; Pen up

G0 X148.500 Y42.860 F3000 ; Travel to line 229
G0 Z0.0 ; Pen down
G1 X148.760 Y42.600 F1000
G0 Z3.0 ; Pen up

G0 X148.500 Y42.600 F3000 ; Travel to line 230
G0 Z0.0 ; Pen down
G1 X148.760 Y42.340 F1000
G0 Z3.0 ; Pen up

G0 X148.500 Y42.340 F3000 ; Travel to line 231
G0 Z0.0 ; Pen down
G1 X148.760 Y42.080 F1000
G1 X148.760 Y42.080 F1000
G1 X148.500 Y42.340 F1000
G0 Z3.0 ; Pen up

G0 X148.500 Y42.080 F3000 ; Travel to line 232
G0 Z0.0 ; Pen down
G1 X148.760 Y41.820 F1000
G1 X148.760 Y41.820 F1000
G1 X148.500 Y42.080 F1000
G1 X148.500 Y42.080 F1000
G1 X148.760 Y42.080 F1000
G0 Z3.0 ; Pen up

G0 X148.500 Y41.820 F3000 ; Travel to line 233
G0 Z0.0 ; Pen down
G1 X148.760 Y41.560 F1000
G0 Z3.0 ; Pen up

G0 X148.500 Y41.560 F3000 ; Travel to line 234
G0 Z0.0 ; Pen down
G1 X148.760 Y41.300 F1000
G1 X148.760 Y41.300 F1000
G1 X148.500 Y41.560 F1000
G0 Z3.0 ; Pen up

G0 X148.500 Y41.300 F3000 ; Travel to line 235
G0 Z0.0 ; Pen down
G1 X148.760 Y41.040 F1000
G0 Z3.0 ; Pen up

G0 X148.500 Y41.040 F3000 ; Travel to line 236
G0 Z0.0 ; Pen down
G1 X148.760 Y40.780 F1000
G0 Z3.0 ; Pen up

G0 X148.500 Y40.780 F3000 ; Travel to line 237
G0 Z0.0 ; Pen down
G1 X148.760 Y40.520 F1000
G1 X148.760 Y40.520 F1000
G1 X148.500 Y40.780 F1000
G0 Z3.0 ; Pen up

G0 X148.500 Y40.520 F3000 ; Travel to line 238
G0 Z0.0 ; Pen down
G1 X149.540 Y39.740 F1000
G0 Z3.0 ; Pen up

G0 X149.540 Y40.000 F3000 ; Travel to line 239
G0 Z0.0 ; Pen down
G1 X149.800 Y39.740 F1000
G1 X149.800 Y39.740 F1000
G1 X149.540 Y40.000 F1000
G0 Z3.0 ; Pen up

G0 X149.800 Y40.000 F3000 ; Travel to line 240
G0 Z0.0 ; Pen down
G1 X150.060 Y39.740 F1000
G0 Z3.0 ; Pen up

G0 X150.320 Y39.740 F3000 ; Travel to line 241
G0 Z0.0 ; Pen down
G1 X150.060 Y40.000 F1000
G0 Z3.0 ; Pen up

G0 X150.320 Y40.000 F3000 ; Travel to line 242
G0 Z0.0 ; Pen down
G1 X150.580 Y39.740 F1000
G1 X150.580 Y39.740 F1000
G1 X150.320 Y40.000 F1000
G0 Z3.0 ; Pen up

G0 X150.580 Y40.000 F3000 ; Travel to line 243
G0 Z0.0 ; Pen down
G1 X150.840 Y39.740 F1000
G0 Z3.0 ; Pen up

G0 X150.840 Y40.000 F3000 ; Travel to line 244
G0 Z0.0 ; Pen down
G1 X151.100 Y39.740 F1000
G1 X151.100 Y39.740 F1000
G1 X150.840 Y40.000 F1000
G0 Z3.0 ; Pen up

G0 X151.100 Y40.000 F3000 ; Travel to line 245
G0 Z0.0 ; Pen down
G1 X151.360 Y39.740 F1000
G0 Z3.0 ; Pen up

G0 X151.360 Y40.000 F3000 ; Travel to line 246
G0 Z0.0 ; Pen down
G1 X151.620 Y39.740 F1000
G1 X151.620 Y39.740 F1000
G1 X151.360 Y40.000 F1000
G0 Z3.0 ; Pen up

G0 X151.620 Y40.000 F3000 ; Travel to line 247
G0 Z0.0 ; Pen down
G1 X151.880 Y39.740 F1000
G0 Z3.0 ; Pen up

G0 X151.880 Y40.000 F3000 ; Travel to line 248
G0 Z0.0 ; Pen down
G1 X152.140 Y39.740 F1000
G0 Z3.0 ; Pen up

G0 X152.140 Y40.000 F3000 ; Travel to line 249
G0 Z0.0 ; Pen down
G1 X152.400 Y39.740 F1000
G1 X152.400 Y39.740 F1000
G1 X152.140 Y40.000 F1000
G0 Z3.0 ; Pen up

G0 X152.400 Y40.000 F3000 ; Travel to line 250
G0 Z0.0 ; Pen down
G1 X152.660 Y39.740 F1000
G0 Z3.0 ; Pen up

G0 X152.660 Y40.000 F3000 ; Travel to line 251
G0 Z0.0 ; Pen down
G1 X152.920 Y39.740 F1000
G1 X152.920 Y39.740 F1000
G1 X152.660 Y40.000 F1000
G0 Z3.0 ; Pen up

G0 X152.920 Y40.000 F3000 ; Travel to line 252
G0 Z0.0 ; Pen down
G1 X153.440 Y39.740 F1000
G0 Z3.0 ; Pen up

G0 X153.440 Y40.000 F3000 ; Travel to line 253
G0 Z0.0 ; Pen down
G1 X153.960 Y39.740 F1000
G1 X153.960 Y39.740 F1000
G1 X153.440 Y40.000 F1000
G0 Z3.0 ; Pen up

G0 X153.180 Y40.000 F3000 ; Travel to line 254
G0 Z0.0 ; Pen down
G1 X153.700 Y39.740 F1000
G0 Z3.0 ; Pen up

G0 X153.700 Y40.000 F3000 ; Travel to line 255
G0 Z0.0 ; Pen down
G1 X154.220 Y39.740 F1000
G0 Z3.0 ; Pen up

G0 X154.220 Y40.000 F3000 ; Travel to line 256
G0 Z0.0 ; Pen down
G1 X154.740 Y39.740 F1000
G0 Z3.0 ; Pen up

G0 X154.740 Y40.000 F3000 ; Travel to line 257
G0 Z0.0 ; Pen down
G1 X155.260 Y39.740 F1000
G0 Z3.0 ; Pen up

G0 X155.260 Y40.000 F3000 ; Travel to line 258
G0 Z0.0 ; Pen down
G1 X155.520 Y39.740 F1000
G0 Z3.0 ; Pen up

G0 X155.520 Y40.000 F3000 ; Travel to line 259
G0 Z0.0 ; Pen down
G1 X155.780 Y39.740 F1000
G1 X155.780 Y39.740 F1000
G1 X155.520 Y40.000 F1000
G0 Z3.0 ; Pen up

G0 X155.780 Y40.000 F3000 ; Travel to line 260
G0 Z0.0 ; Pen down
G1 X156.040 Y39.740 F1000
G0 Z3.0 ; Pen up

G0 X156.040 Y40.000 F3000 ; Travel to line 261
G0 Z0.0 ; Pen down
G1 X156.300 Y39.740 F1000
G1 X156.300 Y39.740 F1000
G1 X156.040 Y40.000 F1000
G0 Z3.0 ; Pen up

G0 X156.300 Y40.000 F3000 ; Travel to line 262
G0 Z0.0 ; Pen down
G1 X156.560 Y39.740 F1000
G0 Z3.0 ; Pen up

G0 X156.820 Y39.740 F3000 ; Travel to line 263
G0 Z0.0 ; Pen down
G1 X156.560 Y40.000 F1000
G0 Z3.0 ; Pen up

G0 X156.820 Y40.000 F3000 ; Travel to line 264
G0 Z0.0 ; Pen down
G1 X157.080 Y39.740 F1000
G1 X157.080 Y39.740 F1000
G1 X156.820 Y40.000 F1000
G0 Z3.0 ; Pen up

G0 X157.080 Y40.000 F3000 ; Travel to line 265
G0 Z0.0 ; Pen down
G1 X157.340 Y39.740 F1000
G0 Z3.0 ; Pen up

G0 X157.340 Y40.000 F3000 ; Travel to line 266
G0 Z0.0 ; Pen down
G1 X157.600 Y39.740 F1000
G1 X157.600 Y39.740 F1000
G1 X157.340 Y40.000 F1000
G0 Z3.0 ; Pen up

G0 X157.600 Y40.000 F3000 ; Travel to line 267
G0 Z0.0 ; Pen down
G1 X157.860 Y39.740 F1000
G0 Z3.0 ; Pen up

G0 X158.120 Y39.740 F3000 ; Travel to line 268
G0 Z0.0 ; Pen down
G1 X157.860 Y40.000 F1000
G0 Z3.0 ; Pen up

G0 X158.120 Y40.000 F3000 ; Travel to line 269
G0 Z0.0 ; Pen down
G1 X158.380 Y39.740 F1000
G1 X158.380 Y39.740 F1000
G1 X158.120 Y40.000 F1000
G0 Z3.0 ; Pen up

G0 X158.380 Y40.000 F3000 ; Travel to line 270
G0 Z0.0 ; Pen down
G1 X158.640 Y39.740 F1000
G0 Z3.0 ; Pen up

G0 X158.640 Y40.000 F3000 ; Travel to line 271
G0 Z0.0 ; Pen down
G1 X158.900 Y39.740 F1000
G1 X158.900 Y39.740 F1000
G1 X158.640 Y40.000 F1000
G0 Z3.0 ; Pen up

G0 X158.900 Y40.000 F3000 ; Travel to line 272
G0 Z0.0 ; Pen down
G1 X159.160 Y39.740 F1000
G0 Z3.0 ; Pen up

G0 X159.160 Y40.000 F3000 ; Travel to line 273
G0 Z0.0 ; Pen down
G1 X159.420 Y39.740 F1000
G1 X159.420 Y39.740 F1000
G1 X159.160 Y40.000 F1000
G0 Z3.0 ; Pen up

G0 X159.420 Y40.000 F3000 ; Travel to line 274
G0 Z0.0 ; Pen down
G1 X159.680 Y39.740 F1000
G0 Z3.0 ; Pen up

G0 X159.680 Y40.000 F3000 ; Travel to line 275
G0 Z0.0 ; Pen down
G1 X160.200 Y39.740 F1000
G0 Z3.0 ; Pen up

G0 X160.200 Y40.000 F3000 ; Travel to line 276
G0 Z0.0 ; Pen down
G1 X160.720 Y39.740 F1000
G0 Z3.0 ; Pen up

G0 X160.720 Y40.000 F3000 ; Travel to line 277
G0 Z0.0 ; Pen down
G1 X161.240 Y39.740 F1000
G0 Z3.0 ; Pen up

G0 X161.500 Y39.740 F3000 ; Travel to line 278
G0 Z0.0 ; Pen down
G1 X160.980 Y40.000 F1000
G0 Z3.0 ; Pen up

G0 X161.240 Y40.000 F3000 ; Travel to line 279
G0 Z0.0 ; Pen down
G1 X161.760 Y39.740 F1000
G1 X161.760 Y39.740 F1000
G1 X161.240 Y40.000 F1000
G0 Z3.0 ; Pen up

G0 X161.500 Y40.000 F3000 ; Travel to line 280
G0 Z0.0 ; Pen down
G1 X162.020 Y39.740 F1000
G0 Z3.0 ; Pen up

G0 X162.020 Y40.000 F3000 ; Travel to line 281
G0 Z0.0 ; Pen down
G1 X162.280 Y39.740 F1000
G1 X162.280 Y39.740 F1000
G1 X162.020 Y40.000 F1000
G0 Z3.0 ; Pen up

G0 X162.280 Y40.000 F3000 ; Travel to line 282
G0 Z0.0 ; Pen down
G1 X162.540 Y39.740 F1000
G0 Z3.0 ; Pen up

G0 X162.540 Y40.000 F3000 ; Travel to line 283
G0 Z0.0 ; Pen down
G1 X162.800 Y39.740 F1000
G1 X162.800 Y39.740 F1000
G1 X162.540 Y40.000 F1000
G0 Z3.0 ; Pen up

G0 X162.800 Y40.000 F3000 ; Travel to line 284
G0 Z0.0 ; Pen down
G1 X163.060 Y39.740 F1000
G0 Z3.0 ; Pen up

G0 X163.320 Y39.740 F3000 ; Travel to line 285
G0 Z0.0 ; Pen down
G1 X163.060 Y40.000 F1000
G0 Z3.0 ; Pen up

G0 X163.320 Y40.000 F3000 ; Travel to line 286
G0 Z0.0 ; Pen down
G1 X163.580 Y39.740 F1000
G1 X163.580 Y39.740 F1000
G1 X163.320 Y40.000 F1000
G0 Z3.0 ; Pen up

G0 X163.580 Y40.000 F3000 ; Travel to line 287
G0 Z0.0 ; Pen down
G1 X163.840 Y39.740 F1000
G0 Z3.0 ; Pen up

G0 X163.840 Y40.000 F3000 ; Travel to line 288
G0 Z0.0 ; Pen down
G1 X164.100 Y39.740 F1000
G1 X164.100 Y39.740 F1000
G1 X163.840 Y40.000 F1000
G0 Z3.0 ; Pen up

G0 X164.100 Y40.000 F3000 ; Travel to line 289
G0 Z0.0 ; Pen down
G1 X164.360 Y39.740 F1000
G0 Z3.0 ; Pen up

G0 X164.620 Y39.740 F3000 ; Travel to line 290
G0 Z0.0 ; Pen down
G1 X164.360 Y40.000 F1000
G0 Z3.0 ; Pen up

G0 X164.620 Y40.000 F3000 ; Travel to line 291
G0 Z0.0 ; Pen down
G1 X164.880 Y39.740 F1000
G1 X164.880 Y39.740 F1000
G1 X164.620 Y40.000 F1000
G0 Z3.0 ; Pen up

G0 X164.880 Y40.000 F3000 ; Travel to line 292
G0 Z0.0 ; Pen down
G1 X165.140 Y39.740 F1000
G0 Z3.0 ; Pen up

G0 X165.140 Y40.000 F3000 ; Travel to line 293
G0 Z0.0 ; Pen down
G1 X165.400 Y39.740 F1000
G1 X165.400 Y39.740 F1000
G1 X165.140 Y40.000 F1000
G0 Z3.0 ; Pen up

G0 X165.400 Y40.000 F3000 ; Travel to line 294
G0 Z0.0 ; Pen down
G1 X165.660 Y39.740 F1000
G0 Z3.0 ; Pen up

G0 X165.660 Y40.000 F3000 ; Travel to line 295
G0 Z0.0 ; Pen down
G1 X165.920 Y39.740 F1000
G0 Z3.0 ; Pen up

G0 X165.920 Y40.000 F3000 ; Travel to line 296
G0 Z0.0 ; Pen down
G1 X166.180 Y39.740 F1000
G1 X166.180 Y39.740 F1000
G1 X165.920 Y40.000 F1000
G0 Z3.0 ; Pen up

G0 X166.180 Y40.000 F3000 ; Travel to line 297
G0 Z0.0 ; Pen down
G1 X166.440 Y39.740 F1000
G0 Z3.0 ; Pen up

G0 X166.440 Y40.000 F3000 ; Travel to line 298
G0 Z0.0 ; Pen down
G1 X166.700 Y39.740 F1000
G1 X166.700 Y39.740 F1000
G1 X166.440 Y40.000 F1000
G0 Z3.0 ; Pen up

G0 X166.700 Y40.000 F3000 ; Travel to line 299
G0 Z0.0 ; Pen down
G1 X167.220 Y39.740 F1000
G0 Z3.0 ; Pen up

G0 X167.220 Y40.000 F3000 ; Travel to line 300
G0 Z0.0 ; Pen down
G1 X167.740 Y39.740 F1000
G0 Z3.0 ; Pen up

G0 X168.000 Y39.740 F3000 ; Travel to line 301
G0 Z0.0 ; Pen down
G1 X167.480 Y40.000 F1000
G0 Z3.0 ; Pen up

G0 X167.740 Y40.000 F3000 ; Travel to line 302
G0 Z0.0 ; Pen down
G1 X168.260 Y39.740 F1000
G1 X168.260 Y39.740 F1000
G1 X167.740 Y40.000 F1000
G0 Z3.0 ; Pen up

G0 X168.000 Y40.000 F3000 ; Travel to line 303
G0 Z0.0 ; Pen down
G1 X168.520 Y39.740 F1000
G0 Z3.0 ; Pen up

G0 X168.520 Y40.000 F3000 ; Travel to line 304
G0 Z0.0 ; Pen down
G1 X169.040 Y39.740 F1000
G0 Z3.0 ; Pen up

G0 X169.040 Y40.000 F3000 ; Travel to line 305
G0 Z0.0 ; Pen down
G1 X169.300 Y39.740 F1000
G0 Z3.0 ; Pen up

G0 X169.300 Y40.000 F3000 ; Travel to line 306
G0 Z0.0 ; Pen down
G1 X169.560 Y39.740 F1000
G1 X169.560 Y39.740 F1000
G1 X169.300 Y40.000 F1000
G0 Z3.0 ; Pen up

G0 X169.560 Y40.000 F3000 ; Travel to line 307
G0 Z0.0 ; Pen down
G1 X169.820 Y39.740 F1000
G0 Z3.0 ; Pen up

G0 X169.820 Y40.000 F3000 ; Travel to line 308
G0 Z0.0 ; Pen down
G1 X170.080 Y39.740 F1000
G1 X170.080 Y39.740 F1000
G1 X169.820 Y40.000 F1000
G0 Z3.0 ; Pen up

G0 X170.080 Y40.000 F3000 ; Travel to line 309
G0 Z0.0 ; Pen down
G1 X170.340 Y39.740 F1000
G0 Z3.0 ; Pen up

G0 X170.340 Y40.000 F3000 ; Travel to line 310
G0 Z0.0 ; Pen down
G1 X170.600 Y39.740 F1000
G1 X170.600 Y39.740 F1000
G1 X170.340 Y40.000 F1000
G0 Z3.0 ; Pen up

G0 X170.600 Y40.000 F3000 ; Travel to line 311
G0 Z0.0 ; Pen down
G1 X170.860 Y39.740 F1000
G0 Z3.0 ; Pen up

G0 X171.120 Y39.740 F3000 ; Travel to line 312
G0 Z0.0 ; Pen down
G1 X170.860 Y40.000 F1000
G0 Z3.0 ; Pen up

G0 X171.120 Y40.000 F3000 ; Travel to line 313
G0 Z0.0 ; Pen down
G1 X171.380 Y39.740 F1000
G1 X171.380 Y39.740 F1000
G1 X171.120 Y40.000 F1000
G0 Z3.0 ; Pen up

G0 X171.380 Y40.000 F3000 ; Travel to line 314
G0 Z0.0 ; Pen down
G1 X171.640 Y39.740 F1000
G0 Z3.0 ; Pen up

G0 X171.640 Y40.000 F3000 ; Travel to line 315
G0 Z0.0 ; Pen down
G1 X171.900 Y39.740 F1000
G1 X171.900 Y39.740 F1000
G1 X171.640 Y40.000 F1000
G0 Z3.0 ; Pen up

G0 X171.900 Y40.000 F3000 ; Travel to line 316
G0 Z0.0 ; Pen down
G1 X172.160 Y39.740 F1000
G0 Z3.0 ; Pen up

G0 X172.160 Y40.000 F3000 ; Travel to line 317
G0 Z0.0 ; Pen down
G1 X172.420 Y39.740 F1000
G0 Z3.0 ; Pen up

G0 X172.420 Y40.000 F3000 ; Travel to line 318
G0 Z0.0 ; Pen down
G1 X172.680 Y39.740 F1000
G1 X172.680 Y39.740 F1000
G1 X172.420 Y40.000 F1000
G0 Z3.0 ; Pen up

G0 X172.680 Y40.000 F3000 ; Travel to line 319
G0 Z0.0 ; Pen down
G1 X172.940 Y39.740 F1000
G0 Z3.0 ; Pen up

G0 X172.940 Y40.000 F3000 ; Travel to line 320
G0 Z0.0 ; Pen down
G1 X173.200 Y39.740 F1000
G1 X173.200 Y39.740 F1000
G1 X172.940 Y40.000 F1000
G0 Z3.0 ; Pen up

G0 X173.200 Y40.000 F3000 ; Travel to line 321
G0 Z0.0 ; Pen down
G1 X173.460 Y39.740 F1000
G0 Z3.0 ; Pen up

G0 X173.460 Y40.000 F3000 ; Travel to line 322
G0 Z0.0 ; Pen down
G1 X173.720 Y39.740 F1000
G1 X173.720 Y39.740 F1000
G1 X173.460 Y40.000 F1000
G0 Z3.0 ; Pen up

G0 X173.720 Y40.000 F3000 ; Travel to line 323
G0 Z0.0 ; Pen down
G1 X173.980 Y39.740 F1000
G0 Z3.0 ; Pen up

G0 X174.240 Y39.740 F3000 ; Travel to line 324
G0 Z0.0 ; Pen down
G1 X173.980 Y40.000 F1000
G0 Z3.0 ; Pen up

G0 X174.240 Y40.000 F3000 ; Travel to line 325
G0 Z0.0 ; Pen down
G1 X174.760 Y39.740 F1000
G1 X174.760 Y39.740 F1000
G1 X174.240 Y40.000 F1000
G0 Z3.0 ; Pen up

G0 X174.500 Y40.000 F3000 ; Travel to line 326
G0 Z0.0 ; Pen down
G1 X175.020 Y39.740 F1000
G0 Z3.0 ; Pen up

G0 X175.020 Y40.000 F3000 ; Travel to line 327
G0 Z0.0 ; Pen down
G1 X175.540 Y39.740 F1000
G0 Z3.0 ; Pen up

G0 X175.540 Y40.000 F3000 ; Travel to line 328
G0 Z0.0 ; Pen down
G1 X176.060 Y39.740 F1000
G1 X176.060 Y39.740 F1000
G1 X175.540 Y40.000 F1000
G0 Z3.0 ; Pen up

G0 X175.280 Y40.000 F3000 ; Travel to line 329
G0 Z0.0 ; Pen down
G1 X175.800 Y39.740 F1000
G0 Z3.0 ; Pen up

G0 X175.800 Y40.000 F3000 ; Travel to line 330
G0 Z0.0 ; Pen down
G1 X176.320 Y39.740 F1000
G0 Z3.0 ; Pen up

G0 X176.320 Y40.000 F3000 ; Travel to line 331
G0 Z0.0 ; Pen down
G1 X176.840 Y39.740 F1000
G0 Z3.0 ; Pen up

G0 X177.100 Y39.740 F3000 ; Travel to line 332
G0 Z0.0 ; Pen down
G1 X176.840 Y40.000 F1000
G0 Z3.0 ; Pen up

G0 X177.100 Y40.000 F3000 ; Travel to line 333
G0 Z0.0 ; Pen down
G1 X177.360 Y39.740 F1000
G1 X177.360 Y39.740 F1000
G1 X177.100 Y40.000 F1000
G0 Z3.0 ; Pen up

G0 X177.360 Y40.000 F3000 ; Travel to line 334
G0 Z0.0 ; Pen down
G1 X177.620 Y39.740 F1000
G0 Z3.0 ; Pen up

G0 X177.620 Y40.000 F3000 ; Travel to line 335
G0 Z0.0 ; Pen down
G1 X177.880 Y39.740 F1000
G1 X177.880 Y39.740 F1000
G1 X177.620 Y40.000 F1000
G0 Z3.0 ; Pen up

G0 X177.880 Y40.000 F3000 ; Travel to line 336
G0 Z0.0 ; Pen down
G1 X178.140 Y39.740 F1000
G0 Z3.0 ; Pen up

G0 X178.140 Y40.000 F3000 ; Travel to line 337
G0 Z0.0 ; Pen down
G1 X178.400 Y39.740 F1000
G1 X178.400 Y39.740 F1000
G1 X178.140 Y40.000 F1000
G0 Z3.0 ; Pen up

G0 X178.400 Y40.000 F3000 ; Travel to line 338
G0 Z0.0 ; Pen down
G1 X178.660 Y39.740 F1000
G0 Z3.0 ; Pen up

G0 X178.660 Y40.000 F3000 ; Travel to line 339
G0 Z0.0 ; Pen down
G1 X178.920 Y39.740 F1000
G0 Z3.0 ; Pen up

G0 X178.920 Y40.000 F3000 ; Travel to line 340
G0 Z0.0 ; Pen down
G1 X179.180 Y39.740 F1000
G1 X179.180 Y39.740 F1000
G1 X178.920 Y40.000 F1000
G0 Z3.0 ; Pen up

G0 X179.180 Y40.000 F3000 ; Travel to line 341
G0 Z0.0 ; Pen down
G1 X179.440 Y39.740 F1000
G0 Z3.0 ; Pen up

G0 X179.440 Y40.000 F3000 ; Travel to line 342
G0 Z0.0 ; Pen down
G1 X179.700 Y39.740 F1000
G1 X179.700 Y39.740 F1000
G1 X179.440 Y40.000 F1000
G0 Z3.0 ; Pen up

G0 X179.700 Y40.000 F3000 ; Travel to line 343
G0 Z0.0 ; Pen down
G1 X179.960 Y39.740 F1000
G0 Z3.0 ; Pen up

G0 X180.220 Y39.740 F3000 ; Travel to line 344
G0 Z0.0 ; Pen down
G1 X179.960 Y40.000 F1000
G0 Z3.0 ; Pen up

G0 X180.220 Y40.000 F3000 ; Travel to line 345
G0 Z0.0 ; Pen down
G1 X180.480 Y39.740 F1000
G1 X180.480 Y39.740 F1000
G1 X180.220 Y40.000 F1000
G0 Z3.0 ; Pen up

G0 X180.480 Y40.000 F3000 ; Travel to line 346
G0 Z0.0 ; Pen down
G1 X180.740 Y39.740 F1000
G0 Z3.0 ; Pen up

G0 X180.740 Y40.000 F3000 ; Travel to line 347
G0 Z0.0 ; Pen down
G1 X181.000 Y39.740 F1000
G1 X181.000 Y39.740 F1000
G1 X180.740 Y40.000 F1000
G0 Z3.0 ; Pen up

G0 X181.000 Y40.000 F3000 ; Travel to line 348
G0 Z0.0 ; Pen down
G1 X181.260 Y39.740 F1000
G0 Z3.0 ; Pen up

G0 X181.260 Y40.000 F3000 ; Travel to line 349
G0 Z0.0 ; Pen down
G1 X181.520 Y39.740 F1000
G1 X181.520 Y39.740 F1000
G1 X181.260 Y40.000 F1000
G0 Z3.0 ; Pen up

G0 X181.520 Y40.000 F3000 ; Travel to line 350
G0 Z0.0 ; Pen down
G1 X181.780 Y39.740 F1000
G0 Z3.0 ; Pen up

G0 X182.040 Y39.740 F3000 ; Travel to line 351
G0 Z0.0 ; Pen down
G1 X181.780 Y40.000 F1000
G0 Z3.0 ; Pen up

G0 X182.040 Y40.000 F3000 ; Travel to line 352
G0 Z0.0 ; Pen down
G1 X182.300 Y39.740 F1000
G1 X182.300 Y39.740 F1000
G1 X182.040 Y40.000 F1000
G0 Z3.0 ; Pen up

G0 X182.300 Y40.000 F3000 ; Travel to line 353
G0 Z0.0 ; Pen down
G1 X182.560 Y39.740 F1000
G0 Z3.0 ; Pen up

G0 X182.560 Y40.000 F3000 ; Travel to line 354
G0 Z0.0 ; Pen down
G1 X183.080 Y39.740 F1000
G1 X183.080 Y39.740 F1000
G1 X182.560 Y40.000 F1000
G0 Z3.0 ; Pen up

G0 X182.820 Y40.000 F3000 ; Travel to line 355
G0 Z0.0 ; Pen down
G1 X183.340 Y39.740 F1000
G0 Z3.0 ; Pen up

G0 X183.600 Y39.740 F3000 ; Travel to line 356
G0 Z0.0 ; Pen down
G1 X183.080 Y40.000 F1000
G0 Z3.0 ; Pen up

G0 X183.340 Y40.000 F3000 ; Travel to line 357
G0 Z0.0 ; Pen down
G1 X183.860 Y39.740 F1000
G1 X183.860 Y39.740 F1000
G1 X183.340 Y40.000 F1000
G0 Z3.0 ; Pen up

G0 X183.600 Y40.000 F3000 ; Travel to line 358
G0 Z0.0 ; Pen down
G1 X184.120 Y39.740 F1000
G0 Z3.0 ; Pen up

G0 X184.120 Y40.000 F3000 ; Travel to line 359
G0 Z0.0 ; Pen down
G1 X184.640 Y39.740 F1000
G0 Z3.0 ; Pen up

G0 X184.900 Y39.740 F3000 ; Travel to line 360
G0 Z0.0 ; Pen down
G1 X184.380 Y40.000 F1000
G0 Z3.0 ; Pen up

G0 X184.640 Y40.000 F3000 ; Travel to line 361
G0 Z0.0 ; Pen down
G1 X185.160 Y39.740 F1000
G1 X185.160 Y39.740 F1000
G1 X184.640 Y40.000 F1000
G0 Z3.0 ; Pen up

G0 X184.900 Y40.000 F3000 ; Travel to line 362
G0 Z0.0 ; Pen down
G1 X185.420 Y39.740 F1000
G0 Z3.0 ; Pen up

G0 X185.420 Y40.000 F3000 ; Travel to line 363
G0 Z0.0 ; Pen down
G1 X185.680 Y39.740 F1000
G1 X185.680 Y39.740 F1000
G1 X185.420 Y40.000 F1000
G0 Z3.0 ; Pen up

G0 X185.680 Y40.000 F3000 ; Travel to line 364
G0 Z0.0 ; Pen down
G1 X185.940 Y39.740 F1000
G0 Z3.0 ; Pen up

G0 X185.940 Y40.000 F3000 ; Travel to line 365
G0 Z0.0 ; Pen down
G1 X186.200 Y39.740 F1000
G1 X186.200 Y39.740 F1000
G1 X185.940 Y40.000 F1000
G0 Z3.0 ; Pen up

G0 X186.200 Y40.000 F3000 ; Travel to line 366
G0 Z0.0 ; Pen down
G1 X186.460 Y39.740 F1000
G0 Z3.0 ; Pen up

G0 X186.720 Y39.740 F3000 ; Travel to line 367
G0 Z0.0 ; Pen down
G1 X186.460 Y40.000 F1000
G0 Z3.0 ; Pen up

G0 X186.720 Y40.000 F3000 ; Travel to line 368
G0 Z0.0 ; Pen down
G1 X186.980 Y39.740 F1000
G1 X186.980 Y39.740 F1000
G1 X186.720 Y40.000 F1000
G0 Z3.0 ; Pen up

G0 X186.980 Y40.000 F3000 ; Travel to line 369
G0 Z0.0 ; Pen down
G1 X187.240 Y39.740 F1000
G0 Z3.0 ; Pen up

G0 X187.240 Y40.000 F3000 ; Travel to line 370
G0 Z0.0 ; Pen down
G1 X187.500 Y39.740 F1000
G1 X187.500 Y39.740 F1000
G1 X187.240 Y40.000 F1000
G0 Z3.0 ; Pen up

G0 X187.500 Y40.000 F3000 ; Travel to line 371
G0 Z0.0 ; Pen down
G1 X187.760 Y39.740 F1000
G0 Z3.0 ; Pen up

G0 X188.020 Y39.740 F3000 ; Travel to line 372
G0 Z0.0 ; Pen down
G1 X187.760 Y40.000 F1000
G0 Z3.0 ; Pen up

G0 X188.020 Y40.000 F3000 ; Travel to line 373
G0 Z0.0 ; Pen down
G1 X188.280 Y39.740 F1000
G1 X188.280 Y39.740 F1000
G1 X188.020 Y40.000 F1000
G0 Z3.0 ; Pen up

G0 X188.280 Y40.000 F3000 ; Travel to line 374
G0 Z0.0 ; Pen down
G1 X188.540 Y39.740 F1000
G0 Z3.0 ; Pen up

G0 X188.540 Y40.000 F3000 ; Travel to line 375
G0 Z0.0 ; Pen down
G1 X188.800 Y39.740 F1000
G1 X188.800 Y39.740 F1000
G1 X188.540 Y40.000 F1000
G0 Z3.0 ; Pen up

G0 X188.800 Y40.000 F3000 ; Travel to line 376
G0 Z0.0 ; Pen down
G1 X189.060 Y39.740 F1000
G0 Z3.0 ; Pen up

G0 X189.060 Y40.000 F3000 ; Travel to line 377
G0 Z0.0 ; Pen down
G1 X189.320 Y39.740 F1000
G1 X189.320 Y39.740 F1000
G1 X189.060 Y40.000 F1000
G0 Z3.0 ; Pen up

G0 X189.320 Y40.000 F3000 ; Travel to line 378
G0 Z0.0 ; Pen down
G1 X189.580 Y39.740 F1000
G0 Z3.0 ; Pen up

G0 X189.840 Y39.740 F3000 ; Travel to line 379
G0 Z0.0 ; Pen down
G1 X189.580 Y40.000 F1000
G0 Z3.0 ; Pen up

G0 X189.840 Y40.000 F3000 ; Travel to line 380
G0 Z0.0 ; Pen down
G1 X190.100 Y39.740 F1000
G1 X190.100 Y39.740 F1000
G1 X189.840 Y40.000 F1000
G0 Z3.0 ; Pen up

G0 X190.100 Y40.000 F3000 ; Travel to line 381
G0 Z0.0 ; Pen down
G1 X190.360 Y39.740 F1000
G0 Z3.0 ; Pen up

G0 X190.360 Y40.000 F3000 ; Travel to line 382
G0 Z0.0 ; Pen down
G1 X190.620 Y39.740 F1000
G1 X190.620 Y39.740 F1000
G1 X190.360 Y40.000 F1000
G0 Z3.0 ; Pen up

G0 X190.620 Y40.000 F3000 ; Travel to line 383
G0 Z0.0 ; Pen down
G1 X190.880 Y39.740 F1000
G0 Z3.0 ; Pen up

G0 X190.880 Y40.000 F3000 ; Travel to line 384
G0 Z0.0 ; Pen down
G1 X191.140 Y39.740 F1000
G0 Z3.0 ; Pen up

G0 X191.140 Y40.000 F3000 ; Travel to line 385
G0 Z0.0 ; Pen down
G1 X191.400 Y39.740 F1000
G1 X191.400 Y39.740 F1000
G1 X191.140 Y40.000 F1000
G0 Z3.0 ; Pen up

G0 X191.400 Y40.000 F3000 ; Travel to line 386
G0 Z0.0 ; Pen down
G1 X191.660 Y39.740 F1000
G0 Z3.0 ; Pen up

G0 X191.660 Y40.000 F3000 ; Travel to line 387
G0 Z0.0 ; Pen down
G1 X192.180 Y39.740 F1000
G1 X192.180 Y39.740 F1000
G1 X191.660 Y40.000 F1000
G0 Z3.0 ; Pen up

G0 X191.920 Y40.000 F3000 ; Travel to line 388
G0 Z0.0 ; Pen down
G1 X192.440 Y39.740 F1000
G0 Z3.0 ; Pen up

G0 X192.440 Y40.000 F3000 ; Travel to line 389
G0 Z0.0 ; Pen down
G1 X192.960 Y39.740 F1000
G0 Z3.0 ; Pen up

G0 X193.220 Y39.740 F3000 ; Travel to line 390
G0 Z0.0 ; Pen down
G1 X192.700 Y40.000 F1000
G0 Z3.0 ; Pen up

G0 X192.960 Y40.000 F3000 ; Travel to line 391
G0 Z0.0 ; Pen down
G1 X193.480 Y39.740 F1000
G1 X193.480 Y39.740 F1000
G1 X192.960 Y40.000 F1000
G0 Z3.0 ; Pen up

G0 X193.220 Y40.000 F3000 ; Travel to line 392
G0 Z0.0 ; Pen down
G1 X193.740 Y39.740 F1000
G0 Z3.0 ; Pen up

G0 X193.740 Y40.000 F3000 ; Travel to line 393
G0 Z0.0 ; Pen down
G1 X194.260 Y39.740 F1000
G0 Z3.0 ; Pen up

G0 X194.520 Y39.740 F3000 ; Travel to line 394
G0 Z0.0 ; Pen down
G1 X194.000 Y40.000 F1000
G0 Z3.0 ; Pen up

G0 X193.480 Y40.000 F3000 ; Travel to line 395
G0 Z0.0 ; Pen down
G1 X194.000 Y39.740 F1000
G1 X194.000 Y39.740 F1000
G1 X193.480 Y40.000 F1000
G0 Z3.0 ; Pen up

G0 X194.520 Y40.000 F3000 ; Travel to line 396
G0 Z0.0 ; Pen down
G1 X194.780 Y39.740 F1000
G1 X194.780 Y39.740 F1000
G1 X194.520 Y40.000 F1000
G0 Z3.0 ; Pen up

G0 X194.780 Y40.000 F3000 ; Travel to line 397
G0 Z0.0 ; Pen down
G1 X195.040 Y39.740 F1000
G0 Z3.0 ; Pen up

G0 X195.040 Y40.000 F3000 ; Travel to line 398
G0 Z0.0 ; Pen down
G1 X195.300 Y39.740 F1000
G1 X195.300 Y39.740 F1000
G1 X195.040 Y40.000 F1000
G0 Z3.0 ; Pen up

G0 X195.300 Y40.000 F3000 ; Travel to line 399
G0 Z0.0 ; Pen down
G1 X195.560 Y39.740 F1000
G0 Z3.0 ; Pen up

G0 X195.820 Y39.740 F3000 ; Travel to line 400
G0 Z0.0 ; Pen down
G1 X195.560 Y40.000 F1000
G0 Z3.0 ; Pen up

G0 X195.820 Y40.000 F3000 ; Travel to line 401
G0 Z0.0 ; Pen down
G1 X196.080 Y39.740 F1000
G1 X196.080 Y39.740 F1000
G1 X195.820 Y40.000 F1000
G0 Z3.0 ; Pen up

G0 X196.080 Y40.000 F3000 ; Travel to line 402
G0 Z0.0 ; Pen down
G1 X196.340 Y39.740 F1000
G0 Z3.0 ; Pen up

G0 X196.340 Y40.000 F3000 ; Travel to line 403
G0 Z0.0 ; Pen down
G1 X196.600 Y39.740 F1000
G1 X196.600 Y39.740 F1000
G1 X196.340 Y40.000 F1000
G0 Z3.0 ; Pen up

G0 X196.600 Y40.000 F3000 ; Travel to line 404
G0 Z0.0 ; Pen down
G1 X196.860 Y39.740 F1000
G0 Z3.0 ; Pen up

G0 X196.860 Y40.000 F3000 ; Travel to line 405
G0 Z0.0 ; Pen down
G1 X197.120 Y39.740 F1000
G1 X197.120 Y39.740 F1000
G1 X196.860 Y40.000 F1000
G0 Z3.0 ; Pen up

G0 X197.120 Y40.000 F3000 ; Travel to line 406
G0 Z0.0 ; Pen down
G1 X197.380 Y39.740 F1000
G0 Z3.0 ; Pen up

G0 X197.380 Y40.000 F3000 ; Travel to line 407
G0 Z0.0 ; Pen down
G1 X197.640 Y39.740 F1000
G0 Z3.0 ; Pen up

G0 X197.640 Y40.000 F3000 ; Travel to line 408
G0 Z0.0 ; Pen down
G1 X197.900 Y39.740 F1000
G1 X197.900 Y39.740 F1000
G1 X197.640 Y40.000 F1000
G0 Z3.0 ; Pen up

G0 X197.900 Y40.000 F3000 ; Travel to line 409
G0 Z0.0 ; Pen down
G1 X198.160 Y39.740 F1000
G0 Z3.0 ; Pen up

G0 X198.160 Y40.000 F3000 ; Travel to line 410
G0 Z0.0 ; Pen down
G1 X198.420 Y39.740 F1000
G1 X198.420 Y39.740 F1000
G1 X198.160 Y40.000 F1000
G0 Z3.0 ; Pen up

G0 X198.420 Y40.000 F3000 ; Travel to line 411
G0 Z0.0 ; Pen down
G1 X198.680 Y39.740 F1000
G0 Z3.0 ; Pen up

G0 X198.940 Y39.740 F3000 ; Travel to line 412
G0 Z0.0 ; Pen down
G1 X198.680 Y40.000 F1000
G0 Z3.0 ; Pen up

G0 X198.940 Y40.000 F3000 ; Travel to line 413
G0 Z0.0 ; Pen down
G1 X199.200 Y39.740 F1000
G1 X199.200 Y39.740 F1000
G1 X198.940 Y40.000 F1000
G0 Z3.0 ; Pen up

G0 X199.200 Y40.000 F3000 ; Travel to line 414
G0 Z0.0 ; Pen down
G1 X199.460 Y39.740 F1000
G0 Z3.0 ; Pen up

G0 X199.460 Y40.000 F3000 ; Travel to line 415
G0 Z0.0 ; Pen down
G1 X199.720 Y39.740 F1000
G1 X199.720 Y39.740 F1000
G1 X199.460 Y40.000 F1000
G0 Z3.0 ; Pen up

G0 X199.720 Y40.000 F3000 ; Travel to line 416
G0 Z0.0 ; Pen down
G1 X199.980 Y39.740 F1000
G0 Z3.0 ; Pen up

G0 X199.980 Y40.000 F3000 ; Travel to line 417
G0 Z0.0 ; Pen down
G1 X200.240 Y39.740 F1000
G1 X200.240 Y39.740 F1000
G1 X199.980 Y40.000 F1000
G0 Z3.0 ; Pen up

G0 X200.240 Y40.000 F3000 ; Travel to line 418
G0 Z0.0 ; Pen down
G1 X200.500 Y39.740 F1000
G0 Z3.0 ; Pen up

G0 X200.500 Y40.000 F3000 ; Travel to line 419
G0 Z0.0 ; Pen down
G1 X200.760 Y39.740 F1000
G0 Z3.0 ; Pen up

G0 X200.760 Y40.000 F3000 ; Travel to line 420
G0 Z0.0 ; Pen down
G1 X201.020 Y39.740 F1000
G1 X201.020 Y39.740 F1000
G1 X200.760 Y40.000 F1000
G0 Z3.0 ; Pen up

G0 X201.020 Y40.000 F3000 ; Travel to line 421
G0 Z0.0 ; Pen down
G1 X201.280 Y39.740 F1000
G0 Z3.0 ; Pen up

G0 X201.280 Y40.000 F3000 ; Travel to line 422
G0 Z0.0 ; Pen down
G1 X201.540 Y39.740 F1000
G1 X201.540 Y39.740 F1000
G1 X201.280 Y40.000 F1000
G0 Z3.0 ; Pen up

G0 X201.540 Y40.000 F3000 ; Travel to line 423
G0 Z0.0 ; Pen down
G1 X201.800 Y39.740 F1000
G0 Z3.0 ; Pen up

G0 X201.800 Y40.000 F3000 ; Travel to line 424
G0 Z0.0 ; Pen down
G1 X202.320 Y39.740 F1000
G0 Z3.0 ; Pen up

G0 X202.320 Y40.000 F3000 ; Travel to line 425
G0 Z0.0 ; Pen down
G1 X202.840 Y39.740 F1000
G0 Z3.0 ; Pen up

G0 X202.840 Y40.000 F3000 ; Travel to line 426
G0 Z0.0 ; Pen down
G1 X203.360 Y39.740 F1000
G0 Z3.0 ; Pen up

G0 X203.620 Y39.740 F3000 ; Travel to line 427
G0 Z0.0 ; Pen down
G1 X203.100 Y40.000 F1000
G0 Z3.0 ; Pen up

G0 X203.360 Y40.000 F3000 ; Travel to line 428
G0 Z0.0 ; Pen down
G1 X203.880 Y39.740 F1000
G1 X203.880 Y39.740 F1000
G1 X203.360 Y40.000 F1000
G0 Z3.0 ; Pen up

G0 X203.620 Y40.000 F3000 ; Travel to line 429
G0 Z0.0 ; Pen down
G1 X204.140 Y39.740 F1000
G0 Z3.0 ; Pen up

G0 X204.140 Y40.000 F3000 ; Travel to line 430
G0 Z0.0 ; Pen down
G1 X204.660 Y39.740 F1000
G0 Z3.0 ; Pen up

G0 X204.660 Y40.000 F3000 ; Travel to line 431
G0 Z0.0 ; Pen down
G1 X204.920 Y39.740 F1000
G1 X204.920 Y39.740 F1000
G1 X204.660 Y40.000 F1000
G0 Z3.0 ; Pen up

G0 X204.920 Y40.000 F3000 ; Travel to line 432
G0 Z0.0 ; Pen down
G1 X205.180 Y39.740 F1000
G0 Z3.0 ; Pen up

G0 X205.440 Y39.740 F3000 ; Travel to line 433
G0 Z0.0 ; Pen down
G1 X205.180 Y40.000 F1000
G0 Z3.0 ; Pen up

G0 X205.440 Y40.000 F3000 ; Travel to line 434
G0 Z0.0 ; Pen down
G1 X205.700 Y39.740 F1000
G1 X205.700 Y39.740 F1000
G1 X205.440 Y40.000 F1000
G0 Z3.0 ; Pen up

G0 X205.700 Y40.000 F3000 ; Travel to line 435
G0 Z0.0 ; Pen down
G1 X205.960 Y39.740 F1000
G0 Z3.0 ; Pen up

G0 X205.960 Y40.000 F3000 ; Travel to line 436
G0 Z0.0 ; Pen down
G1 X206.220 Y39.740 F1000
G1 X206.220 Y39.740 F1000
G1 X205.960 Y40.000 F1000
G0 Z3.0 ; Pen up

G0 X206.220 Y40.000 F3000 ; Travel to line 437
G0 Z0.0 ; Pen down
G1 X206.480 Y39.740 F1000
G0 Z3.0 ; Pen up

G0 X206.740 Y39.740 F3000 ; Travel to line 438
G0 Z0.0 ; Pen down
G1 X206.480 Y40.000 F1000
G0 Z3.0 ; Pen up

G0 X206.740 Y40.000 F3000 ; Travel to line 439
G0 Z0.0 ; Pen down
G1 X207.000 Y39.740 F1000
G1 X207.000 Y39.740 F1000
G1 X206.740 Y40.000 F1000
G0 Z3.0 ; Pen up

G0 X207.000 Y40.000 F3000 ; Travel to line 440
G0 Z0.0 ; Pen down
G1 X207.260 Y39.740 F1000
G0 Z3.0 ; Pen up

G0 X207.260 Y40.000 F3000 ; Travel to line 441
G0 Z0.0 ; Pen down
G1 X207.520 Y39.740 F1000
G1 X207.520 Y39.740 F1000
G1 X207.260 Y40.000 F1000
G0 Z3.0 ; Pen up

G0 X207.520 Y40.000 F3000 ; Travel to line 442
G0 Z0.0 ; Pen down
G1 X207.780 Y39.740 F1000
G0 Z3.0 ; Pen up

G0 X207.780 Y40.000 F3000 ; Travel to line 443
G0 Z0.0 ; Pen down
G1 X208.040 Y39.740 F1000
G1 X208.040 Y39.740 F1000
G1 X207.780 Y40.000 F1000
G0 Z3.0 ; Pen up

G0 X208.040 Y40.000 F3000 ; Travel to line 444
G0 Z0.0 ; Pen down
G1 X208.300 Y39.740 F1000
G0 Z3.0 ; Pen up

G0 X208.560 Y39.740 F3000 ; Travel to line 445
G0 Z0.0 ; Pen down
G1 X208.300 Y40.000 F1000
G0 Z3.0 ; Pen up

G0 X208.560 Y40.000 F3000 ; Travel to line 446
G0 Z0.0 ; Pen down
G1 X208.820 Y39.740 F1000
G1 X208.820 Y39.740 F1000
G1 X208.560 Y40.000 F1000
G0 Z3.0 ; Pen up

G0 X208.820 Y40.000 F3000 ; Travel to line 447
G0 Z0.0 ; Pen down
G1 X209.080 Y39.740 F1000
G0 Z3.0 ; Pen up

G0 X209.080 Y40.000 F3000 ; Travel to line 448
G0 Z0.0 ; Pen down
G1 X209.340 Y39.740 F1000
G1 X209.340 Y39.740 F1000
G1 X209.080 Y40.000 F1000
G0 Z3.0 ; Pen up

G0 X209.340 Y40.000 F3000 ; Travel to line 449
G0 Z0.0 ; Pen down
G1 X209.600 Y39.740 F1000
G0 Z3.0 ; Pen up

G0 X209.600 Y40.000 F3000 ; Travel to line 450
G0 Z0.0 ; Pen down
G1 X210.120 Y39.740 F1000
G1 X210.120 Y39.740 F1000
G1 X209.860 Y40.000 F1000
G0 Z3.0 ; Pen up

G0 X210.120 Y40.000 F3000 ; Travel to line 451
G0 Z0.0 ; Pen down
G1 X210.380 Y39.740 F1000
G1 X210.380 Y39.740 F1000
G1 X210.120 Y40.000 F1000
G0 Z3.0 ; Pen up

G0 X210.380 Y40.000 F3000 ; Travel to line 452
G0 Z0.0 ; Pen down
G1 X210.640 Y39.740 F1000
G0 Z3.0 ; Pen up

G0 X210.900 Y39.740 F3000 ; Travel to line 453
G0 Z0.0 ; Pen down
G1 X210.640 Y40.000 F1000
G1 X210.640 Y40.000 F1000
G1 X211.160 Y39.740 F1000
G1 X211.160 Y39.740 F1000
G1 X210.640 Y40.000 F1000
G0 Z3.0 ; Pen up

G0 X210.900 Y40.000 F3000 ; Travel to line 454
G0 Z0.0 ; Pen down
G1 X211.420 Y39.740 F1000
G0 Z3.0 ; Pen up

G0 X211.680 Y39.740 F3000 ; Travel to line 455
G0 Z0.0 ; Pen down
G1 X211.420 Y40.000 F1000
G0 Z3.0 ; Pen up

G0 X211.680 Y40.000 F3000 ; Travel to line 456
G0 Z0.0 ; Pen down
G1 X211.940 Y39.740 F1000
G1 X211.940 Y39.740 F1000
G1 X211.680 Y40.000 F1000
G1 X211.680 Y40.000 F1000
G1 X212.200 Y39.740 F1000
G0 Z3.0 ; Pen up

G0 X212.460 Y39.740 F3000 ; Travel to line 457
G0 Z0.0 ; Pen down
G1 X211.940 Y40.000 F1000
G0 Z3.0 ; Pen up

G0 X212.200 Y40.000 F3000 ; Travel to line 458
G0 Z0.0 ; Pen down
G1 X212.460 Y39.740 F1000
G1 X212.460 Y39.740 F1000
G1 X212.200 Y40.000 F1000
G0 Z3.0 ; Pen up

G0 X212.460 Y40.000 F3000 ; Travel to line 459
G0 Z0.0 ; Pen down
G1 X212.720 Y39.740 F1000
G0 Z3.0 ; Pen up

G0 X212.720 Y40.000 F3000 ; Travel to line 460
G0 Z0.0 ; Pen down
G1 X212.980 Y39.740 F1000
G1 X212.980 Y39.740 F1000
G1 X212.720 Y40.000 F1000
G0 Z3.0 ; Pen up

G0 X213.240 Y40.000 F3000 ; Travel to line 461
G0 Z0.0 ; Pen down
G1 X213.500 Y39.740 F1000
G1 X213.500 Y39.740 F1000
G1 X213.240 Y40.000 F1000
G0 Z3.0 ; Pen up

G0 X213.500 Y40.000 F3000 ; Travel to line 462
G0 Z0.0 ; Pen down
G1 X213.760 Y39.740 F1000
G0 Z3.0 ; Pen up

G0 X213.760 Y40.000 F3000 ; Travel to line 463
G0 Z0.0 ; Pen down
G1 X214.020 Y39.740 F1000
G1 X214.020 Y39.740 F1000
G1 X213.760 Y40.000 F1000
G0 Z3.0 ; Pen up

G0 X214.020 Y40.000 F3000 ; Travel to line 464
G0 Z0.0 ; Pen down
G1 X214.540 Y39.740 F1000
G1 X214.540 Y39.740 F1000
G1 X214.020 Y40.000 F1000
G1 X214.020 Y40.000 F1000
G1 X214.280 Y39.740 F1000
G0 Z3.0 ; Pen up

G0 X214.280 Y40.000 F3000 ; Travel to line 465
G0 Z0.0 ; Pen down
G1 X214.800 Y39.740 F1000
G1 X214.800 Y39.740 F1000
G1 X214.540 Y40.000 F1000
G0 Z3.0 ; Pen up

G0 X214.800 Y40.000 F3000 ; Travel to line 466
G0 Z0.0 ; Pen down
G1 X215.060 Y39.740 F1000
G1 X215.060 Y39.740 F1000
G1 X214.800 Y40.000 F1000
G0 Z3.0 ; Pen up

G0 X215.060 Y40.000 F3000 ; Travel to line 467
G0 Z0.0 ; Pen down
G1 X215.580 Y39.740 F1000
G1 X215.580 Y39.740 F1000
G1 X215.060 Y40.000 F1000
G1 X215.060 Y40.000 F1000
G1 X215.320 Y39.740 F1000
G0 Z3.0 ; Pen up

G0 X215.320 Y40.000 F3000 ; Travel to line 468
G0 Z0.0 ; Pen down
G1 X215.840 Y39.740 F1000
G1 X215.840 Y39.740 F1000
G1 X215.580 Y40.000 F1000
G0 Z3.0 ; Pen up

G0 X215.840 Y40.000 F3000 ; Travel to line 469
G0 Z0.0 ; Pen down
G1 X216.100 Y39.740 F1000
G1 X216.100 Y39.740 F1000
G1 X215.840 Y40.000 F1000
G0 Z3.0 ; Pen up

G0 X216.100 Y40.000 F3000 ; Travel to line 470
G0 Z0.0 ; Pen down
G1 X216.360 Y39.740 F1000
G0 Z3.0 ; Pen up

G0 X216.360 Y40.000 F3000 ; Travel to line 471
G0 Z0.0 ; Pen down
G1 X216.620 Y39.740 F1000
G1 X216.620 Y39.740 F1000
G1 X216.360 Y40.000 F1000
G1 X216.360 Y40.000 F1000
G1 X216.880 Y39.740 F1000
G0 Z3.0 ; Pen up

G0 X216.880 Y40.000 F3000 ; Travel to line 472
G0 Z0.0 ; Pen down
G1 X217.140 Y39.740 F1000
G1 X217.140 Y39.740 F1000
G1 X216.620 Y40.000 F1000
G1 X216.620 Y40.000 F1000
G1 X217.140 Y39.740 F1000
G0 Z3.0 ; Pen up

G0 X217.400 Y39.740 F3000 ; Travel to line 473
G0 Z0.0 ; Pen down
G1 X217.140 Y40.000 F1000
G0 Z3.0 ; Pen up

G0 X217.400 Y40.000 F3000 ; Travel to line 474
G0 Z0.0 ; Pen down
G1 X217.660 Y39.740 F1000
G1 X217.660 Y39.740 F1000
G1 X217.400 Y40.000 F1000
G1 X217.400 Y40.000 F1000
G1 X217.920 Y39.740 F1000
G0 Z3.0 ; Pen up

G0 X218.180 Y39.740 F3000 ; Travel to line 475
G0 Z0.0 ; Pen down
G1 X217.660 Y40.000 F1000
G1 X217.660 Y40.000 F1000
G1 X218.180 Y39.740 F1000
G1 X218.180 Y39.740 F1000
G1 X217.920 Y40.000 F1000
G0 Z3.0 ; Pen up

G0 X218.180 Y40.000 F3000 ; Travel to line 476
G0 Z0.0 ; Pen down
G1 X218.440 Y39.740 F1000
G0 Z3.0 ; Pen up

G0 X218.440 Y40.000 F3000 ; Travel to line 477
G0 Z0.0 ; Pen down
G1 X218.700 Y39.740 F1000
G1 X218.700 Y39.740 F1000
G1 X218.440 Y40.000 F1000
G1 X218.440 Y40.000 F1000
G1 X218.960 Y39.740 F1000
G0 Z3.0 ; Pen up

G0 X219.220 Y39.740 F3000 ; Travel to line 478
G0 Z0.0 ; Pen down
G1 X218.700 Y40.000 F1000
G1 X218.700 Y40.000 F1000
G1 X219.220 Y39.740 F1000
G1 X219.220 Y39.740 F1000
G1 X218.960 Y40.000 F1000
G0 Z3.0 ; Pen up

G0 X219.220 Y40.000 F3000 ; Travel to line 479
G0 Z0.0 ; Pen down
G1 X219.480 Y39.740 F1000
G0 Z3.0 ; Pen up

G0 X219.480 Y40.000 F3000 ; Travel to line 480
G0 Z0.0 ; Pen down
G1 X219.740 Y39.740 F1000
G1 X219.740 Y39.740 F1000
G1 X219.480 Y40.000 F1000
G0 Z3.0 ; Pen up

G0 X219.740 Y40.000 F3000 ; Travel to line 481
G0 Z0.0 ; Pen down
G1 X220.260 Y39.740 F1000
G1 X220.260 Y39.740 F1000
G1 X219.740 Y40.000 F1000
G1 X219.740 Y40.000 F1000
G1 X220.000 Y39.740 F1000
G0 Z3.0 ; Pen up

G0 X220.000 Y40.000 F3000 ; Travel to line 482
G0 Z0.0 ; Pen down
G1 X220.520 Y39.740 F1000
G0 Z3.0 ; Pen up

G0 X220.520 Y40.000 F3000 ; Travel to line 483
G0 Z0.0 ; Pen down
G1 X221.820 Y38.960 F1000
G0 Z3.0 ; Pen up

G0 X222.080 Y38.960 F3000 ; Travel to line 484
G0 Z0.0 ; Pen down
G1 X220.780 Y40.000 F1000
G1 X220.780 Y40.000 F1000
G1 X222.080 Y38.960 F1000
G1 X222.080 Y38.960 F1000
G1 X220.780 Y40.000 F1000
G0 Z3.0 ; Pen up

G0 X221.040 Y40.000 F3000 ; Travel to line 485
G0 Z0.0 ; Pen down
G1 X222.340 Y38.960 F1000
G0 Z3.0 ; Pen up

G0 X223.120 Y39.220 F3000 ; Travel to line 486
G0 Z0.0 ; Pen down
G1 X221.300 Y40.780 F1000
G0 Z3.0 ; Pen up

G0 X221.300 Y41.040 F3000 ; Travel to line 487
G0 Z0.0 ; Pen down
G1 X223.380 Y39.220 F1000
G1 X223.380 Y39.220 F1000
G1 X221.300 Y41.040 F1000
G1 X221.300 Y41.040 F1000
G1 X223.380 Y39.480 F1000
G0 Z3.0 ; Pen up

G0 X223.640 Y39.480 F3000 ; Travel to line 488
G0 Z0.0 ; Pen down
G1 X221.820 Y41.040 F1000
G0 Z3.0 ; Pen up

G0 X222.080 Y41.040 F3000 ; Travel to line 489
G0 Z0.0 ; Pen down
G1 X224.160 Y39.480 F1000
G1 X224.160 Y39.480 F1000
G1 X222.080 Y41.040 F1000
G1 X222.080 Y41.040 F1000
G1 X223.900 Y39.480 F1000
G0 Z3.0 ; Pen up

G0 X224.420 Y39.480 F3000 ; Travel to line 490
G0 Z0.0 ; Pen down
G1 X222.340 Y41.040 F1000
G0 Z3.0 ; Pen up

G0 X222.860 Y40.780 F3000 ; Travel to line 491
G0 Z0.0 ; Pen down
G1 X224.420 Y39.480 F1000
G1 X224.420 Y39.480 F1000
G1 X222.860 Y40.780 F1000
G0 Z3.0 ; Pen up

G0 X223.120 Y40.780 F3000 ; Travel to line 492
G0 Z0.0 ; Pen down
G1 X224.420 Y39.740 F1000
G0 Z3.0 ; Pen up

G0 X224.680 Y39.740 F3000 ; Travel to line 493
G0 Z0.0 ; Pen down
G1 X223.380 Y40.780 F1000
G0 Z3.0 ; Pen up

G0 X223.900 Y40.520 F3000 ; Travel to line 494
G0 Z0.0 ; Pen down
G1 X224.940 Y39.740 F1000
G1 X224.940 Y39.740 F1000
G1 X223.900 Y40.520 F1000
G0 Z3.0 ; Pen up

G0 X224.160 Y40.520 F3000 ; Travel to line 495
G0 Z0.0 ; Pen down
G1 X225.200 Y39.740 F1000
G1 X225.200 Y39.740 F1000
G1 X224.160 Y40.520 F1000
G1 X224.160 Y40.520 F1000
G1 X225.200 Y39.740 F1000
G0 Z3.0 ; Pen up

G0 X225.460 Y39.740 F3000 ; Travel to line 496
G0 Z0.0 ; Pen down
G1 X224.420 Y40.520 F1000
G0 Z3.0 ; Pen up

G0 X224.940 Y40.260 F3000 ; Travel to line 497
G0 Z0.0 ; Pen down
G1 X225.720 Y39.740 F1000
G0 Z3.0 ; Pen up

G0 X225.980 Y40.000 F3000 ; Travel to line 498
G0 Z0.0 ; Pen down
G1 X226.240 Y39.740 F1000
G1 X226.240 Y39.740 F1000
G1 X225.980 Y40.000 F1000
G0 Z3.0 ; Pen up

G0 X226.240 Y40.000 F3000 ; Travel to line 499
G0 Z0.0 ; Pen down
G1 X226.500 Y39.740 F1000
G0 Z3.0 ; Pen up

G0 X226.240 Y39.740 F3000 ; Travel to line 500
G0 Z0.0 ; Pen down
G1 X225.460 Y40.260 F1000
G0 Z3.0 ; Pen up

G0 X225.200 Y40.260 F3000 ; Travel to line 501
G0 Z0.0 ; Pen down
G1 X225.980 Y39.740 F1000
G1 X225.980 Y39.740 F1000
G1 X225.200 Y40.260 F1000
G0 Z3.0 ; Pen up

G0 X221.300 Y40.260 F3000 ; Travel to line 502
G0 Z0.0 ; Pen down
G1 X222.600 Y39.220 F1000
G1 X222.600 Y39.220 F1000
G1 X221.300 Y40.260 F1000
G0 Z3.0 ; Pen up

G0 X221.300 Y40.000 F3000 ; Travel to line 503
G0 Z0.0 ; Pen down
G1 X222.340 Y39.220 F1000
G1 X222.340 Y39.220 F1000
G1 X221.300 Y40.000 F1000
G0 Z3.0 ; Pen up

G0 X221.300 Y40.520 F3000 ; Travel to line 504
G0 Z0.0 ; Pen down
G1 X222.860 Y39.220 F1000
G1 X222.860 Y39.220 F1000
G1 X221.300 Y40.520 F1000
G0 Z3.0 ; Pen up

G0 X221.300 Y41.300 F3000 ; Travel to line 505
G0 Z0.0 ; Pen down
G1 X223.380 Y39.480 F1000
G1 X223.380 Y39.480 F1000
G1 X221.300 Y41.300 F1000
G0 Z3.0 ; Pen up

G0 X220.260 Y40.000 F3000 ; Travel to line 506
G0 Z0.0 ; Pen down
G1 X220.520 Y39.740 F1000
G1 X220.520 Y39.740 F1000
G1 X220.260 Y40.000 F1000
G0 Z3.0 ; Pen up

G0 X221.300 Y39.220 F3000 ; Travel to line 507
G0 Z0.0 ; Pen down
G1 X221.560 Y38.960 F1000
G1 X221.560 Y38.960 F1000
G1 X221.300 Y39.220 F1000
G0 Z3.0 ; Pen up

G0 X213.500 Y39.740 F3000 ; Travel to line 508
G0 Z0.0 ; Pen down
G1 X212.980 Y40.000 F1000
G1 X212.980 Y40.000 F1000
G1 X213.240 Y39.740 F1000
G0 Z3.0 ; Pen up

G0 X211.160 Y40.000 F3000 ; Travel to line 509
G0 Z0.0 ; Pen down
G1 X211.420 Y39.740 F1000
G1 X211.420 Y39.740 F1000
G1 X211.160 Y40.000 F1000
G0 Z3.0 ; Pen up

G0 X210.120 Y39.740 F3000 ; Travel to line 510
G0 Z0.0 ; Pen down
G1 X209.600 Y40.000 F1000
G1 X209.600 Y40.000 F1000
G1 X209.860 Y39.740 F1000
G0 Z3.0 ; Pen up

G0 X203.880 Y40.000 F3000 ; Travel to line 511
G0 Z0.0 ; Pen down
G1 X204.400 Y39.740 F1000
G1 X204.400 Y39.740 F1000
G1 X203.880 Y40.000 F1000
G0 Z3.0 ; Pen up

G0 X202.580 Y40.000 F3000 ; Travel to line 512
G0 Z0.0 ; Pen down
G1 X203.100 Y39.740 F1000
G1 X203.100 Y39.740 F1000
G1 X202.580 Y40.000 F1000
G0 Z3.0 ; Pen up

G0 X202.060 Y40.000 F3000 ; Travel to line 513
G0 Z0.0 ; Pen down
G1 X202.580 Y39.740 F1000
G1 X202.580 Y39.740 F1000
G1 X202.060 Y40.000 F1000
G0 Z3.0 ; Pen up

G0 X192.180 Y40.000 F3000 ; Travel to line 514
G0 Z0.0 ; Pen down
G1 X192.700 Y39.740 F1000
G1 X192.700 Y39.740 F1000
G1 X192.180 Y40.000 F1000
G0 Z3.0 ; Pen up

G0 X183.860 Y40.000 F3000 ; Travel to line 515
G0 Z0.0 ; Pen down
G1 X184.380 Y39.740 F1000
G1 X184.380 Y39.740 F1000
G1 X183.860 Y40.000 F1000
G0 Z3.0 ; Pen up

G0 X176.060 Y40.000 F3000 ; Travel to line 516
G0 Z0.0 ; Pen down
G1 X176.580 Y39.740 F1000
G1 X176.580 Y39.740 F1000
G1 X176.060 Y40.000 F1000
G0 Z3.0 ; Pen up

G0 X174.760 Y40.000 F3000 ; Travel to line 517
G0 Z0.0 ; Pen down
G1 X175.280 Y39.740 F1000
G1 X175.280 Y39.740 F1000
G1 X174.760 Y40.000 F1000
G0 Z3.0 ; Pen up

G0 X168.260 Y40.000 F3000 ; Travel to line 518
G0 Z0.0 ; Pen down
G1 X168.780 Y39.740 F1000
G1 X168.780 Y39.740 F1000
G1 X168.260 Y40.000 F1000
G0 Z3.0 ; Pen up

G0 X166.960 Y40.000 F3000 ; Travel to line 519
G0 Z0.0 ; Pen down
G1 X167.480 Y39.740 F1000
G1 X167.480 Y39.740 F1000
G1 X166.960 Y40.000 F1000
G0 Z3.0 ; Pen up

G0 X160.460 Y40.000 F3000 ; Travel to line 520
G0 Z0.0 ; Pen down
G1 X160.980 Y39.740 F1000
G1 X160.980 Y39.740 F1000
G1 X160.460 Y40.000 F1000
G0 Z3.0 ; Pen up

G0 X159.940 Y40.000 F3000 ; Travel to line 521
G0 Z0.0 ; Pen down
G1 X160.460 Y39.740 F1000
G1 X160.460 Y39.740 F1000
G1 X159.940 Y40.000 F1000
G0 Z3.0 ; Pen up

G0 X154.480 Y40.000 F3000 ; Travel to line 522
G0 Z0.0 ; Pen down
G1 X155.000 Y39.740 F1000
G1 X155.000 Y39.740 F1000
G1 X154.480 Y40.000 F1000
G0 Z3.0 ; Pen up

G0 X153.960 Y40.000 F3000 ; Travel to line 523
G0 Z0.0 ; Pen down
G1 X154.480 Y39.740 F1000
G1 X154.480 Y39.740 F1000
G1 X153.960 Y40.000 F1000
G0 Z3.0 ; Pen up

G0 X149.020 Y39.740 F3000 ; Travel to line 524
G0 Z0.0 ; Pen down
G1 X148.500 Y40.000 F1000
G0 Z3.0 ; Pen up

G0 X148.240 Y40.000 F3000 ; Travel to line 525
G0 Z0.0 ; Pen down
G1 X148.760 Y39.740 F1000
G0 Z3.0 ; Pen up

G0 X148.760 Y39.220 F3000 ; Travel to line 526
G0 Z0.0 ; Pen down
G1 X147.720 Y40.000 F1000
G0 Z3.0 ; Pen up

G0 X147.460 Y40.000 F3000 ; Travel to line 527
G0 Z0.0 ; Pen down
G1 X148.760 Y38.960 F1000
G1 X148.760 Y38.960 F1000
G1 X147.460 Y40.000 F1000
G0 Z3.0 ; Pen up

G0 X147.200 Y40.000 F3000 ; Travel to line 528
G0 Z0.0 ; Pen down
G1 X147.720 Y39.740 F1000
G0 Z3.0 ; Pen up

G0 X147.460 Y39.740 F3000 ; Travel to line 529
G0 Z0.0 ; Pen down
G1 X146.940 Y40.000 F1000
G0 Z3.0 ; Pen up

G0 X146.680 Y40.000 F3000 ; Travel to line 530
G0 Z0.0 ; Pen down
G1 X146.940 Y39.740 F1000
G1 X146.940 Y39.740 F1000
G1 X146.680 Y40.000 F1000
G0 Z3.0 ; Pen up

G0 X146.420 Y40.000 F3000 ; Travel to line 531
G0 Z0.0 ; Pen down
G1 X146.680 Y39.740 F1000
G0 Z3.0 ; Pen up

G0 X146.160 Y39.740 F3000 ; Travel to line 532
G0 Z0.0 ; Pen down
G1 X145.900 Y40.000 F1000
G0 Z3.0 ; Pen up

G0 X146.160 Y40.000 F3000 ; Travel to line 533
G0 Z0.0 ; Pen down
G1 X146.420 Y39.740 F1000
G1 X146.420 Y39.740 F1000
G1 X146.160 Y40.000 F1000
G0 Z3.0 ; Pen up

G0 X145.640 Y40.000 F3000 ; Travel to line 534
G0 Z0.0 ; Pen down
G1 X145.900 Y39.740 F1000
G1 X145.900 Y39.740 F1000
G1 X145.640 Y40.000 F1000
G0 Z3.0 ; Pen up

G0 X145.380 Y40.000 F3000 ; Travel to line 535
G0 Z0.0 ; Pen down
G1 X145.640 Y39.740 F1000
G0 Z3.0 ; Pen up

G0 X145.380 Y39.740 F3000 ; Travel to line 536
G0 Z0.0 ; Pen down
G1 X145.120 Y40.000 F1000
G0 Z3.0 ; Pen up

G0 X144.860 Y40.000 F3000 ; Travel to line 537
G0 Z0.0 ; Pen down
G1 X145.120 Y39.740 F1000
G1 X145.120 Y39.740 F1000
G1 X144.860 Y40.000 F1000
G0 Z3.0 ; Pen up

G0 X144.600 Y40.000 F3000 ; Travel to line 538
G0 Z0.0 ; Pen down
G1 X144.860 Y39.740 F1000
G0 Z3.0 ; Pen up

G0 X144.340 Y39.740 F3000 ; Travel to line 539
G0 Z0.0 ; Pen down
G1 X144.080 Y40.000 F1000
G0 Z3.0 ; Pen up

G0 X143.820 Y40.000 F3000 ; Travel to line 540
G0 Z0.0 ; Pen down
G1 X144.080 Y39.740 F1000
G0 Z3.0 ; Pen up

G0 X144.340 Y40.000 F3000 ; Travel to line 541
G0 Z0.0 ; Pen down
G1 X144.600 Y39.740 F1000
G1 X144.600 Y39.740 F1000
G1 X144.340 Y40.000 F1000
G0 Z3.0 ; Pen up

G0 X143.560 Y40.000 F3000 ; Travel to line 542
G0 Z0.0 ; Pen down
G1 X143.820 Y39.740 F1000
G1 X143.820 Y39.740 F1000
G1 X143.560 Y40.000 F1000
G0 Z3.0 ; Pen up

G0 X143.560 Y39.740 F3000 ; Travel to line 543
G0 Z0.0 ; Pen down
G1 X143.040 Y40.000 F1000
G0 Z3.0 ; Pen up

G0 X143.040 Y39.740 F3000 ; Travel to line 544
G0 Z0.0 ; Pen down
G1 X142.520 Y40.000 F1000
G0 Z3.0 ; Pen up

G0 X142.780 Y40.000 F3000 ; Travel to line 545
G0 Z0.0 ; Pen down
G1 X143.300 Y39.740 F1000
G1 X143.300 Y39.740 F1000
G1 X142.780 Y40.000 F1000
G0 Z3.0 ; Pen up

G0 X142.520 Y39.740 F3000 ; Travel to line 546
G0 Z0.0 ; Pen down
G1 X142.000 Y40.000 F1000
G0 Z3.0 ; Pen up

G0 X142.260 Y40.000 F3000 ; Travel to line 547
G0 Z0.0 ; Pen down
G1 X142.780 Y39.740 F1000
G1 X142.780 Y39.740 F1000
G1 X142.260 Y40.000 F1000
G0 Z3.0 ; Pen up

G0 X142.260 Y39.740 F3000 ; Travel to line 548
G0 Z0.0 ; Pen down
G1 X141.740 Y40.000 F1000
G0 Z3.0 ; Pen up

G0 X141.480 Y40.000 F3000 ; Travel to line 549
G0 Z0.0 ; Pen down
G1 X142.000 Y39.740 F1000
G1 X142.000 Y39.740 F1000
G1 X141.480 Y40.000 F1000
G0 Z3.0 ; Pen up

G0 X141.480 Y39.740 F3000 ; Travel to line 550
G0 Z0.0 ; Pen down
G1 X141.220 Y40.000 F1000
G0 Z3.0 ; Pen up

G0 X140.960 Y40.000 F3000 ; Travel to line 551
G0 Z0.0 ; Pen down
G1 X141.220 Y39.740 F1000
G1 X141.220 Y39.740 F1000
G1 X140.960 Y40.000 F1000
G0 Z3.0 ; Pen up

G0 X140.960 Y39.740 F3000 ; Travel to line 552
G0 Z0.0 ; Pen down
G1 X140.700 Y40.000 F1000
G0 Z3.0 ; Pen up

G0 X140.440 Y40.000 F3000 ; Travel to line 553
G0 Z0.0 ; Pen down
G1 X140.700 Y39.740 F1000
G0 Z3.0 ; Pen up

G0 X140.180 Y39.740 F3000 ; Travel to line 554
G0 Z0.0 ; Pen down
G1 X139.920 Y40.000 F1000
G0 Z3.0 ; Pen up

G0 X140.180 Y40.000 F3000 ; Travel to line 555
G0 Z0.0 ; Pen down
G1 X140.440 Y39.740 F1000
G1 X140.440 Y39.740 F1000
G1 X140.180 Y40.000 F1000
G0 Z3.0 ; Pen up

G0 X139.660 Y40.000 F3000 ; Travel to line 556
G0 Z0.0 ; Pen down
G1 X139.920 Y39.740 F1000
G1 X139.920 Y39.740 F1000
G1 X139.660 Y40.000 F1000
G0 Z3.0 ; Pen up

G0 X139.660 Y39.740 F3000 ; Travel to line 557
G0 Z0.0 ; Pen down
G1 X139.400 Y40.000 F1000
G0 Z3.0 ; Pen up

G0 X139.140 Y40.000 F3000 ; Travel to line 558
G0 Z0.0 ; Pen down
G1 X139.400 Y39.740 F1000
G1 X139.400 Y39.740 F1000
G1 X139.140 Y40.000 F1000
G0 Z3.0 ; Pen up

G0 X138.880 Y40.000 F3000 ; Travel to line 559
G0 Z0.0 ; Pen down
G1 X139.140 Y39.740 F1000
G0 Z3.0 ; Pen up

G0 X138.880 Y39.740 F3000 ; Travel to line 560
G0 Z0.0 ; Pen down
G1 X138.620 Y40.000 F1000
G0 Z3.0 ; Pen up

G0 X138.360 Y40.000 F3000 ; Travel to line 561
G0 Z0.0 ; Pen down
G1 X138.620 Y39.740 F1000
G1 X138.620 Y39.740 F1000
G1 X138.360 Y40.000 F1000
G0 Z3.0 ; Pen up

G0 X138.360 Y39.740 F3000 ; Travel to line 562
G0 Z0.0 ; Pen down
G1 X137.840 Y40.000 F1000
G0 Z3.0 ; Pen up

G0 X137.840 Y39.740 F3000 ; Travel to line 563
G0 Z0.0 ; Pen down
G1 X137.320 Y40.000 F1000
G0 Z3.0 ; Pen up

G0 X137.580 Y40.000 F3000 ; Travel to line 564
G0 Z0.0 ; Pen down
G1 X138.100 Y39.740 F1000
G1 X138.100 Y39.740 F1000
G1 X137.580 Y40.000 F1000
G0 Z3.0 ; Pen up

G0 X137.580 Y39.740 F3000 ; Travel to line 565
G0 Z0.0 ; Pen down
G1 X137.060 Y40.000 F1000
G0 Z3.0 ; Pen up

G0 X136.800 Y40.000 F3000 ; Travel to line 566
G0 Z0.0 ; Pen down
G1 X137.320 Y39.740 F1000
G1 X137.320 Y39.740 F1000
G1 X136.800 Y40.000 F1000
G0 Z3.0 ; Pen up

G0 X136.540 Y40.000 F3000 ; Travel to line 567
G0 Z0.0 ; Pen down
G1 X137.060 Y39.740 F1000
G0 Z3.0 ; Pen up

G0 X136.540 Y39.740 F3000 ; Travel to line 568
G0 Z0.0 ; Pen down
G1 X136.020 Y40.000 F1000
G0 Z3.0 ; Pen up

G0 X136.280 Y40.000 F3000 ; Travel to line 569
G0 Z0.0 ; Pen down
G1 X136.800 Y39.740 F1000
G1 X136.800 Y39.740 F1000
G1 X136.280 Y40.000 F1000
G0 Z3.0 ; Pen up

G0 X136.020 Y39.740 F3000 ; Travel to line 570
G0 Z0.0 ; Pen down
G1 X135.760 Y40.000 F1000
G0 Z3.0 ; Pen up

G0 X135.500 Y40.000 F3000 ; Travel to line 571
G0 Z0.0 ; Pen down
G1 X135.760 Y39.740 F1000
G1 X135.760 Y39.740 F1000
G1 X135.500 Y40.000 F1000
G0 Z3.0 ; Pen up

G0 X135.240 Y40.000 F3000 ; Travel to line 572
G0 Z0.0 ; Pen down
G1 X135.500 Y39.740 F1000
G0 Z3.0 ; Pen up

G0 X134.980 Y39.740 F3000 ; Travel to line 573
G0 Z0.0 ; Pen down
G1 X134.720 Y40.000 F1000
G0 Z3.0 ; Pen up

G0 X134.460 Y40.000 F3000 ; Travel to line 574
G0 Z0.0 ; Pen down
G1 X134.720 Y39.740 F1000
G1 X134.720 Y39.740 F1000
G1 X134.460 Y40.000 F1000
G0 Z3.0 ; Pen up

G0 X134.460 Y39.740 F3000 ; Travel to line 575
G0 Z0.0 ; Pen down
G1 X134.200 Y40.000 F1000
G0 Z3.0 ; Pen up

G0 X133.940 Y40.000 F3000 ; Travel to line 576
G0 Z0.0 ; Pen down
G1 X134.200 Y39.740 F1000
G0 Z3.0 ; Pen up

G0 X133.680 Y39.740 F3000 ; Travel to line 577
G0 Z0.0 ; Pen down
G1 X133.420 Y40.000 F1000
G0 Z3.0 ; Pen up

G0 X133.680 Y40.000 F3000 ; Travel to line 578
G0 Z0.0 ; Pen down
G1 X133.940 Y39.740 F1000
G1 X133.940 Y39.740 F1000
G1 X133.680 Y40.000 F1000
G0 Z3.0 ; Pen up

G0 X133.160 Y40.000 F3000 ; Travel to line 579
G0 Z0.0 ; Pen down
G1 X133.420 Y39.740 F1000
G1 X133.420 Y39.740 F1000
G1 X133.160 Y40.000 F1000
G0 Z3.0 ; Pen up

G0 X133.160 Y39.740 F3000 ; Travel to line 580
G0 Z0.0 ; Pen down
G1 X132.640 Y40.000 F1000
G0 Z3.0 ; Pen up

G0 X132.380 Y40.000 F3000 ; Travel to line 581
G0 Z0.0 ; Pen down
G1 X132.900 Y39.740 F1000
G0 Z3.0 ; Pen up

G0 X132.380 Y39.740 F3000 ; Travel to line 582
G0 Z0.0 ; Pen down
G1 X131.860 Y40.000 F1000
G0 Z3.0 ; Pen up

G0 X132.120 Y40.000 F3000 ; Travel to line 583
G0 Z0.0 ; Pen down
G1 X132.640 Y39.740 F1000
G1 X132.640 Y39.740 F1000
G1 X132.120 Y40.000 F1000
G0 Z3.0 ; Pen up

G0 X131.860 Y39.740 F3000 ; Travel to line 584
G0 Z0.0 ; Pen down
G1 X131.340 Y40.000 F1000
G0 Z3.0 ; Pen up

G0 X131.600 Y40.000 F3000 ; Travel to line 585
G0 Z0.0 ; Pen down
G1 X132.120 Y39.740 F1000
G1 X132.120 Y39.740 F1000
G1 X131.600 Y40.000 F1000
G0 Z3.0 ; Pen up

G0 X131.080 Y40.000 F3000 ; Travel to line 586
G0 Z0.0 ; Pen down
G1 X131.600 Y39.740 F1000
G1 X131.600 Y39.740 F1000
G1 X131.080 Y40.000 F1000
G0 Z3.0 ; Pen up

G0 X130.820 Y40.000 F3000 ; Travel to line 587
G0 Z0.0 ; Pen down
G1 X131.080 Y39.740 F1000
G0 Z3.0 ; Pen up

G0 X130.820 Y39.740 F3000 ; Travel to line 588
G0 Z0.0 ; Pen down
G1 X130.560 Y40.000 F1000
G0 Z3.0 ; Pen up

G0 X130.300 Y40.000 F3000 ; Travel to line 589
G0 Z0.0 ; Pen down
G1 X130.560 Y39.740 F1000
G1 X130.560 Y39.740 F1000
G1 X130.300 Y40.000 F1000
G0 Z3.0 ; Pen up

G0 X130.040 Y40.000 F3000 ; Travel to line 590
G0 Z0.0 ; Pen down
G1 X130.300 Y39.740 F1000
G0 Z3.0 ; Pen up

G0 X129.780 Y39.740 F3000 ; Travel to line 591
G0 Z0.0 ; Pen down
G1 X129.520 Y40.000 F1000
G0 Z3.0 ; Pen up

G0 X129.780 Y40.000 F3000 ; Travel to line 592
G0 Z0.0 ; Pen down
G1 X130.040 Y39.740 F1000
G1 X130.040 Y39.740 F1000
G1 X129.780 Y40.000 F1000
G0 Z3.0 ; Pen up

G0 X129.520 Y39.740 F3000 ; Travel to line 593
G0 Z0.0 ; Pen down
G1 X129.260 Y40.000 F1000
G0 Z3.0 ; Pen up

G0 X129.000 Y40.000 F3000 ; Travel to line 594
G0 Z0.0 ; Pen down
G1 X129.260 Y39.740 F1000
G1 X129.260 Y39.740 F1000
G1 X129.000 Y40.000 F1000
G0 Z3.0 ; Pen up

G0 X128.740 Y40.000 F3000 ; Travel to line 595
G0 Z0.0 ; Pen down
G1 X129.000 Y39.740 F1000
G0 Z3.0 ; Pen up

G0 X128.480 Y39.740 F3000 ; Travel to line 596
G0 Z0.0 ; Pen down
G1 X127.960 Y40.000 F1000
G0 Z3.0 ; Pen up

G0 X127.700 Y40.000 F3000 ; Travel to line 597
G0 Z0.0 ; Pen down
G1 X128.220 Y39.740 F1000
G0 Z3.0 ; Pen up

G0 X128.480 Y40.000 F3000 ; Travel to line 598
G0 Z0.0 ; Pen down
G1 X128.740 Y39.740 F1000
G1 X128.740 Y39.740 F1000
G1 X128.480 Y40.000 F1000
G0 Z3.0 ; Pen up

G0 X127.700 Y39.740 F3000 ; Travel to line 599
G0 Z0.0 ; Pen down
G1 X127.180 Y40.000 F1000
G0 Z3.0 ; Pen up

G0 X127.440 Y40.000 F3000 ; Travel to line 600
G0 Z0.0 ; Pen down
G1 X127.960 Y39.740 F1000
G1 X127.960 Y39.740 F1000
G1 X127.440 Y40.000 F1000
G0 Z3.0 ; Pen up

G0 X127.180 Y39.740 F3000 ; Travel to line 601
G0 Z0.0 ; Pen down
G1 X126.660 Y40.000 F1000
G0 Z3.0 ; Pen up

G0 X126.400 Y40.000 F3000 ; Travel to line 602
G0 Z0.0 ; Pen down
G1 X126.660 Y39.740 F1000
G1 X126.660 Y39.740 F1000
G1 X126.400 Y40.000 F1000
G0 Z3.0 ; Pen up

G0 X126.400 Y39.740 F3000 ; Travel to line 603
G0 Z0.0 ; Pen down
G1 X126.140 Y40.000 F1000
G0 Z3.0 ; Pen up

G0 X125.880 Y40.000 F3000 ; Travel to line 604
G0 Z0.0 ; Pen down
G1 X126.140 Y39.740 F1000
G0 Z3.0 ; Pen up

G0 X125.620 Y39.740 F3000 ; Travel to line 605
G0 Z0.0 ; Pen down
G1 X125.360 Y40.000 F1000
G0 Z3.0 ; Pen up

G0 X125.100 Y40.000 F3000 ; Travel to line 606
G0 Z0.0 ; Pen down
G1 X125.360 Y39.740 F1000
G1 X125.360 Y39.740 F1000
G1 X125.100 Y40.000 F1000
G0 Z3.0 ; Pen up

G0 X125.100 Y39.740 F3000 ; Travel to line 607
G0 Z0.0 ; Pen down
G1 X124.840 Y40.000 F1000
G0 Z3.0 ; Pen up

G0 X124.840 Y39.740 F3000 ; Travel to line 608
G0 Z0.0 ; Pen down
G1 X124.580 Y40.000 F1000
G0 Z3.0 ; Pen up

G0 X124.320 Y40.000 F3000 ; Travel to line 609
G0 Z0.0 ; Pen down
G1 X124.580 Y39.740 F1000
G1 X124.580 Y39.740 F1000
G1 X124.320 Y40.000 F1000
G0 Z3.0 ; Pen up

G0 X124.320 Y39.740 F3000 ; Travel to line 610
G0 Z0.0 ; Pen down
G1 X123.800 Y40.000 F1000
G0 Z3.0 ; Pen up

G0 X123.540 Y40.000 F3000 ; Travel to line 611
G0 Z0.0 ; Pen down
G1 X124.060 Y39.740 F1000
G1 X124.060 Y39.740 F1000
G1 X123.540 Y40.000 F1000
G0 Z3.0 ; Pen up

G0 X123.280 Y40.000 F3000 ; Travel to line 612
G0 Z0.0 ; Pen down
G1 X123.800 Y39.740 F1000
G0 Z3.0 ; Pen up

G0 X123.280 Y39.740 F3000 ; Travel to line 613
G0 Z0.0 ; Pen down
G1 X122.760 Y40.000 F1000
G0 Z3.0 ; Pen up

G0 X123.020 Y40.000 F3000 ; Travel to line 614
G0 Z0.0 ; Pen down
G1 X123.540 Y39.740 F1000
G1 X123.540 Y39.740 F1000
G1 X123.020 Y40.000 F1000
G0 Z3.0 ; Pen up

G0 X123.020 Y39.740 F3000 ; Travel to line 615
G0 Z0.0 ; Pen down
G1 X122.500 Y40.000 F1000
G0 Z3.0 ; Pen up

G0 X122.240 Y40.000 F3000 ; Travel to line 616
G0 Z0.0 ; Pen down
G1 X122.760 Y39.740 F1000
G1 X122.760 Y39.740 F1000
G1 X122.240 Y40.000 F1000
G0 Z3.0 ; Pen up

G0 X122.240 Y39.740 F3000 ; Travel to line 617
G0 Z0.0 ; Pen down
G1 X121.980 Y40.000 F1000
G0 Z3.0 ; Pen up

G0 X121.720 Y40.000 F3000 ; Travel to line 618
G0 Z0.0 ; Pen down
G1 X121.980 Y39.740 F1000
G1 X121.980 Y39.740 F1000
G1 X121.720 Y40.000 F1000
G0 Z3.0 ; Pen up

G0 X121.460 Y40.000 F3000 ; Travel to line 619
G0 Z0.0 ; Pen down
G1 X121.720 Y39.740 F1000
G0 Z3.0 ; Pen up

G0 X121.460 Y39.740 F3000 ; Travel to line 620
G0 Z0.0 ; Pen down
G1 X121.200 Y40.000 F1000
G0 Z3.0 ; Pen up

G0 X120.940 Y40.000 F3000 ; Travel to line 621
G0 Z0.0 ; Pen down
G1 X121.200 Y39.740 F1000
G1 X121.200 Y39.740 F1000
G1 X120.940 Y40.000 F1000
G0 Z3.0 ; Pen up

G0 X120.680 Y40.000 F3000 ; Travel to line 622
G0 Z0.0 ; Pen down
G1 X120.940 Y39.740 F1000
G0 Z3.0 ; Pen up

G0 X120.420 Y39.740 F3000 ; Travel to line 623
G0 Z0.0 ; Pen down
G1 X120.160 Y40.000 F1000
G0 Z3.0 ; Pen up

G0 X120.420 Y40.000 F3000 ; Travel to line 624
G0 Z0.0 ; Pen down
G1 X120.680 Y39.740 F1000
G1 X120.680 Y39.740 F1000
G1 X120.420 Y40.000 F1000
G0 Z3.0 ; Pen up

G0 X119.900 Y39.740 F3000 ; Travel to line 625
G0 Z0.0 ; Pen down
G1 X119.380 Y40.000 F1000
G0 Z3.0 ; Pen up

G0 X119.640 Y40.000 F3000 ; Travel to line 626
G0 Z0.0 ; Pen down
G1 X120.160 Y39.740 F1000
G1 X120.160 Y39.740 F1000
G1 X119.640 Y40.000 F1000
G0 Z3.0 ; Pen up

G0 X119.640 Y39.740 F3000 ; Travel to line 627
G0 Z0.0 ; Pen down
G1 X119.120 Y40.000 F1000
G0 Z3.0 ; Pen up

G0 X119.120 Y39.740 F3000 ; Travel to line 628
G0 Z0.0 ; Pen down
G1 X118.600 Y40.000 F1000
G0 Z3.0 ; Pen up

G0 X118.860 Y40.000 F3000 ; Travel to line 629
G0 Z0.0 ; Pen down
G1 X119.380 Y39.740 F1000
G1 X119.380 Y39.740 F1000
G1 X118.860 Y40.000 F1000
G0 Z3.0 ; Pen up

G0 X118.600 Y39.740 F3000 ; Travel to line 630
G0 Z0.0 ; Pen down
G1 X118.080 Y40.000 F1000
G0 Z3.0 ; Pen up

G0 X117.820 Y40.000 F3000 ; Travel to line 631
G0 Z0.0 ; Pen down
G1 X118.080 Y39.740 F1000
G0 Z3.0 ; Pen up

G0 X118.340 Y40.000 F3000 ; Travel to line 632
G0 Z0.0 ; Pen down
G1 X118.860 Y39.740 F1000
G1 X118.860 Y39.740 F1000
G1 X118.340 Y40.000 F1000
G0 Z3.0 ; Pen up

G0 X117.560 Y40.000 F3000 ; Travel to line 633
G0 Z0.0 ; Pen down
G1 X117.820 Y39.740 F1000
G1 X117.820 Y39.740 F1000
G1 X117.560 Y40.000 F1000
G0 Z3.0 ; Pen up

G0 X117.560 Y39.740 F3000 ; Travel to line 634
G0 Z0.0 ; Pen down
G1 X117.300 Y40.000 F1000
G0 Z3.0 ; Pen up

G0 X117.040 Y40.000 F3000 ; Travel to line 635
G0 Z0.0 ; Pen down
G1 X117.300 Y39.740 F1000
G1 X117.300 Y39.740 F1000
G1 X117.040 Y40.000 F1000
G0 Z3.0 ; Pen up

G0 X117.040 Y39.740 F3000 ; Travel to line 636
G0 Z0.0 ; Pen down
G1 X116.780 Y40.000 F1000
G0 Z3.0 ; Pen up

G0 X116.520 Y40.000 F3000 ; Travel to line 637
G0 Z0.0 ; Pen down
G1 X116.780 Y39.740 F1000
G0 Z3.0 ; Pen up

G0 X116.260 Y39.740 F3000 ; Travel to line 638
G0 Z0.0 ; Pen down
G1 X115.740 Y40.000 F1000
G0 Z3.0 ; Pen up

G0 X115.740 Y39.740 F3000 ; Travel to line 639
G0 Z0.0 ; Pen down
G1 X115.220 Y40.000 F1000
G0 Z3.0 ; Pen up

G0 X114.960 Y40.000 F3000 ; Travel to line 640
G0 Z0.0 ; Pen down
G1 X115.480 Y39.740 F1000
G1 X115.480 Y39.740 F1000
G1 X114.960 Y40.000 F1000
G0 Z3.0 ; Pen up

G0 X114.960 Y39.740 F3000 ; Travel to line 641
G0 Z0.0 ; Pen down
G1 X114.440 Y40.000 F1000
G0 Z3.0 ; Pen up

G0 X114.180 Y40.000 F3000 ; Travel to line 642
G0 Z0.0 ; Pen down
G1 X114.440 Y39.740 F1000
G1 X114.440 Y39.740 F1000
G1 X114.180 Y40.000 F1000
G0 Z3.0 ; Pen up

G0 X114.180 Y39.740 F3000 ; Travel to line 643
G0 Z0.0 ; Pen down
G1 X113.920 Y40.000 F1000
G0 Z3.0 ; Pen up

G0 X113.660 Y40.000 F3000 ; Travel to line 644
G0 Z0.0 ; Pen down
G1 X113.920 Y39.740 F1000
G1 X113.920 Y39.740 F1000
G1 X113.660 Y40.000 F1000
G0 Z3.0 ; Pen up

G0 X113.400 Y40.000 F3000 ; Travel to line 645
G0 Z0.0 ; Pen down
G1 X113.660 Y39.740 F1000
G0 Z3.0 ; Pen up

G0 X113.400 Y39.740 F3000 ; Travel to line 646
G0 Z0.0 ; Pen down
G1 X113.140 Y40.000 F1000
G0 Z3.0 ; Pen up

G0 X112.880 Y40.000 F3000 ; Travel to line 647
G0 Z0.0 ; Pen down
G1 X113.140 Y39.740 F1000
G1 X113.140 Y39.740 F1000
G1 X112.880 Y40.000 F1000
G0 Z3.0 ; Pen up

G0 X112.880 Y39.740 F3000 ; Travel to line 648
G0 Z0.0 ; Pen down
G1 X112.620 Y40.000 F1000
G0 Z3.0 ; Pen up

G0 X112.360 Y40.000 F3000 ; Travel to line 649
G0 Z0.0 ; Pen down
G1 X112.620 Y39.740 F1000
G1 X112.620 Y39.740 F1000
G1 X112.360 Y40.000 F1000
G0 Z3.0 ; Pen up

G0 X112.360 Y39.740 F3000 ; Travel to line 650
G0 Z0.0 ; Pen down
G1 X111.840 Y40.000 F1000
G0 Z3.0 ; Pen up

G0 X111.840 Y39.740 F3000 ; Travel to line 651
G0 Z0.0 ; Pen down
G1 X111.320 Y40.000 F1000
G0 Z3.0 ; Pen up

G0 X111.580 Y40.000 F3000 ; Travel to line 652
G0 Z0.0 ; Pen down
G1 X112.100 Y39.740 F1000
G1 X112.100 Y39.740 F1000
G1 X111.580 Y40.000 F1000
G0 Z3.0 ; Pen up

G0 X111.580 Y39.740 F3000 ; Travel to line 653
G0 Z0.0 ; Pen down
G1 X111.060 Y40.000 F1000
G0 Z3.0 ; Pen up

G0 X110.800 Y40.000 F3000 ; Travel to line 654
G0 Z0.0 ; Pen down
G1 X111.320 Y39.740 F1000
G1 X111.320 Y39.740 F1000
G1 X110.800 Y40.000 F1000
G0 Z3.0 ; Pen up

G0 X110.540 Y40.000 F3000 ; Travel to line 655
G0 Z0.0 ; Pen down
G1 X110.800 Y39.740 F1000
G0 Z3.0 ; Pen up

G0 X110.280 Y39.740 F3000 ; Travel to line 656
G0 Z0.0 ; Pen down
G1 X110.020 Y40.000 F1000
G0 Z3.0 ; Pen up

G0 X110.280 Y40.000 F3000 ; Travel to line 657
G0 Z0.0 ; Pen down
G1 X110.540 Y39.740 F1000
G1 X110.540 Y39.740 F1000
G1 X110.280 Y40.000 F1000
G0 Z3.0 ; Pen up

G0 X110.020 Y39.740 F3000 ; Travel to line 658
G0 Z0.0 ; Pen down
G1 X109.760 Y40.000 F1000
G0 Z3.0 ; Pen up

G0 X109.500 Y40.000 F3000 ; Travel to line 659
G0 Z0.0 ; Pen down
G1 X109.760 Y39.740 F1000
G1 X109.760 Y39.740 F1000
G1 X109.500 Y40.000 F1000
G0 Z3.0 ; Pen up

G0 X109.240 Y40.000 F3000 ; Travel to line 660
G0 Z0.0 ; Pen down
G1 X109.500 Y39.740 F1000
G0 Z3.0 ; Pen up

G0 X108.980 Y39.740 F3000 ; Travel to line 661
G0 Z0.0 ; Pen down
G1 X108.460 Y40.000 F1000
G0 Z3.0 ; Pen up

G0 X108.200 Y40.000 F3000 ; Travel to line 662
G0 Z0.0 ; Pen down
G1 X108.720 Y39.740 F1000
G0 Z3.0 ; Pen up

G0 X108.980 Y40.000 F3000 ; Travel to line 663
G0 Z0.0 ; Pen down
G1 X109.240 Y39.740 F1000
G1 X109.240 Y39.740 F1000
G1 X108.980 Y40.000 F1000
G0 Z3.0 ; Pen up

G0 X108.200 Y39.740 F3000 ; Travel to line 664
G0 Z0.0 ; Pen down
G1 X107.680 Y40.000 F1000
G0 Z3.0 ; Pen up

G0 X107.940 Y40.000 F3000 ; Travel to line 665
G0 Z0.0 ; Pen down
G1 X108.460 Y39.740 F1000
G1 X108.460 Y39.740 F1000
G1 X107.940 Y40.000 F1000
G0 Z3.0 ; Pen up

G0 X107.680 Y39.740 F3000 ; Travel to line 666
G0 Z0.0 ; Pen down
G1 X107.160 Y40.000 F1000
G0 Z3.0 ; Pen up

G0 X106.900 Y40.000 F3000 ; Travel to line 667
G0 Z0.0 ; Pen down
G1 X107.160 Y39.740 F1000
G1 X107.160 Y39.740 F1000
G1 X106.900 Y40.000 F1000
G0 Z3.0 ; Pen up

G0 X106.900 Y39.740 F3000 ; Travel to line 668
G0 Z0.0 ; Pen down
G1 X106.640 Y40.000 F1000
G0 Z3.0 ; Pen up

G0 X106.380 Y40.000 F3000 ; Travel to line 669
G0 Z0.0 ; Pen down
G1 X106.640 Y39.740 F1000
G0 Z3.0 ; Pen up

G0 X106.120 Y39.740 F3000 ; Travel to line 670
G0 Z0.0 ; Pen down
G1 X105.860 Y40.000 F1000
G0 Z3.0 ; Pen up

G0 X105.600 Y40.000 F3000 ; Travel to line 671
G0 Z0.0 ; Pen down
G1 X105.860 Y39.740 F1000
G1 X105.860 Y39.740 F1000
G1 X105.600 Y40.000 F1000
G0 Z3.0 ; Pen up

G0 X105.600 Y39.740 F3000 ; Travel to line 672
G0 Z0.0 ; Pen down
G1 X105.080 Y40.000 F1000
G0 Z3.0 ; Pen up

G0 X104.820 Y40.000 F3000 ; Travel to line 673
G0 Z0.0 ; Pen down
G1 X105.340 Y39.740 F1000
G0 Z3.0 ; Pen up

G0 X104.820 Y39.740 F3000 ; Travel to line 674
G0 Z0.0 ; Pen down
G1 X104.300 Y40.000 F1000
G0 Z3.0 ; Pen up

G0 X104.040 Y40.000 F3000 ; Travel to line 675
G0 Z0.0 ; Pen down
G1 X104.560 Y39.740 F1000
G1 X104.560 Y39.740 F1000
G1 X104.040 Y40.000 F1000
G0 Z3.0 ; Pen up

G0 X104.040 Y39.740 F3000 ; Travel to line 676
G0 Z0.0 ; Pen down
G1 X103.780 Y40.000 F1000
G0 Z3.0 ; Pen up

G0 X103.520 Y40.000 F3000 ; Travel to line 677
G0 Z0.0 ; Pen down
G1 X103.780 Y39.740 F1000
G1 X103.780 Y39.740 F1000
G1 X103.520 Y40.000 F1000
G0 Z3.0 ; Pen up

G0 X103.260 Y40.000 F3000 ; Travel to line 678
G0 Z0.0 ; Pen down
G1 X103.520 Y39.740 F1000
G0 Z3.0 ; Pen up

G0 X103.260 Y39.740 F3000 ; Travel to line 679
G0 Z0.0 ; Pen down
G1 X103.000 Y40.000 F1000
G0 Z3.0 ; Pen up

G0 X102.740 Y40.000 F3000 ; Travel to line 680
G0 Z0.0 ; Pen down
G1 X103.000 Y39.740 F1000
G1 X103.000 Y39.740 F1000
G1 X102.740 Y40.000 F1000
G0 Z3.0 ; Pen up

G0 X102.740 Y39.740 F3000 ; Travel to line 681
G0 Z0.0 ; Pen down
G1 X102.480 Y40.000 F1000
G0 Z3.0 ; Pen up

G0 X102.220 Y39.740 F3000 ; Travel to line 682
G0 Z0.0 ; Pen down
G1 X101.700 Y40.000 F1000
G0 Z3.0 ; Pen up

G0 X101.960 Y40.000 F3000 ; Travel to line 683
G0 Z0.0 ; Pen down
G1 X102.480 Y39.740 F1000
G1 X102.480 Y39.740 F1000
G1 X101.960 Y40.000 F1000
G0 Z3.0 ; Pen up

G0 X101.960 Y39.740 F3000 ; Travel to line 684
G0 Z0.0 ; Pen down
G1 X101.440 Y40.000 F1000
G0 Z3.0 ; Pen up

G0 X101.180 Y40.000 F3000 ; Travel to line 685
G0 Z0.0 ; Pen down
G1 X101.700 Y39.740 F1000
G1 X101.700 Y39.740 F1000
G1 X101.180 Y40.000 F1000
G0 Z3.0 ; Pen up

G0 X100.920 Y40.000 F3000 ; Travel to line 686
G0 Z0.0 ; Pen down
G1 X101.440 Y39.740 F1000
G0 Z3.0 ; Pen up

G0 X100.660 Y39.740 F3000 ; Travel to line 687
G0 Z0.0 ; Pen down
G1 X100.400 Y40.000 F1000
G0 Z3.0 ; Pen up

G0 X100.660 Y40.000 F3000 ; Travel to line 688
G0 Z0.0 ; Pen down
G1 X100.920 Y39.740 F1000
G1 X100.920 Y39.740 F1000
G1 X100.660 Y40.000 F1000
G0 Z3.0 ; Pen up

G0 X100.140 Y40.000 F3000 ; Travel to line 689
G0 Z0.0 ; Pen down
G1 X100.400 Y39.740 F1000
G1 X100.400 Y39.740 F1000
G1 X99.880 Y40.000 F1000
G1 X99.880 Y40.000 F1000
G1 X100.140 Y39.740 F1000
G0 Z3.0 ; Pen up

G0 X104.560 Y40.000 F3000 ; Travel to line 690
G0 Z0.0 ; Pen down
G1 X105.080 Y39.740 F1000
G1 X105.080 Y39.740 F1000
G1 X104.560 Y40.000 F1000
G0 Z3.0 ; Pen up

G0 X106.120 Y40.000 F3000 ; Travel to line 691
G0 Z0.0 ; Pen down
G1 X106.380 Y39.740 F1000
G1 X106.380 Y39.740 F1000
G1 X106.120 Y40.000 F1000
G0 Z3.0 ; Pen up

G0 X107.420 Y40.000 F3000 ; Travel to line 692
G0 Z0.0 ; Pen down
G1 X107.940 Y39.740 F1000
G1 X107.940 Y39.740 F1000
G1 X107.420 Y40.000 F1000
G0 Z3.0 ; Pen up

G0 X114.700 Y40.000 F3000 ; Travel to line 693
G0 Z0.0 ; Pen down
G1 X115.220 Y39.740 F1000
G0 Z3.0 ; Pen up

G0 X115.480 Y40.000 F3000 ; Travel to line 694
G0 Z0.0 ; Pen down
G1 X116.000 Y39.740 F1000
G1 X116.000 Y39.740 F1000
G1 X115.480 Y40.000 F1000
G0 Z3.0 ; Pen up

G0 X116.260 Y40.000 F3000 ; Travel to line 695
G0 Z0.0 ; Pen down
G1 X116.520 Y39.740 F1000
G1 X116.520 Y39.740 F1000
G1 X116.260 Y40.000 F1000
G0 Z3.0 ; Pen up

G0 X125.620 Y40.000 F3000 ; Travel to line 696
G0 Z0.0 ; Pen down
G1 X125.880 Y39.740 F1000
G1 X125.880 Y39.740 F1000
G1 X125.620 Y40.000 F1000
G0 Z3.0 ; Pen up

G0 X126.920 Y40.000 F3000 ; Travel to line 697
G0 Z0.0 ; Pen down
G1 X127.440 Y39.740 F1000
G1 X127.440 Y39.740 F1000
G1 X126.920 Y40.000 F1000
G0 Z3.0 ; Pen up

G0 X134.980 Y40.000 F3000 ; Travel to line 698
G0 Z0.0 ; Pen down
G1 X135.240 Y39.740 F1000
G1 X135.240 Y39.740 F1000
G1 X134.980 Y40.000 F1000
G0 Z3.0 ; Pen up

G0 X147.980 Y40.000 F3000 ; Travel to line 699
G0 Z0.0 ; Pen down
G1 X148.760 Y39.480 F1000
G1 X148.760 Y39.480 F1000
G1 X147.980 Y40.000 F1000
G0 Z3.0 ; Pen up

G0 X148.500 Y40.260 F3000 ; Travel to line 700
G0 Z0.0 ; Pen down
G1 X149.280 Y39.740 F1000
G1 X149.280 Y39.740 F1000
G1 X148.500 Y40.260 F1000
G0 Z3.0 ; Pen up

G0 X148.500 Y38.960 F3000 ; Travel to line 701
G0 Z0.0 ; Pen down
G1 X148.760 Y38.700 F1000
G0 Z3.0 ; Pen up

G0 X148.500 Y38.700 F3000 ; Travel to line 702
G0 Z0.0 ; Pen down
G1 X148.760 Y38.440 F1000
G0 Z3.0 ; Pen up

G0 X148.500 Y38.440 F3000 ; Travel to line 703
G0 Z0.0 ; Pen down
G1 X148.760 Y38.180 F1000
G1 X148.760 Y38.180 F1000
G1 X148.500 Y38.440 F1000
G0 Z3.0 ; Pen up

G0 X148.500 Y38.180 F3000 ; Travel to line 704
G0 Z0.0 ; Pen down
G1 X148.760 Y38.180 F1000
G0 Z3.0 ; Pen up

G0 X148.500 Y37.920 F3000 ; Travel to line 705
G0 Z0.0 ; Pen down
G1 X148.760 Y37.920 F1000
G1 X148.760 Y37.920 F1000
G1 X148.500 Y37.920 F1000
G1 X148.500 Y37.920 F1000
G1 X148.760 Y37.660 F1000
G0 Z3.0 ; Pen up

G0 X148.500 Y37.660 F3000 ; Travel to line 706
G0 Z0.0 ; Pen down
G1 X148.760 Y37.400 F1000
G1 X148.760 Y37.400 F1000
G1 X148.500 Y37.660 F1000
G0 Z3.0 ; Pen up

G0 X148.500 Y37.400 F3000 ; Travel to line 707
G0 Z0.0 ; Pen down
G1 X148.760 Y37.140 F1000
G0 Z3.0 ; Pen up

G0 X148.500 Y37.140 F3000 ; Travel to line 708
G0 Z0.0 ; Pen down
G1 X148.760 Y36.880 F1000
G0 Z3.0 ; Pen up

G0 X148.500 Y36.880 F3000 ; Travel to line 709
G0 Z0.0 ; Pen down
G1 X148.760 Y36.620 F1000
G1 X148.760 Y36.620 F1000
G1 X148.500 Y36.880 F1000
G0 Z3.0 ; Pen up

G0 X148.500 Y36.620 F3000 ; Travel to line 710
G0 Z0.0 ; Pen down
G1 X148.760 Y36.360 F1000
G0 Z3.0 ; Pen up

G0 X148.500 Y36.360 F3000 ; Travel to line 711
G0 Z0.0 ; Pen down
G1 X148.760 Y36.100 F1000
G1 X148.760 Y36.100 F1000
G1 X148.500 Y36.360 F1000
G0 Z3.0 ; Pen up

G0 X148.760 Y36.100 F3000 ; Travel to line 712
G0 Z0.0 ; Pen down
G1 X148.500 Y36.100 F1000
G1 X148.500 Y36.100 F1000
G1 X148.760 Y35.840 F1000
G0 Z3.0 ; Pen up

G0 X148.500 Y35.840 F3000 ; Travel to line 713
G0 Z0.0 ; Pen down
G1 X148.760 Y35.580 F1000
G1 X148.760 Y35.580 F1000
G1 X148.500 Y35.840 F1000
G0 Z3.0 ; Pen up

G0 X148.500 Y35.580 F3000 ; Travel to line 714
G0 Z0.0 ; Pen down
G1 X148.760 Y35.320 F1000
G0 Z3.0 ; Pen up

G0 X148.500 Y35.320 F3000 ; Travel to line 715
G0 Z0.0 ; Pen down
G1 X148.760 Y35.060 F1000
G1 X148.760 Y35.060 F1000
G1 X148.500 Y35.320 F1000
G0 Z3.0 ; Pen up

G0 X148.500 Y35.060 F3000 ; Travel to line 716
G0 Z0.0 ; Pen down
G1 X148.760 Y34.800 F1000
G0 Z3.0 ; Pen up

G0 X148.500 Y34.800 F3000 ; Travel to line 717
G0 Z0.0 ; Pen down
G1 X148.760 Y34.540 F1000
G1 X148.760 Y34.540 F1000
G1 X148.500 Y34.800 F1000
G0 Z3.0 ; Pen up

G0 X148.500 Y34.540 F3000 ; Travel to line 718
G0 Z0.0 ; Pen down
G1 X148.760 Y34.280 F1000
G0 Z3.0 ; Pen up

G0 X148.500 Y34.280 F3000 ; Travel to line 719
G0 Z0.0 ; Pen down
G1 X148.760 Y34.020 F1000
G1 X148.760 Y34.020 F1000
G1 X148.500 Y34.020 F1000
G0 Z3.0 ; Pen up

G0 X148.760 Y34.020 F3000 ; Travel to line 720
G0 Z0.0 ; Pen down
G1 X148.500 Y34.020 F1000
G1 X148.500 Y34.020 F1000
G1 X148.760 Y33.760 F1000
G0 Z3.0 ; Pen up

G0 X148.500 Y33.760 F3000 ; Travel to line 721
G0 Z0.0 ; Pen down
G1 X148.760 Y33.500 F1000
G1 X148.760 Y33.500 F1000
G1 X148.500 Y33.760 F1000
G0 Z3.0 ; Pen up

G0 X148.500 Y33.500 F3000 ; Travel to line 722
G0 Z0.0 ; Pen down
G1 X148.760 Y33.240 F1000
G0 Z3.0 ; Pen up

G0 X148.500 Y33.240 F3000 ; Travel to line 723
G0 Z0.0 ; Pen down
G1 X148.760 Y32.980 F1000
G0 Z3.0 ; Pen up

G0 X148.500 Y32.980 F3000 ; Travel to line 724
G0 Z0.0 ; Pen down
G1 X148.760 Y32.720 F1000
G1 X148.760 Y32.720 F1000
G1 X148.500 Y32.980 F1000
G0 Z3.0 ; Pen up

G0 X148.500 Y32.720 F3000 ; Travel to line 725
G0 Z0.0 ; Pen down
G1 X148.760 Y32.460 F1000
G0 Z3.0 ; Pen up

G0 X148.500 Y32.460 F3000 ; Travel to line 726
G0 Z0.0 ; Pen down
G1 X148.760 Y32.200 F1000
G1 X148.760 Y32.200 F1000
G1 X148.500 Y32.460 F1000
G0 Z3.0 ; Pen up

G0 X148.500 Y32.200 F3000 ; Travel to line 727
G0 Z0.0 ; Pen down
G1 X148.760 Y31.940 F1000
G1 X148.760 Y31.940 F1000
G1 X148.500 Y32.200 F1000
G1 X148.500 Y32.200 F1000
G1 X148.760 Y32.200 F1000
G0 Z3.0 ; Pen up

G0 X148.500 Y31.940 F3000 ; Travel to line 728
G0 Z0.0 ; Pen down
G1 X148.760 Y31.680 F1000
G0 Z3.0 ; Pen up

G0 X148.500 Y31.680 F3000 ; Travel to line 729
G0 Z0.0 ; Pen down
G1 X148.760 Y31.420 F1000
G0 Z3.0 ; Pen up

G0 X148.500 Y31.420 F3000 ; Travel to line 730
G0 Z0.0 ; Pen down
G1 X148.760 Y31.160 F1000
G1 X148.760 Y31.160 F1000
G1 X148.500 Y31.420 F1000
G0 Z3.0 ; Pen up

G0 X148.500 Y31.160 F3000 ; Travel to line 731
G0 Z0.0 ; Pen down
G1 X148.760 Y30.900 F1000
G0 Z3.0 ; Pen up

G0 X148.500 Y30.900 F3000 ; Travel to line 732
G0 Z0.0 ; Pen down
G1 X148.760 Y30.640 F1000
G1 X148.760 Y30.640 F1000
G1 X148.500 Y30.900 F1000
G0 Z3.0 ; Pen up

G0 X148.500 Y30.640 F3000 ; Travel to line 733
G0 Z0.0 ; Pen down
G1 X148.760 Y30.380 F1000
G1 X148.760 Y30.380 F1000
G1 X148.500 Y30.380 F1000
G1 X148.500 Y30.380 F1000
G1 X148.760 Y30.120 F1000
G1 X148.760 Y30.120 F1000
G1 X148.500 Y30.380 F1000
G0 Z3.0 ; Pen up

G0 X148.500 Y30.120 F3000 ; Travel to line 734
G0 Z0.0 ; Pen down
G1 X148.760 Y29.860 F1000
G0 Z3.0 ; Pen up

G0 X148.500 Y29.860 F3000 ; Travel to line 735
G0 Z0.0 ; Pen down
G1 X148.760 Y29.600 F1000
G1 X148.760 Y29.600 F1000
G1 X148.500 Y29.860 F1000
G0 Z3.0 ; Pen up

G0 X148.500 Y29.600 F3000 ; Travel to line 736
G0 Z0.0 ; Pen down
G1 X148.760 Y29.340 F1000
G0 Z3.0 ; Pen up

G0 X148.500 Y29.340 F3000 ; Travel to line 737
G0 Z0.0 ; Pen down
G1 X148.760 Y29.080 F1000
G0 Z3.0 ; Pen up

G0 X148.500 Y29.080 F3000 ; Travel to line 738
G0 Z0.0 ; Pen down
G1 X148.760 Y28.820 F1000
G1 X148.760 Y28.820 F1000
G1 X148.500 Y29.080 F1000
G0 Z3.0 ; Pen up

G0 X148.500 Y28.820 F3000 ; Travel to line 739
G0 Z0.0 ; Pen down
G1 X148.760 Y28.820 F1000
G0 Z3.0 ; Pen up

G0 X148.500 Y28.560 F3000 ; Travel to line 740
G0 Z0.0 ; Pen down
G1 X148.760 Y28.560 F1000
G1 X148.760 Y28.560 F1000
G1 X148.500 Y28.560 F1000
G1 X148.500 Y28.560 F1000
G1 X148.760 Y28.300 F1000
G0 Z3.0 ; Pen up

G0 X148.500 Y28.300 F3000 ; Travel to line 741
G0 Z0.0 ; Pen down
