; Blueprint to G-code
; Input: screen.jpg
; Generated with blueprint2gcode.py
;
; Generation Parameters:
;   Paper size: A4 (210x297mm)
;   Orientation: auto
;   Margin: 1.0mm
;   Z up: 3.0mm
;   Z down: 0.0mm
;   Feed rate: 1000mm/min
;   Travel rate: 3000mm/min
;   Join tolerance: 0.02mm
;   Min line length: 0.01mm
;   Simplify epsilon: 0.000001
;   Fill solid areas: True
;   Hatch spacing: 1.5px
;   Hatch angle: 45.0°
;   Crosshatch: False
;   Min solid area: 100.0px²
;   Invert colors: False

G21 ; Set units to millimeters
G90 ; Absolute positioning
G0 Z3.0 ; Pen up
G0 X0 Y0 ; Move to origin

G0 X45.710 Y31.379 F3000 ; Travel to line 1
G0 Z0.0 ; Pen down
G1 X45.710 Y31.864 F1000
G0 Z3.0 ; Pen up

G0 X46.196 Y31.379 F3000 ; Travel to line 2
G0 Z0.0 ; Pen down
G1 X51.056 Y26.033 F1000
G0 Z3.0 ; Pen up

G0 X51.542 Y26.033 F3000 ; Travel to line 3
G0 Z0.0 ; Pen down
G1 X51.542 Y25.547 F1000
G0 Z3.0 ; Pen up

G0 X53.972 Y25.547 F3000 ; Travel to line 4
G0 Z0.0 ; Pen down
G1 X45.710 Y33.808 F1000
G0 Z3.0 ; Pen up

G0 X45.710 Y35.752 F3000 ; Travel to line 5
G0 Z0.0 ; Pen down
G1 X55.430 Y26.033 F1000
G0 Z3.0 ; Pen up

G0 X56.888 Y26.519 F3000 ; Travel to line 6
G0 Z0.0 ; Pen down
G1 X46.682 Y37.210 F1000
G0 Z3.0 ; Pen up

G0 X47.168 Y38.668 F3000 ; Travel to line 7
G0 Z0.0 ; Pen down
G1 X58.346 Y27.491 F1000
G0 Z3.0 ; Pen up

G0 X59.318 Y28.463 F3000 ; Travel to line 8
G0 Z0.0 ; Pen down
G1 X48.140 Y39.640 F1000
G0 Z3.0 ; Pen up

G0 X49.598 Y40.126 F3000 ; Travel to line 9
G0 Z0.0 ; Pen down
G1 X60.290 Y29.435 F1000
G0 Z3.0 ; Pen up

G0 X61.262 Y31.379 F3000 ; Travel to line 10
G0 Z0.0 ; Pen down
G1 X51.056 Y41.098 F1000
G0 Z3.0 ; Pen up

G0 X51.056 Y41.098 F3000 ; Travel to line 11
G0 Z0.0 ; Pen down
G1 X48.140 Y39.640 F1000
G1 X47.168 Y38.668 F1000
G1 X45.710 Y35.752 F1000
G1 X45.710 Y31.864 F1000
G1 X46.196 Y31.379 F1000
G1 X46.682 Y29.435 F1000
G1 X49.112 Y27.005 F1000
G1 X51.056 Y26.519 F1000
G1 X51.542 Y26.033 F1000
G1 X54.944 Y26.033 F1000
G1 X58.832 Y27.977 F1000
G1 X58.832 Y28.463 F1000
G1 X60.290 Y29.921 F1000
G1 X60.776 Y32.836 F1000
G1 X61.262 Y33.322 F1000
G1 X61.262 Y34.780 F1000
G1 X60.776 Y35.266 F1000
G1 X60.776 Y36.238 F1000
G1 X59.804 Y38.182 F1000
G1 X56.888 Y40.612 F1000
G1 X55.916 Y40.612 F1000
G1 X55.430 Y41.098 F1000
G1 X51.056 Y41.098 F1000
G0 Z3.0 ; Pen up

G0 X53.000 Y41.098 F3000 ; Travel to line 12
G0 Z0.0 ; Pen down
G1 X61.262 Y32.836 F1000
G0 Z3.0 ; Pen up

G0 X61.262 Y35.266 F3000 ; Travel to line 13
G0 Z0.0 ; Pen down
G1 X54.944 Y41.098 F1000
G0 Z3.0 ; Pen up

G0 X46.682 Y61.023 F3000 ; Travel to line 14
G0 Z0.0 ; Pen down
G1 X45.710 Y61.995 F1000
G0 Z3.0 ; Pen up

G0 X46.196 Y63.939 F3000 ; Travel to line 15
G0 Z0.0 ; Pen down
G1 X45.224 Y64.911 F1000
G0 Z3.0 ; Pen up

G0 X46.196 Y65.883 F3000 ; Travel to line 16
G0 Z0.0 ; Pen down
G1 X45.224 Y66.855 F1000
G0 Z3.0 ; Pen up

G0 X46.196 Y67.827 F3000 ; Travel to line 17
G0 Z0.0 ; Pen down
G1 X45.224 Y68.799 F1000
G0 Z3.0 ; Pen up

G0 X44.738 Y69.285 F3000 ; Travel to line 18
G0 Z0.0 ; Pen down
G1 X45.710 Y68.313 F1000
G0 Z3.0 ; Pen up

G0 X46.196 Y70.257 F3000 ; Travel to line 19
G0 Z0.0 ; Pen down
G1 X44.738 Y71.715 F1000
G0 Z3.0 ; Pen up

G0 X46.196 Y72.201 F3000 ; Travel to line 20
G0 Z0.0 ; Pen down
G1 X44.738 Y73.659 F1000
G0 Z3.0 ; Pen up

G0 X46.196 Y74.145 F3000 ; Travel to line 21
G0 Z0.0 ; Pen down
G1 X44.738 Y75.603 F1000
G0 Z3.0 ; Pen up

G0 X45.710 Y77.061 F3000 ; Travel to line 22
G0 Z0.0 ; Pen down
G1 X44.738 Y78.033 F1000
G0 Z3.0 ; Pen up

G0 X46.196 Y78.519 F3000 ; Travel to line 23
G0 Z0.0 ; Pen down
G1 X44.738 Y79.977 F1000
G0 Z3.0 ; Pen up

G0 X46.196 Y80.949 F3000 ; Travel to line 24
G0 Z0.0 ; Pen down
G1 X44.738 Y82.407 F1000
G0 Z3.0 ; Pen up

G0 X46.196 Y82.893 F3000 ; Travel to line 25
G0 Z0.0 ; Pen down
G1 X44.738 Y84.350 F1000
G0 Z3.0 ; Pen up

G0 X46.196 Y84.836 F3000 ; Travel to line 26
G0 Z0.0 ; Pen down
G1 X44.738 Y86.294 F1000
G0 Z3.0 ; Pen up

G0 X46.682 Y86.780 F3000 ; Travel to line 27
G0 Z0.0 ; Pen down
G1 X44.738 Y88.724 F1000
G0 Z3.0 ; Pen up

G0 X45.224 Y90.182 F3000 ; Travel to line 28
G0 Z0.0 ; Pen down
G1 X46.682 Y88.724 F1000
G0 Z3.0 ; Pen up

G0 X46.682 Y90.668 F3000 ; Travel to line 29
G0 Z0.0 ; Pen down
G1 X45.224 Y92.126 F1000
G0 Z3.0 ; Pen up

G0 X47.168 Y92.612 F3000 ; Travel to line 30
G0 Z0.0 ; Pen down
G1 X45.224 Y94.556 F1000
G0 Z3.0 ; Pen up

G0 X45.710 Y96.014 F3000 ; Travel to line 31
G0 Z0.0 ; Pen down
G1 X47.168 Y94.556 F1000
G0 Z3.0 ; Pen up

G0 X47.654 Y96.014 F3000 ; Travel to line 32
G0 Z0.0 ; Pen down
G1 X45.710 Y97.958 F1000
G0 Z3.0 ; Pen up

G0 X46.196 Y99.902 F3000 ; Travel to line 33
G0 Z0.0 ; Pen down
G1 X48.140 Y97.958 F1000
G0 Z3.0 ; Pen up

G0 X48.140 Y99.902 F3000 ; Travel to line 34
G0 Z0.0 ; Pen down
G1 X46.196 Y101.846 F1000
G0 Z3.0 ; Pen up

G0 X46.682 Y103.790 F3000 ; Travel to line 35
G0 Z0.0 ; Pen down
G1 X48.626 Y101.846 F1000
G0 Z3.0 ; Pen up

G0 X49.112 Y103.304 F3000 ; Travel to line 36
G0 Z0.0 ; Pen down
G1 X47.168 Y105.248 F1000
G0 Z3.0 ; Pen up

G0 X47.168 Y107.192 F3000 ; Travel to line 37
G0 Z0.0 ; Pen down
G1 X49.112 Y105.248 F1000
G0 Z3.0 ; Pen up

G0 X49.598 Y107.192 F3000 ; Travel to line 38
G0 Z0.0 ; Pen down
G1 X47.654 Y109.136 F1000
G0 Z3.0 ; Pen up

G0 X48.140 Y110.593 F3000 ; Travel to line 39
G0 Z0.0 ; Pen down
G1 X50.084 Y108.650 F1000
G0 Z3.0 ; Pen up

G0 X50.570 Y110.107 F3000 ; Travel to line 40
G0 Z0.0 ; Pen down
G1 X48.140 Y112.051 F1000
G0 Z3.0 ; Pen up

G0 X48.626 Y113.995 F3000 ; Travel to line 41
G0 Z0.0 ; Pen down
G1 X51.056 Y112.051 F1000
G0 Z3.0 ; Pen up

G0 X51.542 Y113.509 F3000 ; Travel to line 42
G0 Z0.0 ; Pen down
G1 X49.112 Y115.939 F1000
G0 Z3.0 ; Pen up

G0 X49.598 Y117.397 F3000 ; Travel to line 43
G0 Z0.0 ; Pen down
G1 X52.028 Y114.967 F1000
G0 Z3.0 ; Pen up

G0 X52.514 Y116.911 F3000 ; Travel to line 44
G0 Z0.0 ; Pen down
G1 X50.084 Y119.341 F1000
G0 Z3.0 ; Pen up

G0 X50.570 Y120.799 F3000 ; Travel to line 45
G0 Z0.0 ; Pen down
G1 X53.000 Y118.369 F1000
G0 Z3.0 ; Pen up

G0 X53.486 Y120.313 F3000 ; Travel to line 46
G0 Z0.0 ; Pen down
G1 X51.056 Y122.743 F1000
G0 Z3.0 ; Pen up

G0 X50.084 Y123.229 F3000 ; Travel to line 47
G0 Z0.0 ; Pen down
G1 X41.822 Y131.977 F1000
G0 Z3.0 ; Pen up

G0 X42.308 Y132.949 F3000 ; Travel to line 48
G0 Z0.0 ; Pen down
G1 X42.794 Y132.949 F1000
G0 Z3.0 ; Pen up

G0 X42.308 Y133.435 F3000 ; Travel to line 49
G0 Z0.0 ; Pen down
G1 X41.822 Y133.435 F1000
G0 Z3.0 ; Pen up

G0 X41.822 Y133.921 F3000 ; Travel to line 50
G0 Z0.0 ; Pen down
G1 X41.336 Y133.921 F1000
G0 Z3.0 ; Pen up

G0 X41.336 Y134.407 F3000 ; Travel to line 51
G0 Z0.0 ; Pen down
G1 X37.935 Y137.808 F1000
G0 Z3.0 ; Pen up

G0 X37.449 Y137.808 F3000 ; Travel to line 52
G0 Z0.0 ; Pen down
G1 X37.449 Y138.294 F1000
G0 Z3.0 ; Pen up

G0 X38.421 Y139.266 F3000 ; Travel to line 53
G0 Z0.0 ; Pen down
G1 X35.991 Y141.696 F1000
G0 Z3.0 ; Pen up

G0 X35.505 Y141.696 F3000 ; Travel to line 54
G0 Z0.0 ; Pen down
G1 X35.505 Y142.182 F1000
G0 Z3.0 ; Pen up

G0 X36.477 Y143.154 F3000 ; Travel to line 55
G0 Z0.0 ; Pen down
G1 X34.533 Y145.584 F1000
G0 Z3.0 ; Pen up

G0 X35.505 Y146.070 F3000 ; Travel to line 56
G0 Z0.0 ; Pen down
G1 X35.991 Y146.070 F1000
G0 Z3.0 ; Pen up

G0 X35.505 Y146.556 F3000 ; Travel to line 57
G0 Z0.0 ; Pen down
G1 X33.561 Y148.500 F1000
G0 Z3.0 ; Pen up

G0 X35.019 Y148.986 F3000 ; Travel to line 58
G0 Z0.0 ; Pen down
G1 X33.075 Y150.930 F1000
G0 Z3.0 ; Pen up

G0 X34.533 Y151.902 F3000 ; Travel to line 59
G0 Z0.0 ; Pen down
G1 X32.589 Y153.846 F1000
G0 Z3.0 ; Pen up

G0 X34.047 Y154.332 F3000 ; Travel to line 60
G0 Z0.0 ; Pen down
G1 X32.589 Y155.790 F1000
G0 Z3.0 ; Pen up

G0 X33.561 Y156.762 F3000 ; Travel to line 61
G0 Z0.0 ; Pen down
G1 X32.103 Y158.220 F1000
G0 Z3.0 ; Pen up

G0 X33.561 Y159.192 F3000 ; Travel to line 62
G0 Z0.0 ; Pen down
G1 X32.103 Y160.650 F1000
G0 Z3.0 ; Pen up

G0 X32.103 Y162.107 F3000 ; Travel to line 63
G0 Z0.0 ; Pen down
G1 X33.561 Y161.136 F1000
G0 Z3.0 ; Pen up

G0 X34.047 Y163.079 F3000 ; Travel to line 64
G0 Z0.0 ; Pen down
G1 X32.589 Y164.537 F1000
G0 Z3.0 ; Pen up

G0 X34.047 Y165.023 F3000 ; Travel to line 65
G0 Z0.0 ; Pen down
G1 X32.589 Y166.481 F1000
G0 Z3.0 ; Pen up

G0 X33.075 Y167.939 F3000 ; Travel to line 66
G0 Z0.0 ; Pen down
G1 X34.533 Y166.481 F1000
G0 Z3.0 ; Pen up

G0 X34.533 Y168.911 F3000 ; Travel to line 67
G0 Z0.0 ; Pen down
G1 X33.561 Y169.883 F1000
G0 Z3.0 ; Pen up

G0 X35.019 Y170.369 F3000 ; Travel to line 68
G0 Z0.0 ; Pen down
G1 X34.047 Y171.341 F1000
G0 Z3.0 ; Pen up

G0 X34.047 Y172.799 F3000 ; Travel to line 69
G0 Z0.0 ; Pen down
G1 X35.505 Y171.827 F1000
G0 Z3.0 ; Pen up

G0 X35.991 Y173.771 F3000 ; Travel to line 70
G0 Z0.0 ; Pen down
G1 X35.019 Y174.743 F1000
G0 Z3.0 ; Pen up

G0 X36.477 Y175.229 F3000 ; Travel to line 71
G0 Z0.0 ; Pen down
G1 X35.505 Y176.201 F1000
G0 Z3.0 ; Pen up

G0 X35.991 Y177.659 F3000 ; Travel to line 72
G0 Z0.0 ; Pen down
G1 X37.449 Y176.687 F1000
G0 Z3.0 ; Pen up

G0 X37.935 Y178.145 F3000 ; Travel to line 73
G0 Z0.0 ; Pen down
G1 X36.963 Y179.117 F1000
G0 Z3.0 ; Pen up

G0 X38.421 Y179.603 F3000 ; Travel to line 74
G0 Z0.0 ; Pen down
G1 X37.449 Y180.575 F1000
G0 Z3.0 ; Pen up

G0 X38.421 Y182.033 F3000 ; Travel to line 75
G0 Z0.0 ; Pen down
G1 X39.393 Y181.061 F1000
G0 Z3.0 ; Pen up

G0 X39.879 Y182.033 F3000 ; Travel to line 76
G0 Z0.0 ; Pen down
G1 X38.907 Y183.005 F1000
G0 Z3.0 ; Pen up

G0 X63.692 Y190.294 F3000 ; Travel to line 77
G0 Z0.0 ; Pen down
G1 X65.636 Y188.350 F1000
G0 Z3.0 ; Pen up

G0 X66.121 Y187.864 F3000 ; Travel to line 78
G0 Z0.0 ; Pen down
G1 X63.692 Y190.294 F1000
G0 Z3.0 ; Pen up

G0 X66.121 Y185.921 F3000 ; Travel to line 79
G0 Z0.0 ; Pen down
G1 X66.121 Y185.435 F1000
G0 Z3.0 ; Pen up

G0 X66.607 Y185.435 F3000 ; Travel to line 80
G0 Z0.0 ; Pen down
G1 X69.037 Y183.005 F1000
G0 Z3.0 ; Pen up

G0 X69.037 Y182.519 F3000 ; Travel to line 81
G0 Z0.0 ; Pen down
G1 X69.523 Y182.519 F1000
G0 Z3.0 ; Pen up

G0 X69.523 Y182.033 F3000 ; Travel to line 82
G0 Z0.0 ; Pen down
G1 X70.009 Y182.033 F1000
G0 Z3.0 ; Pen up

G0 X71.953 Y178.145 F3000 ; Travel to line 83
G0 Z0.0 ; Pen down
G1 X80.701 Y168.911 F1000
G0 Z3.0 ; Pen up

G0 X79.729 Y167.939 F3000 ; Travel to line 84
G0 Z0.0 ; Pen down
G1 X76.327 Y171.341 F1000
G0 Z3.0 ; Pen up

G0 X75.355 Y169.883 F3000 ; Travel to line 85
G0 Z0.0 ; Pen down
G1 X78.757 Y166.481 F1000
G0 Z3.0 ; Pen up

G0 X77.785 Y165.509 F3000 ; Travel to line 86
G0 Z0.0 ; Pen down
G1 X74.869 Y168.911 F1000
G0 Z3.0 ; Pen up

G0 X73.411 Y167.453 F3000 ; Travel to line 87
G0 Z0.0 ; Pen down
G1 X76.813 Y164.537 F1000
G0 Z3.0 ; Pen up

G0 X75.841 Y163.079 F3000 ; Travel to line 88
G0 Z0.0 ; Pen down
G1 X72.925 Y166.481 F1000
G0 Z3.0 ; Pen up

G0 X71.953 Y165.509 F3000 ; Travel to line 89
G0 Z0.0 ; Pen down
G1 X74.869 Y162.107 F1000
G0 Z3.0 ; Pen up

G0 X73.897 Y160.650 F3000 ; Travel to line 90
G0 Z0.0 ; Pen down
G1 X70.981 Y164.051 F1000
G0 Z3.0 ; Pen up

G0 X70.009 Y162.593 F3000 ; Travel to line 91
G0 Z0.0 ; Pen down
G1 X73.411 Y159.678 F1000
G0 Z3.0 ; Pen up

G0 X72.439 Y158.220 F3000 ; Travel to line 92
G0 Z0.0 ; Pen down
G1 X69.037 Y161.136 F1000
G0 Z3.0 ; Pen up

G0 X68.551 Y160.164 F3000 ; Travel to line 93
G0 Z0.0 ; Pen down
G1 X71.953 Y156.276 F1000
G0 Z3.0 ; Pen up

G0 X70.981 Y155.790 F3000 ; Travel to line 94
G0 Z0.0 ; Pen down
G1 X67.579 Y158.706 F1000
G0 Z3.0 ; Pen up

G0 X65.150 Y158.706 F3000 ; Travel to line 95
G0 Z0.0 ; Pen down
G1 X70.009 Y154.332 F1000
G0 Z3.0 ; Pen up

G0 X69.037 Y152.874 F3000 ; Travel to line 96
G0 Z0.0 ; Pen down
G1 X66.121 Y156.276 F1000
G0 Z3.0 ; Pen up

G0 X65.150 Y154.818 F3000 ; Travel to line 97
G0 Z0.0 ; Pen down
G1 X68.551 Y151.902 F1000
G0 Z3.0 ; Pen up

G0 X67.579 Y150.444 F3000 ; Travel to line 98
G0 Z0.0 ; Pen down
G1 X64.178 Y153.360 F1000
G0 Z3.0 ; Pen up

G0 X63.692 Y152.388 F3000 ; Travel to line 99
G0 Z0.0 ; Pen down
G1 X66.607 Y148.986 F1000
G0 Z3.0 ; Pen up

G0 X66.121 Y147.528 F3000 ; Travel to line 100
G0 Z0.0 ; Pen down
G1 X63.206 Y150.444 F1000
G0 Z3.0 ; Pen up

G0 X62.234 Y149.472 F3000 ; Travel to line 101
G0 Z0.0 ; Pen down
G1 X65.150 Y146.556 F1000
G0 Z3.0 ; Pen up

G0 X64.664 Y145.098 F3000 ; Travel to line 102
G0 Z0.0 ; Pen down
G1 X61.748 Y148.014 F1000
G0 Z3.0 ; Pen up

G0 X60.776 Y146.556 F3000 ; Travel to line 103
G0 Z0.0 ; Pen down
G1 X63.692 Y143.640 F1000
G0 Z3.0 ; Pen up

G0 X62.720 Y142.182 F3000 ; Travel to line 104
G0 Z0.0 ; Pen down
G1 X60.290 Y145.098 F1000
G0 Z3.0 ; Pen up

G0 X59.318 Y143.640 F3000 ; Travel to line 105
G0 Z0.0 ; Pen down
G1 X62.234 Y141.210 F1000
G0 Z3.0 ; Pen up

G0 X61.262 Y139.266 F3000 ; Travel to line 106
G0 Z0.0 ; Pen down
G1 X58.346 Y142.182 F1000
G0 Z3.0 ; Pen up

G0 X57.860 Y140.724 F3000 ; Travel to line 107
G0 Z0.0 ; Pen down
G1 X60.776 Y138.294 F1000
G0 Z3.0 ; Pen up

G0 X60.290 Y136.836 F3000 ; Travel to line 108
G0 Z0.0 ; Pen down
G1 X57.374 Y139.752 F1000
G0 Z3.0 ; Pen up

G0 X56.402 Y137.808 F3000 ; Travel to line 109
G0 Z0.0 ; Pen down
G1 X59.318 Y135.379 F1000
G0 Z3.0 ; Pen up

G0 X58.832 Y133.921 F3000 ; Travel to line 110
G0 Z0.0 ; Pen down
G1 X55.916 Y136.350 F1000
G0 Z3.0 ; Pen up

G0 X55.430 Y134.893 F3000 ; Travel to line 111
G0 Z0.0 ; Pen down
G1 X58.346 Y131.977 F1000
G0 Z3.0 ; Pen up

G0 X57.374 Y131.005 F3000 ; Travel to line 112
G0 Z0.0 ; Pen down
G1 X54.944 Y133.435 F1000
G0 Z3.0 ; Pen up

G0 X54.458 Y131.977 F3000 ; Travel to line 113
G0 Z0.0 ; Pen down
G1 X56.888 Y129.547 F1000
G0 Z3.0 ; Pen up

G0 X55.916 Y127.603 F3000 ; Travel to line 114
G0 Z0.0 ; Pen down
G1 X53.486 Y130.519 F1000
G0 Z3.0 ; Pen up

G0 X53.000 Y129.061 F3000 ; Travel to line 115
G0 Z0.0 ; Pen down
G1 X55.430 Y126.145 F1000
G0 Z3.0 ; Pen up

G0 X54.944 Y125.173 F3000 ; Travel to line 116
G0 Z0.0 ; Pen down
G1 X52.514 Y127.603 F1000
G0 Z3.0 ; Pen up

G0 X52.028 Y125.659 F3000 ; Travel to line 117
G0 Z0.0 ; Pen down
G1 X54.458 Y123.229 F1000
G0 Z3.0 ; Pen up

G0 X51.056 Y124.201 F3000 ; Travel to line 118
G0 Z0.0 ; Pen down
G1 X55.430 Y119.827 F1000
G0 Z3.0 ; Pen up

G0 X55.916 Y119.827 F3000 ; Travel to line 119
G0 Z0.0 ; Pen down
G1 X55.916 Y119.341 F1000
G0 Z3.0 ; Pen up

G0 X56.888 Y120.313 F3000 ; Travel to line 120
G0 Z0.0 ; Pen down
G1 X59.804 Y117.883 F1000
G0 Z3.0 ; Pen up

G0 X59.804 Y117.883 F3000 ; Travel to line 121
G0 Z0.0 ; Pen down
G1 X59.804 Y117.397 F1000
G0 Z3.0 ; Pen up

G0 X61.262 Y118.369 F3000 ; Travel to line 122
G0 Z0.0 ; Pen down
G1 X63.206 Y116.425 F1000
G0 Z3.0 ; Pen up

G0 X64.178 Y117.397 F3000 ; Travel to line 123
G0 Z0.0 ; Pen down
G1 X66.121 Y115.453 F1000
G0 Z3.0 ; Pen up

G0 X67.093 Y116.425 F3000 ; Travel to line 124
G0 Z0.0 ; Pen down
G1 X68.551 Y114.967 F1000
G0 Z3.0 ; Pen up

G0 X69.523 Y116.425 F3000 ; Travel to line 125
G0 Z0.0 ; Pen down
G1 X70.981 Y115.453 F1000
G0 Z3.0 ; Pen up

G0 X61.262 Y118.855 F3000 ; Travel to line 126
G0 Z0.0 ; Pen down
G1 X60.776 Y118.855 F1000
G0 Z3.0 ; Pen up

G0 X51.056 Y124.687 F3000 ; Travel to line 127
G0 Z0.0 ; Pen down
G1 X50.570 Y124.687 F1000
G0 Z3.0 ; Pen up

G0 X50.570 Y125.173 F3000 ; Travel to line 128
G0 Z0.0 ; Pen down
G1 X50.084 Y125.173 F1000
G0 Z3.0 ; Pen up

G0 X36.963 Y143.154 F3000 ; Travel to line 129
G0 Z0.0 ; Pen down
G1 X36.477 Y143.154 F1000
G0 Z3.0 ; Pen up

G0 X57.374 Y162.593 F3000 ; Travel to line 130
G0 Z0.0 ; Pen down
G1 X60.290 Y160.164 F1000
G0 Z3.0 ; Pen up

G0 X60.290 Y159.678 F3000 ; Travel to line 131
G0 Z0.0 ; Pen down
G1 X57.374 Y162.593 F1000
G0 Z3.0 ; Pen up

G0 X61.748 Y160.164 F3000 ; Travel to line 132
G0 Z0.0 ; Pen down
G1 X62.234 Y160.164 F1000
G0 Z3.0 ; Pen up

G0 X62.234 Y159.678 F3000 ; Travel to line 133
G0 Z0.0 ; Pen down
G1 X63.692 Y158.220 F1000
G0 Z3.0 ; Pen up

G0 X64.178 Y158.220 F3000 ; Travel to line 134
G0 Z0.0 ; Pen down
G1 X64.178 Y157.734 F1000
G0 Z3.0 ; Pen up

G0 X73.897 Y156.762 F3000 ; Travel to line 135
G0 Z0.0 ; Pen down
G1 X74.383 Y156.276 F1000
G0 Z3.0 ; Pen up

G0 X74.383 Y155.790 F3000 ; Travel to line 136
G0 Z0.0 ; Pen down
G1 X73.897 Y156.762 F1000
G0 Z3.0 ; Pen up

G0 X75.841 Y156.762 F3000 ; Travel to line 137
G0 Z0.0 ; Pen down
G1 X76.327 Y156.276 F1000
G0 Z3.0 ; Pen up

G0 X77.785 Y156.762 F3000 ; Travel to line 138
G0 Z0.0 ; Pen down
G1 X78.271 Y156.276 F1000
G0 Z3.0 ; Pen up

G0 X79.729 Y157.248 F3000 ; Travel to line 139
G0 Z0.0 ; Pen down
G1 X80.215 Y156.762 F1000
G0 Z3.0 ; Pen up

G0 X81.673 Y157.734 F3000 ; Travel to line 140
G0 Z0.0 ; Pen down
G1 X82.159 Y156.762 F1000
G0 Z3.0 ; Pen up

G0 X83.131 Y157.734 F3000 ; Travel to line 141
G0 Z0.0 ; Pen down
G1 X83.617 Y157.248 F1000
G0 Z3.0 ; Pen up

G0 X85.075 Y158.706 F3000 ; Travel to line 142
G0 Z0.0 ; Pen down
G1 X85.561 Y158.220 F1000
G0 Z3.0 ; Pen up

G0 X86.533 Y158.706 F3000 ; Travel to line 143
G0 Z0.0 ; Pen down
G1 X86.533 Y159.192 F1000
G0 Z3.0 ; Pen up

G0 X87.505 Y159.678 F3000 ; Travel to line 144
G0 Z0.0 ; Pen down
G1 X87.991 Y159.192 F1000
G0 Z3.0 ; Pen up

G0 X89.449 Y160.164 F3000 ; Travel to line 145
G0 Z0.0 ; Pen down
G1 X88.963 Y160.650 F1000
G0 Z3.0 ; Pen up

G0 X90.421 Y161.136 F3000 ; Travel to line 146
G0 Z0.0 ; Pen down
G1 X90.907 Y160.650 F1000
G0 Z3.0 ; Pen up

G0 X91.879 Y161.621 F3000 ; Travel to line 147
G0 Z0.0 ; Pen down
G1 X91.393 Y162.107 F1000
G0 Z3.0 ; Pen up

G0 X92.850 Y163.079 F3000 ; Travel to line 148
G0 Z0.0 ; Pen down
G1 X94.308 Y161.621 F1000
G0 Z3.0 ; Pen up

G0 X94.308 Y163.565 F3000 ; Travel to line 149
G0 Z0.0 ; Pen down
G1 X93.822 Y164.051 F1000
G0 Z3.0 ; Pen up

G0 X95.280 Y165.023 F3000 ; Travel to line 150
G0 Z0.0 ; Pen down
G1 X95.766 Y165.023 F1000
G0 Z3.0 ; Pen up

G0 X96.252 Y165.995 F3000 ; Travel to line 151
G0 Z0.0 ; Pen down
G1 X96.738 Y165.995 F1000
G0 Z3.0 ; Pen up

G0 X97.224 Y166.967 F3000 ; Travel to line 152
G0 Z0.0 ; Pen down
G1 X97.224 Y167.453 F1000
G0 Z3.0 ; Pen up

G0 X98.196 Y168.425 F3000 ; Travel to line 153
G0 Z0.0 ; Pen down
G1 X98.682 Y168.425 F1000
G0 Z3.0 ; Pen up

G0 X99.168 Y169.397 F3000 ; Travel to line 154
G0 Z0.0 ; Pen down
G1 X99.168 Y169.883 F1000
G0 Z3.0 ; Pen up

G0 X100.626 Y172.313 F3000 ; Travel to line 155
G0 Z0.0 ; Pen down
G1 X101.112 Y172.313 F1000
G0 Z3.0 ; Pen up

G0 X102.570 Y174.743 F3000 ; Travel to line 156
G0 Z0.0 ; Pen down
G1 X99.654 Y177.659 F1000
G0 Z3.0 ; Pen up

G0 X99.654 Y177.659 F3000 ; Travel to line 157
G0 Z0.0 ; Pen down
G1 X101.112 Y176.201 F1000
G0 Z3.0 ; Pen up

G0 X102.084 Y175.229 F3000 ; Travel to line 158
G0 Z0.0 ; Pen down
G1 X99.654 Y177.659 F1000
G0 Z3.0 ; Pen up

G0 X102.570 Y176.687 F3000 ; Travel to line 159
G0 Z0.0 ; Pen down
G1 X103.056 Y176.687 F1000
G0 Z3.0 ; Pen up

G0 X103.542 Y178.145 F3000 ; Travel to line 160
G0 Z0.0 ; Pen down
G1 X103.056 Y178.631 F1000
G0 Z3.0 ; Pen up

G0 X105.000 Y174.257 F3000 ; Travel to line 161
G0 Z0.0 ; Pen down
G1 X105.486 Y174.257 F1000
G0 Z3.0 ; Pen up

G0 X104.514 Y185.921 F3000 ; Travel to line 162
G0 Z0.0 ; Pen down
G1 X104.028 Y186.407 F1000
G0 Z3.0 ; Pen up

G0 X101.598 Y188.836 F3000 ; Travel to line 163
G0 Z0.0 ; Pen down
G1 X97.224 Y192.724 F1000
G0 Z3.0 ; Pen up

G0 X98.196 Y193.696 F3000 ; Travel to line 164
G0 Z0.0 ; Pen down
G1 X102.570 Y189.808 F1000
G0 Z3.0 ; Pen up

G0 X104.028 Y190.294 F3000 ; Travel to line 165
G0 Z0.0 ; Pen down
G1 X99.654 Y194.668 F1000
G0 Z3.0 ; Pen up

G0 X100.626 Y195.640 F3000 ; Travel to line 166
G0 Z0.0 ; Pen down
G1 X105.000 Y191.266 F1000
G0 Z3.0 ; Pen up

G0 X105.972 Y192.238 F3000 ; Travel to line 167
G0 Z0.0 ; Pen down
G1 X101.598 Y197.098 F1000
G0 Z3.0 ; Pen up

G0 X101.112 Y197.098 F3000 ; Travel to line 168
G0 Z0.0 ; Pen down
G1 X101.112 Y197.584 F1000
G0 Z3.0 ; Pen up

G0 X102.084 Y198.556 F3000 ; Travel to line 169
G0 Z0.0 ; Pen down
G1 X99.168 Y201.472 F1000
G0 Z3.0 ; Pen up

G0 X98.682 Y204.388 F3000 ; Travel to line 170
G0 Z0.0 ; Pen down
G1 X98.196 Y204.388 F1000
G0 Z3.0 ; Pen up

G0 X98.196 Y204.874 F3000 ; Travel to line 171
G0 Z0.0 ; Pen down
G1 X97.710 Y204.874 F1000
G0 Z3.0 ; Pen up

G0 X97.710 Y205.360 F3000 ; Travel to line 172
G0 Z0.0 ; Pen down
G1 X97.224 Y205.360 F1000
G0 Z3.0 ; Pen up

G0 X103.056 Y197.584 F3000 ; Travel to line 173
G0 Z0.0 ; Pen down
G1 X107.430 Y193.210 F1000
G0 Z3.0 ; Pen up

G0 X108.888 Y194.182 F3000 ; Travel to line 174
G0 Z0.0 ; Pen down
G1 X104.514 Y198.556 F1000
G0 Z3.0 ; Pen up

G0 X105.486 Y199.042 F3000 ; Travel to line 175
G0 Z0.0 ; Pen down
G1 X109.860 Y194.668 F1000
G0 Z3.0 ; Pen up

G0 X111.318 Y195.640 F3000 ; Travel to line 176
G0 Z0.0 ; Pen down
G1 X106.944 Y200.500 F1000
G0 Z3.0 ; Pen up

G0 X107.916 Y200.986 F3000 ; Travel to line 177
G0 Z0.0 ; Pen down
G1 X112.776 Y196.126 F1000
G0 Z3.0 ; Pen up

G0 X113.748 Y197.098 F3000 ; Travel to line 178
G0 Z0.0 ; Pen down
G1 X109.374 Y201.958 F1000
G0 Z3.0 ; Pen up

G0 X110.832 Y202.930 F3000 ; Travel to line 179
G0 Z0.0 ; Pen down
G1 X115.692 Y198.070 F1000
G0 Z3.0 ; Pen up

G0 X116.664 Y198.556 F3000 ; Travel to line 180
G0 Z0.0 ; Pen down
G1 X111.804 Y203.416 F1000
G0 Z3.0 ; Pen up

G0 X113.262 Y204.388 F3000 ; Travel to line 181
G0 Z0.0 ; Pen down
G1 X118.121 Y199.528 F1000
G0 Z3.0 ; Pen up

G0 X119.579 Y200.500 F3000 ; Travel to line 182
G0 Z0.0 ; Pen down
G1 X114.720 Y205.360 F1000
G0 Z3.0 ; Pen up

G0 X115.692 Y205.846 F3000 ; Travel to line 183
G0 Z0.0 ; Pen down
G1 X120.551 Y200.986 F1000
G0 Z3.0 ; Pen up

G0 X122.495 Y201.472 F3000 ; Travel to line 184
G0 Z0.0 ; Pen down
G1 X117.150 Y206.818 F1000
G0 Z3.0 ; Pen up

G0 X118.607 Y207.304 F3000 ; Travel to line 185
G0 Z0.0 ; Pen down
G1 X123.467 Y202.444 F1000
G0 Z3.0 ; Pen up

G0 X124.925 Y203.416 F3000 ; Travel to line 186
G0 Z0.0 ; Pen down
G1 X119.579 Y208.276 F1000
G0 Z3.0 ; Pen up

G0 X121.523 Y209.248 F3000 ; Travel to line 187
G0 Z0.0 ; Pen down
G1 X126.383 Y203.902 F1000
G0 Z3.0 ; Pen up

G0 X127.841 Y204.874 F3000 ; Travel to line 188
G0 Z0.0 ; Pen down
G1 X122.495 Y209.734 F1000
G0 Z3.0 ; Pen up

G0 X123.953 Y210.706 F3000 ; Travel to line 189
G0 Z0.0 ; Pen down
G1 X128.813 Y205.360 F1000
G0 Z3.0 ; Pen up

G0 X130.757 Y206.332 F3000 ; Travel to line 190
G0 Z0.0 ; Pen down
G1 X125.411 Y211.192 F1000
G0 Z3.0 ; Pen up

G0 X126.869 Y212.164 F3000 ; Travel to line 191
G0 Z0.0 ; Pen down
G1 X132.215 Y206.818 F1000
G0 Z3.0 ; Pen up

G0 X133.187 Y207.304 F3000 ; Travel to line 192
G0 Z0.0 ; Pen down
G1 X127.841 Y212.650 F1000
G0 Z3.0 ; Pen up

G0 X129.785 Y213.621 F3000 ; Travel to line 193
G0 Z0.0 ; Pen down
G1 X135.131 Y207.790 F1000
G0 Z3.0 ; Pen up

G0 X136.589 Y208.762 F3000 ; Travel to line 194
G0 Z0.0 ; Pen down
G1 X130.757 Y214.107 F1000
G0 Z3.0 ; Pen up

G0 X132.701 Y214.593 F3000 ; Travel to line 195
G0 Z0.0 ; Pen down
G1 X138.047 Y209.248 F1000
G0 Z3.0 ; Pen up

G0 X139.505 Y209.734 F3000 ; Travel to line 196
G0 Z0.0 ; Pen down
G1 X133.673 Y215.565 F1000
G0 Z3.0 ; Pen up

G0 X135.131 Y216.051 F3000 ; Travel to line 197
G0 Z0.0 ; Pen down
G1 X140.963 Y210.220 F1000
G0 Z3.0 ; Pen up

G0 X142.907 Y211.192 F3000 ; Travel to line 198
G0 Z0.0 ; Pen down
G1 X137.075 Y217.023 F1000
G0 Z3.0 ; Pen up

G0 X138.533 Y217.509 F3000 ; Travel to line 199
G0 Z0.0 ; Pen down
G1 X144.364 Y211.678 F1000
G0 Z3.0 ; Pen up

G0 X145.822 Y212.164 F3000 ; Travel to line 200
G0 Z0.0 ; Pen down
G1 X139.505 Y217.995 F1000
G0 Z3.0 ; Pen up

G0 X141.449 Y218.481 F3000 ; Travel to line 201
G0 Z0.0 ; Pen down
G1 X147.280 Y212.650 F1000
G0 Z3.0 ; Pen up

G0 X148.738 Y213.136 F3000 ; Travel to line 202
G0 Z0.0 ; Pen down
G1 X142.907 Y218.967 F1000
G0 Z3.0 ; Pen up

G0 X144.364 Y219.453 F3000 ; Travel to line 203
G0 Z0.0 ; Pen down
G1 X150.196 Y213.621 F1000
G0 Z3.0 ; Pen up

G0 X152.140 Y214.107 F3000 ; Travel to line 204
G0 Z0.0 ; Pen down
G1 X146.308 Y220.425 F1000
G0 Z3.0 ; Pen up

G0 X147.766 Y220.911 F3000 ; Travel to line 205
G0 Z0.0 ; Pen down
G1 X154.084 Y214.593 F1000
G0 Z3.0 ; Pen up

G0 X155.542 Y215.079 F3000 ; Travel to line 206
G0 Z0.0 ; Pen down
G1 X149.224 Y221.397 F1000
G0 Z3.0 ; Pen up

G0 X150.682 Y221.883 F3000 ; Travel to line 207
G0 Z0.0 ; Pen down
G1 X157.486 Y215.565 F1000
G0 Z3.0 ; Pen up

G0 X158.944 Y215.565 F3000 ; Travel to line 208
G0 Z0.0 ; Pen down
G1 X152.140 Y222.369 F1000
G0 Z3.0 ; Pen up

G0 X154.084 Y222.855 F3000 ; Travel to line 209
G0 Z0.0 ; Pen down
G1 X160.888 Y216.051 F1000
G0 Z3.0 ; Pen up

G0 X162.346 Y216.537 F3000 ; Travel to line 210
G0 Z0.0 ; Pen down
G1 X156.028 Y223.341 F1000
G0 Z3.0 ; Pen up

G0 X157.486 Y223.341 F3000 ; Travel to line 211
G0 Z0.0 ; Pen down
G1 X164.290 Y217.023 F1000
G0 Z3.0 ; Pen up

G0 X166.234 Y217.023 F3000 ; Travel to line 212
G0 Z0.0 ; Pen down
G1 X159.430 Y223.827 F1000
G0 Z3.0 ; Pen up

G0 X160.888 Y224.313 F3000 ; Travel to line 213
G0 Z0.0 ; Pen down
G1 X167.692 Y217.509 F1000
G0 Z3.0 ; Pen up

G0 X170.121 Y217.509 F3000 ; Travel to line 214
G0 Z0.0 ; Pen down
G1 X162.346 Y224.799 F1000
G0 Z3.0 ; Pen up

G0 X164.290 Y225.285 F3000 ; Travel to line 215
G0 Z0.0 ; Pen down
G1 X171.579 Y217.995 F1000
G0 Z3.0 ; Pen up

G0 X173.037 Y217.023 F3000 ; Travel to line 216
G0 Z0.0 ; Pen down
G1 X173.523 Y216.537 F1000
G0 Z3.0 ; Pen up

G0 X174.009 Y217.995 F3000 ; Travel to line 217
G0 Z0.0 ; Pen down
G1 X166.234 Y225.285 F1000
G0 Z3.0 ; Pen up

G0 X168.178 Y225.771 F3000 ; Travel to line 218
G0 Z0.0 ; Pen down
G1 X175.953 Y217.995 F1000
G0 Z3.0 ; Pen up

G0 X177.897 Y217.995 F3000 ; Travel to line 219
G0 Z0.0 ; Pen down
G1 X169.636 Y226.257 F1000
G0 Z3.0 ; Pen up

G0 X171.093 Y227.229 F3000 ; Travel to line 220
G0 Z0.0 ; Pen down
G1 X179.355 Y218.481 F1000
G0 Z3.0 ; Pen up

G0 X181.785 Y218.481 F3000 ; Travel to line 221
G0 Z0.0 ; Pen down
G1 X173.523 Y226.743 F1000
G0 Z3.0 ; Pen up

G0 X175.467 Y226.743 F3000 ; Travel to line 222
G0 Z0.0 ; Pen down
G1 X183.729 Y218.481 F1000
G0 Z3.0 ; Pen up

G0 X185.673 Y218.481 F3000 ; Travel to line 223
G0 Z0.0 ; Pen down
G1 X176.925 Y227.229 F1000
G0 Z3.0 ; Pen up

G0 X179.355 Y227.229 F3000 ; Travel to line 224
G0 Z0.0 ; Pen down
G1 X187.617 Y218.967 F1000
G0 Z3.0 ; Pen up

G0 X189.561 Y218.967 F3000 ; Travel to line 225
G0 Z0.0 ; Pen down
G1 X181.299 Y227.229 F1000
G0 Z3.0 ; Pen up

G0 X182.757 Y227.715 F3000 ; Travel to line 226
G0 Z0.0 ; Pen down
G1 X189.075 Y221.883 F1000
G0 Z3.0 ; Pen up

G0 X188.589 Y224.799 F3000 ; Travel to line 227
G0 Z0.0 ; Pen down
G1 X185.187 Y227.715 F1000
G0 Z3.0 ; Pen up

G0 X187.131 Y227.715 F3000 ; Travel to line 228
G0 Z0.0 ; Pen down
G1 X189.561 Y225.771 F1000
G0 Z3.0 ; Pen up

G0 X190.533 Y226.743 F3000 ; Travel to line 229
G0 Z0.0 ; Pen down
G1 X189.561 Y227.715 F1000
G0 Z3.0 ; Pen up

G0 X172.065 Y228.687 F3000 ; Travel to line 230
G0 Z0.0 ; Pen down
G1 X170.607 Y230.145 F1000
G0 Z3.0 ; Pen up

G0 X171.093 Y231.603 F3000 ; Travel to line 231
G0 Z0.0 ; Pen down
G1 X169.636 Y233.061 F1000
G0 Z3.0 ; Pen up

G0 X169.150 Y233.061 F3000 ; Travel to line 232
G0 Z0.0 ; Pen down
G1 X169.150 Y233.547 F1000
G0 Z3.0 ; Pen up

G0 X169.636 Y234.519 F3000 ; Travel to line 233
G0 Z0.0 ; Pen down
G1 X168.178 Y236.463 F1000
G0 Z3.0 ; Pen up

G0 X168.664 Y235.977 F3000 ; Travel to line 234
G0 Z0.0 ; Pen down
G1 X170.121 Y234.519 F1000
G0 Z3.0 ; Pen up

G0 X168.664 Y238.407 F3000 ; Travel to line 235
G0 Z0.0 ; Pen down
G1 X168.178 Y238.407 F1000
G0 Z3.0 ; Pen up

G0 X168.178 Y238.893 F3000 ; Travel to line 236
G0 Z0.0 ; Pen down
G1 X166.234 Y240.836 F1000
G0 Z3.0 ; Pen up

G0 X166.234 Y242.780 F3000 ; Travel to line 237
G0 Z0.0 ; Pen down
G1 X163.804 Y245.210 F1000
G0 Z3.0 ; Pen up

G0 X163.318 Y245.210 F3000 ; Travel to line 238
G0 Z0.0 ; Pen down
G1 X163.318 Y245.696 F1000
G0 Z3.0 ; Pen up

G0 X162.832 Y248.126 F3000 ; Travel to line 239
G0 Z0.0 ; Pen down
G1 X156.514 Y254.444 F1000
G0 Z3.0 ; Pen up

G0 X156.514 Y254.444 F3000 ; Travel to line 240
G0 Z0.0 ; Pen down
G1 X149.224 Y261.734 F1000
G0 Z3.0 ; Pen up

G0 X149.224 Y261.734 F3000 ; Travel to line 241
G0 Z0.0 ; Pen down
G1 X156.028 Y254.930 F1000
G0 Z3.0 ; Pen up

G0 X162.346 Y248.612 F3000 ; Travel to line 242
G0 Z0.0 ; Pen down
G1 X149.224 Y261.734 F1000
G0 Z3.0 ; Pen up

G0 X149.224 Y261.734 F3000 ; Travel to line 243
G0 Z0.0 ; Pen down
G1 X162.346 Y248.126 F1000
G0 Z3.0 ; Pen up

G0 X147.280 Y261.248 F3000 ; Travel to line 244
G0 Z0.0 ; Pen down
G1 X147.280 Y261.734 F1000
G0 Z3.0 ; Pen up

G0 X146.794 Y261.734 F3000 ; Travel to line 245
G0 Z0.0 ; Pen down
G1 X146.794 Y262.220 F1000
G0 Z3.0 ; Pen up

G0 X146.308 Y262.220 F3000 ; Travel to line 246
G0 Z0.0 ; Pen down
G1 X143.393 Y265.136 F1000
G0 Z3.0 ; Pen up

G0 X141.935 Y264.650 F3000 ; Travel to line 247
G0 Z0.0 ; Pen down
G1 X140.963 Y266.107 F1000
G0 Z3.0 ; Pen up

G0 X140.963 Y266.593 F3000 ; Travel to line 248
G0 Z0.0 ; Pen down
G1 X140.963 Y265.621 F1000
G1 X141.449 Y265.136 F1000
G1 X146.308 Y262.706 F1000
G1 X147.280 Y261.734 F1000
G1 X149.224 Y260.762 F1000
G1 X150.682 Y259.304 F1000
G1 X151.168 Y259.304 F1000
G1 X153.598 Y256.874 F1000
G1 X154.084 Y256.874 F1000
G1 X160.888 Y249.584 F1000
G1 X160.888 Y249.098 F1000
G1 X162.346 Y247.640 F1000
G1 X163.804 Y244.724 F1000
G1 X164.776 Y243.752 F1000
G1 X168.664 Y235.977 F1000
G1 X169.150 Y233.547 F1000
G1 X170.607 Y230.631 F1000
G1 X171.093 Y226.743 F1000
G1 X169.150 Y225.771 F1000
G1 X166.720 Y225.771 F1000
G1 X166.234 Y225.285 F1000
G1 X161.860 Y224.799 F1000
G1 X161.374 Y224.313 F1000
G1 X159.916 Y224.313 F1000
G1 X159.430 Y223.827 F1000
G1 X157.972 Y223.827 F1000
G1 X157.486 Y223.341 F1000
G1 X156.028 Y223.341 F1000
G1 X155.542 Y222.855 F1000
G1 X152.140 Y222.369 F1000
G1 X151.654 Y221.883 F1000
G1 X150.682 Y221.883 F1000
G1 X150.196 Y221.397 F1000
G1 X149.224 Y221.397 F1000
G1 X148.738 Y220.911 F1000
G1 X147.766 Y220.911 F1000
G1 X147.280 Y220.425 F1000
G1 X143.393 Y219.453 F1000
G1 X141.935 Y218.481 F1000
G1 X139.505 Y217.995 F1000
G1 X134.645 Y215.565 F1000
G1 X133.673 Y215.565 F1000
G1 X122.009 Y209.734 F1000
G1 X121.037 Y208.762 F1000
G1 X119.579 Y208.276 F1000
G1 X118.607 Y207.304 F1000
G1 X114.720 Y205.360 F1000
G1 X112.290 Y203.416 F1000
G1 X111.318 Y203.416 F1000
G1 X102.570 Y197.098 F1000
G1 X101.598 Y198.070 F1000
G1 X101.598 Y199.042 F1000
G1 X100.626 Y200.014 F1000
G1 X99.654 Y202.444 F1000
G1 X98.196 Y203.902 F1000
G1 X98.196 Y204.388 F1000
G1 X97.224 Y205.360 F1000
G1 X96.738 Y205.360 F1000
G1 X96.738 Y204.874 F1000
G1 X99.168 Y201.958 F1000
G1 X100.140 Y199.528 F1000
G1 X101.112 Y198.556 F1000
G1 X101.598 Y196.612 F1000
G1 X99.168 Y194.182 F1000
G1 X98.682 Y194.182 F1000
G1 X96.738 Y192.238 F1000
G1 X96.252 Y192.238 F1000
G1 X92.850 Y188.836 F1000
G1 X90.907 Y187.864 F1000
G1 X88.477 Y192.238 F1000
G1 X88.477 Y193.210 F1000
G1 X87.505 Y194.668 F1000
G1 X87.019 Y197.584 F1000
G1 X86.533 Y198.070 F1000
G1 X86.533 Y200.500 F1000
G1 X86.047 Y200.986 F1000
G1 X86.047 Y208.762 F1000
G1 X86.533 Y209.248 F1000
G1 X86.533 Y211.678 F1000
G1 X87.019 Y212.164 F1000
G1 X87.019 Y214.107 F1000
G1 X87.505 Y214.593 F1000
G1 X87.991 Y217.023 F1000
G1 X90.907 Y222.855 F1000
G1 X93.822 Y226.257 F1000
G1 X93.822 Y226.743 F1000
G1 X98.196 Y231.117 F1000
G1 X98.682 Y231.117 F1000
G1 X100.140 Y232.575 F1000
G1 X100.626 Y232.575 F1000
G1 X103.056 Y234.519 F1000
G1 X107.916 Y236.949 F1000
G1 X108.888 Y236.949 F1000
G1 X110.832 Y237.921 F1000
G1 X115.692 Y238.407 F1000
G1 X116.178 Y238.893 F1000
G1 X125.411 Y238.893 F1000
G1 X125.897 Y238.407 F1000
G1 X127.841 Y238.407 F1000
G1 X128.327 Y237.921 F1000
G1 X129.785 Y237.921 F1000
G1 X130.271 Y237.435 F1000
G1 X132.701 Y236.949 F1000
G1 X132.215 Y237.921 F1000
G1 X131.243 Y237.921 F1000
G1 X129.299 Y238.893 F1000
G1 X127.355 Y238.893 F1000
G1 X126.869 Y239.379 F1000
G1 X123.467 Y239.379 F1000
G1 X122.981 Y239.864 F1000
G1 X118.607 Y239.864 F1000
G1 X118.121 Y239.379 F1000
G1 X114.720 Y239.379 F1000
G1 X114.234 Y238.893 F1000
G1 X112.290 Y238.893 F1000
G1 X111.804 Y238.407 F1000
G1 X110.346 Y238.407 F1000
G1 X109.860 Y237.921 F1000
G1 X108.402 Y237.921 F1000
G1 X106.944 Y236.949 F1000
G1 X105.972 Y236.949 F1000
G1 X103.056 Y235.491 F1000
G1 X102.084 Y234.519 F1000
G1 X100.140 Y233.547 F1000
G1 X98.682 Y232.089 F1000
G1 X98.196 Y232.089 F1000
G1 X95.280 Y229.173 F1000
G1 X94.794 Y229.173 F1000
G1 X94.794 Y228.687 F1000
G1 X92.364 Y226.257 F1000
G1 X92.364 Y225.771 F1000
G1 X89.935 Y222.855 F1000
G1 X87.991 Y218.967 F1000
G1 X87.991 Y217.995 F1000
G1 X87.019 Y216.537 F1000
G1 X87.019 Y215.079 F1000
G1 X86.047 Y213.136 F1000
G1 X86.047 Y210.706 F1000
G1 X85.561 Y210.220 F1000
G1 X85.561 Y199.528 F1000
G1 X86.047 Y199.042 F1000
G1 X86.047 Y197.098 F1000
G1 X86.533 Y196.612 F1000
G1 X87.019 Y193.696 F1000
G1 X90.421 Y186.893 F1000
G1 X81.187 Y177.173 F1000
G1 X81.187 Y176.687 F1000
G1 X77.785 Y172.799 F1000
G1 X75.355 Y175.229 F1000
G1 X74.869 Y175.229 F1000
G1 X74.383 Y176.201 F1000
G1 X70.981 Y179.603 F1000
G1 X70.981 Y180.089 F1000
G1 X69.523 Y181.547 F1000
G1 X69.523 Y182.033 F1000
G1 X66.607 Y185.921 F1000
G1 X64.664 Y190.294 F1000
G1 X63.692 Y190.780 F1000
G1 X64.664 Y188.350 F1000
G1 X65.636 Y187.379 F1000
G1 X66.607 Y184.949 F1000
G1 X67.579 Y183.977 F1000
G1 X69.523 Y180.575 F1000
G1 X77.299 Y172.313 F1000
G1 X73.411 Y167.453 F1000
G1 X73.411 Y166.967 F1000
G1 X71.953 Y165.509 F1000
G1 X71.953 Y165.023 F1000
G1 X67.093 Y158.220 F1000
G1 X63.206 Y159.192 F1000
G1 X59.318 Y161.136 F1000
G1 X57.374 Y162.593 F1000
G1 X57.374 Y162.107 F1000
G1 X59.804 Y160.164 F1000
G1 X61.748 Y159.192 F1000
G1 X62.720 Y159.192 F1000
G1 X64.178 Y158.220 F1000
G1 X65.150 Y158.220 F1000
G1 X66.607 Y157.248 F1000
G1 X65.150 Y154.332 F1000
G1 X64.178 Y153.360 F1000
G1 X61.748 Y148.014 F1000
G1 X60.776 Y147.042 F1000
G1 X59.318 Y143.154 F1000
G1 X58.346 Y142.182 F1000
G1 X58.346 Y141.210 F1000
G1 X56.402 Y137.808 F1000
G1 X56.402 Y136.836 F1000
G1 X55.430 Y135.379 F1000
G1 X55.430 Y134.407 F1000
G1 X53.486 Y130.519 F1000
G1 X53.486 Y129.547 F1000
G1 X53.000 Y129.061 F1000
G1 X52.028 Y125.173 F1000
G1 X51.056 Y124.201 F1000
G1 X50.084 Y125.173 F1000
G1 X49.598 Y125.173 F1000
G1 X42.308 Y132.463 F1000
G1 X42.308 Y132.949 F1000
G1 X40.850 Y134.407 F1000
G1 X36.963 Y141.210 F1000
G1 X36.963 Y142.182 F1000
G1 X35.991 Y143.640 F1000
G1 X35.991 Y144.612 F1000
G1 X35.505 Y145.098 F1000
G1 X35.505 Y146.070 F1000
G1 X34.533 Y148.014 F1000
G1 X34.533 Y149.472 F1000
G1 X34.047 Y149.958 F1000
G1 X34.047 Y152.388 F1000
G1 X33.561 Y152.874 F1000
G1 X33.561 Y156.276 F1000
G1 X33.075 Y156.762 F1000
G1 X33.075 Y162.107 F1000
G1 X33.561 Y162.593 F1000
G1 X33.561 Y165.995 F1000
G1 X34.047 Y166.481 F1000
G1 X34.047 Y168.911 F1000
G1 X34.533 Y169.397 F1000
G1 X34.533 Y170.855 F1000
G1 X35.019 Y171.341 F1000
G1 X35.991 Y175.229 F1000
G1 X37.449 Y177.659 F1000
G1 X37.935 Y179.603 F1000
G1 X40.364 Y183.005 F1000
G1 X40.364 Y183.491 F1000
G1 X39.393 Y183.977 F1000
G1 X35.505 Y176.687 F1000
G1 X35.505 Y175.715 F1000
G1 X34.047 Y172.799 F1000
G1 X33.561 Y169.397 F1000
G1 X33.075 Y168.911 F1000
G1 X33.075 Y166.967 F1000
G1 X32.589 Y166.481 F1000
G1 X32.589 Y162.593 F1000
G1 X32.103 Y162.107 F1000
G1 X32.589 Y152.388 F1000
G1 X33.075 Y151.902 F1000
G1 X33.075 Y149.958 F1000
G1 X33.561 Y149.472 F1000
G1 X34.047 Y146.070 F1000
G1 X35.019 Y144.612 F1000
G1 X35.505 Y142.182 F1000
G1 X38.421 Y136.350 F1000
G1 X39.393 Y135.379 F1000
G1 X40.364 Y133.435 F1000
G1 X41.822 Y131.977 F1000
G1 X41.822 Y131.491 F1000
G1 X49.598 Y123.715 F1000
G1 X50.084 Y123.715 F1000
G1 X51.056 Y122.743 F1000
G1 X51.056 Y121.771 F1000
G1 X50.084 Y119.827 F1000
G1 X50.084 Y118.369 F1000
G1 X49.112 Y116.425 F1000
G1 X49.112 Y114.481 F1000
G1 X48.626 Y113.995 F1000
G1 X48.626 Y112.537 F1000
G1 X48.140 Y112.051 F1000
G1 X48.140 Y110.593 F1000
G1 X47.654 Y110.107 F1000
G1 X47.654 Y108.164 F1000
G1 X47.168 Y107.678 F1000
G1 X47.168 Y105.248 F1000
G1 X46.682 Y104.762 F1000
G1 X46.682 Y102.332 F1000
G1 X46.196 Y101.846 F1000
G1 X46.196 Y98.930 F1000
G1 X45.710 Y98.444 F1000
G1 X45.710 Y95.042 F1000
G1 X45.224 Y94.556 F1000
G1 X45.224 Y89.696 F1000
G1 X44.738 Y89.210 F1000
G1 X44.738 Y69.285 F1000
G1 X45.224 Y68.799 F1000
G1 X45.224 Y63.453 F1000
G1 X45.710 Y62.967 F1000
G1 X45.710 Y60.537 F1000
G1 X46.196 Y60.051 F1000
G1 X46.196 Y61.995 F1000
G1 X45.710 Y62.481 F1000
G1 X45.710 Y74.631 F1000
G1 X45.224 Y75.117 F1000
G1 X45.224 Y77.547 F1000
G1 X45.710 Y78.033 F1000
G1 X45.710 Y86.294 F1000
G1 X46.196 Y86.780 F1000
G1 X46.682 Y94.556 F1000
G1 X47.168 Y95.042 F1000
G1 X47.168 Y97.472 F1000
G1 X47.654 Y97.958 F1000
G1 X47.654 Y100.388 F1000
G1 X48.140 Y100.874 F1000
G1 X48.140 Y102.818 F1000
G1 X48.626 Y103.304 F1000
G1 X49.112 Y107.678 F1000
G1 X50.084 Y109.621 F1000
G1 X50.084 Y111.079 F1000
G1 X50.570 Y111.565 F1000
G1 X50.570 Y113.023 F1000
G1 X51.542 Y114.967 F1000
G1 X51.542 Y116.425 F1000
G1 X52.028 Y116.911 F1000
G1 X52.514 Y119.341 F1000
G1 X53.486 Y120.799 F1000
G1 X54.458 Y120.799 F1000
G1 X62.234 Y116.911 F1000
G1 X65.150 Y116.425 F1000
G1 X65.636 Y115.939 F1000
G1 X67.093 Y115.939 F1000
G1 X67.579 Y115.453 F1000
G1 X70.495 Y115.453 F1000
G1 X70.495 Y116.425 F1000
G1 X67.093 Y116.425 F1000
G1 X65.150 Y117.397 F1000
G1 X63.692 Y117.397 F1000
G1 X62.234 Y118.369 F1000
G1 X61.262 Y118.369 F1000
G1 X59.804 Y119.341 F1000
G1 X58.832 Y119.341 F1000
G1 X55.916 Y120.799 F1000
G1 X53.972 Y122.257 F1000
G1 X54.458 Y125.173 F1000
G1 X56.888 Y130.033 F1000
G1 X56.888 Y131.005 F1000
G1 X58.346 Y133.435 F1000
G1 X58.346 Y134.407 F1000
G1 X62.720 Y143.154 F1000
G1 X63.692 Y144.126 F1000
G1 X64.664 Y146.556 F1000
G1 X65.636 Y147.528 F1000
G1 X66.121 Y148.986 F1000
G1 X67.093 Y149.958 F1000
G1 X67.579 Y151.416 F1000
G1 X68.551 Y152.388 F1000
G1 X70.495 Y155.790 F1000
G1 X71.467 Y156.762 F1000
G1 X73.897 Y156.762 F1000
G1 X74.383 Y156.276 F1000
G1 X74.869 Y156.762 F1000
G1 X79.729 Y156.762 F1000
G1 X80.215 Y157.248 F1000
G1 X82.159 Y157.248 F1000
G1 X82.645 Y157.734 F1000
G1 X85.075 Y158.220 F1000
G1 X86.533 Y159.192 F1000
G1 X87.505 Y159.192 F1000
G1 X92.850 Y162.593 F1000
G1 X94.794 Y161.621 F1000
G1 X98.682 Y160.650 F1000
G1 X99.168 Y160.164 F1000
G1 X100.626 Y160.164 F1000
G1 X101.112 Y159.678 F1000
G1 X102.570 Y159.678 F1000
G1 X103.056 Y159.192 F1000
G1 X105.000 Y159.192 F1000
G1 X105.486 Y158.706 F1000
G1 X108.402 Y158.706 F1000
G1 X108.888 Y158.220 F1000
G1 X122.495 Y158.220 F1000
G1 X122.981 Y158.706 F1000
G1 X125.897 Y158.706 F1000
G1 X126.383 Y159.192 F1000
G1 X128.327 Y159.192 F1000
G1 X128.813 Y159.678 F1000
G1 X132.215 Y160.164 F1000
G1 X132.701 Y160.650 F1000
G1 X136.589 Y161.621 F1000
G1 X138.047 Y162.593 F1000
G1 X139.019 Y162.593 F1000
G1 X143.879 Y165.023 F1000
G1 X144.850 Y165.995 F1000
G1 X146.308 Y166.481 F1000
G1 X147.280 Y167.453 F1000
G1 X150.682 Y169.397 F1000
G1 X152.626 Y171.341 F1000
G1 X153.112 Y171.341 F1000
G1 X159.430 Y177.659 F1000
G1 X159.430 Y178.145 F1000
G1 X162.832 Y182.033 F1000
G1 X164.290 Y184.949 F1000
G1 X165.262 Y185.921 F1000
G1 X166.234 Y188.350 F1000
G1 X167.206 Y189.322 F1000
G1 X167.206 Y190.294 F1000
G1 X169.636 Y194.668 F1000
G1 X169.636 Y195.640 F1000
G1 X170.121 Y196.126 F1000
G1 X170.121 Y197.098 F1000
G1 X171.093 Y199.042 F1000
G1 X171.579 Y202.444 F1000
G1 X172.065 Y202.930 F1000
G1 X172.551 Y207.790 F1000
G1 X173.037 Y208.276 F1000
G1 X173.037 Y217.509 F1000
G1 X174.009 Y218.481 F1000
G1 X177.897 Y218.481 F1000
G1 X178.383 Y218.967 F1000
G1 X186.159 Y218.967 F1000
G1 X186.645 Y219.453 F1000
G1 X188.103 Y219.453 F1000
G1 X188.589 Y218.967 F1000
G1 X189.561 Y219.453 F1000
G1 X188.103 Y221.397 F1000
G1 X188.589 Y221.883 F1000
G1 X188.103 Y222.855 F1000
G1 X188.589 Y223.827 F1000
G1 X188.103 Y224.799 F1000
G1 X189.075 Y225.771 F1000
G1 X189.075 Y226.257 F1000
G1 X190.047 Y227.229 F1000
G1 X190.533 Y227.229 F1000
G1 X190.533 Y227.715 F1000
G1 X181.785 Y227.715 F1000
G1 X181.299 Y227.229 F1000
G1 X176.925 Y227.229 F1000
G1 X176.439 Y226.743 F1000
G1 X173.037 Y226.743 F1000
G1 X172.551 Y226.257 F1000
G1 X171.579 Y227.715 F1000
G1 X171.579 Y229.173 F1000
G1 X171.093 Y229.659 F1000
G1 X171.093 Y230.631 F1000
G1 X170.607 Y231.117 F1000
G1 X169.636 Y235.005 F1000
G1 X168.664 Y236.463 F1000
G1 X168.664 Y237.435 F1000
G1 X165.748 Y243.266 F1000
G1 X164.776 Y244.238 F1000
G1 X164.290 Y245.696 F1000
G1 X163.318 Y246.668 F1000
G1 X161.374 Y250.070 F1000
G1 X153.112 Y258.818 F1000
G1 X152.626 Y258.818 F1000
G1 X147.766 Y262.706 F1000
G1 X146.308 Y263.192 F1000
G1 X143.879 Y265.136 F1000
G1 X140.963 Y266.593 F1000
G0 Z3.0 ; Pen up

G0 X129.785 Y238.407 F3000 ; Travel to line 249
G0 Z0.0 ; Pen down
G1 X131.243 Y236.949 F1000
G0 Z3.0 ; Pen up

G0 X131.729 Y236.949 F3000 ; Travel to line 250
G0 Z0.0 ; Pen down
G1 X131.729 Y236.463 F1000
G0 Z3.0 ; Pen up

G0 X128.813 Y237.435 F3000 ; Travel to line 251
G0 Z0.0 ; Pen down
G1 X127.355 Y238.893 F1000
G0 Z3.0 ; Pen up

G0 X127.355 Y239.379 F3000 ; Travel to line 252
G0 Z0.0 ; Pen down
G1 X126.869 Y239.379 F1000
G0 Z3.0 ; Pen up

G0 X125.897 Y237.921 F3000 ; Travel to line 253
G0 Z0.0 ; Pen down
G1 X124.439 Y239.379 F1000
G0 Z3.0 ; Pen up

G0 X123.467 Y238.407 F3000 ; Travel to line 254
G0 Z0.0 ; Pen down
G1 X122.009 Y239.864 F1000
G0 Z3.0 ; Pen up

G0 X121.523 Y238.407 F3000 ; Travel to line 255
G0 Z0.0 ; Pen down
G1 X120.065 Y239.864 F1000
G0 Z3.0 ; Pen up

G0 X119.093 Y238.407 F3000 ; Travel to line 256
G0 Z0.0 ; Pen down
G1 X118.121 Y239.379 F1000
G0 Z3.0 ; Pen up

G0 X117.150 Y238.407 F3000 ; Travel to line 257
G0 Z0.0 ; Pen down
G1 X116.178 Y239.379 F1000
G0 Z3.0 ; Pen up

G0 X114.720 Y239.379 F3000 ; Travel to line 258
G0 Z0.0 ; Pen down
G1 X115.692 Y237.921 F1000
G0 Z3.0 ; Pen up

G0 X113.262 Y237.921 F3000 ; Travel to line 259
G0 Z0.0 ; Pen down
G1 X112.290 Y238.893 F1000
G0 Z3.0 ; Pen up

G0 X111.804 Y237.435 F3000 ; Travel to line 260
G0 Z0.0 ; Pen down
G1 X110.832 Y238.407 F1000
G0 Z3.0 ; Pen up

G0 X109.374 Y237.921 F3000 ; Travel to line 261
G0 Z0.0 ; Pen down
G1 X110.346 Y236.949 F1000
G0 Z3.0 ; Pen up

G0 X108.402 Y236.463 F3000 ; Travel to line 262
G0 Z0.0 ; Pen down
G1 X107.430 Y237.435 F1000
G0 Z3.0 ; Pen up

G0 X106.944 Y235.977 F3000 ; Travel to line 263
G0 Z0.0 ; Pen down
G1 X105.972 Y236.949 F1000
G0 Z3.0 ; Pen up

G0 X104.514 Y235.977 F3000 ; Travel to line 264
G0 Z0.0 ; Pen down
G1 X105.486 Y235.005 F1000
G0 Z3.0 ; Pen up

G0 X104.028 Y234.519 F3000 ; Travel to line 265
G0 Z0.0 ; Pen down
G1 X103.056 Y235.491 F1000
G0 Z3.0 ; Pen up

G0 X102.084 Y234.519 F3000 ; Travel to line 266
G0 Z0.0 ; Pen down
G1 X103.056 Y234.033 F1000
G0 Z3.0 ; Pen up

G0 X101.598 Y233.061 F3000 ; Travel to line 267
G0 Z0.0 ; Pen down
G1 X100.626 Y233.547 F1000
G0 Z3.0 ; Pen up

G0 X99.654 Y233.061 F3000 ; Travel to line 268
G0 Z0.0 ; Pen down
G1 X100.140 Y232.089 F1000
G0 Z3.0 ; Pen up

G0 X99.168 Y231.117 F3000 ; Travel to line 269
G0 Z0.0 ; Pen down
G1 X98.196 Y232.089 F1000
G0 Z3.0 ; Pen up

G0 X97.224 Y231.117 F3000 ; Travel to line 270
G0 Z0.0 ; Pen down
G1 X97.710 Y230.145 F1000
G0 Z3.0 ; Pen up

G0 X96.738 Y229.173 F3000 ; Travel to line 271
G0 Z0.0 ; Pen down
G1 X96.252 Y230.145 F1000
G0 Z3.0 ; Pen up

G0 X94.794 Y229.173 F3000 ; Travel to line 272
G0 Z0.0 ; Pen down
G1 X95.766 Y228.201 F1000
G0 Z3.0 ; Pen up

G0 X94.794 Y227.229 F3000 ; Travel to line 273
G0 Z0.0 ; Pen down
G1 X93.822 Y227.715 F1000
G0 Z3.0 ; Pen up

G0 X92.850 Y226.743 F3000 ; Travel to line 274
G0 Z0.0 ; Pen down
G1 X93.822 Y225.771 F1000
G0 Z3.0 ; Pen up

G0 X92.850 Y224.799 F3000 ; Travel to line 275
G0 Z0.0 ; Pen down
G1 X91.879 Y225.285 F1000
G0 Z3.0 ; Pen up

G0 X90.907 Y224.313 F3000 ; Travel to line 276
G0 Z0.0 ; Pen down
G1 X91.879 Y223.341 F1000
G0 Z3.0 ; Pen up

G0 X91.393 Y222.369 F3000 ; Travel to line 277
G0 Z0.0 ; Pen down
G1 X90.421 Y223.341 F1000
G0 Z3.0 ; Pen up

G0 X89.449 Y221.883 F3000 ; Travel to line 278
G0 Z0.0 ; Pen down
G1 X90.421 Y220.911 F1000
G0 Z3.0 ; Pen up

G0 X88.963 Y220.425 F3000 ; Travel to line 279
G0 Z0.0 ; Pen down
G1 X89.935 Y219.453 F1000
G0 Z3.0 ; Pen up

G0 X88.963 Y217.995 F3000 ; Travel to line 280
G0 Z0.0 ; Pen down
G1 X87.991 Y218.967 F1000
G0 Z3.0 ; Pen up

G0 X87.505 Y217.509 F3000 ; Travel to line 281
G0 Z0.0 ; Pen down
G1 X88.477 Y216.537 F1000
G0 Z3.0 ; Pen up

G0 X87.019 Y216.051 F3000 ; Travel to line 282
G0 Z0.0 ; Pen down
G1 X87.991 Y215.079 F1000
G0 Z3.0 ; Pen up

G0 X86.533 Y214.107 F3000 ; Travel to line 283
G0 Z0.0 ; Pen down
G1 X87.505 Y213.136 F1000
G0 Z3.0 ; Pen up

G0 X86.047 Y212.650 F3000 ; Travel to line 284
G0 Z0.0 ; Pen down
G1 X87.019 Y211.678 F1000
G0 Z3.0 ; Pen up

G0 X86.047 Y210.706 F3000 ; Travel to line 285
G0 Z0.0 ; Pen down
G1 X87.019 Y209.734 F1000
G0 Z3.0 ; Pen up

G0 X85.561 Y208.762 F3000 ; Travel to line 286
G0 Z0.0 ; Pen down
G1 X86.533 Y207.790 F1000
G0 Z3.0 ; Pen up

G0 X85.561 Y206.818 F3000 ; Travel to line 287
G0 Z0.0 ; Pen down
G1 X86.533 Y205.846 F1000
G0 Z3.0 ; Pen up

G0 X85.561 Y204.874 F3000 ; Travel to line 288
G0 Z0.0 ; Pen down
G1 X86.533 Y203.902 F1000
G0 Z3.0 ; Pen up

G0 X85.561 Y202.444 F3000 ; Travel to line 289
G0 Z0.0 ; Pen down
G1 X86.533 Y201.472 F1000
G0 Z3.0 ; Pen up

G0 X85.561 Y200.500 F3000 ; Travel to line 290
G0 Z0.0 ; Pen down
G1 X87.019 Y199.042 F1000
G0 Z3.0 ; Pen up

G0 X86.047 Y198.070 F3000 ; Travel to line 291
G0 Z0.0 ; Pen down
G1 X87.505 Y196.612 F1000
G0 Z3.0 ; Pen up

G0 X86.533 Y195.154 F3000 ; Travel to line 292
G0 Z0.0 ; Pen down
G1 X86.533 Y194.668 F1000
G0 Z3.0 ; Pen up

G0 X87.019 Y194.668 F3000 ; Travel to line 293
G0 Z0.0 ; Pen down
G1 X88.963 Y192.724 F1000
G0 Z3.0 ; Pen up

G0 X87.991 Y191.752 F3000 ; Travel to line 294
G0 Z0.0 ; Pen down
G1 X90.421 Y189.322 F1000
G0 Z3.0 ; Pen up

G0 X90.421 Y188.836 F3000 ; Travel to line 295
G0 Z0.0 ; Pen down
G1 X90.907 Y188.836 F1000
G0 Z3.0 ; Pen up

G0 X91.393 Y187.864 F3000 ; Travel to line 296
G0 Z0.0 ; Pen down
G1 X95.766 Y183.977 F1000
G0 Z3.0 ; Pen up

G0 X96.738 Y184.949 F3000 ; Travel to line 297
G0 Z0.0 ; Pen down
G1 X92.364 Y188.836 F1000
G0 Z3.0 ; Pen up

G0 X93.822 Y189.808 F3000 ; Travel to line 298
G0 Z0.0 ; Pen down
G1 X98.196 Y185.921 F1000
G0 Z3.0 ; Pen up

G0 X99.168 Y186.893 F3000 ; Travel to line 299
G0 Z0.0 ; Pen down
G1 X94.794 Y190.780 F1000
G0 Z3.0 ; Pen up

G0 X95.766 Y191.752 F3000 ; Travel to line 300
G0 Z0.0 ; Pen down
G1 X100.140 Y187.864 F1000
G0 Z3.0 ; Pen up

G0 X94.794 Y182.519 F3000 ; Travel to line 301
G0 Z0.0 ; Pen down
G1 X89.935 Y187.379 F1000
G0 Z3.0 ; Pen up

G0 X89.449 Y185.921 F3000 ; Travel to line 302
G0 Z0.0 ; Pen down
G1 X93.336 Y181.547 F1000
G0 Z3.0 ; Pen up

G0 X92.364 Y181.061 F3000 ; Travel to line 303
G0 Z0.0 ; Pen down
G1 X88.477 Y184.949 F1000
G0 Z3.0 ; Pen up

G0 X87.019 Y183.491 F3000 ; Travel to line 304
G0 Z0.0 ; Pen down
G1 X90.907 Y179.603 F1000
G0 Z3.0 ; Pen up

G0 X89.935 Y178.631 F3000 ; Travel to line 305
G0 Z0.0 ; Pen down
G1 X86.533 Y182.519 F1000
G0 Z3.0 ; Pen up

G0 X85.561 Y181.547 F3000 ; Travel to line 306
G0 Z0.0 ; Pen down
G1 X88.963 Y177.659 F1000
G0 Z3.0 ; Pen up

G0 X87.991 Y176.687 F3000 ; Travel to line 307
G0 Z0.0 ; Pen down
G1 X84.103 Y180.089 F1000
G0 Z3.0 ; Pen up

G0 X83.131 Y179.117 F3000 ; Travel to line 308
G0 Z0.0 ; Pen down
G1 X87.019 Y175.715 F1000
G0 Z3.0 ; Pen up

G0 X86.047 Y174.743 F3000 ; Travel to line 309
G0 Z0.0 ; Pen down
G1 X82.159 Y178.145 F1000
G0 Z3.0 ; Pen up

G0 X81.187 Y177.173 F3000 ; Travel to line 310
G0 Z0.0 ; Pen down
G1 X84.589 Y173.285 F1000
G0 Z3.0 ; Pen up

G0 X83.617 Y172.313 F3000 ; Travel to line 311
G0 Z0.0 ; Pen down
G1 X80.215 Y175.715 F1000
G0 Z3.0 ; Pen up

G0 X79.243 Y174.743 F3000 ; Travel to line 312
G0 Z0.0 ; Pen down
G1 X82.645 Y171.341 F1000
G0 Z3.0 ; Pen up

G0 X81.673 Y169.883 F3000 ; Travel to line 313
G0 Z0.0 ; Pen down
G1 X78.271 Y173.285 F1000
G0 Z3.0 ; Pen up

G0 X96.738 Y161.136 F3000 ; Travel to line 314
G0 Z0.0 ; Pen down
G1 X97.224 Y160.650 F1000
G0 Z3.0 ; Pen up

G0 X97.710 Y160.650 F3000 ; Travel to line 315
G0 Z0.0 ; Pen down
G1 X97.710 Y160.164 F1000
G0 Z3.0 ; Pen up

G0 X100.140 Y160.164 F3000 ; Travel to line 316
G0 Z0.0 ; Pen down
G1 X100.626 Y160.164 F1000
G0 Z3.0 ; Pen up

G0 X102.570 Y159.678 F3000 ; Travel to line 317
G0 Z0.0 ; Pen down
G1 X103.056 Y159.678 F1000
G0 Z3.0 ; Pen up

G0 X103.056 Y159.192 F3000 ; Travel to line 318
G0 Z0.0 ; Pen down
G1 X103.542 Y158.706 F1000
G0 Z3.0 ; Pen up

G0 X105.486 Y158.706 F3000 ; Travel to line 319
G0 Z0.0 ; Pen down
G1 X105.972 Y158.220 F1000
G0 Z3.0 ; Pen up

G0 X110.346 Y158.220 F3000 ; Travel to line 320
G0 Z0.0 ; Pen down
G1 X110.832 Y157.734 F1000
G0 Z3.0 ; Pen up

G0 X112.290 Y158.220 F3000 ; Travel to line 321
G0 Z0.0 ; Pen down
G1 X112.776 Y157.734 F1000
G0 Z3.0 ; Pen up

G0 X118.607 Y158.220 F3000 ; Travel to line 322
G0 Z0.0 ; Pen down
G1 X119.579 Y157.734 F1000
G0 Z3.0 ; Pen up

G0 X121.037 Y158.220 F3000 ; Travel to line 323
G0 Z0.0 ; Pen down
G1 X121.523 Y157.734 F1000
G0 Z3.0 ; Pen up

G0 X124.925 Y158.706 F3000 ; Travel to line 324
G0 Z0.0 ; Pen down
G1 X125.411 Y158.220 F1000
G0 Z3.0 ; Pen up

G0 X126.869 Y158.706 F3000 ; Travel to line 325
G0 Z0.0 ; Pen down
G1 X126.869 Y159.192 F1000
G0 Z3.0 ; Pen up

G0 X130.271 Y159.678 F3000 ; Travel to line 326
G0 Z0.0 ; Pen down
G1 X130.757 Y159.678 F1000
G0 Z3.0 ; Pen up

G0 X131.729 Y160.164 F3000 ; Travel to line 327
G0 Z0.0 ; Pen down
G1 X132.215 Y159.678 F1000
G0 Z3.0 ; Pen up

G0 X133.187 Y160.650 F3000 ; Travel to line 328
G0 Z0.0 ; Pen down
G1 X133.673 Y160.164 F1000
G0 Z3.0 ; Pen up

G0 X135.131 Y161.136 F3000 ; Travel to line 329
G0 Z0.0 ; Pen down
G1 X135.617 Y161.136 F1000
G0 Z3.0 ; Pen up

G0 X136.589 Y161.621 F3000 ; Travel to line 330
G0 Z0.0 ; Pen down
G1 X137.075 Y161.621 F1000
G0 Z3.0 ; Pen up

G0 X138.047 Y162.593 F3000 ; Travel to line 331
G0 Z0.0 ; Pen down
G1 X138.533 Y162.107 F1000
G0 Z3.0 ; Pen up

G0 X139.505 Y163.079 F3000 ; Travel to line 332
G0 Z0.0 ; Pen down
G1 X139.991 Y162.593 F1000
G0 Z3.0 ; Pen up

G0 X142.421 Y164.537 F3000 ; Travel to line 333
G0 Z0.0 ; Pen down
G1 X142.907 Y164.051 F1000
G0 Z3.0 ; Pen up

G0 X143.879 Y165.023 F3000 ; Travel to line 334
G0 Z0.0 ; Pen down
G1 X144.364 Y165.023 F1000
G0 Z3.0 ; Pen up

G0 X144.850 Y165.995 F3000 ; Travel to line 335
G0 Z0.0 ; Pen down
G1 X145.336 Y165.509 F1000
G0 Z3.0 ; Pen up

G0 X147.766 Y167.453 F3000 ; Travel to line 336
G0 Z0.0 ; Pen down
G1 X148.252 Y167.453 F1000
G0 Z3.0 ; Pen up

G0 X148.738 Y168.425 F3000 ; Travel to line 337
G0 Z0.0 ; Pen down
G1 X149.224 Y167.939 F1000
G0 Z3.0 ; Pen up

G0 X150.196 Y169.397 F3000 ; Travel to line 338
G0 Z0.0 ; Pen down
G1 X150.682 Y168.911 F1000
G0 Z3.0 ; Pen up

G0 X151.654 Y169.883 F3000 ; Travel to line 339
G0 Z0.0 ; Pen down
G1 X151.654 Y170.369 F1000
G0 Z3.0 ; Pen up

G0 X152.626 Y171.341 F3000 ; Travel to line 340
G0 Z0.0 ; Pen down
G1 X153.112 Y170.855 F1000
G0 Z3.0 ; Pen up

G0 X154.084 Y171.827 F3000 ; Travel to line 341
G0 Z0.0 ; Pen down
G1 X153.598 Y172.313 F1000
G0 Z3.0 ; Pen up

G0 X154.570 Y173.285 F3000 ; Travel to line 342
G0 Z0.0 ; Pen down
G1 X155.056 Y172.799 F1000
G0 Z3.0 ; Pen up

G0 X156.514 Y174.257 F3000 ; Travel to line 343
G0 Z0.0 ; Pen down
G1 X156.028 Y174.743 F1000
G0 Z3.0 ; Pen up

G0 X157.000 Y175.715 F3000 ; Travel to line 344
G0 Z0.0 ; Pen down
G1 X157.486 Y175.229 F1000
G0 Z3.0 ; Pen up

G0 X158.458 Y176.201 F3000 ; Travel to line 345
G0 Z0.0 ; Pen down
G1 X157.972 Y176.687 F1000
G0 Z3.0 ; Pen up

G0 X158.944 Y177.659 F3000 ; Travel to line 346
G0 Z0.0 ; Pen down
G1 X159.430 Y177.173 F1000
G0 Z3.0 ; Pen up

G0 X159.916 Y178.631 F3000 ; Travel to line 347
G0 Z0.0 ; Pen down
G1 X160.402 Y178.631 F1000
G0 Z3.0 ; Pen up

G0 X161.374 Y179.603 F3000 ; Travel to line 348
G0 Z0.0 ; Pen down
G1 X160.888 Y180.089 F1000
G0 Z3.0 ; Pen up

G0 X161.860 Y181.061 F3000 ; Travel to line 349
G0 Z0.0 ; Pen down
G1 X162.346 Y181.061 F1000
G0 Z3.0 ; Pen up

G0 X163.318 Y182.033 F3000 ; Travel to line 350
G0 Z0.0 ; Pen down
G1 X162.832 Y182.519 F1000
G0 Z3.0 ; Pen up

G0 X163.804 Y183.491 F3000 ; Travel to line 351
G0 Z0.0 ; Pen down
G1 X164.290 Y183.005 F1000
G0 Z3.0 ; Pen up

G0 X164.290 Y184.949 F3000 ; Travel to line 352
G0 Z0.0 ; Pen down
G1 X164.776 Y184.949 F1000
G0 Z3.0 ; Pen up

G0 X165.748 Y185.921 F3000 ; Travel to line 353
G0 Z0.0 ; Pen down
G1 X165.262 Y186.407 F1000
G0 Z3.0 ; Pen up

G0 X167.206 Y188.836 F3000 ; Travel to line 354
G0 Z0.0 ; Pen down
G1 X166.720 Y189.322 F1000
G0 Z3.0 ; Pen up

G0 X168.664 Y191.752 F3000 ; Travel to line 355
G0 Z0.0 ; Pen down
G1 X168.178 Y192.238 F1000
G0 Z3.0 ; Pen up

G0 X168.664 Y193.210 F3000 ; Travel to line 356
G0 Z0.0 ; Pen down
G1 X169.150 Y193.210 F1000
G0 Z3.0 ; Pen up

G0 X169.636 Y194.182 F3000 ; Travel to line 357
G0 Z0.0 ; Pen down
G1 X169.636 Y194.668 F1000
G0 Z3.0 ; Pen up

G0 X170.607 Y196.126 F3000 ; Travel to line 358
G0 Z0.0 ; Pen down
G1 X170.121 Y196.612 F1000
G0 Z3.0 ; Pen up

G0 X171.093 Y197.584 F3000 ; Travel to line 359
G0 Z0.0 ; Pen down
G1 X170.607 Y198.070 F1000
G0 Z3.0 ; Pen up

G0 X171.579 Y199.528 F3000 ; Travel to line 360
G0 Z0.0 ; Pen down
G1 X171.093 Y200.014 F1000
G0 Z3.0 ; Pen up

G0 X172.065 Y200.986 F3000 ; Travel to line 361
G0 Z0.0 ; Pen down
G1 X171.579 Y201.472 F1000
G0 Z3.0 ; Pen up

G0 X172.065 Y202.444 F3000 ; Travel to line 362
G0 Z0.0 ; Pen down
G1 X172.065 Y202.930 F1000
G0 Z3.0 ; Pen up

G0 X172.065 Y204.874 F3000 ; Travel to line 363
G0 Z0.0 ; Pen down
G1 X172.551 Y204.874 F1000
G0 Z3.0 ; Pen up

G0 X173.037 Y206.332 F3000 ; Travel to line 364
G0 Z0.0 ; Pen down
G1 X172.551 Y206.818 F1000
G0 Z3.0 ; Pen up

G0 X173.037 Y207.790 F3000 ; Travel to line 365
G0 Z0.0 ; Pen down
G1 X173.037 Y208.276 F1000
G0 Z3.0 ; Pen up

G0 X173.523 Y210.220 F3000 ; Travel to line 366
G0 Z0.0 ; Pen down
G1 X173.037 Y210.706 F1000
G0 Z3.0 ; Pen up

G0 X173.523 Y212.164 F3000 ; Travel to line 367
G0 Z0.0 ; Pen down
G1 X173.037 Y212.650 F1000
G0 Z3.0 ; Pen up

G0 X173.523 Y214.107 F3000 ; Travel to line 368
G0 Z0.0 ; Pen down
G1 X173.037 Y214.593 F1000
G0 Z3.0 ; Pen up

; Return to origin
G0 X0 Y0
G0 Z3.0

; Total drawing distance: 2924.61 mm
; Total travel distance: 873.92 mm
; Total lines: 368
; Estimated time: 193.0 seconds (3.2 minutes)
M2 ; End program