; Blueprint to G-code
; Input: test_images/test1_simple_box.png
; Generated with blueprint2gcode.py

G21 ; Set units to millimeters
G90 ; Absolute positioning
G0 Z3.0 ; Pen up
G0 X0 Y0 ; Move to origin

G0 X32.243 Y25.820 F3000 ; Travel to line 1
G0 Z0.0 ; Pen down
G1 X32.487 Y25.577 F1000
G1 X176.297 Y25.577 F1000
G1 X176.540 Y25.820 F1000
G1 X176.540 Y26.307 F1000
G1 X176.297 Y26.550 F1000
G1 X176.053 Y26.550 F1000
G1 X175.567 Y27.037 F1000
G1 X175.323 Y27.037 F1000
G1 X174.837 Y27.523 F1000
G1 X174.593 Y27.523 F1000
G1 X174.107 Y28.010 F1000
G1 X173.863 Y28.010 F1000
G1 X173.377 Y28.497 F1000
G1 X173.133 Y28.497 F1000
G1 X172.647 Y28.983 F1000
G1 X172.403 Y28.983 F1000
G1 X171.917 Y29.470 F1000
G1 X171.673 Y29.470 F1000
G1 X171.187 Y29.957 F1000
G1 X170.943 Y29.957 F1000
G1 X170.457 Y30.443 F1000
G1 X170.213 Y30.443 F1000
G1 X169.727 Y30.930 F1000
G1 X169.483 Y30.930 F1000
G1 X168.997 Y31.417 F1000
G1 X168.753 Y31.417 F1000
G1 X168.267 Y31.903 F1000
G1 X168.023 Y31.903 F1000
G1 X167.537 Y32.390 F1000
G1 X167.293 Y32.390 F1000
G1 X166.807 Y32.877 F1000
G1 X166.563 Y32.877 F1000
G1 X166.077 Y33.363 F1000
G1 X165.833 Y33.363 F1000
G1 X165.347 Y33.850 F1000
G1 X165.103 Y33.850 F1000
G1 X164.617 Y34.337 F1000
G1 X164.373 Y34.337 F1000
G1 X163.887 Y34.823 F1000
G1 X163.643 Y34.823 F1000
G1 X163.157 Y35.310 F1000
G1 X162.913 Y35.310 F1000
G1 X162.427 Y35.797 F1000
G1 X162.183 Y35.797 F1000
G1 X161.697 Y36.283 F1000
G1 X161.453 Y36.283 F1000
G1 X160.967 Y36.770 F1000
G1 X160.723 Y36.770 F1000
G1 X160.237 Y37.257 F1000
G1 X159.993 Y37.257 F1000
G1 X159.507 Y37.743 F1000
G1 X159.263 Y37.743 F1000
G1 X158.777 Y38.230 F1000
G1 X158.533 Y38.230 F1000
G1 X158.047 Y38.717 F1000
G1 X157.803 Y38.717 F1000
G1 X157.317 Y39.203 F1000
G1 X157.073 Y39.203 F1000
G1 X156.587 Y39.690 F1000
G1 X156.343 Y39.690 F1000
G1 X155.857 Y40.177 F1000
G1 X155.613 Y40.177 F1000
G1 X155.127 Y40.663 F1000
G1 X154.883 Y40.663 F1000
G1 X154.397 Y41.150 F1000
G1 X154.153 Y41.150 F1000
G1 X153.667 Y41.637 F1000
G1 X153.423 Y41.637 F1000
G1 X152.937 Y42.123 F1000
G1 X152.693 Y42.123 F1000
G1 X152.207 Y42.610 F1000
G1 X151.963 Y42.610 F1000
G1 X151.477 Y43.097 F1000
G1 X151.233 Y43.097 F1000
G1 X150.747 Y43.583 F1000
G1 X150.503 Y43.583 F1000
G1 X150.017 Y44.070 F1000
G1 X149.773 Y44.070 F1000
G1 X149.287 Y44.557 F1000
G1 X149.043 Y44.557 F1000
G1 X148.557 Y45.043 F1000
G1 X148.313 Y45.043 F1000
G1 X147.827 Y45.530 F1000
G1 X147.583 Y45.530 F1000
G1 X147.097 Y46.017 F1000
G1 X146.853 Y46.017 F1000
G1 X146.367 Y46.503 F1000
G1 X146.123 Y46.503 F1000
G1 X145.637 Y46.990 F1000
G1 X145.393 Y46.990 F1000
G1 X144.907 Y47.477 F1000
G1 X144.663 Y47.477 F1000
G1 X144.177 Y47.963 F1000
G1 X143.933 Y47.963 F1000
G1 X143.447 Y48.450 F1000
G1 X143.203 Y48.450 F1000
G1 X142.717 Y48.937 F1000
G1 X142.473 Y48.937 F1000
G1 X141.987 Y49.423 F1000
G1 X141.743 Y49.423 F1000
G1 X141.257 Y49.910 F1000
G1 X141.013 Y49.910 F1000
G1 X140.527 Y50.397 F1000
G1 X140.283 Y50.397 F1000
G1 X139.797 Y50.883 F1000
G1 X139.553 Y50.883 F1000
G1 X139.067 Y51.370 F1000
G1 X138.823 Y51.370 F1000
G1 X138.337 Y51.857 F1000
G1 X138.093 Y51.857 F1000
G1 X137.607 Y52.343 F1000
G1 X137.363 Y52.343 F1000
G1 X136.877 Y52.830 F1000
G1 X136.633 Y52.830 F1000
G1 X136.147 Y53.317 F1000
G1 X135.903 Y53.317 F1000
G1 X135.417 Y53.803 F1000
G1 X135.173 Y53.803 F1000
G1 X134.687 Y54.290 F1000
G1 X134.443 Y54.290 F1000
G1 X133.957 Y54.777 F1000
G1 X133.713 Y54.777 F1000
G1 X133.227 Y55.263 F1000
G1 X132.983 Y55.263 F1000
G1 X132.497 Y55.750 F1000
G1 X132.253 Y55.750 F1000
G1 X131.767 Y56.237 F1000
G1 X131.523 Y56.237 F1000
G1 X131.037 Y56.723 F1000
G1 X130.793 Y56.723 F1000
G1 X130.307 Y57.210 F1000
G1 X130.063 Y57.210 F1000
G1 X129.577 Y57.697 F1000
G1 X129.333 Y57.697 F1000
G1 X128.847 Y58.183 F1000
G1 X128.603 Y58.183 F1000
G1 X128.117 Y58.670 F1000
G1 X127.873 Y58.670 F1000
G1 X127.387 Y59.157 F1000
G1 X127.143 Y59.157 F1000
G1 X126.657 Y59.643 F1000
G1 X126.413 Y59.643 F1000
G1 X125.927 Y60.130 F1000
G1 X125.683 Y60.130 F1000
G1 X125.197 Y60.617 F1000
G1 X124.953 Y60.617 F1000
G1 X124.467 Y61.103 F1000
G1 X124.223 Y61.103 F1000
G1 X123.737 Y61.590 F1000
G1 X123.493 Y61.590 F1000
G1 X123.007 Y62.077 F1000
G1 X122.763 Y62.077 F1000
G1 X122.277 Y62.563 F1000
G1 X122.033 Y62.563 F1000
G1 X121.547 Y63.050 F1000
G1 X121.303 Y63.050 F1000
G1 X120.817 Y63.537 F1000
G1 X120.573 Y63.537 F1000
G1 X120.087 Y64.023 F1000
G1 X119.843 Y64.023 F1000
G1 X119.357 Y64.510 F1000
G1 X119.113 Y64.510 F1000
G1 X118.627 Y64.997 F1000
G1 X118.383 Y64.997 F1000
G1 X117.897 Y65.483 F1000
G1 X117.653 Y65.483 F1000
G1 X117.167 Y65.970 F1000
G1 X116.923 Y65.970 F1000
G1 X116.437 Y66.457 F1000
G1 X116.193 Y66.457 F1000
G1 X115.707 Y66.943 F1000
G1 X115.463 Y66.943 F1000
G1 X114.977 Y67.430 F1000
G1 X114.733 Y67.430 F1000
G1 X114.247 Y67.917 F1000
G1 X114.003 Y67.917 F1000
G1 X113.517 Y68.403 F1000
G1 X113.273 Y68.403 F1000
G1 X112.787 Y68.890 F1000
G1 X112.543 Y68.890 F1000
G1 X112.057 Y69.377 F1000
G1 X111.813 Y69.377 F1000
G1 X111.327 Y69.863 F1000
G1 X111.083 Y69.863 F1000
G1 X110.597 Y70.350 F1000
G1 X110.353 Y70.350 F1000
G1 X109.867 Y70.837 F1000
G1 X109.623 Y70.837 F1000
G1 X109.137 Y71.323 F1000
G1 X108.893 Y71.323 F1000
G1 X108.407 Y71.810 F1000
G1 X108.163 Y71.810 F1000
G1 X107.677 Y72.297 F1000
G1 X107.433 Y72.297 F1000
G1 X106.947 Y72.783 F1000
G1 X106.703 Y72.783 F1000
G1 X106.217 Y73.270 F1000
G1 X106.217 Y73.513 F1000
G1 X105.973 Y73.757 F1000
G1 X105.487 Y73.757 F1000
G1 X105.000 Y73.270 F1000
G1 X105.000 Y49.910 F1000
G1 X105.000 Y73.270 F1000
G1 X105.243 Y73.513 F1000
G1 X105.243 Y73.757 F1000
G1 X104.757 Y74.243 F1000
G1 X104.513 Y74.243 F1000
G1 X104.270 Y74.000 F1000
G1 X80.910 Y74.000 F1000
G1 X104.027 Y74.000 F1000
G1 X104.270 Y74.243 F1000
G1 X104.270 Y74.487 F1000
G1 X104.027 Y74.730 F1000
G1 X103.783 Y74.730 F1000
G1 X103.297 Y75.217 F1000
G1 X103.053 Y75.217 F1000
G1 X102.567 Y75.703 F1000
G1 X102.323 Y75.703 F1000
G1 X101.837 Y76.190 F1000
G1 X101.593 Y76.190 F1000
G1 X101.107 Y76.677 F1000
G1 X100.863 Y76.677 F1000
G1 X100.377 Y77.163 F1000
G1 X100.133 Y77.163 F1000
G1 X99.647 Y77.650 F1000
G1 X99.403 Y77.650 F1000
G1 X98.917 Y78.137 F1000
G1 X98.673 Y78.137 F1000
G1 X98.187 Y78.623 F1000
G1 X97.943 Y78.623 F1000
G1 X97.457 Y79.110 F1000
G1 X97.213 Y79.110 F1000
G1 X96.727 Y79.597 F1000
G1 X96.483 Y79.597 F1000
G1 X95.997 Y80.083 F1000
G1 X95.753 Y80.083 F1000
G1 X95.267 Y80.570 F1000
G1 X95.023 Y80.570 F1000
G1 X94.537 Y81.057 F1000
G1 X94.293 Y81.057 F1000
G1 X93.807 Y81.543 F1000
G1 X93.563 Y81.543 F1000
G1 X93.077 Y82.030 F1000
G1 X92.833 Y82.030 F1000
G1 X92.347 Y82.517 F1000
G1 X92.103 Y82.517 F1000
G1 X91.617 Y83.003 F1000
G1 X91.373 Y83.003 F1000
G1 X90.887 Y83.490 F1000
G1 X90.643 Y83.490 F1000
G1 X90.157 Y83.977 F1000
G1 X89.913 Y83.977 F1000
G1 X89.427 Y84.463 F1000
G1 X89.183 Y84.463 F1000
G1 X88.697 Y84.950 F1000
G1 X88.453 Y84.950 F1000
G1 X87.967 Y85.437 F1000
G1 X87.723 Y85.437 F1000
G1 X87.237 Y85.923 F1000
G1 X86.993 Y85.923 F1000
G1 X86.507 Y86.410 F1000
G1 X86.263 Y86.410 F1000
G1 X85.777 Y86.897 F1000
G1 X85.533 Y86.897 F1000
G1 X85.047 Y87.383 F1000
G1 X84.803 Y87.383 F1000
G1 X84.317 Y87.870 F1000
G1 X84.073 Y87.870 F1000
G1 X83.587 Y88.357 F1000
G1 X83.343 Y88.357 F1000
G1 X82.857 Y88.843 F1000
G1 X82.613 Y88.843 F1000
G1 X82.127 Y89.330 F1000
G1 X81.883 Y89.330 F1000
G1 X81.397 Y89.817 F1000
G1 X81.153 Y89.817 F1000
G1 X80.667 Y90.303 F1000
G1 X80.423 Y90.303 F1000
G1 X79.937 Y90.790 F1000
G1 X79.693 Y90.790 F1000
G1 X79.207 Y91.277 F1000
G1 X78.963 Y91.277 F1000
G1 X78.477 Y91.763 F1000
G1 X78.233 Y91.763 F1000
G1 X77.747 Y92.250 F1000
G1 X77.503 Y92.250 F1000
G1 X77.017 Y92.737 F1000
G1 X76.773 Y92.737 F1000
G1 X76.287 Y93.223 F1000
G1 X76.043 Y93.223 F1000
G1 X75.557 Y93.710 F1000
G1 X75.313 Y93.710 F1000
G1 X74.827 Y94.197 F1000
G1 X74.583 Y94.197 F1000
G1 X74.097 Y94.683 F1000
G1 X73.853 Y94.683 F1000
G1 X73.367 Y95.170 F1000
G1 X73.123 Y95.170 F1000
G1 X72.637 Y95.657 F1000
G1 X72.393 Y95.657 F1000
G1 X71.907 Y96.143 F1000
G1 X71.663 Y96.143 F1000
G1 X71.177 Y96.630 F1000
G1 X70.933 Y96.630 F1000
G1 X70.447 Y97.117 F1000
G1 X70.203 Y97.117 F1000
G1 X69.717 Y97.603 F1000
G1 X69.473 Y97.603 F1000
G1 X68.987 Y98.090 F1000
G1 X68.743 Y98.090 F1000
G1 X68.257 Y98.577 F1000
G1 X68.013 Y98.577 F1000
G1 X67.527 Y99.063 F1000
G1 X67.283 Y99.063 F1000
G1 X66.797 Y99.550 F1000
G1 X66.553 Y99.550 F1000
G1 X66.067 Y100.037 F1000
G1 X65.823 Y100.037 F1000
G1 X65.337 Y100.523 F1000
G1 X65.093 Y100.523 F1000
G1 X64.607 Y101.010 F1000
G1 X64.363 Y101.010 F1000
G1 X63.877 Y101.497 F1000
G1 X63.633 Y101.497 F1000
G1 X63.147 Y101.983 F1000
G1 X62.903 Y101.983 F1000
G1 X62.417 Y102.470 F1000
G1 X62.173 Y102.470 F1000
G1 X61.687 Y102.957 F1000
G1 X61.443 Y102.957 F1000
G1 X60.957 Y103.443 F1000
G1 X60.713 Y103.443 F1000
G1 X60.227 Y103.930 F1000
G1 X59.983 Y103.930 F1000
G1 X59.497 Y104.417 F1000
G1 X59.253 Y104.417 F1000
G1 X58.767 Y104.903 F1000
G1 X58.523 Y104.903 F1000
G1 X58.037 Y105.390 F1000
G1 X57.793 Y105.390 F1000
G1 X57.307 Y105.877 F1000
G1 X57.063 Y105.877 F1000
G1 X56.577 Y106.363 F1000
G1 X56.333 Y106.363 F1000
G1 X55.847 Y106.850 F1000
G1 X55.603 Y106.850 F1000
G1 X55.117 Y107.337 F1000
G1 X54.873 Y107.337 F1000
G1 X54.387 Y107.823 F1000
G1 X54.143 Y107.823 F1000
G1 X53.657 Y108.310 F1000
G1 X53.413 Y108.310 F1000
G1 X52.927 Y108.797 F1000
G1 X52.683 Y108.797 F1000
G1 X52.197 Y109.283 F1000
G1 X51.953 Y109.283 F1000
G1 X51.467 Y109.770 F1000
G1 X51.223 Y109.770 F1000
G1 X50.737 Y110.257 F1000
G1 X50.493 Y110.257 F1000
G1 X50.007 Y110.743 F1000
G1 X49.763 Y110.743 F1000
G1 X49.277 Y111.230 F1000
G1 X49.033 Y111.230 F1000
G1 X48.547 Y111.717 F1000
G1 X48.303 Y111.717 F1000
G1 X47.817 Y112.203 F1000
G1 X47.573 Y112.203 F1000
G1 X47.087 Y112.690 F1000
G1 X46.843 Y112.690 F1000
G1 X46.357 Y113.177 F1000
G1 X46.113 Y113.177 F1000
G1 X45.627 Y113.663 F1000
G1 X45.383 Y113.663 F1000
G1 X44.897 Y114.150 F1000
G1 X44.653 Y114.150 F1000
G1 X44.167 Y114.637 F1000
G1 X43.923 Y114.637 F1000
G1 X43.437 Y115.123 F1000
G1 X43.193 Y115.123 F1000
G1 X42.707 Y115.610 F1000
G1 X42.463 Y115.610 F1000
G1 X41.977 Y116.097 F1000
G1 X41.733 Y116.097 F1000
G1 X41.247 Y116.583 F1000
G1 X41.003 Y116.583 F1000
G1 X40.517 Y117.070 F1000
G1 X40.273 Y117.070 F1000
G1 X39.787 Y117.557 F1000
G1 X39.543 Y117.557 F1000
G1 X39.057 Y118.043 F1000
G1 X38.813 Y118.043 F1000
G1 X38.327 Y118.530 F1000
G1 X38.083 Y118.530 F1000
G1 X37.597 Y119.017 F1000
G1 X37.353 Y119.017 F1000
G1 X36.867 Y119.503 F1000
G1 X36.623 Y119.503 F1000
G1 X36.137 Y119.990 F1000
G1 X35.893 Y119.990 F1000
G1 X35.407 Y120.477 F1000
G1 X35.163 Y120.477 F1000
G1 X34.677 Y120.963 F1000
G1 X34.433 Y120.963 F1000
G1 X33.947 Y121.450 F1000
G1 X33.703 Y121.450 F1000
G1 X33.703 Y121.693 F1000
G1 X33.217 Y122.180 F1000
G1 X32.487 Y122.180 F1000
G1 X32.243 Y121.937 F1000
G0 Z3.0 ; Pen up

G0 X33.460 Y121.937 F3000 ; Travel to line 2
G0 Z0.0 ; Pen down
G1 X34.190 Y121.207 F1000
G1 X34.433 Y121.207 F1000
G1 X34.920 Y120.720 F1000
G1 X35.163 Y120.720 F1000
G1 X35.650 Y120.233 F1000
G1 X35.893 Y120.233 F1000
G1 X36.380 Y119.747 F1000
G1 X36.623 Y119.747 F1000
G1 X37.110 Y119.260 F1000
G1 X37.353 Y119.260 F1000
G1 X37.840 Y118.773 F1000
G1 X38.083 Y118.773 F1000
G1 X38.570 Y118.287 F1000
G1 X38.813 Y118.287 F1000
G1 X39.300 Y117.800 F1000
G1 X39.543 Y117.800 F1000
G1 X40.030 Y117.313 F1000
G1 X40.273 Y117.313 F1000
G1 X40.760 Y116.827 F1000
G1 X41.003 Y116.827 F1000
G1 X41.490 Y116.340 F1000
G1 X41.733 Y116.340 F1000
G1 X42.220 Y115.853 F1000
G1 X42.463 Y115.853 F1000
G1 X42.950 Y115.367 F1000
G1 X43.193 Y115.367 F1000
G1 X43.680 Y114.880 F1000
G1 X43.923 Y114.880 F1000
G1 X44.410 Y114.393 F1000
G1 X44.653 Y114.393 F1000
G1 X45.140 Y113.907 F1000
G1 X45.383 Y113.907 F1000
G1 X45.870 Y113.420 F1000
G1 X46.113 Y113.420 F1000
G1 X46.600 Y112.933 F1000
G1 X46.843 Y112.933 F1000
G1 X47.330 Y112.447 F1000
G1 X47.573 Y112.447 F1000
G1 X48.060 Y111.960 F1000
G1 X48.303 Y111.960 F1000
G1 X48.790 Y111.473 F1000
G1 X49.033 Y111.473 F1000
G1 X49.520 Y110.987 F1000
G1 X49.763 Y110.987 F1000
G1 X50.250 Y110.500 F1000
G1 X50.493 Y110.500 F1000
G1 X50.980 Y110.013 F1000
G1 X51.223 Y110.013 F1000
G1 X51.710 Y109.527 F1000
G1 X51.953 Y109.527 F1000
G1 X52.440 Y109.040 F1000
G1 X52.683 Y109.040 F1000
G1 X53.170 Y108.553 F1000
G1 X53.413 Y108.553 F1000
G1 X53.900 Y108.067 F1000
G1 X54.143 Y108.067 F1000
G1 X54.630 Y107.580 F1000
G1 X54.873 Y107.580 F1000
G1 X55.360 Y107.093 F1000
G1 X55.603 Y107.093 F1000
G1 X56.090 Y106.607 F1000
G1 X56.333 Y106.607 F1000
G1 X56.820 Y106.120 F1000
G1 X57.063 Y106.120 F1000
G1 X57.550 Y105.633 F1000
G1 X57.793 Y105.633 F1000
G1 X58.280 Y105.147 F1000
G1 X58.523 Y105.147 F1000
G1 X59.010 Y104.660 F1000
G1 X59.253 Y104.660 F1000
G1 X59.740 Y104.173 F1000
G1 X59.983 Y104.173 F1000
G1 X60.470 Y103.687 F1000
G1 X60.713 Y103.687 F1000
G1 X61.200 Y103.200 F1000
G1 X61.443 Y103.200 F1000
G1 X61.930 Y102.713 F1000
G1 X62.173 Y102.713 F1000
G1 X62.660 Y102.227 F1000
G1 X62.903 Y102.227 F1000
G1 X63.390 Y101.740 F1000
G1 X63.633 Y101.740 F1000
G1 X64.120 Y101.253 F1000
G1 X64.363 Y101.253 F1000
G1 X64.850 Y100.767 F1000
G1 X65.093 Y100.767 F1000
G1 X65.580 Y100.280 F1000
G1 X65.823 Y100.280 F1000
G1 X66.310 Y99.793 F1000
G1 X66.553 Y99.793 F1000
G1 X67.040 Y99.307 F1000
G1 X67.283 Y99.307 F1000
G1 X67.770 Y98.820 F1000
G1 X68.013 Y98.820 F1000
G1 X68.500 Y98.333 F1000
G1 X68.743 Y98.333 F1000
G1 X69.230 Y97.847 F1000
G1 X69.473 Y97.847 F1000
G1 X69.960 Y97.360 F1000
G1 X70.203 Y97.360 F1000
G1 X70.690 Y96.873 F1000
G1 X70.933 Y96.873 F1000
G1 X71.420 Y96.387 F1000
G1 X71.663 Y96.387 F1000
G1 X72.150 Y95.900 F1000
G1 X72.393 Y95.900 F1000
G1 X72.880 Y95.413 F1000
G1 X73.123 Y95.413 F1000
G1 X73.610 Y94.927 F1000
G1 X73.853 Y94.927 F1000
G1 X74.340 Y94.440 F1000
G1 X74.583 Y94.440 F1000
G1 X75.070 Y93.953 F1000
G1 X75.313 Y93.953 F1000
G1 X75.800 Y93.467 F1000
G1 X76.043 Y93.467 F1000
G1 X76.530 Y92.980 F1000
G1 X76.773 Y92.980 F1000
G1 X77.260 Y92.493 F1000
G1 X77.503 Y92.493 F1000
G1 X77.990 Y92.007 F1000
G1 X78.233 Y92.007 F1000
G1 X78.720 Y91.520 F1000
G1 X78.963 Y91.520 F1000
G1 X79.450 Y91.033 F1000
G1 X79.693 Y91.033 F1000
G1 X80.180 Y90.547 F1000
G1 X80.423 Y90.547 F1000
G1 X80.910 Y90.060 F1000
G1 X81.153 Y90.060 F1000
G1 X81.640 Y89.573 F1000
G1 X81.883 Y89.573 F1000
G1 X82.370 Y89.087 F1000
G1 X82.613 Y89.087 F1000
G1 X83.100 Y88.600 F1000
G1 X83.343 Y88.600 F1000
G1 X83.830 Y88.113 F1000
G1 X84.073 Y88.113 F1000
G1 X84.560 Y87.627 F1000
G1 X84.803 Y87.627 F1000
G1 X85.290 Y87.140 F1000
G1 X85.533 Y87.140 F1000
G1 X86.020 Y86.653 F1000
G1 X86.263 Y86.653 F1000
G1 X86.750 Y86.167 F1000
G1 X86.993 Y86.167 F1000
G1 X87.480 Y85.680 F1000
G1 X87.723 Y85.680 F1000
G1 X88.210 Y85.193 F1000
G1 X88.453 Y85.193 F1000
G1 X88.940 Y84.707 F1000
G1 X89.183 Y84.707 F1000
G1 X89.670 Y84.220 F1000
G1 X89.913 Y84.220 F1000
G1 X90.400 Y83.733 F1000
G1 X90.643 Y83.733 F1000
G1 X91.130 Y83.247 F1000
G1 X91.373 Y83.247 F1000
G1 X91.860 Y82.760 F1000
G1 X92.103 Y82.760 F1000
G1 X92.590 Y82.273 F1000
G1 X92.833 Y82.273 F1000
G1 X93.320 Y81.787 F1000
G1 X93.563 Y81.787 F1000
G1 X94.050 Y81.300 F1000
G1 X94.293 Y81.300 F1000
G1 X94.780 Y80.813 F1000
G1 X95.023 Y80.813 F1000
G1 X95.510 Y80.327 F1000
G1 X95.753 Y80.327 F1000
G1 X96.240 Y79.840 F1000
G1 X96.483 Y79.840 F1000
G1 X96.970 Y79.353 F1000
G1 X97.213 Y79.353 F1000
G1 X97.700 Y78.867 F1000
G1 X97.943 Y78.867 F1000
G1 X98.430 Y78.380 F1000
G1 X98.673 Y78.380 F1000
G1 X99.160 Y77.893 F1000
G1 X99.403 Y77.893 F1000
G1 X99.890 Y77.407 F1000
G1 X100.133 Y77.407 F1000
G1 X100.620 Y76.920 F1000
G1 X100.863 Y76.920 F1000
G1 X101.350 Y76.433 F1000
G1 X101.593 Y76.433 F1000
G1 X102.080 Y75.947 F1000
G1 X102.323 Y75.947 F1000
G1 X102.810 Y75.460 F1000
G1 X103.053 Y75.460 F1000
G1 X103.540 Y74.973 F1000
G1 X103.783 Y74.973 F1000
G1 X104.513 Y74.243 F1000
G1 X104.757 Y74.243 F1000
G1 X105.000 Y74.487 F1000
G1 X105.000 Y98.090 F1000
G1 X105.000 Y74.000 F1000
G1 X105.243 Y73.757 F1000
G1 X105.973 Y73.757 F1000
G1 X106.217 Y74.000 F1000
G1 X129.090 Y74.000 F1000
G1 X106.460 Y74.000 F1000
G1 X106.217 Y73.757 F1000
G1 X106.217 Y73.270 F1000
G1 X106.460 Y73.027 F1000
G1 X106.703 Y73.027 F1000
G1 X107.190 Y72.540 F1000
G1 X107.433 Y72.540 F1000
G1 X107.920 Y72.053 F1000
G1 X108.163 Y72.053 F1000
G1 X108.650 Y71.567 F1000
G1 X108.893 Y71.567 F1000
G1 X109.380 Y71.080 F1000
G1 X109.623 Y71.080 F1000
G1 X110.110 Y70.593 F1000
G1 X110.353 Y70.593 F1000
G1 X110.840 Y70.107 F1000
G1 X111.083 Y70.107 F1000
G1 X111.570 Y69.620 F1000
G1 X111.813 Y69.620 F1000
G1 X112.300 Y69.133 F1000
G1 X112.543 Y69.133 F1000
G1 X113.030 Y68.647 F1000
G1 X113.273 Y68.647 F1000
G1 X113.760 Y68.160 F1000
G1 X114.003 Y68.160 F1000
G1 X114.490 Y67.673 F1000
G1 X114.733 Y67.673 F1000
G1 X115.220 Y67.187 F1000
G1 X115.463 Y67.187 F1000
G1 X115.950 Y66.700 F1000
G1 X116.193 Y66.700 F1000
G1 X116.680 Y66.213 F1000
G1 X116.923 Y66.213 F1000
G1 X117.410 Y65.727 F1000
G1 X117.653 Y65.727 F1000
G1 X118.140 Y65.240 F1000
G1 X118.383 Y65.240 F1000
G1 X118.870 Y64.753 F1000
G1 X119.113 Y64.753 F1000
G1 X119.600 Y64.267 F1000
G1 X119.843 Y64.267 F1000
G1 X120.330 Y63.780 F1000
G1 X120.573 Y63.780 F1000
G1 X121.060 Y63.293 F1000
G1 X121.303 Y63.293 F1000
G1 X121.790 Y62.807 F1000
G1 X122.033 Y62.807 F1000
G1 X122.520 Y62.320 F1000
G1 X122.763 Y62.320 F1000
G1 X123.250 Y61.833 F1000
G1 X123.493 Y61.833 F1000
G1 X123.980 Y61.347 F1000
G1 X124.223 Y61.347 F1000
G1 X124.710 Y60.860 F1000
G1 X124.953 Y60.860 F1000
G1 X125.440 Y60.373 F1000
G1 X125.683 Y60.373 F1000
G1 X126.170 Y59.887 F1000
G1 X126.413 Y59.887 F1000
G1 X126.900 Y59.400 F1000
G1 X127.143 Y59.400 F1000
G1 X127.630 Y58.913 F1000
G1 X127.873 Y58.913 F1000
G1 X128.360 Y58.427 F1000
G1 X128.603 Y58.427 F1000
G1 X129.090 Y57.940 F1000
G1 X129.333 Y57.940 F1000
G1 X129.820 Y57.453 F1000
G1 X130.063 Y57.453 F1000
G1 X130.550 Y56.967 F1000
G1 X130.793 Y56.967 F1000
G1 X131.280 Y56.480 F1000
G1 X131.523 Y56.480 F1000
G1 X132.010 Y55.993 F1000
G1 X132.253 Y55.993 F1000
G1 X132.740 Y55.507 F1000
G1 X132.983 Y55.507 F1000
G1 X133.470 Y55.020 F1000
G1 X133.713 Y55.020 F1000
G1 X134.200 Y54.533 F1000
G1 X134.443 Y54.533 F1000
G1 X134.930 Y54.047 F1000
G1 X135.173 Y54.047 F1000
G1 X135.660 Y53.560 F1000
G1 X135.903 Y53.560 F1000
G1 X136.390 Y53.073 F1000
G1 X136.633 Y53.073 F1000
G1 X137.120 Y52.587 F1000
G1 X137.363 Y52.587 F1000
G1 X137.850 Y52.100 F1000
G1 X138.093 Y52.100 F1000
G1 X138.580 Y51.613 F1000
G1 X138.823 Y51.613 F1000
G1 X139.310 Y51.127 F1000
G1 X139.553 Y51.127 F1000
G1 X140.040 Y50.640 F1000
G1 X140.283 Y50.640 F1000
G1 X140.770 Y50.153 F1000
G1 X141.013 Y50.153 F1000
G1 X141.500 Y49.667 F1000
G1 X141.743 Y49.667 F1000
G1 X142.230 Y49.180 F1000
G1 X142.473 Y49.180 F1000
G1 X142.960 Y48.693 F1000
G1 X143.203 Y48.693 F1000
G1 X143.690 Y48.207 F1000
G1 X143.933 Y48.207 F1000
G1 X144.420 Y47.720 F1000
G1 X144.663 Y47.720 F1000
G1 X145.150 Y47.233 F1000
G1 X145.393 Y47.233 F1000
G1 X145.880 Y46.747 F1000
G1 X146.123 Y46.747 F1000
G1 X146.610 Y46.260 F1000
G1 X146.853 Y46.260 F1000
G1 X147.340 Y45.773 F1000
G1 X147.583 Y45.773 F1000
G1 X148.070 Y45.287 F1000
G1 X148.313 Y45.287 F1000
G1 X148.800 Y44.800 F1000
G1 X149.043 Y44.800 F1000
G1 X149.530 Y44.313 F1000
G1 X149.773 Y44.313 F1000
G1 X150.260 Y43.827 F1000
G1 X150.503 Y43.827 F1000
G1 X150.990 Y43.340 F1000
G1 X151.233 Y43.340 F1000
G1 X151.720 Y42.853 F1000
G1 X151.963 Y42.853 F1000
G1 X152.450 Y42.367 F1000
G1 X152.693 Y42.367 F1000
G1 X153.180 Y41.880 F1000
G1 X153.423 Y41.880 F1000
G1 X153.910 Y41.393 F1000
G1 X154.153 Y41.393 F1000
G1 X154.640 Y40.907 F1000
G1 X154.883 Y40.907 F1000
G1 X155.370 Y40.420 F1000
G1 X155.613 Y40.420 F1000
G1 X156.100 Y39.933 F1000
G1 X156.343 Y39.933 F1000
G1 X156.830 Y39.447 F1000
G1 X157.073 Y39.447 F1000
G1 X157.560 Y38.960 F1000
G1 X157.803 Y38.960 F1000
G1 X158.290 Y38.473 F1000
G1 X158.533 Y38.473 F1000
G1 X159.020 Y37.987 F1000
G1 X159.263 Y37.987 F1000
G1 X159.750 Y37.500 F1000
G1 X159.993 Y37.500 F1000
G1 X160.480 Y37.013 F1000
G1 X160.723 Y37.013 F1000
G1 X161.210 Y36.527 F1000
G1 X161.453 Y36.527 F1000
G1 X161.940 Y36.040 F1000
G1 X162.183 Y36.040 F1000
G1 X162.670 Y35.553 F1000
G1 X162.913 Y35.553 F1000
G1 X163.400 Y35.067 F1000
G1 X163.643 Y35.067 F1000
G1 X164.130 Y34.580 F1000
G1 X164.373 Y34.580 F1000
G1 X164.860 Y34.093 F1000
G1 X165.103 Y34.093 F1000
G1 X165.590 Y33.607 F1000
G1 X165.833 Y33.607 F1000
G1 X166.320 Y33.120 F1000
G1 X166.563 Y33.120 F1000
G1 X167.050 Y32.633 F1000
G1 X167.293 Y32.633 F1000
G1 X167.780 Y32.147 F1000
G1 X168.023 Y32.147 F1000
G1 X168.510 Y31.660 F1000
G1 X168.753 Y31.660 F1000
G1 X169.240 Y31.173 F1000
G1 X169.483 Y31.173 F1000
G1 X169.970 Y30.687 F1000
G1 X170.213 Y30.687 F1000
G1 X170.700 Y30.200 F1000
G1 X170.943 Y30.200 F1000
G1 X171.430 Y29.713 F1000
G1 X171.673 Y29.713 F1000
G1 X172.160 Y29.227 F1000
G1 X172.403 Y29.227 F1000
G1 X172.890 Y28.740 F1000
G1 X173.133 Y28.740 F1000
G1 X173.620 Y28.253 F1000
G1 X173.863 Y28.253 F1000
G1 X174.350 Y27.767 F1000
G1 X174.593 Y27.767 F1000
G1 X175.080 Y27.280 F1000
G1 X175.323 Y27.280 F1000
G1 X175.810 Y26.793 F1000
G1 X176.053 Y26.793 F1000
G1 X176.540 Y26.307 F1000
G1 X176.540 Y26.063 F1000
G1 X176.783 Y25.820 F1000
G1 X177.513 Y25.820 F1000
G1 X177.757 Y26.063 F1000
G1 X177.757 Y122.180 F1000
G1 X177.513 Y122.423 F1000
G1 X33.703 Y122.423 F1000
G1 X33.460 Y122.180 F1000
G0 Z3.0 ; Pen up

G0 X33.460 Y122.423 F3000 ; Travel to line 3
G0 Z0.0 ; Pen down
G1 X33.217 Y122.180 F1000
G1 X32.243 Y122.180 F1000
G1 X32.243 Y25.577 F1000
G1 X176.297 Y25.577 F1000
G1 X176.540 Y25.820 F1000
G1 X177.513 Y25.820 F1000
G1 X177.757 Y26.063 F1000
G1 X177.757 Y122.423 F1000
G0 Z3.0 ; Pen up

; Return to origin
G0 X0 Y0
G0 Z3.0

; Total drawing distance: 1325.03 mm
; Total travel distance: 42.77 mm
; Total lines: 3
; Estimated time: 80.4 seconds (1.3 minutes)
M2 ; End program