; Blueprint to G-code
; Input: test_images/test4_mechanical.png
; Generated with blueprint2gcode.py

G21 ; Set units to millimeters
G90 ; Absolute positioning
G0 Z3.0 ; Pen up
G0 X0 Y0 ; Move to origin

G0 X80.650 Y89.070 F3000 ; Travel to line 1
G0 Z0.0 ; Pen down
G1 X80.945 Y88.775 F1000
G1 X80.945 Y87.890 F1000
G1 X81.240 Y87.595 F1000
G1 X81.240 Y87.300 F1000
G1 X81.535 Y87.005 F1000
G1 X81.535 Y86.415 F1000
G1 X82.125 Y85.825 F1000
G1 X82.125 Y85.530 F1000
G1 X84.780 Y82.875 F1000
G1 X85.075 Y82.875 F1000
G1 X85.370 Y82.580 F1000
G1 X85.665 Y82.580 F1000
G1 X85.960 Y82.285 F1000
G1 X86.255 Y82.285 F1000
G1 X86.550 Y81.990 F1000
G1 X87.435 Y81.990 F1000
G1 X87.730 Y81.695 F1000
G1 X89.205 Y81.695 F1000
G1 X89.500 Y81.990 F1000
G1 X89.500 Y89.955 F1000
G1 X89.205 Y90.250 F1000
G1 X80.945 Y90.250 F1000
G1 X80.650 Y89.955 F1000
G0 Z3.0 ; Pen up

G0 X89.500 Y89.955 F3000 ; Travel to line 2
G0 Z0.0 ; Pen down
G1 X89.795 Y90.250 F1000
G1 X97.760 Y90.250 F1000
G1 X98.055 Y89.955 F1000
G1 X98.055 Y88.480 F1000
G1 X97.760 Y88.185 F1000
G1 X97.760 Y87.300 F1000
G1 X97.465 Y87.005 F1000
G1 X97.465 Y86.710 F1000
G1 X97.170 Y86.415 F1000
G1 X97.170 Y86.120 F1000
G1 X96.875 Y85.825 F1000
G1 X96.875 Y85.530 F1000
G1 X94.220 Y82.875 F1000
G1 X93.925 Y82.875 F1000
G1 X93.630 Y82.580 F1000
G1 X93.335 Y82.580 F1000
G1 X93.040 Y82.285 F1000
G1 X92.745 Y82.285 F1000
G1 X92.450 Y81.990 F1000
G1 X91.565 Y81.990 F1000
G1 X91.270 Y81.695 F1000
G1 X89.795 Y81.695 F1000
G1 X89.500 Y81.990 F1000
G0 Z3.0 ; Pen up

G0 X89.500 Y90.545 F3000 ; Travel to line 3
G0 Z0.0 ; Pen down
G1 X89.795 Y90.250 F1000
G1 X97.760 Y90.250 F1000
G1 X98.055 Y90.545 F1000
G1 X98.055 Y92.020 F1000
G1 X97.760 Y92.315 F1000
G1 X97.760 Y93.200 F1000
G1 X97.465 Y93.495 F1000
G1 X97.465 Y93.790 F1000
G1 X97.170 Y94.085 F1000
G1 X97.170 Y94.380 F1000
G1 X96.875 Y94.675 F1000
G1 X96.875 Y94.970 F1000
G1 X94.220 Y97.625 F1000
G1 X93.925 Y97.625 F1000
G1 X93.335 Y98.215 F1000
G1 X92.745 Y98.215 F1000
G1 X92.450 Y98.510 F1000
G1 X92.155 Y98.510 F1000
G1 X91.860 Y98.805 F1000
G1 X90.975 Y98.805 F1000
G1 X90.680 Y99.100 F1000
G1 X89.795 Y99.100 F1000
G1 X89.500 Y98.805 F1000
G0 Z3.0 ; Pen up

G0 X89.500 Y99.395 F3000 ; Travel to line 4
G0 Z0.0 ; Pen down
G1 X89.795 Y99.100 F1000
G1 X90.680 Y99.100 F1000
G1 X90.975 Y98.805 F1000
G1 X91.860 Y98.805 F1000
G1 X92.155 Y98.510 F1000
G1 X92.450 Y98.510 F1000
G1 X92.745 Y98.215 F1000
G1 X93.335 Y98.215 F1000
G1 X93.925 Y97.625 F1000
G1 X94.220 Y97.625 F1000
G1 X94.810 Y97.035 F1000
G1 X95.105 Y97.035 F1000
G1 X96.285 Y95.855 F1000
G1 X96.285 Y95.560 F1000
G1 X96.875 Y94.970 F1000
G1 X96.875 Y94.675 F1000
G1 X97.170 Y94.380 F1000
G1 X97.170 Y94.085 F1000
G1 X97.465 Y93.790 F1000
G1 X97.465 Y93.495 F1000
G1 X97.760 Y93.200 F1000
G1 X97.760 Y92.315 F1000
G1 X98.055 Y92.020 F1000
G1 X98.055 Y90.545 F1000
G1 X98.350 Y90.250 F1000
G1 X101.300 Y90.250 F1000
G1 X98.350 Y90.250 F1000
G1 X98.055 Y89.955 F1000
G1 X98.055 Y88.480 F1000
G1 X97.760 Y88.185 F1000
G1 X97.760 Y87.300 F1000
G1 X97.465 Y87.005 F1000
G1 X97.465 Y86.710 F1000
G1 X97.170 Y86.415 F1000
G1 X97.170 Y86.120 F1000
G1 X96.875 Y85.825 F1000
G1 X96.875 Y85.530 F1000
G1 X96.285 Y84.940 F1000
G1 X96.285 Y84.645 F1000
G1 X95.105 Y83.465 F1000
G1 X94.810 Y83.465 F1000
G1 X94.220 Y82.875 F1000
G1 X93.925 Y82.875 F1000
G1 X93.630 Y82.580 F1000
G1 X93.335 Y82.580 F1000
G1 X93.040 Y82.285 F1000
G1 X92.745 Y82.285 F1000
G1 X92.450 Y81.990 F1000
G1 X91.565 Y81.990 F1000
G1 X91.270 Y81.695 F1000
G1 X89.795 Y81.695 F1000
G1 X89.500 Y81.400 F1000
G1 X89.500 Y78.450 F1000
G1 X89.500 Y81.400 F1000
G1 X89.205 Y81.695 F1000
G1 X87.730 Y81.695 F1000
G1 X87.435 Y81.990 F1000
G1 X86.550 Y81.990 F1000
G1 X86.255 Y82.285 F1000
G1 X85.960 Y82.285 F1000
G1 X85.665 Y82.580 F1000
G1 X85.370 Y82.580 F1000
G1 X85.075 Y82.875 F1000
G1 X84.780 Y82.875 F1000
G1 X84.190 Y83.465 F1000
G1 X83.895 Y83.465 F1000
G1 X82.715 Y84.645 F1000
G1 X82.715 Y84.940 F1000
G1 X82.125 Y85.530 F1000
G1 X82.125 Y85.825 F1000
G1 X81.535 Y86.415 F1000
G1 X81.535 Y87.005 F1000
G1 X81.240 Y87.300 F1000
G1 X81.240 Y87.595 F1000
G1 X80.945 Y87.890 F1000
G1 X80.945 Y88.775 F1000
G1 X80.650 Y89.070 F1000
G1 X80.650 Y89.955 F1000
G1 X80.355 Y90.250 F1000
G1 X77.700 Y90.250 F1000
G1 X80.355 Y90.250 F1000
G1 X80.650 Y90.545 F1000
G1 X80.650 Y91.430 F1000
G1 X80.945 Y91.725 F1000
G1 X80.945 Y92.610 F1000
G1 X81.240 Y92.905 F1000
G1 X81.240 Y93.200 F1000
G1 X81.535 Y93.495 F1000
G1 X81.535 Y94.085 F1000
G1 X82.125 Y94.675 F1000
G1 X82.125 Y94.970 F1000
G1 X82.715 Y95.560 F1000
G1 X82.715 Y95.855 F1000
G1 X83.895 Y97.035 F1000
G1 X84.190 Y97.035 F1000
G1 X84.780 Y97.625 F1000
G1 X85.075 Y97.625 F1000
G1 X85.665 Y98.215 F1000
G1 X86.255 Y98.215 F1000
G1 X86.550 Y98.510 F1000
G1 X86.845 Y98.510 F1000
G1 X87.140 Y98.805 F1000
G1 X88.025 Y98.805 F1000
G1 X88.320 Y99.100 F1000
G1 X89.205 Y99.100 F1000
G1 X89.500 Y99.395 F1000
G1 X89.500 Y102.050 F1000
G0 Z3.0 ; Pen up

G0 X90.975 Y105.000 F3000 ; Travel to line 5
G0 Z0.0 ; Pen down
G1 X86.550 Y105.000 F1000
G0 Z3.0 ; Pen up

G0 X82.125 Y105.000 F3000 ; Travel to line 6
G0 Z0.0 ; Pen down
G1 X77.700 Y105.000 F1000
G0 Z3.0 ; Pen up

G0 X73.275 Y105.000 F3000 ; Travel to line 7
G0 Z0.0 ; Pen down
G1 X68.850 Y105.000 F1000
G0 Z3.0 ; Pen up

G0 X60.295 Y105.295 F3000 ; Travel to line 8
G0 Z0.0 ; Pen down
G1 X60.590 Y105.000 F1000
G1 X64.425 Y105.000 F1000
G1 X60.590 Y105.000 F1000
G1 X60.295 Y104.705 F1000
G1 X60.295 Y61.340 F1000
G1 X60.590 Y61.045 F1000
G1 X236.115 Y61.045 F1000
G1 X236.705 Y61.635 F1000
G1 X236.705 Y148.660 F1000
G1 X236.410 Y148.955 F1000
G1 X60.590 Y148.955 F1000
G1 X60.295 Y148.660 F1000
G0 Z3.0 ; Pen up

G0 X60.295 Y148.955 F3000 ; Travel to line 9
G0 Z0.0 ; Pen down
G1 X60.295 Y61.045 F1000
G1 X236.410 Y61.045 F1000
G1 X236.705 Y61.340 F1000
G1 X236.705 Y148.955 F1000
G0 Z3.0 ; Pen up

G0 X207.500 Y131.550 F3000 ; Travel to line 10
G0 Z0.0 ; Pen down
G1 X207.500 Y128.895 F1000
G1 X207.205 Y128.600 F1000
G1 X206.320 Y128.600 F1000
G1 X206.025 Y128.305 F1000
G1 X205.140 Y128.305 F1000
G1 X204.845 Y128.010 F1000
G1 X204.550 Y128.010 F1000
G1 X204.255 Y127.715 F1000
G1 X203.665 Y127.715 F1000
G1 X203.075 Y127.125 F1000
G1 X202.780 Y127.125 F1000
G1 X202.190 Y126.535 F1000
G1 X201.895 Y126.535 F1000
G1 X200.715 Y125.355 F1000
G1 X200.715 Y125.060 F1000
G1 X200.125 Y124.470 F1000
G1 X200.125 Y124.175 F1000
G1 X199.535 Y123.585 F1000
G1 X199.535 Y122.995 F1000
G1 X199.240 Y122.700 F1000
G1 X199.240 Y122.405 F1000
G1 X198.945 Y122.110 F1000
G1 X198.945 Y121.225 F1000
G1 X198.650 Y120.930 F1000
G1 X198.650 Y120.045 F1000
G1 X198.355 Y119.750 F1000
G1 X195.700 Y119.750 F1000
G1 X198.355 Y119.750 F1000
G1 X198.650 Y119.455 F1000
G1 X198.650 Y118.570 F1000
G1 X198.945 Y118.275 F1000
G1 X198.945 Y117.390 F1000
G1 X199.240 Y117.095 F1000
G1 X199.240 Y116.800 F1000
G1 X199.535 Y116.505 F1000
G1 X199.535 Y115.915 F1000
G1 X200.125 Y115.325 F1000
G1 X200.125 Y115.030 F1000
G1 X200.715 Y114.440 F1000
G1 X200.715 Y114.145 F1000
G1 X201.895 Y112.965 F1000
G1 X202.190 Y112.965 F1000
G1 X202.780 Y112.375 F1000
G1 X203.075 Y112.375 F1000
G1 X203.370 Y112.080 F1000
G1 X203.665 Y112.080 F1000
G1 X203.960 Y111.785 F1000
G1 X204.255 Y111.785 F1000
G1 X204.550 Y111.490 F1000
G1 X205.435 Y111.490 F1000
G1 X205.730 Y111.195 F1000
G1 X207.205 Y111.195 F1000
G1 X207.500 Y110.900 F1000
G1 X207.500 Y107.950 F1000
G1 X207.500 Y110.900 F1000
G1 X207.795 Y111.195 F1000
G1 X209.270 Y111.195 F1000
G1 X209.565 Y111.490 F1000
G1 X210.450 Y111.490 F1000
G1 X210.745 Y111.785 F1000
G1 X211.040 Y111.785 F1000
G1 X211.335 Y112.080 F1000
G1 X211.630 Y112.080 F1000
G1 X211.925 Y112.375 F1000
G1 X212.220 Y112.375 F1000
G1 X212.810 Y112.965 F1000
G1 X213.105 Y112.965 F1000
G1 X214.285 Y114.145 F1000
G1 X214.285 Y114.440 F1000
G1 X214.875 Y115.030 F1000
G1 X214.875 Y115.325 F1000
G1 X215.170 Y115.620 F1000
G1 X215.170 Y115.915 F1000
G1 X215.465 Y116.210 F1000
G1 X215.465 Y116.505 F1000
G1 X215.760 Y116.800 F1000
G1 X215.760 Y117.685 F1000
G1 X216.055 Y117.980 F1000
G1 X216.055 Y119.455 F1000
G1 X216.350 Y119.750 F1000
G1 X219.300 Y119.750 F1000
G1 X216.350 Y119.750 F1000
G1 X216.055 Y120.045 F1000
G1 X216.055 Y121.520 F1000
G1 X215.760 Y121.815 F1000
G1 X215.760 Y122.700 F1000
G1 X215.465 Y122.995 F1000
G1 X215.465 Y123.290 F1000
G1 X215.170 Y123.585 F1000
G1 X215.170 Y123.880 F1000
G1 X214.875 Y124.175 F1000
G1 X214.875 Y124.470 F1000
G1 X214.285 Y125.060 F1000
G1 X214.285 Y125.355 F1000
G1 X213.105 Y126.535 F1000
G1 X212.810 Y126.535 F1000
G1 X212.220 Y127.125 F1000
G1 X211.925 Y127.125 F1000
G1 X211.335 Y127.715 F1000
G1 X210.745 Y127.715 F1000
G1 X210.450 Y128.010 F1000
G1 X210.155 Y128.010 F1000
G1 X209.860 Y128.305 F1000
G1 X208.975 Y128.305 F1000
G1 X208.680 Y128.600 F1000
G1 X207.795 Y128.600 F1000
G1 X207.500 Y128.895 F1000
G0 Z3.0 ; Pen up

G0 X207.500 Y128.305 F3000 ; Travel to line 11
G0 Z0.0 ; Pen down
G1 X207.795 Y128.600 F1000
G1 X208.680 Y128.600 F1000
G1 X208.975 Y128.305 F1000
G1 X209.860 Y128.305 F1000
G1 X210.155 Y128.010 F1000
G1 X210.450 Y128.010 F1000
G1 X210.745 Y127.715 F1000
G1 X211.335 Y127.715 F1000
G1 X211.925 Y127.125 F1000
G1 X212.220 Y127.125 F1000
G1 X214.875 Y124.470 F1000
G1 X214.875 Y124.175 F1000
G1 X215.170 Y123.880 F1000
G1 X215.170 Y123.585 F1000
G1 X215.465 Y123.290 F1000
G1 X215.465 Y122.995 F1000
G1 X215.760 Y122.700 F1000
G1 X215.760 Y121.815 F1000
G1 X216.055 Y121.520 F1000
G1 X216.055 Y120.045 F1000
G1 X215.760 Y119.750 F1000
G1 X207.795 Y119.750 F1000
G1 X207.500 Y120.045 F1000
G0 Z3.0 ; Pen up

G0 X207.500 Y119.455 F3000 ; Travel to line 12
G0 Z0.0 ; Pen down
G1 X207.795 Y119.750 F1000
G1 X215.760 Y119.750 F1000
G1 X216.055 Y119.455 F1000
G1 X216.055 Y117.980 F1000
G1 X215.760 Y117.685 F1000
G1 X215.760 Y116.800 F1000
G1 X215.465 Y116.505 F1000
G1 X215.465 Y116.210 F1000
G1 X215.170 Y115.915 F1000
G1 X215.170 Y115.620 F1000
G1 X214.875 Y115.325 F1000
G1 X214.875 Y115.030 F1000
G1 X212.220 Y112.375 F1000
G1 X211.925 Y112.375 F1000
G1 X211.630 Y112.080 F1000
G1 X211.335 Y112.080 F1000
G1 X211.040 Y111.785 F1000
G1 X210.745 Y111.785 F1000
G1 X210.450 Y111.490 F1000
G1 X209.565 Y111.490 F1000
G1 X209.270 Y111.195 F1000
G1 X207.795 Y111.195 F1000
G1 X207.500 Y111.490 F1000
G0 Z3.0 ; Pen up

G0 X206.025 Y105.000 F3000 ; Travel to line 13
G0 Z0.0 ; Pen down
G1 X201.600 Y105.000 F1000
G0 Z3.0 ; Pen up

G0 X197.175 Y105.000 F3000 ; Travel to line 14
G0 Z0.0 ; Pen down
G1 X192.750 Y105.000 F1000
G0 Z3.0 ; Pen up

G0 X188.325 Y105.000 F3000 ; Travel to line 15
G0 Z0.0 ; Pen down
G1 X183.900 Y105.000 F1000
G0 Z3.0 ; Pen up

G0 X179.475 Y105.000 F3000 ; Travel to line 16
G0 Z0.0 ; Pen down
G1 X175.050 Y105.000 F1000
G0 Z3.0 ; Pen up

G0 X170.625 Y105.000 F3000 ; Travel to line 17
G0 Z0.0 ; Pen down
G1 X166.200 Y105.000 F1000
G0 Z3.0 ; Pen up

G0 X161.775 Y105.000 F3000 ; Travel to line 18
G0 Z0.0 ; Pen down
G1 X157.350 Y105.000 F1000
G0 Z3.0 ; Pen up

G0 X152.925 Y105.000 F3000 ; Travel to line 19
G0 Z0.0 ; Pen down
G1 X148.500 Y105.000 F1000
G0 Z3.0 ; Pen up

G0 X144.075 Y105.000 F3000 ; Travel to line 20
G0 Z0.0 ; Pen down
G1 X139.650 Y105.000 F1000
G0 Z3.0 ; Pen up

G0 X126.375 Y105.000 F3000 ; Travel to line 21
G0 Z0.0 ; Pen down
G1 X121.950 Y105.000 F1000
G0 Z3.0 ; Pen up

G0 X117.525 Y105.000 F3000 ; Travel to line 22
G0 Z0.0 ; Pen down
G1 X113.100 Y105.000 F1000
G0 Z3.0 ; Pen up

G0 X108.675 Y105.000 F3000 ; Travel to line 23
G0 Z0.0 ; Pen down
G1 X104.250 Y105.000 F1000
G0 Z3.0 ; Pen up

G0 X99.825 Y105.000 F3000 ; Travel to line 24
G0 Z0.0 ; Pen down
G1 X95.400 Y105.000 F1000
G0 Z3.0 ; Pen up

G0 X89.500 Y111.490 F3000 ; Travel to line 25
G0 Z0.0 ; Pen down
G1 X89.795 Y111.195 F1000
G1 X91.270 Y111.195 F1000
G1 X91.565 Y111.490 F1000
G1 X92.450 Y111.490 F1000
G1 X92.745 Y111.785 F1000
G1 X93.040 Y111.785 F1000
G1 X93.335 Y112.080 F1000
G1 X93.630 Y112.080 F1000
G1 X93.925 Y112.375 F1000
G1 X94.220 Y112.375 F1000
G1 X96.875 Y115.030 F1000
G1 X96.875 Y115.325 F1000
G1 X97.170 Y115.620 F1000
G1 X97.170 Y115.915 F1000
G1 X97.465 Y116.210 F1000
G1 X97.465 Y116.505 F1000
G1 X97.760 Y116.800 F1000
G1 X97.760 Y117.685 F1000
G1 X98.055 Y117.980 F1000
G1 X98.055 Y119.455 F1000
G1 X97.760 Y119.750 F1000
G1 X89.795 Y119.750 F1000
G1 X89.500 Y119.455 F1000
G0 Z3.0 ; Pen up

G0 X89.500 Y120.045 F3000 ; Travel to line 26
G0 Z0.0 ; Pen down
G1 X89.795 Y119.750 F1000
G1 X97.760 Y119.750 F1000
G1 X98.055 Y120.045 F1000
G1 X98.055 Y121.520 F1000
G1 X97.760 Y121.815 F1000
G1 X97.760 Y122.700 F1000
G1 X97.465 Y122.995 F1000
G1 X97.465 Y123.290 F1000
G1 X97.170 Y123.585 F1000
G1 X97.170 Y123.880 F1000
G1 X96.875 Y124.175 F1000
G1 X96.875 Y124.470 F1000
G1 X94.220 Y127.125 F1000
G1 X93.925 Y127.125 F1000
G1 X93.335 Y127.715 F1000
G1 X92.745 Y127.715 F1000
G1 X92.450 Y128.010 F1000
G1 X92.155 Y128.010 F1000
G1 X91.860 Y128.305 F1000
G1 X90.975 Y128.305 F1000
G1 X90.680 Y128.600 F1000
G1 X89.795 Y128.600 F1000
G1 X89.500 Y128.305 F1000
G0 Z3.0 ; Pen up

G0 X89.500 Y128.895 F3000 ; Travel to line 27
G0 Z0.0 ; Pen down
G1 X89.795 Y128.600 F1000
G1 X90.680 Y128.600 F1000
G1 X90.975 Y128.305 F1000
G1 X91.860 Y128.305 F1000
G1 X92.155 Y128.010 F1000
G1 X92.450 Y128.010 F1000
G1 X92.745 Y127.715 F1000
G1 X93.335 Y127.715 F1000
G1 X93.925 Y127.125 F1000
G1 X94.220 Y127.125 F1000
G1 X94.810 Y126.535 F1000
G1 X95.105 Y126.535 F1000
G1 X96.285 Y125.355 F1000
G1 X96.285 Y125.060 F1000
G1 X96.875 Y124.470 F1000
G1 X96.875 Y124.175 F1000
G1 X97.170 Y123.880 F1000
G1 X97.170 Y123.585 F1000
G1 X97.465 Y123.290 F1000
G1 X97.465 Y122.995 F1000
G1 X97.760 Y122.700 F1000
G1 X97.760 Y121.815 F1000
G1 X98.055 Y121.520 F1000
G1 X98.055 Y120.045 F1000
G1 X98.350 Y119.750 F1000
G1 X101.300 Y119.750 F1000
G1 X98.350 Y119.750 F1000
G1 X98.055 Y119.455 F1000
G1 X98.055 Y117.980 F1000
G1 X97.760 Y117.685 F1000
G1 X97.760 Y116.800 F1000
G1 X97.465 Y116.505 F1000
G1 X97.465 Y116.210 F1000
G1 X97.170 Y115.915 F1000
G1 X97.170 Y115.620 F1000
G1 X96.875 Y115.325 F1000
G1 X96.875 Y115.030 F1000
G1 X96.285 Y114.440 F1000
G1 X96.285 Y114.145 F1000
G1 X95.105 Y112.965 F1000
G1 X94.810 Y112.965 F1000
G1 X94.220 Y112.375 F1000
G1 X93.925 Y112.375 F1000
G1 X93.630 Y112.080 F1000
G1 X93.335 Y112.080 F1000
G1 X93.040 Y111.785 F1000
G1 X92.745 Y111.785 F1000
G1 X92.450 Y111.490 F1000
G1 X91.565 Y111.490 F1000
G1 X91.270 Y111.195 F1000
G1 X89.795 Y111.195 F1000
G1 X89.500 Y110.900 F1000
G1 X89.500 Y107.950 F1000
G1 X89.500 Y110.900 F1000
G1 X89.205 Y111.195 F1000
G1 X87.730 Y111.195 F1000
G1 X87.435 Y111.490 F1000
G1 X86.550 Y111.490 F1000
G1 X86.255 Y111.785 F1000
G1 X85.960 Y111.785 F1000
G1 X85.665 Y112.080 F1000
G1 X85.370 Y112.080 F1000
G1 X85.075 Y112.375 F1000
G1 X84.780 Y112.375 F1000
G1 X84.190 Y112.965 F1000
G1 X83.895 Y112.965 F1000
G1 X82.715 Y114.145 F1000
G1 X82.715 Y114.440 F1000
G1 X82.125 Y115.030 F1000
G1 X82.125 Y115.325 F1000
G1 X81.535 Y115.915 F1000
G1 X81.535 Y116.505 F1000
G1 X81.240 Y116.800 F1000
G1 X81.240 Y117.095 F1000
G1 X80.945 Y117.390 F1000
G1 X80.945 Y118.275 F1000
G1 X80.650 Y118.570 F1000
G1 X80.650 Y119.455 F1000
G1 X80.355 Y119.750 F1000
G1 X77.700 Y119.750 F1000
G1 X80.355 Y119.750 F1000
G1 X80.650 Y120.045 F1000
G1 X80.650 Y120.930 F1000
G1 X80.945 Y121.225 F1000
G1 X80.945 Y122.110 F1000
G1 X81.240 Y122.405 F1000
G1 X81.240 Y122.700 F1000
G1 X81.535 Y122.995 F1000
G1 X81.535 Y123.585 F1000
G1 X82.125 Y124.175 F1000
G1 X82.125 Y124.470 F1000
G1 X82.715 Y125.060 F1000
G1 X82.715 Y125.355 F1000
G1 X83.895 Y126.535 F1000
G1 X84.190 Y126.535 F1000
G1 X84.780 Y127.125 F1000
G1 X85.075 Y127.125 F1000
G1 X85.665 Y127.715 F1000
G1 X86.255 Y127.715 F1000
G1 X86.550 Y128.010 F1000
G1 X86.845 Y128.010 F1000
G1 X87.140 Y128.305 F1000
G1 X88.025 Y128.305 F1000
G1 X88.320 Y128.600 F1000
G1 X89.205 Y128.600 F1000
G1 X89.500 Y128.895 F1000
G1 X89.500 Y131.550 F1000
G0 Z3.0 ; Pen up

G0 X88.025 Y128.305 F3000 ; Travel to line 28
G0 Z0.0 ; Pen down
G1 X88.320 Y128.600 F1000
G1 X89.205 Y128.600 F1000
G1 X89.500 Y128.305 F1000
G1 X89.500 Y120.045 F1000
G1 X89.205 Y119.750 F1000
G1 X80.945 Y119.750 F1000
G1 X80.650 Y120.045 F1000
G1 X80.650 Y120.930 F1000
G1 X80.945 Y121.225 F1000
G1 X80.945 Y122.110 F1000
G1 X81.240 Y122.405 F1000
G1 X81.240 Y122.700 F1000
G1 X81.535 Y122.995 F1000
G1 X81.535 Y123.585 F1000
G1 X82.125 Y124.175 F1000
G1 X82.125 Y124.470 F1000
G1 X84.780 Y127.125 F1000
G1 X85.075 Y127.125 F1000
G1 X85.665 Y127.715 F1000
G1 X86.255 Y127.715 F1000
G1 X86.550 Y128.010 F1000
G1 X86.845 Y128.010 F1000
G1 X87.140 Y128.305 F1000
G0 Z3.0 ; Pen up

G0 X80.650 Y119.455 F3000 ; Travel to line 29
G0 Z0.0 ; Pen down
G1 X80.945 Y119.750 F1000
G1 X89.205 Y119.750 F1000
G1 X89.500 Y119.455 F1000
G1 X89.500 Y111.490 F1000
G1 X89.205 Y111.195 F1000
G1 X87.730 Y111.195 F1000
G1 X87.435 Y111.490 F1000
G1 X86.550 Y111.490 F1000
G1 X86.255 Y111.785 F1000
G1 X85.960 Y111.785 F1000
G1 X85.665 Y112.080 F1000
G1 X85.370 Y112.080 F1000
G1 X85.075 Y112.375 F1000
G1 X84.780 Y112.375 F1000
G1 X82.125 Y115.030 F1000
G1 X82.125 Y115.325 F1000
G1 X81.535 Y115.915 F1000
G1 X81.535 Y116.505 F1000
G1 X81.240 Y116.800 F1000
G1 X81.240 Y117.095 F1000
G1 X80.945 Y117.390 F1000
G1 X80.945 Y118.275 F1000
G1 X80.650 Y118.570 F1000
G0 Z3.0 ; Pen up

G0 X87.140 Y98.805 F3000 ; Travel to line 30
G0 Z0.0 ; Pen down
G1 X86.845 Y98.510 F1000
G1 X86.550 Y98.510 F1000
G1 X86.255 Y98.215 F1000
G1 X85.665 Y98.215 F1000
G1 X85.075 Y97.625 F1000
G1 X84.780 Y97.625 F1000
G1 X82.125 Y94.970 F1000
G1 X82.125 Y94.675 F1000
G1 X81.535 Y94.085 F1000
G1 X81.535 Y93.495 F1000
G1 X81.240 Y93.200 F1000
G1 X81.240 Y92.905 F1000
G1 X80.945 Y92.610 F1000
G1 X80.945 Y91.725 F1000
G1 X80.650 Y91.430 F1000
G1 X80.650 Y90.545 F1000
G1 X80.945 Y90.250 F1000
G1 X89.205 Y90.250 F1000
G1 X89.500 Y90.545 F1000
G1 X89.500 Y98.805 F1000
G1 X89.205 Y99.100 F1000
G1 X88.320 Y99.100 F1000
G1 X88.025 Y98.805 F1000
G0 Z3.0 ; Pen up

G0 X144.960 Y119.160 F3000 ; Travel to line 31
G0 Z0.0 ; Pen down
G1 X144.665 Y118.865 F1000
G1 X143.780 Y118.865 F1000
G1 X143.485 Y118.570 F1000
G1 X143.190 Y118.570 F1000
G1 X142.895 Y118.275 F1000
G1 X142.600 Y118.275 F1000
G1 X142.305 Y117.980 F1000
G1 X142.010 Y117.980 F1000
G1 X141.715 Y117.685 F1000
G1 X141.420 Y117.685 F1000
G1 X140.830 Y117.095 F1000
G1 X140.535 Y117.095 F1000
G1 X139.650 Y116.210 F1000
G1 X139.355 Y116.210 F1000
G1 X137.290 Y114.145 F1000
G1 X137.290 Y113.850 F1000
G1 X136.405 Y112.965 F1000
G1 X136.405 Y112.670 F1000
G1 X135.815 Y112.080 F1000
G1 X135.815 Y111.785 F1000
G1 X135.520 Y111.490 F1000
G1 X135.520 Y111.195 F1000
G1 X135.225 Y110.900 F1000
G1 X135.225 Y110.605 F1000
G1 X134.930 Y110.310 F1000
G1 X134.930 Y110.015 F1000
G1 X134.635 Y109.720 F1000
G1 X134.635 Y108.835 F1000
G1 X134.340 Y108.540 F1000
G1 X134.340 Y107.360 F1000
G1 X134.045 Y107.065 F1000
G1 X134.045 Y105.295 F1000
G1 X134.340 Y105.000 F1000
G1 X135.225 Y105.000 F1000
G1 X134.340 Y105.000 F1000
G1 X134.045 Y104.705 F1000
G1 X134.045 Y102.935 F1000
G1 X134.340 Y102.640 F1000
G1 X134.340 Y101.460 F1000
G1 X134.635 Y101.165 F1000
G1 X134.635 Y100.280 F1000
G1 X134.930 Y99.985 F1000
G1 X134.930 Y99.690 F1000
G1 X135.225 Y99.395 F1000
G1 X135.225 Y99.100 F1000
G1 X135.520 Y98.805 F1000
G1 X135.520 Y98.510 F1000
G1 X135.815 Y98.215 F1000
G1 X135.815 Y97.920 F1000
G1 X136.405 Y97.330 F1000
G1 X136.405 Y97.035 F1000
G1 X137.290 Y96.150 F1000
G1 X137.290 Y95.855 F1000
G1 X139.060 Y94.085 F1000
G1 X139.355 Y94.085 F1000
G1 X140.240 Y93.200 F1000
G1 X140.535 Y93.200 F1000
G1 X141.125 Y92.610 F1000
G1 X141.420 Y92.610 F1000
G1 X141.715 Y92.315 F1000
G1 X142.010 Y92.315 F1000
G1 X142.305 Y92.020 F1000
G1 X142.600 Y92.020 F1000
G1 X142.895 Y91.725 F1000
G1 X143.190 Y91.725 F1000
G1 X143.485 Y91.430 F1000
G1 X144.075 Y91.430 F1000
G1 X144.370 Y91.135 F1000
G1 X144.960 Y91.135 F1000
G1 X145.255 Y90.840 F1000
G1 X146.435 Y90.840 F1000
G1 X146.730 Y90.545 F1000
G1 X150.270 Y90.545 F1000
G1 X150.565 Y90.840 F1000
G1 X151.745 Y90.840 F1000
G1 X152.040 Y91.135 F1000
G1 X152.630 Y91.135 F1000
G1 X152.925 Y91.430 F1000
G1 X153.515 Y91.430 F1000
G1 X153.810 Y91.725 F1000
G1 X154.105 Y91.725 F1000
G1 X154.400 Y92.020 F1000
G1 X154.695 Y92.020 F1000
G1 X154.990 Y92.315 F1000
G1 X155.285 Y92.315 F1000
G1 X155.580 Y92.610 F1000
G1 X155.875 Y92.610 F1000
G1 X156.465 Y93.200 F1000
G1 X156.760 Y93.200 F1000
G1 X157.645 Y94.085 F1000
G1 X157.940 Y94.085 F1000
G1 X159.415 Y95.560 F1000
G1 X159.415 Y95.855 F1000
G1 X160.300 Y96.740 F1000
G1 X160.300 Y97.035 F1000
G1 X160.890 Y97.625 F1000
G1 X160.890 Y97.920 F1000
G1 X161.185 Y98.215 F1000
G1 X161.185 Y98.510 F1000
G1 X161.480 Y98.805 F1000
G1 X161.480 Y99.100 F1000
G1 X161.775 Y99.395 F1000
G1 X161.775 Y99.690 F1000
G1 X162.070 Y99.985 F1000
G1 X162.070 Y100.575 F1000
G1 X162.365 Y100.870 F1000
G1 X162.365 Y101.460 F1000
G1 X162.660 Y101.755 F1000
G1 X162.660 Y102.935 F1000
G1 X162.955 Y103.230 F1000
G1 X162.955 Y106.770 F1000
G1 X162.660 Y107.065 F1000
G1 X162.660 Y108.245 F1000
G1 X162.365 Y108.540 F1000
G1 X162.365 Y109.130 F1000
G1 X162.070 Y109.425 F1000
G1 X162.070 Y110.015 F1000
G1 X161.775 Y110.310 F1000
G1 X161.775 Y110.605 F1000
G1 X161.480 Y110.900 F1000
G1 X161.480 Y111.195 F1000
G1 X161.185 Y111.490 F1000
G1 X161.185 Y111.785 F1000
G1 X160.890 Y112.080 F1000
G1 X160.890 Y112.375 F1000
G1 X160.300 Y112.965 F1000
G1 X160.300 Y113.260 F1000
G1 X159.415 Y114.145 F1000
G1 X159.415 Y114.440 F1000
G1 X157.645 Y116.210 F1000
G1 X157.350 Y116.210 F1000
G1 X156.465 Y117.095 F1000
G1 X156.170 Y117.095 F1000
G1 X155.580 Y117.685 F1000
G1 X155.285 Y117.685 F1000
G1 X154.990 Y117.980 F1000
G1 X154.695 Y117.980 F1000
G1 X154.400 Y118.275 F1000
G1 X154.105 Y118.275 F1000
G1 X153.810 Y118.570 F1000
G1 X153.515 Y118.570 F1000
G1 X153.220 Y118.865 F1000
G1 X152.335 Y118.865 F1000
G1 X152.040 Y119.160 F1000
G1 X150.860 Y119.160 F1000
G1 X150.565 Y119.455 F1000
G1 X146.435 Y119.455 F1000
G1 X146.140 Y119.160 F1000
G0 Z3.0 ; Pen up

G0 X146.435 Y119.455 F3000 ; Travel to line 32
G0 Z0.0 ; Pen down
G1 X146.140 Y119.160 F1000
G1 X144.960 Y119.160 F1000
G1 X144.665 Y118.865 F1000
G1 X143.780 Y118.865 F1000
G1 X143.485 Y118.570 F1000
G1 X143.190 Y118.570 F1000
G1 X142.895 Y118.275 F1000
G1 X142.305 Y118.275 F1000
G1 X142.010 Y117.980 F1000
G1 X141.715 Y117.980 F1000
G1 X141.420 Y117.685 F1000
G1 X141.125 Y117.685 F1000
G1 X140.535 Y117.095 F1000
G1 X140.240 Y117.095 F1000
G1 X139.355 Y116.210 F1000
G1 X139.060 Y116.210 F1000
G1 X137.290 Y114.440 F1000
G1 X137.290 Y114.145 F1000
G1 X136.405 Y113.260 F1000
G1 X136.405 Y112.965 F1000
G1 X135.815 Y112.375 F1000
G1 X135.815 Y112.080 F1000
G1 X135.520 Y111.785 F1000
G1 X135.520 Y111.490 F1000
G1 X135.225 Y111.195 F1000
G1 X135.225 Y110.605 F1000
G1 X134.930 Y110.310 F1000
G1 X134.930 Y110.015 F1000
G1 X134.635 Y109.720 F1000
G1 X134.635 Y108.835 F1000
G1 X134.340 Y108.540 F1000
G1 X134.340 Y107.360 F1000
G1 X134.045 Y107.065 F1000
G1 X134.045 Y105.295 F1000
G1 X133.750 Y105.000 F1000
G1 X130.800 Y105.000 F1000
G1 X133.750 Y105.000 F1000
G1 X134.045 Y104.705 F1000
G1 X134.045 Y102.935 F1000
G1 X134.340 Y102.640 F1000
G1 X134.340 Y101.460 F1000
G1 X134.635 Y101.165 F1000
G1 X134.635 Y100.280 F1000
G1 X134.930 Y99.985 F1000
G1 X134.930 Y99.690 F1000
G1 X135.225 Y99.395 F1000
G1 X135.225 Y98.805 F1000
G1 X135.520 Y98.510 F1000
G1 X135.520 Y98.215 F1000
G1 X135.815 Y97.920 F1000
G1 X135.815 Y97.625 F1000
G1 X136.405 Y97.035 F1000
G1 X136.405 Y96.740 F1000
G1 X137.290 Y95.855 F1000
G1 X137.290 Y95.560 F1000
G1 X138.765 Y94.085 F1000
G1 X139.060 Y94.085 F1000
G1 X139.945 Y93.200 F1000
G1 X140.240 Y93.200 F1000
G1 X140.830 Y92.610 F1000
G1 X141.125 Y92.610 F1000
G1 X141.420 Y92.315 F1000
G1 X141.715 Y92.315 F1000
G1 X142.010 Y92.020 F1000
G1 X142.600 Y92.020 F1000
G1 X142.895 Y91.725 F1000
G1 X143.190 Y91.725 F1000
G1 X143.485 Y91.430 F1000
G1 X144.075 Y91.430 F1000
G1 X144.370 Y91.135 F1000
G1 X144.960 Y91.135 F1000
G1 X145.255 Y90.840 F1000
G1 X146.435 Y90.840 F1000
G1 X146.730 Y90.545 F1000
G1 X150.270 Y90.545 F1000
G1 X150.565 Y90.840 F1000
G1 X151.745 Y90.840 F1000
G1 X152.040 Y91.135 F1000
G1 X152.630 Y91.135 F1000
G1 X152.925 Y91.430 F1000
G1 X153.515 Y91.430 F1000
G1 X153.810 Y91.725 F1000
G1 X154.105 Y91.725 F1000
G1 X154.400 Y92.020 F1000
G1 X154.990 Y92.020 F1000
G1 X155.285 Y92.315 F1000
G1 X155.580 Y92.315 F1000
G1 X155.875 Y92.610 F1000
G1 X156.170 Y92.610 F1000
G1 X156.760 Y93.200 F1000
G1 X157.055 Y93.200 F1000
G1 X157.940 Y94.085 F1000
G1 X158.235 Y94.085 F1000
G1 X159.415 Y95.265 F1000
G1 X159.415 Y95.560 F1000
G1 X160.300 Y96.445 F1000
G1 X160.300 Y96.740 F1000
G1 X160.890 Y97.330 F1000
G1 X160.890 Y97.625 F1000
G1 X161.185 Y97.920 F1000
G1 X161.185 Y98.215 F1000
G1 X161.480 Y98.510 F1000
G1 X161.480 Y99.100 F1000
G1 X161.775 Y99.395 F1000
G1 X161.775 Y99.690 F1000
G1 X162.070 Y99.985 F1000
G1 X162.070 Y100.575 F1000
G1 X162.365 Y100.870 F1000
G1 X162.365 Y101.460 F1000
G1 X162.660 Y101.755 F1000
G1 X162.660 Y102.935 F1000
G1 X162.955 Y103.230 F1000
G1 X162.955 Y106.770 F1000
G1 X162.660 Y107.065 F1000
G1 X162.660 Y108.245 F1000
G1 X162.365 Y108.540 F1000
G1 X162.365 Y109.130 F1000
G1 X162.070 Y109.425 F1000
G1 X162.070 Y110.015 F1000
G1 X161.775 Y110.310 F1000
G1 X161.775 Y110.605 F1000
G1 X161.480 Y110.900 F1000
G1 X161.480 Y111.490 F1000
G1 X161.185 Y111.785 F1000
G1 X161.185 Y112.080 F1000
G1 X160.890 Y112.375 F1000
G1 X160.890 Y112.670 F1000
G1 X160.300 Y113.260 F1000
G1 X160.300 Y113.555 F1000
G1 X159.415 Y114.440 F1000
G1 X159.415 Y114.735 F1000
G1 X157.940 Y116.210 F1000
G1 X157.645 Y116.210 F1000
G1 X156.760 Y117.095 F1000
G1 X156.465 Y117.095 F1000
G1 X155.875 Y117.685 F1000
G1 X155.580 Y117.685 F1000
G1 X155.285 Y117.980 F1000
G1 X154.990 Y117.980 F1000
G1 X154.695 Y118.275 F1000
G1 X154.105 Y118.275 F1000
G1 X153.810 Y118.570 F1000
G1 X153.515 Y118.570 F1000
G1 X153.220 Y118.865 F1000
G1 X152.335 Y118.865 F1000
G1 X152.040 Y119.160 F1000
G1 X150.860 Y119.160 F1000
G1 X150.565 Y119.455 F1000
G0 Z3.0 ; Pen up

G0 X198.650 Y119.455 F3000 ; Travel to line 33
G0 Z0.0 ; Pen down
G1 X198.945 Y119.750 F1000
G1 X207.205 Y119.750 F1000
G1 X207.500 Y119.455 F1000
G1 X207.500 Y111.490 F1000
G1 X207.205 Y111.195 F1000
G1 X205.730 Y111.195 F1000
G1 X205.435 Y111.490 F1000
G1 X204.550 Y111.490 F1000
G1 X204.255 Y111.785 F1000
G1 X203.960 Y111.785 F1000
G1 X203.665 Y112.080 F1000
G1 X203.370 Y112.080 F1000
G1 X203.075 Y112.375 F1000
G1 X202.780 Y112.375 F1000
G1 X200.125 Y115.030 F1000
G1 X200.125 Y115.325 F1000
G1 X199.535 Y115.915 F1000
G1 X199.535 Y116.505 F1000
G1 X199.240 Y116.800 F1000
G1 X199.240 Y117.095 F1000
G1 X198.945 Y117.390 F1000
G1 X198.945 Y118.275 F1000
G1 X198.650 Y118.570 F1000
G0 Z3.0 ; Pen up

G0 X205.140 Y128.305 F3000 ; Travel to line 34
G0 Z0.0 ; Pen down
G1 X204.845 Y128.010 F1000
G1 X204.550 Y128.010 F1000
G1 X204.255 Y127.715 F1000
G1 X203.665 Y127.715 F1000
G1 X203.075 Y127.125 F1000
G1 X202.780 Y127.125 F1000
G1 X200.125 Y124.470 F1000
G1 X200.125 Y124.175 F1000
G1 X199.535 Y123.585 F1000
G1 X199.535 Y122.995 F1000
G1 X199.240 Y122.700 F1000
G1 X199.240 Y122.405 F1000
G1 X198.945 Y122.110 F1000
G1 X198.945 Y121.225 F1000
G1 X198.650 Y120.930 F1000
G1 X198.650 Y120.045 F1000
G1 X198.945 Y119.750 F1000
G1 X207.205 Y119.750 F1000
G1 X207.500 Y120.045 F1000
G1 X207.500 Y128.305 F1000
G1 X207.205 Y128.600 F1000
G1 X206.320 Y128.600 F1000
G1 X206.025 Y128.305 F1000
G0 Z3.0 ; Pen up

G0 X210.450 Y105.000 F3000 ; Travel to line 35
G0 Z0.0 ; Pen down
G1 X214.875 Y105.000 F1000
G0 Z3.0 ; Pen up

G0 X219.300 Y105.000 F3000 ; Travel to line 36
G0 Z0.0 ; Pen down
G1 X223.725 Y105.000 F1000
G0 Z3.0 ; Pen up

G0 X228.150 Y105.000 F3000 ; Travel to line 37
G0 Z0.0 ; Pen down
G1 X232.575 Y105.000 F1000
G0 Z3.0 ; Pen up

G0 X207.500 Y102.050 F3000 ; Travel to line 38
G0 Z0.0 ; Pen down
G1 X207.500 Y99.395 F1000
G1 X207.205 Y99.100 F1000
G1 X206.320 Y99.100 F1000
G1 X206.025 Y98.805 F1000
G1 X205.140 Y98.805 F1000
G1 X204.845 Y98.510 F1000
G1 X204.550 Y98.510 F1000
G1 X204.255 Y98.215 F1000
G1 X203.665 Y98.215 F1000
G1 X203.075 Y97.625 F1000
G1 X202.780 Y97.625 F1000
G1 X202.190 Y97.035 F1000
G1 X201.895 Y97.035 F1000
G1 X200.715 Y95.855 F1000
G1 X200.715 Y95.560 F1000
G1 X200.125 Y94.970 F1000
G1 X200.125 Y94.675 F1000
G1 X199.535 Y94.085 F1000
G1 X199.535 Y93.495 F1000
G1 X199.240 Y93.200 F1000
G1 X199.240 Y92.905 F1000
G1 X198.945 Y92.610 F1000
G1 X198.945 Y91.725 F1000
G1 X198.650 Y91.430 F1000
G1 X198.650 Y90.545 F1000
G1 X198.355 Y90.250 F1000
G1 X195.700 Y90.250 F1000
G1 X198.355 Y90.250 F1000
G1 X198.650 Y89.955 F1000
G1 X198.650 Y89.070 F1000
G1 X198.945 Y88.775 F1000
G1 X198.945 Y87.890 F1000
G1 X199.240 Y87.595 F1000
G1 X199.240 Y87.300 F1000
G1 X199.535 Y87.005 F1000
G1 X199.535 Y86.415 F1000
G1 X200.125 Y85.825 F1000
G1 X200.125 Y85.530 F1000
G1 X200.715 Y84.940 F1000
G1 X200.715 Y84.645 F1000
G1 X201.895 Y83.465 F1000
G1 X202.190 Y83.465 F1000
G1 X202.780 Y82.875 F1000
G1 X203.075 Y82.875 F1000
G1 X203.370 Y82.580 F1000
G1 X203.665 Y82.580 F1000
G1 X203.960 Y82.285 F1000
G1 X204.255 Y82.285 F1000
G1 X204.550 Y81.990 F1000
G1 X205.435 Y81.990 F1000
G1 X205.730 Y81.695 F1000
G1 X207.205 Y81.695 F1000
G1 X207.500 Y81.400 F1000
G1 X207.500 Y78.450 F1000
G1 X207.500 Y81.400 F1000
G1 X207.795 Y81.695 F1000
G1 X209.270 Y81.695 F1000
G1 X209.565 Y81.990 F1000
G1 X210.450 Y81.990 F1000
G1 X210.745 Y82.285 F1000
G1 X211.040 Y82.285 F1000
G1 X211.335 Y82.580 F1000
G1 X211.630 Y82.580 F1000
G1 X211.925 Y82.875 F1000
G1 X212.220 Y82.875 F1000
G1 X212.810 Y83.465 F1000
G1 X213.105 Y83.465 F1000
G1 X214.285 Y84.645 F1000
G1 X214.285 Y84.940 F1000
G1 X214.875 Y85.530 F1000
G1 X214.875 Y85.825 F1000
G1 X215.170 Y86.120 F1000
G1 X215.170 Y86.415 F1000
G1 X215.465 Y86.710 F1000
G1 X215.465 Y87.005 F1000
G1 X215.760 Y87.300 F1000
G1 X215.760 Y88.185 F1000
G1 X216.055 Y88.480 F1000
G1 X216.055 Y89.955 F1000
G1 X216.350 Y90.250 F1000
G1 X219.300 Y90.250 F1000
G1 X216.350 Y90.250 F1000
G1 X216.055 Y90.545 F1000
G1 X216.055 Y92.020 F1000
G1 X215.760 Y92.315 F1000
G1 X215.760 Y93.200 F1000
G1 X215.465 Y93.495 F1000
G1 X215.465 Y93.790 F1000
G1 X215.170 Y94.085 F1000
G1 X215.170 Y94.380 F1000
G1 X214.875 Y94.675 F1000
G1 X214.875 Y94.970 F1000
G1 X214.285 Y95.560 F1000
G1 X214.285 Y95.855 F1000
G1 X213.105 Y97.035 F1000
G1 X212.810 Y97.035 F1000
G1 X212.220 Y97.625 F1000
G1 X211.925 Y97.625 F1000
G1 X211.335 Y98.215 F1000
G1 X210.745 Y98.215 F1000
G1 X210.450 Y98.510 F1000
G1 X210.155 Y98.510 F1000
G1 X209.860 Y98.805 F1000
G1 X208.975 Y98.805 F1000
G1 X208.680 Y99.100 F1000
G1 X207.795 Y99.100 F1000
G1 X207.500 Y99.395 F1000
G0 Z3.0 ; Pen up

G0 X207.500 Y98.805 F3000 ; Travel to line 39
G0 Z0.0 ; Pen down
G1 X207.795 Y99.100 F1000
G1 X208.680 Y99.100 F1000
G1 X208.975 Y98.805 F1000
G1 X209.860 Y98.805 F1000
G1 X210.155 Y98.510 F1000
G1 X210.450 Y98.510 F1000
G1 X210.745 Y98.215 F1000
G1 X211.335 Y98.215 F1000
G1 X211.925 Y97.625 F1000
G1 X212.220 Y97.625 F1000
G1 X214.875 Y94.970 F1000
G1 X214.875 Y94.675 F1000
G1 X215.170 Y94.380 F1000
G1 X215.170 Y94.085 F1000
G1 X215.465 Y93.790 F1000
G1 X215.465 Y93.495 F1000
G1 X215.760 Y93.200 F1000
G1 X215.760 Y92.315 F1000
G1 X216.055 Y92.020 F1000
G1 X216.055 Y90.545 F1000
G1 X215.760 Y90.250 F1000
G1 X207.795 Y90.250 F1000
G1 X207.500 Y90.545 F1000
G0 Z3.0 ; Pen up

G0 X207.500 Y89.955 F3000 ; Travel to line 40
G0 Z0.0 ; Pen down
G1 X207.795 Y90.250 F1000
G1 X215.760 Y90.250 F1000
G1 X216.055 Y89.955 F1000
G1 X216.055 Y88.480 F1000
G1 X215.760 Y88.185 F1000
G1 X215.760 Y87.300 F1000
G1 X215.465 Y87.005 F1000
G1 X215.465 Y86.710 F1000
G1 X215.170 Y86.415 F1000
G1 X215.170 Y86.120 F1000
G1 X214.875 Y85.825 F1000
G1 X214.875 Y85.530 F1000
G1 X212.220 Y82.875 F1000
G1 X211.925 Y82.875 F1000
G1 X211.630 Y82.580 F1000
G1 X211.335 Y82.580 F1000
G1 X211.040 Y82.285 F1000
G1 X210.745 Y82.285 F1000
G1 X210.450 Y81.990 F1000
G1 X209.565 Y81.990 F1000
G1 X209.270 Y81.695 F1000
G1 X207.795 Y81.695 F1000
G1 X207.500 Y81.990 F1000
G0 Z3.0 ; Pen up

G0 X198.650 Y89.070 F3000 ; Travel to line 41
G0 Z0.0 ; Pen down
G1 X198.945 Y88.775 F1000
G1 X198.945 Y87.890 F1000
G1 X199.240 Y87.595 F1000
G1 X199.240 Y87.300 F1000
G1 X199.535 Y87.005 F1000
G1 X199.535 Y86.415 F1000
G1 X200.125 Y85.825 F1000
G1 X200.125 Y85.530 F1000
G1 X202.780 Y82.875 F1000
G1 X203.075 Y82.875 F1000
G1 X203.370 Y82.580 F1000
G1 X203.665 Y82.580 F1000
G1 X203.960 Y82.285 F1000
G1 X204.255 Y82.285 F1000
G1 X204.550 Y81.990 F1000
G1 X205.435 Y81.990 F1000
G1 X205.730 Y81.695 F1000
G1 X207.205 Y81.695 F1000
G1 X207.500 Y81.990 F1000
G1 X207.500 Y89.955 F1000
G1 X207.205 Y90.250 F1000
G1 X198.945 Y90.250 F1000
G1 X198.650 Y89.955 F1000
G0 Z3.0 ; Pen up

G0 X205.140 Y98.805 F3000 ; Travel to line 42
G0 Z0.0 ; Pen down
G1 X204.845 Y98.510 F1000
G1 X204.550 Y98.510 F1000
G1 X204.255 Y98.215 F1000
G1 X203.665 Y98.215 F1000
G1 X203.075 Y97.625 F1000
G1 X202.780 Y97.625 F1000
G1 X200.125 Y94.970 F1000
G1 X200.125 Y94.675 F1000
G1 X199.535 Y94.085 F1000
G1 X199.535 Y93.495 F1000
G1 X199.240 Y93.200 F1000
G1 X199.240 Y92.905 F1000
G1 X198.945 Y92.610 F1000
G1 X198.945 Y91.725 F1000
G1 X198.650 Y91.430 F1000
G1 X198.650 Y90.545 F1000
G1 X198.945 Y90.250 F1000
G1 X207.205 Y90.250 F1000
G1 X207.500 Y90.545 F1000
G1 X207.500 Y98.805 F1000
G1 X207.205 Y99.100 F1000
G1 X206.320 Y99.100 F1000
G1 X206.025 Y98.805 F1000
G0 Z3.0 ; Pen up

G0 X60.000 Y164.295 F3000 ; Travel to line 43
G0 Z0.0 ; Pen down
G1 X60.295 Y164.000 F1000
G1 X236.705 Y164.000 F1000
G1 X237.000 Y164.295 F1000
G1 X237.000 Y166.950 F1000
G1 X237.000 Y163.705 F1000
G1 X236.705 Y164.000 F1000
G1 X60.295 Y164.000 F1000
G1 X60.000 Y163.705 F1000
G1 X60.000 Y161.050 F1000
G1 X60.000 Y166.950 F1000
G0 Z3.0 ; Pen up

G0 X48.200 Y149.250 F3000 ; Travel to line 44
G0 Z0.0 ; Pen down
G1 X45.545 Y149.250 F1000
G1 X45.250 Y148.955 F1000
G1 X45.250 Y61.045 F1000
G1 X45.545 Y60.750 F1000
G1 X48.200 Y60.750 F1000
G1 X44.955 Y60.750 F1000
G1 X45.250 Y61.045 F1000
G1 X45.250 Y148.955 F1000
G1 X44.955 Y149.250 F1000
G1 X42.300 Y149.250 F1000
G0 Z3.0 ; Pen up

; Return to origin
G0 X0 Y0
G0 Z3.0

; Total drawing distance: 3076.84 mm
; Total travel distance: 687.09 mm
; Total lines: 44
; Estimated time: 198.4 seconds (3.3 minutes)
M2 ; End program