; Blueprint to G-code
; Input: test_images/test2_floor_plan.png
; Generated with blueprint2gcode.py

G21 ; Set units to millimeters
G90 ; Absolute positioning
G0 Z3.0 ; Pen up
G0 X0 Y0 ; Move to origin

G0 X31.760 Y14.780 F3000 ; Travel to line 1
G0 Z0.0 ; Pen down
G1 X32.020 Y14.520 F1000
G1 X148.240 Y14.520 F1000
G1 X148.500 Y14.780 F1000
G1 X148.500 Y104.740 F1000
G1 X148.240 Y105.000 F1000
G1 X32.020 Y105.000 F1000
G1 X31.760 Y104.740 F1000
G0 Z3.0 ; Pen up

G0 X44.760 Y92.000 F3000 ; Travel to line 2
G0 Z0.0 ; Pen down
G1 X70.240 Y92.000 F1000
G0 Z3.0 ; Pen up

G0 X70.240 Y85.500 F3000 ; Travel to line 3
G0 Z0.0 ; Pen down
G1 X44.760 Y85.500 F1000
G0 Z3.0 ; Pen up

G0 X44.760 Y79.000 F3000 ; Travel to line 4
G0 Z0.0 ; Pen down
G1 X70.240 Y79.000 F1000
G0 Z3.0 ; Pen up

G0 X70.240 Y72.500 F3000 ; Travel to line 5
G0 Z0.0 ; Pen down
G1 X44.760 Y72.500 F1000
G0 Z3.0 ; Pen up

G0 X44.760 Y66.000 F3000 ; Travel to line 6
G0 Z0.0 ; Pen down
G1 X70.240 Y66.000 F1000
G0 Z3.0 ; Pen up

G0 X70.240 Y59.500 F3000 ; Travel to line 7
G0 Z0.0 ; Pen down
G1 X44.760 Y59.500 F1000
G0 Z3.0 ; Pen up

G0 X44.760 Y53.000 F3000 ; Travel to line 8
G0 Z0.0 ; Pen down
G1 X70.240 Y53.000 F1000
G0 Z3.0 ; Pen up

G0 X70.240 Y46.500 F3000 ; Travel to line 9
G0 Z0.0 ; Pen down
G1 X44.760 Y46.500 F1000
G0 Z3.0 ; Pen up

G0 X44.760 Y40.000 F3000 ; Travel to line 10
G0 Z0.0 ; Pen down
G1 X70.240 Y40.000 F1000
G0 Z3.0 ; Pen up

G0 X70.240 Y33.500 F3000 ; Travel to line 11
G0 Z0.0 ; Pen down
G1 X44.760 Y33.500 F1000
G0 Z3.0 ; Pen up

G0 X148.500 Y14.780 F3000 ; Travel to line 12
G0 Z0.0 ; Pen down
G1 X148.760 Y14.520 F1000
G1 X264.720 Y14.520 F1000
G1 X264.980 Y14.780 F1000
G1 X264.980 Y104.740 F1000
G1 X264.720 Y105.000 F1000
G1 X148.760 Y105.000 F1000
G1 X148.500 Y104.740 F1000
G0 Z3.0 ; Pen up

G0 X148.500 Y105.260 F3000 ; Travel to line 13
G0 Z0.0 ; Pen down
G1 X148.760 Y105.000 F1000
G1 X200.240 Y105.000 F1000
G1 X200.500 Y105.260 F1000
G1 X200.500 Y169.740 F1000
G1 X200.500 Y105.260 F1000
G1 X200.760 Y105.000 F1000
G1 X264.720 Y105.000 F1000
G1 X264.980 Y105.260 F1000
G1 X264.980 Y195.480 F1000
G1 X264.720 Y195.740 F1000
G1 X213.240 Y195.740 F1000
G1 X212.980 Y195.480 F1000
G1 X200.760 Y195.480 F1000
G1 X200.500 Y195.220 F1000
G1 X200.500 Y183.260 F1000
G1 X200.500 Y195.220 F1000
G1 X200.240 Y195.480 F1000
G1 X188.020 Y195.480 F1000
G1 X187.760 Y195.740 F1000
G1 X148.760 Y195.740 F1000
G1 X148.500 Y195.480 F1000
G0 Z3.0 ; Pen up

G0 X187.500 Y196.780 F3000 ; Travel to line 14
G0 Z0.0 ; Pen down
G1 X187.500 Y196.000 F1000
G1 X188.020 Y195.480 F1000
G1 X212.980 Y195.480 F1000
G1 X213.240 Y195.740 F1000
G1 X213.240 Y197.040 F1000
G1 X212.980 Y197.300 F1000
G1 X188.020 Y197.300 F1000
G0 Z3.0 ; Pen up

G0 X83.240 Y197.300 F3000 ; Travel to line 15
G0 Z0.0 ; Pen down
G1 X83.240 Y196.000 F1000
G1 X83.500 Y195.740 F1000
G1 X187.240 Y195.740 F1000
G1 X187.500 Y196.000 F1000
G1 X187.500 Y197.040 F1000
G1 X187.760 Y197.300 F1000
G1 X213.240 Y197.300 F1000
G1 X213.240 Y196.000 F1000
G1 X213.500 Y195.740 F1000
G1 X264.980 Y195.740 F1000
G1 X264.980 Y14.520 F1000
G1 X31.760 Y14.520 F1000
G1 X31.760 Y195.480 F1000
G1 X32.020 Y195.740 F1000
G1 X57.240 Y195.740 F1000
G1 X57.500 Y196.000 F1000
G1 X57.500 Y197.040 F1000
G1 X57.760 Y197.300 F1000
G0 Z3.0 ; Pen up

G0 X58.020 Y197.300 F3000 ; Travel to line 16
G0 Z0.0 ; Pen down
G1 X82.980 Y197.300 F1000
G1 X83.240 Y197.040 F1000
G1 X83.240 Y195.740 F1000
G1 X82.980 Y195.480 F1000
G1 X58.020 Y195.480 F1000
G1 X57.500 Y196.000 F1000
G1 X57.500 Y196.780 F1000
G0 Z3.0 ; Pen up

G0 X32.280 Y195.740 F3000 ; Travel to line 17
G0 Z0.0 ; Pen down
G1 X57.760 Y195.740 F1000
G1 X58.020 Y195.480 F1000
G1 X70.240 Y195.480 F1000
G1 X70.500 Y195.220 F1000
G1 X70.500 Y183.260 F1000
G1 X70.500 Y195.220 F1000
G1 X70.760 Y195.480 F1000
G1 X82.980 Y195.480 F1000
G1 X83.240 Y195.740 F1000
G1 X148.240 Y195.740 F1000
G1 X148.500 Y195.480 F1000
G1 X148.500 Y105.260 F1000
G1 X148.240 Y105.000 F1000
G1 X70.760 Y105.000 F1000
G1 X70.500 Y105.260 F1000
G1 X70.500 Y169.740 F1000
G1 X70.500 Y105.260 F1000
G1 X70.240 Y105.000 F1000
G1 X32.020 Y105.000 F1000
G1 X31.760 Y105.260 F1000
G1 X31.760 Y195.220 F1000
G0 Z3.0 ; Pen up

; Return to origin
G0 X0 Y0
G0 Z3.0

; Total drawing distance: 3141.77 mm
; Total travel distance: 386.97 mm
; Total lines: 17
; Estimated time: 196.2 seconds (3.3 minutes)
M2 ; End program