; Blueprint to G-code
; Input: test_images/test6_text_labels.png
; Generated with blueprint2gcode.py

G21 ; Set units to millimeters
G90 ; Absolute positioning
G0 Z3.0 ; Pen up
G0 X0 Y0 ; Move to origin

G0 X35.140 Y20.760 F3000 ; Travel to line 1
G0 Z0.0 ; Pen down
G1 X34.880 Y20.500 F1000
G1 X34.620 Y20.500 F1000
G1 X34.880 Y20.500 F1000
G1 X35.140 Y20.760 F1000
G1 X35.920 Y20.760 F1000
G1 X36.440 Y20.240 F1000
G1 X36.440 Y19.720 F1000
G1 X35.920 Y19.200 F1000
G1 X35.400 Y19.200 F1000
G1 X35.920 Y19.200 F1000
G1 X36.180 Y18.940 F1000
G1 X36.180 Y18.680 F1000
G1 X36.440 Y18.420 F1000
G1 X36.440 Y17.640 F1000
G1 X36.180 Y17.380 F1000
G1 X34.620 Y17.380 F1000
G1 X36.180 Y17.380 F1000
G1 X36.440 Y17.640 F1000
G1 X36.440 Y18.680 F1000
G1 X36.180 Y18.940 F1000
G1 X36.180 Y19.200 F1000
G1 X36.440 Y19.460 F1000
G1 X36.440 Y20.240 F1000
G1 X35.920 Y20.760 F1000
G0 Z3.0 ; Pen up

G0 X40.860 Y20.760 F3000 ; Travel to line 2
G0 Z0.0 ; Pen down
G1 X41.640 Y20.760 F1000
G1 X41.900 Y20.500 F1000
G1 X41.900 Y17.380 F1000
G1 X41.900 Y20.500 F1000
G1 X42.160 Y20.760 F1000
G1 X43.200 Y20.760 F1000
G0 Z3.0 ; Pen up

G0 X44.500 Y19.720 F3000 ; Travel to line 3
G0 Z0.0 ; Pen down
G1 X44.500 Y19.460 F1000
G1 X44.240 Y19.200 F1000
G1 X44.240 Y18.680 F1000
G1 X44.500 Y18.420 F1000
G1 X44.500 Y18.160 F1000
G1 X45.280 Y17.380 F1000
G1 X46.580 Y17.380 F1000
G1 X47.100 Y17.900 F1000
G1 X47.100 Y18.420 F1000
G1 X47.360 Y18.680 F1000
G1 X47.360 Y19.200 F1000
G1 X47.100 Y19.460 F1000
G1 X47.100 Y19.980 F1000
G1 X46.320 Y20.760 F1000
G1 X45.540 Y20.760 F1000
G1 X45.540 Y20.760 F1000
G1 X44.500 Y19.720 F1000
G1 X44.500 Y19.460 F1000
G1 X44.240 Y19.200 F1000
G1 X44.240 Y18.680 F1000
G1 X44.500 Y18.420 F1000
G1 X44.500 Y18.160 F1000
G1 X45.280 Y17.380 F1000
G1 X46.580 Y17.380 F1000
G1 X47.100 Y17.900 F1000
G1 X47.100 Y18.420 F1000
G1 X47.360 Y18.680 F1000
G1 X47.360 Y19.200 F1000
G1 X47.100 Y19.460 F1000
G1 X47.100 Y19.980 F1000
G1 X46.320 Y20.760 F1000
G0 Z3.0 ; Pen up

G0 X48.400 Y20.500 F3000 ; Travel to line 4
G0 Z0.0 ; Pen down
G1 X48.400 Y17.380 F1000
G1 X50.220 Y17.380 F1000
G1 X48.660 Y17.380 F1000
G1 X48.400 Y17.640 F1000
G0 Z3.0 ; Pen up

G0 X51.780 Y20.760 F3000 ; Travel to line 5
G0 Z0.0 ; Pen down
G1 X51.520 Y20.500 F1000
G1 X51.520 Y17.380 F1000
G1 X53.340 Y17.380 F1000
G1 X51.780 Y17.380 F1000
G1 X51.520 Y17.640 F1000
G1 X51.520 Y18.940 F1000
G1 X51.780 Y19.200 F1000
G1 X53.340 Y19.200 F1000
G1 X51.780 Y19.200 F1000
G1 X51.520 Y19.460 F1000
G1 X51.520 Y20.240 F1000
G1 X52.040 Y20.760 F1000
G1 X53.340 Y20.760 F1000
G0 Z3.0 ; Pen up

G0 X54.640 Y20.240 F3000 ; Travel to line 6
G0 Z0.0 ; Pen down
G1 X54.640 Y19.460 F1000
G1 X54.900 Y19.200 F1000
G1 X56.200 Y19.200 F1000
G1 X56.460 Y19.460 F1000
G1 X56.460 Y20.240 F1000
G1 X55.940 Y20.760 F1000
G1 X55.160 Y20.760 F1000
G0 Z3.0 ; Pen up

G0 X54.900 Y20.760 F3000 ; Travel to line 7
G0 Z0.0 ; Pen down
G1 X54.640 Y20.500 F1000
G1 X54.640 Y17.380 F1000
G1 X54.640 Y18.940 F1000
G1 X54.900 Y19.200 F1000
G1 X55.940 Y19.200 F1000
G1 X56.200 Y18.940 F1000
G1 X56.200 Y18.680 F1000
G1 X56.720 Y18.160 F1000
G1 X56.720 Y17.900 F1000
G1 X56.980 Y17.640 F1000
G1 X56.980 Y17.380 F1000
G1 X57.240 Y17.120 F1000
G1 X57.760 Y17.120 F1000
G1 X57.760 Y17.640 F1000
G1 X58.280 Y18.160 F1000
G1 X59.840 Y18.160 F1000
G1 X60.360 Y17.640 F1000
G1 X60.360 Y17.380 F1000
G1 X60.360 Y17.640 F1000
G1 X60.100 Y17.900 F1000
G1 X60.100 Y18.160 F1000
G1 X59.840 Y18.420 F1000
G1 X59.840 Y19.200 F1000
G1 X59.580 Y19.460 F1000
G1 X59.580 Y19.980 F1000
G1 X59.320 Y20.240 F1000
G1 X58.800 Y20.240 F1000
G1 X58.800 Y19.980 F1000
G1 X58.540 Y19.720 F1000
G1 X58.540 Y19.200 F1000
G1 X58.280 Y18.940 F1000
G1 X58.280 Y18.420 F1000
G1 X58.020 Y18.160 F1000
G1 X58.020 Y17.900 F1000
G1 X57.760 Y17.640 F1000
G1 X57.760 Y17.380 F1000
G1 X57.500 Y17.120 F1000
G1 X57.240 Y17.120 F1000
G1 X56.980 Y17.380 F1000
G1 X56.980 Y17.640 F1000
G1 X56.720 Y17.900 F1000
G1 X56.720 Y18.160 F1000
G1 X56.460 Y18.420 F1000
G1 X56.460 Y18.680 F1000
G1 X56.200 Y18.940 F1000
G1 X56.200 Y19.200 F1000
G1 X56.460 Y19.460 F1000
G1 X56.460 Y20.500 F1000
G1 X56.200 Y20.500 F1000
G1 X55.940 Y20.760 F1000
G0 Z3.0 ; Pen up

G0 X58.540 Y19.720 F3000 ; Travel to line 8
G0 Z0.0 ; Pen down
G1 X58.540 Y19.200 F1000
G1 X58.280 Y18.940 F1000
G1 X58.280 Y18.420 F1000
G1 X58.540 Y18.160 F1000
G1 X59.580 Y18.160 F1000
G1 X59.840 Y18.420 F1000
G1 X59.840 Y19.200 F1000
G1 X59.580 Y19.460 F1000
G1 X59.580 Y19.980 F1000
G1 X59.320 Y20.240 F1000
G1 X59.060 Y20.240 F1000
G0 Z3.0 ; Pen up

G0 X61.920 Y20.240 F3000 ; Travel to line 9
G0 Z0.0 ; Pen down
G1 X62.180 Y19.980 F1000
G1 X62.440 Y19.980 F1000
G1 X62.440 Y19.720 F1000
G1 X62.700 Y19.460 F1000
G1 X62.700 Y19.200 F1000
G1 X62.960 Y18.940 F1000
G1 X62.960 Y18.680 F1000
G1 X63.740 Y17.900 F1000
G1 X64.000 Y18.160 F1000
G1 X64.000 Y20.500 F1000
G1 X64.000 Y17.900 F1000
G1 X63.480 Y17.900 F1000
G1 X63.480 Y18.160 F1000
G1 X62.960 Y18.680 F1000
G1 X62.960 Y18.940 F1000
G1 X62.700 Y19.200 F1000
G1 X62.700 Y19.460 F1000
G1 X62.180 Y19.980 F1000
G1 X61.920 Y19.980 F1000
G1 X61.660 Y19.720 F1000
G1 X61.660 Y17.380 F1000
G1 X61.660 Y19.980 F1000
G1 X61.920 Y20.240 F1000
G1 X61.920 Y20.500 F1000
G0 Z3.0 ; Pen up

G0 X64.000 Y24.140 F3000 ; Travel to line 10
G0 Z0.0 ; Pen down
G1 X64.260 Y23.880 F1000
G1 X65.820 Y23.880 F1000
G1 X64.000 Y23.880 F1000
G1 X64.000 Y27.000 F1000
G0 Z3.0 ; Pen up

G0 X61.660 Y26.740 F3000 ; Travel to line 11
G0 Z0.0 ; Pen down
G1 X61.920 Y26.480 F1000
G1 X61.920 Y25.960 F1000
G1 X62.180 Y25.700 F1000
G1 X62.180 Y24.920 F1000
G1 X62.440 Y24.660 F1000
G1 X62.440 Y24.400 F1000
G1 X62.700 Y24.140 F1000
G1 X62.700 Y23.880 F1000
G1 X62.700 Y24.140 F1000
G1 X62.180 Y24.660 F1000
G1 X60.620 Y24.660 F1000
G1 X60.100 Y24.140 F1000
G1 X60.100 Y23.620 F1000
G1 X60.100 Y24.140 F1000
G1 X60.360 Y24.400 F1000
G1 X60.360 Y24.660 F1000
G1 X60.620 Y24.920 F1000
G1 X60.620 Y25.440 F1000
G1 X60.880 Y25.700 F1000
G1 X60.880 Y26.220 F1000
G1 X61.140 Y26.480 F1000
G1 X61.140 Y26.740 F1000
G0 Z3.0 ; Pen up

G0 X61.400 Y26.740 F3000 ; Travel to line 12
G0 Z0.0 ; Pen down
G1 X61.660 Y26.740 F1000
G1 X61.920 Y26.480 F1000
G1 X61.920 Y25.960 F1000
G1 X62.180 Y25.700 F1000
G1 X62.180 Y24.920 F1000
G1 X61.920 Y24.660 F1000
G1 X60.880 Y24.660 F1000
G1 X60.620 Y24.920 F1000
G1 X60.620 Y25.440 F1000
G1 X60.880 Y25.700 F1000
G1 X60.880 Y26.220 F1000
G0 Z3.0 ; Pen up

G0 X59.060 Y27.000 F3000 ; Travel to line 13
G0 Z0.0 ; Pen down
G1 X59.060 Y23.880 F1000
G0 Z3.0 ; Pen up

G0 X56.720 Y27.260 F3000 ; Travel to line 14
G0 Z0.0 ; Pen down
G1 X56.980 Y27.000 F1000
G1 X57.240 Y27.000 F1000
G1 X57.240 Y25.960 F1000
G1 X56.980 Y25.700 F1000
G1 X56.980 Y25.440 F1000
G1 X57.240 Y25.180 F1000
G1 X57.240 Y24.920 F1000
G1 X57.500 Y24.660 F1000
G1 X57.500 Y24.400 F1000
G1 X57.760 Y24.140 F1000
G1 X57.760 Y23.880 F1000
G1 X57.760 Y24.140 F1000
G1 X57.500 Y24.400 F1000
G1 X57.500 Y24.660 F1000
G1 X56.980 Y25.180 F1000
G1 X56.980 Y25.440 F1000
G1 X56.720 Y25.700 F1000
G1 X55.680 Y25.700 F1000
G1 X55.420 Y25.440 F1000
G1 X55.420 Y23.880 F1000
G1 X55.420 Y27.000 F1000
G1 X55.680 Y27.260 F1000
G0 Z3.0 ; Pen up

G0 X55.940 Y27.260 F3000 ; Travel to line 15
G0 Z0.0 ; Pen down
G1 X56.720 Y27.260 F1000
G1 X57.240 Y26.740 F1000
G1 X57.240 Y25.960 F1000
G1 X56.980 Y25.700 F1000
G1 X55.680 Y25.700 F1000
G1 X55.420 Y25.960 F1000
G1 X55.420 Y26.740 F1000
G0 Z3.0 ; Pen up

G0 X53.860 Y27.260 F3000 ; Travel to line 16
G0 Z0.0 ; Pen down
G1 X52.560 Y27.260 F1000
G1 X52.040 Y26.740 F1000
G1 X52.040 Y25.960 F1000
G1 X52.300 Y25.700 F1000
G1 X53.860 Y25.700 F1000
G1 X52.300 Y25.700 F1000
G1 X52.040 Y25.440 F1000
G1 X52.040 Y24.140 F1000
G1 X52.300 Y23.880 F1000
G1 X53.860 Y23.880 F1000
G1 X52.040 Y23.880 F1000
G1 X52.040 Y27.000 F1000
G1 X52.300 Y27.260 F1000
G0 Z3.0 ; Pen up

G0 X51.000 Y27.260 F3000 ; Travel to line 17
G0 Z0.0 ; Pen down
G1 X49.960 Y27.260 F1000
G1 X49.700 Y27.000 F1000
G1 X49.700 Y23.880 F1000
G1 X49.700 Y27.000 F1000
G1 X49.440 Y27.260 F1000
G1 X48.660 Y27.260 F1000
G0 Z3.0 ; Pen up

G0 X47.100 Y26.740 F3000 ; Travel to line 18
G0 Z0.0 ; Pen down
G1 X47.360 Y26.480 F1000
G1 X47.360 Y25.960 F1000
G1 X47.620 Y25.700 F1000
G1 X47.620 Y24.920 F1000
G1 X47.880 Y24.660 F1000
G1 X47.880 Y24.400 F1000
G1 X48.140 Y24.140 F1000
G1 X48.140 Y23.880 F1000
G1 X48.140 Y24.140 F1000
G1 X47.620 Y24.660 F1000
G1 X46.060 Y24.660 F1000
G1 X45.540 Y24.140 F1000
G1 X45.540 Y23.620 F1000
G1 X45.540 Y24.140 F1000
G1 X45.800 Y24.400 F1000
G1 X45.800 Y24.660 F1000
G1 X46.060 Y24.920 F1000
G1 X46.060 Y25.440 F1000
G1 X46.320 Y25.700 F1000
G1 X46.320 Y26.220 F1000
G1 X46.580 Y26.480 F1000
G1 X46.580 Y26.740 F1000
G0 Z3.0 ; Pen up

G0 X46.840 Y26.740 F3000 ; Travel to line 19
G0 Z0.0 ; Pen down
G1 X47.100 Y26.740 F1000
G1 X47.360 Y26.480 F1000
G1 X47.360 Y25.960 F1000
G1 X47.620 Y25.700 F1000
G1 X47.620 Y24.920 F1000
G1 X47.360 Y24.660 F1000
G1 X46.320 Y24.660 F1000
G1 X46.060 Y24.920 F1000
G1 X46.060 Y25.440 F1000
G1 X46.320 Y25.700 F1000
G1 X46.320 Y26.220 F1000
G0 Z3.0 ; Pen up

G0 X47.620 Y30.640 F3000 ; Travel to line 20
G0 Z0.0 ; Pen down
G1 X47.880 Y30.380 F1000
G1 X49.440 Y30.380 F1000
G1 X47.620 Y30.380 F1000
G1 X47.620 Y33.500 F1000
G0 Z3.0 ; Pen up

G0 X44.760 Y33.500 F3000 ; Travel to line 21
G0 Z0.0 ; Pen down
G1 X44.760 Y30.380 F1000
G1 X46.580 Y30.380 F1000
G1 X45.020 Y30.380 F1000
G1 X44.760 Y30.640 F1000
G0 Z3.0 ; Pen up

G0 X42.420 Y33.240 F3000 ; Travel to line 22
G0 Z0.0 ; Pen down
G1 X42.680 Y32.980 F1000
G1 X42.680 Y32.460 F1000
G1 X42.940 Y32.200 F1000
G1 X42.940 Y31.420 F1000
G1 X43.200 Y31.160 F1000
G1 X43.200 Y30.900 F1000
G1 X43.460 Y30.640 F1000
G1 X43.460 Y30.380 F1000
G1 X43.460 Y30.640 F1000
G1 X42.940 Y31.160 F1000
G1 X41.380 Y31.160 F1000
G1 X40.860 Y30.640 F1000
G1 X40.860 Y30.120 F1000
G1 X40.860 Y30.640 F1000
G1 X41.120 Y30.900 F1000
G1 X41.120 Y31.160 F1000
G1 X41.380 Y31.420 F1000
G1 X41.380 Y31.940 F1000
G1 X41.640 Y32.200 F1000
G1 X41.640 Y32.720 F1000
G1 X41.900 Y32.980 F1000
G1 X41.900 Y33.240 F1000
G0 Z3.0 ; Pen up

G0 X42.160 Y33.240 F3000 ; Travel to line 23
G0 Z0.0 ; Pen down
G1 X42.420 Y33.240 F1000
G1 X42.680 Y32.980 F1000
G1 X42.680 Y32.460 F1000
G1 X42.940 Y32.200 F1000
G1 X42.940 Y31.420 F1000
G1 X42.680 Y31.160 F1000
G1 X41.640 Y31.160 F1000
G1 X41.380 Y31.420 F1000
G1 X41.380 Y31.940 F1000
G1 X41.640 Y32.200 F1000
G1 X41.640 Y32.720 F1000
G0 Z3.0 ; Pen up

G0 X41.380 Y27.000 F3000 ; Travel to line 24
G0 Z0.0 ; Pen down
G1 X41.380 Y26.740 F1000
G1 X41.120 Y26.480 F1000
G1 X41.120 Y23.880 F1000
G1 X41.120 Y26.220 F1000
G1 X41.380 Y26.480 F1000
G1 X41.640 Y26.480 F1000
G1 X42.160 Y25.960 F1000
G1 X42.160 Y25.440 F1000
G1 X42.420 Y25.180 F1000
G1 X42.420 Y24.920 F1000
G1 X42.940 Y24.920 F1000
G1 X43.200 Y25.180 F1000
G1 X43.200 Y25.700 F1000
G1 X43.460 Y25.960 F1000
G1 X43.460 Y26.220 F1000
G1 X43.720 Y26.480 F1000
G1 X43.980 Y26.220 F1000
G1 X43.980 Y23.880 F1000
G1 X43.980 Y27.000 F1000
G1 X43.980 Y26.740 F1000
G1 X43.720 Y26.480 F1000
G1 X43.460 Y26.480 F1000
G1 X43.460 Y25.960 F1000
G1 X43.200 Y25.700 F1000
G1 X43.200 Y25.180 F1000
G1 X42.940 Y24.920 F1000
G1 X42.680 Y24.920 F1000
G1 X42.160 Y25.440 F1000
G1 X42.160 Y25.960 F1000
G1 X41.900 Y26.220 F1000
G1 X41.900 Y26.480 F1000
G1 X41.640 Y26.480 F1000
G1 X41.380 Y26.740 F1000
G0 Z3.0 ; Pen up

G0 X35.660 Y27.260 F3000 ; Travel to line 25
G0 Z0.0 ; Pen down
G1 X35.920 Y27.000 F1000
G1 X36.180 Y27.000 F1000
G1 X36.180 Y26.740 F1000
G1 X36.440 Y26.480 F1000
G1 X36.440 Y25.960 F1000
G1 X36.180 Y25.700 F1000
G1 X36.180 Y25.440 F1000
G1 X34.880 Y24.140 F1000
G1 X35.140 Y23.880 F1000
G1 X36.440 Y23.880 F1000
G1 X34.880 Y23.880 F1000
G1 X34.880 Y24.400 F1000
G1 X36.440 Y25.960 F1000
G1 X36.440 Y26.480 F1000
G1 X35.660 Y27.260 F1000
G1 X35.140 Y27.260 F1000
G1 X34.880 Y27.000 F1000
G1 X34.620 Y27.000 F1000
G1 X34.880 Y27.000 F1000
G1 X35.140 Y27.260 F1000
G0 Z3.0 ; Pen up

G0 X35.400 Y33.760 F3000 ; Travel to line 26
G0 Z0.0 ; Pen down
G1 X35.140 Y33.500 F1000
G1 X34.880 Y33.500 F1000
G1 X35.140 Y33.500 F1000
G1 X35.400 Y33.760 F1000
G1 X35.660 Y33.500 F1000
G1 X35.660 Y30.640 F1000
G1 X35.400 Y30.380 F1000
G1 X36.440 Y30.380 F1000
G1 X35.920 Y30.380 F1000
G1 X35.660 Y30.640 F1000
G1 X35.660 Y33.760 F1000
G0 Z3.0 ; Pen up

G0 X39.040 Y38.700 F3000 ; Travel to line 27
G0 Z0.0 ; Pen down
G1 X38.780 Y38.440 F1000
G1 X38.260 Y38.440 F1000
G1 X37.740 Y38.960 F1000
G1 X37.740 Y39.220 F1000
G1 X37.480 Y39.480 F1000
G1 X37.480 Y39.740 F1000
G1 X37.220 Y40.000 F1000
G1 X37.220 Y40.260 F1000
G1 X36.960 Y40.520 F1000
G1 X36.960 Y40.780 F1000
G1 X36.440 Y41.300 F1000
G1 X36.440 Y41.560 F1000
G1 X36.180 Y41.820 F1000
G1 X36.180 Y42.080 F1000
G1 X35.660 Y42.600 F1000
G1 X35.400 Y42.600 F1000
G1 X35.140 Y42.340 F1000
G1 X35.140 Y38.180 F1000
G1 X35.140 Y42.600 F1000
G1 X35.660 Y42.600 F1000
G1 X35.920 Y42.340 F1000
G1 X36.180 Y42.340 F1000
G1 X36.180 Y42.080 F1000
G1 X36.440 Y41.820 F1000
G1 X36.440 Y41.560 F1000
G1 X36.700 Y41.300 F1000
G1 X36.700 Y41.040 F1000
G1 X36.960 Y40.780 F1000
G1 X36.960 Y40.520 F1000
G1 X37.220 Y40.260 F1000
G1 X37.220 Y40.000 F1000
G1 X37.740 Y39.480 F1000
G1 X37.740 Y39.220 F1000
G1 X38.000 Y38.960 F1000
G1 X38.000 Y38.700 F1000
G1 X38.260 Y38.440 F1000
G1 X38.780 Y38.440 F1000
G1 X39.040 Y38.700 F1000
G1 X39.040 Y43.120 F1000
G0 Z3.0 ; Pen up

G0 X42.160 Y42.860 F3000 ; Travel to line 28
G0 Z0.0 ; Pen down
G1 X41.380 Y42.080 F1000
G1 X41.380 Y41.560 F1000
G1 X41.120 Y41.300 F1000
G1 X41.120 Y39.740 F1000
G1 X41.380 Y39.480 F1000
G1 X41.380 Y38.960 F1000
G1 X41.900 Y38.440 F1000
G1 X42.160 Y38.440 F1000
G1 X42.420 Y38.180 F1000
G1 X42.680 Y38.180 F1000
G1 X42.940 Y37.920 F1000
G1 X43.980 Y37.920 F1000
G1 X44.240 Y38.180 F1000
G1 X44.500 Y38.180 F1000
G1 X44.760 Y38.440 F1000
G1 X45.020 Y38.440 F1000
G1 X45.540 Y38.960 F1000
G1 X45.540 Y39.220 F1000
G1 X45.800 Y39.480 F1000
G1 X45.800 Y41.560 F1000
G1 X45.540 Y41.820 F1000
G1 X45.540 Y42.080 F1000
G1 X44.760 Y42.860 F1000
G1 X44.500 Y42.860 F1000
G1 X44.240 Y43.120 F1000
G1 X42.680 Y43.120 F1000
G1 X42.420 Y42.860 F1000
G0 Z3.0 ; Pen up

G0 X42.680 Y43.120 F3000 ; Travel to line 29
G0 Z0.0 ; Pen down
G1 X42.420 Y42.860 F1000
G1 X42.160 Y42.860 F1000
G1 X41.380 Y42.080 F1000
G1 X41.380 Y41.560 F1000
G1 X41.120 Y41.300 F1000
G1 X41.120 Y39.740 F1000
G1 X41.380 Y39.480 F1000
G1 X41.380 Y38.960 F1000
G1 X41.900 Y38.440 F1000
G1 X42.160 Y38.440 F1000
G1 X42.420 Y38.180 F1000
G1 X42.680 Y38.180 F1000
G1 X42.940 Y37.920 F1000
G1 X43.980 Y37.920 F1000
G1 X44.240 Y38.180 F1000
G1 X44.500 Y38.180 F1000
G1 X44.760 Y38.440 F1000
G1 X45.020 Y38.440 F1000
G1 X45.540 Y38.960 F1000
G1 X45.540 Y39.220 F1000
G1 X45.800 Y39.480 F1000
G1 X45.800 Y41.560 F1000
G1 X45.540 Y41.820 F1000
G1 X45.540 Y42.080 F1000
G1 X44.760 Y42.860 F1000
G1 X44.500 Y42.860 F1000
G1 X44.240 Y43.120 F1000
G0 Z3.0 ; Pen up

G0 X47.100 Y43.120 F3000 ; Travel to line 30
G0 Z0.0 ; Pen down
G1 X48.920 Y43.120 F1000
G1 X49.180 Y42.860 F1000
G1 X49.180 Y38.180 F1000
G1 X49.180 Y42.860 F1000
G1 X49.440 Y43.120 F1000
G1 X51.260 Y43.120 F1000
G0 Z3.0 ; Pen up

G0 X53.080 Y43.120 F3000 ; Travel to line 31
G0 Z0.0 ; Pen down
G1 X53.080 Y37.920 F1000
G1 X55.940 Y37.920 F1000
G1 X53.340 Y37.920 F1000
G1 X53.080 Y38.180 F1000
G1 X53.080 Y40.520 F1000
G1 X53.340 Y40.780 F1000
G1 X55.680 Y40.780 F1000
G1 X53.340 Y40.780 F1000
G1 X53.080 Y41.040 F1000
G1 X53.080 Y42.860 F1000
G1 X53.340 Y43.120 F1000
G1 X55.940 Y43.120 F1000
G0 Z3.0 ; Pen up

G0 X59.060 Y43.120 F3000 ; Travel to line 32
G0 Z0.0 ; Pen down
G1 X58.800 Y42.860 F1000
G1 X58.540 Y42.860 F1000
G1 X58.020 Y42.340 F1000
G1 X58.020 Y41.560 F1000
G1 X58.280 Y41.300 F1000
G1 X58.280 Y41.040 F1000
G1 X58.540 Y41.040 F1000
G1 X58.800 Y40.780 F1000
G1 X59.320 Y40.780 F1000
G1 X59.580 Y40.520 F1000
G1 X60.620 Y40.520 F1000
G1 X61.400 Y39.740 F1000
G1 X61.400 Y38.700 F1000
G1 X60.880 Y38.180 F1000
G1 X60.620 Y38.180 F1000
G1 X60.360 Y37.920 F1000
G1 X58.800 Y37.920 F1000
G1 X58.540 Y38.180 F1000
G1 X58.020 Y38.180 F1000
G1 X58.540 Y38.180 F1000
G1 X58.800 Y37.920 F1000
G1 X60.360 Y37.920 F1000
G1 X60.620 Y38.180 F1000
G1 X60.880 Y38.180 F1000
G1 X61.400 Y38.700 F1000
G1 X61.400 Y39.740 F1000
G1 X60.620 Y40.520 F1000
G1 X59.580 Y40.520 F1000
G1 X59.320 Y40.780 F1000
G1 X58.800 Y40.780 F1000
G1 X58.020 Y41.560 F1000
G1 X58.020 Y42.080 F1000
G1 X59.060 Y43.120 F1000
G1 X61.140 Y43.120 F1000
G0 Z3.0 ; Pen up

G0 X62.440 Y33.760 F3000 ; Travel to line 33
G0 Z0.0 ; Pen down
G1 X62.180 Y33.500 F1000
G1 X62.180 Y30.380 F1000
G1 X64.000 Y30.380 F1000
G1 X62.440 Y30.380 F1000
G1 X62.180 Y30.640 F1000
G1 X62.180 Y31.940 F1000
G1 X62.440 Y32.200 F1000
G1 X64.000 Y32.200 F1000
G1 X62.440 Y32.200 F1000
G1 X62.180 Y32.460 F1000
G1 X62.180 Y33.240 F1000
G1 X62.700 Y33.760 F1000
G1 X64.000 Y33.760 F1000
G0 Z3.0 ; Pen up

G0 X65.820 Y33.500 F3000 ; Travel to line 34
G0 Z0.0 ; Pen down
G1 X65.820 Y33.240 F1000
G1 X65.560 Y32.980 F1000
G1 X65.560 Y30.380 F1000
G1 X65.560 Y32.720 F1000
G1 X65.820 Y32.980 F1000
G1 X66.080 Y32.980 F1000
G1 X66.600 Y32.460 F1000
G1 X66.600 Y32.200 F1000
G1 X66.860 Y31.940 F1000
G1 X66.860 Y31.680 F1000
G1 X67.380 Y31.160 F1000
G1 X67.380 Y30.900 F1000
G1 X67.900 Y30.900 F1000
G1 X67.900 Y33.500 F1000
G1 X67.900 Y31.160 F1000
G1 X67.640 Y30.900 F1000
G1 X66.860 Y31.680 F1000
G1 X66.860 Y31.940 F1000
G1 X66.600 Y32.200 F1000
G1 X66.600 Y32.460 F1000
G1 X66.340 Y32.720 F1000
G1 X66.340 Y32.980 F1000
G1 X66.080 Y32.980 F1000
G1 X65.820 Y33.240 F1000
G0 Z3.0 ; Pen up

G0 X70.240 Y33.760 F3000 ; Travel to line 35
G0 Z0.0 ; Pen down
G1 X69.980 Y33.500 F1000
G1 X69.720 Y33.500 F1000
G1 X69.460 Y33.240 F1000
G1 X69.460 Y32.460 F1000
G1 X69.720 Y32.200 F1000
G1 X70.240 Y32.200 F1000
G1 X70.500 Y31.940 F1000
G1 X71.020 Y31.940 F1000
G1 X71.280 Y31.680 F1000
G1 X71.280 Y30.640 F1000
G1 X71.020 Y30.380 F1000
G1 X69.460 Y30.380 F1000
G1 X71.020 Y30.380 F1000
G1 X71.280 Y30.640 F1000
G1 X71.280 Y31.680 F1000
G1 X71.020 Y31.940 F1000
G1 X70.500 Y31.940 F1000
G1 X70.240 Y32.200 F1000
G1 X69.720 Y32.200 F1000
G1 X69.460 Y32.460 F1000
G1 X69.460 Y33.240 F1000
G1 X69.720 Y33.500 F1000
G1 X69.980 Y33.500 F1000
G1 X70.240 Y33.760 F1000
G1 X70.760 Y33.760 F1000
G1 X71.020 Y33.500 F1000
G1 X71.280 Y33.500 F1000
G1 X71.020 Y33.500 F1000
G1 X70.760 Y33.760 F1000
G0 Z3.0 ; Pen up

G0 X72.840 Y33.500 F3000 ; Travel to line 36
G0 Z0.0 ; Pen down
G1 X72.840 Y30.380 F1000
G0 Z3.0 ; Pen up

G0 X74.400 Y32.720 F3000 ; Travel to line 37
G0 Z0.0 ; Pen down
G1 X74.400 Y32.460 F1000
G1 X74.140 Y32.200 F1000
G1 X74.140 Y31.680 F1000
G1 X74.400 Y31.420 F1000
G1 X74.400 Y31.160 F1000
G1 X75.180 Y30.380 F1000
G1 X76.480 Y30.380 F1000
G1 X77.000 Y30.900 F1000
G1 X77.000 Y31.420 F1000
G1 X77.260 Y31.680 F1000
G1 X77.260 Y32.200 F1000
G1 X77.000 Y32.460 F1000
G1 X77.000 Y32.980 F1000
G1 X76.220 Y33.760 F1000
G1 X75.440 Y33.760 F1000
G1 X75.440 Y33.760 F1000
G1 X74.400 Y32.720 F1000
G1 X74.400 Y32.460 F1000
G1 X74.140 Y32.200 F1000
G1 X74.140 Y31.680 F1000
G1 X74.400 Y31.420 F1000
G1 X74.400 Y31.160 F1000
G1 X75.180 Y30.380 F1000
G1 X76.480 Y30.380 F1000
G1 X77.000 Y30.900 F1000
G1 X77.000 Y31.420 F1000
G1 X77.260 Y31.680 F1000
G1 X77.260 Y32.200 F1000
G1 X77.000 Y32.460 F1000
G1 X77.000 Y32.980 F1000
G1 X76.220 Y33.760 F1000
G0 Z3.0 ; Pen up

G0 X78.560 Y33.500 F3000 ; Travel to line 38
G0 Z0.0 ; Pen down
G1 X78.560 Y33.240 F1000
G1 X78.300 Y32.980 F1000
G1 X78.300 Y30.380 F1000
G1 X78.300 Y32.720 F1000
G1 X78.560 Y32.980 F1000
G1 X78.820 Y32.980 F1000
G1 X79.340 Y32.460 F1000
G1 X79.340 Y32.200 F1000
G1 X79.600 Y31.940 F1000
G1 X79.600 Y31.680 F1000
G1 X80.120 Y31.160 F1000
G1 X80.120 Y30.900 F1000
G1 X80.640 Y30.900 F1000
G1 X80.640 Y33.500 F1000
G1 X80.640 Y31.160 F1000
G1 X80.380 Y30.900 F1000
G1 X79.600 Y31.680 F1000
G1 X79.600 Y31.940 F1000
G1 X79.340 Y32.200 F1000
G1 X79.340 Y32.460 F1000
G1 X79.080 Y32.720 F1000
G1 X79.080 Y32.980 F1000
G1 X78.820 Y32.980 F1000
G1 X78.560 Y33.240 F1000
G0 Z3.0 ; Pen up

G0 X82.980 Y33.760 F3000 ; Travel to line 39
G0 Z0.0 ; Pen down
G1 X82.720 Y33.500 F1000
G1 X82.460 Y33.500 F1000
G1 X82.200 Y33.240 F1000
G1 X82.200 Y32.460 F1000
G1 X82.460 Y32.200 F1000
G1 X82.980 Y32.200 F1000
G1 X83.240 Y31.940 F1000
G1 X83.760 Y31.940 F1000
G1 X84.020 Y31.680 F1000
G1 X84.020 Y30.640 F1000
G1 X83.760 Y30.380 F1000
G1 X82.200 Y30.380 F1000
G1 X83.760 Y30.380 F1000
G1 X84.020 Y30.640 F1000
G1 X84.020 Y31.680 F1000
G1 X83.760 Y31.940 F1000
G1 X83.240 Y31.940 F1000
G1 X82.980 Y32.200 F1000
G1 X82.460 Y32.200 F1000
G1 X82.200 Y32.460 F1000
G1 X82.200 Y33.240 F1000
G1 X82.460 Y33.500 F1000
G1 X82.720 Y33.500 F1000
G1 X82.980 Y33.760 F1000
G1 X83.500 Y33.760 F1000
G1 X83.760 Y33.500 F1000
G1 X84.020 Y33.500 F1000
G1 X83.760 Y33.500 F1000
G1 X83.500 Y33.760 F1000
G0 Z3.0 ; Pen up

G0 X87.140 Y33.500 F3000 ; Travel to line 40
G0 Z0.0 ; Pen down
G1 X87.140 Y30.380 F1000
G0 Z3.0 ; Pen up

G0 X88.960 Y33.240 F3000 ; Travel to line 41
G0 Z0.0 ; Pen down
G1 X89.220 Y32.980 F1000
G1 X89.480 Y32.980 F1000
G1 X89.480 Y32.720 F1000
G1 X89.740 Y32.460 F1000
G1 X89.740 Y32.200 F1000
G1 X90.000 Y31.940 F1000
G1 X90.000 Y31.680 F1000
G1 X90.780 Y30.900 F1000
G1 X91.040 Y31.160 F1000
G1 X91.040 Y33.500 F1000
G1 X91.040 Y30.900 F1000
G1 X90.520 Y30.900 F1000
G1 X90.520 Y31.160 F1000
G1 X90.000 Y31.680 F1000
G1 X90.000 Y31.940 F1000
G1 X89.740 Y32.200 F1000
G1 X89.740 Y32.460 F1000
G1 X89.220 Y32.980 F1000
G1 X88.960 Y32.980 F1000
G1 X88.700 Y32.720 F1000
G1 X88.700 Y30.380 F1000
G1 X88.700 Y32.980 F1000
G1 X88.960 Y33.240 F1000
G1 X88.960 Y33.500 F1000
G0 Z3.0 ; Pen up

G0 X94.680 Y33.500 F3000 ; Travel to line 42
G0 Z0.0 ; Pen down
G1 X94.680 Y33.240 F1000
G1 X94.420 Y32.980 F1000
G1 X94.420 Y30.380 F1000
G1 X94.420 Y32.720 F1000
G1 X94.680 Y32.980 F1000
G1 X94.940 Y32.980 F1000
G1 X95.460 Y32.460 F1000
G1 X95.460 Y31.940 F1000
G1 X95.720 Y31.680 F1000
G1 X95.720 Y31.420 F1000
G1 X96.240 Y31.420 F1000
G1 X96.500 Y31.680 F1000
G1 X96.500 Y32.200 F1000
G1 X96.760 Y32.460 F1000
G1 X96.760 Y32.720 F1000
G1 X97.020 Y32.980 F1000
G1 X97.280 Y32.720 F1000
G1 X97.280 Y30.380 F1000
G1 X97.280 Y33.500 F1000
G1 X97.280 Y33.240 F1000
G1 X97.020 Y32.980 F1000
G1 X96.760 Y32.980 F1000
G1 X96.760 Y32.460 F1000
G1 X96.500 Y32.200 F1000
G1 X96.500 Y31.680 F1000
G1 X96.240 Y31.420 F1000
G1 X95.980 Y31.420 F1000
G1 X95.460 Y31.940 F1000
G1 X95.460 Y32.460 F1000
G1 X95.200 Y32.720 F1000
G1 X95.200 Y32.980 F1000
G1 X94.940 Y32.980 F1000
G1 X94.680 Y33.240 F1000
G0 Z3.0 ; Pen up

G0 X98.840 Y33.500 F3000 ; Travel to line 43
G0 Z0.0 ; Pen down
G1 X98.840 Y30.380 F1000
G0 Z3.0 ; Pen up

G0 X100.400 Y30.640 F3000 ; Travel to line 44
G0 Z0.0 ; Pen down
G1 X100.660 Y30.380 F1000
G1 X102.220 Y30.380 F1000
G1 X100.400 Y30.380 F1000
G1 X100.400 Y33.500 F1000
G0 Z3.0 ; Pen up

G0 X103.260 Y33.500 F3000 ; Travel to line 45
G0 Z0.0 ; Pen down
G1 X103.260 Y30.380 F1000
G1 X105.080 Y30.380 F1000
G1 X103.520 Y30.380 F1000
G1 X103.260 Y30.640 F1000
G0 Z3.0 ; Pen up

G0 X106.120 Y30.380 F3000 ; Travel to line 46
G0 Z0.0 ; Pen down
G1 X106.120 Y33.500 F1000
G0 Z3.0 ; Pen up

G0 X107.940 Y33.500 F3000 ; Travel to line 47
G0 Z0.0 ; Pen down
G1 X107.940 Y33.240 F1000
G1 X107.680 Y32.980 F1000
G1 X107.680 Y30.380 F1000
G1 X107.680 Y32.720 F1000
G1 X107.940 Y32.980 F1000
G1 X108.200 Y32.980 F1000
G1 X108.720 Y32.460 F1000
G1 X108.720 Y31.940 F1000
G1 X108.980 Y31.680 F1000
G1 X108.980 Y31.420 F1000
G1 X109.500 Y31.420 F1000
G1 X109.760 Y31.680 F1000
G1 X109.760 Y32.200 F1000
G1 X110.020 Y32.460 F1000
G1 X110.020 Y32.720 F1000
G1 X110.280 Y32.980 F1000
G1 X110.540 Y32.720 F1000
G1 X110.540 Y30.380 F1000
G1 X110.540 Y33.500 F1000
G1 X110.540 Y33.240 F1000
G1 X110.280 Y32.980 F1000
G1 X110.020 Y32.980 F1000
G1 X110.020 Y32.460 F1000
G1 X109.760 Y32.200 F1000
G1 X109.760 Y31.680 F1000
G1 X109.500 Y31.420 F1000
G1 X109.240 Y31.420 F1000
G1 X108.720 Y31.940 F1000
G1 X108.720 Y32.460 F1000
G1 X108.460 Y32.720 F1000
G1 X108.460 Y32.980 F1000
G1 X108.200 Y32.980 F1000
G1 X107.940 Y33.240 F1000
G0 Z3.0 ; Pen up

G0 X112.360 Y33.760 F3000 ; Travel to line 48
G0 Z0.0 ; Pen down
G1 X112.100 Y33.500 F1000
G1 X112.100 Y30.380 F1000
G1 X113.920 Y30.380 F1000
G1 X112.360 Y30.380 F1000
G1 X112.100 Y30.640 F1000
G1 X112.100 Y31.940 F1000
G1 X112.360 Y32.200 F1000
G1 X113.920 Y32.200 F1000
G1 X112.360 Y32.200 F1000
G1 X112.100 Y32.460 F1000
G1 X112.100 Y33.240 F1000
G1 X112.620 Y33.760 F1000
G1 X113.920 Y33.760 F1000
G0 Z3.0 ; Pen up

G0 X115.220 Y33.760 F3000 ; Travel to line 49
G0 Z0.0 ; Pen down
G1 X116.000 Y33.760 F1000
G1 X116.260 Y33.500 F1000
G1 X116.260 Y30.380 F1000
G1 X116.260 Y33.500 F1000
G1 X116.520 Y33.760 F1000
G1 X117.560 Y33.760 F1000
G0 Z3.0 ; Pen up

G0 X118.860 Y33.760 F3000 ; Travel to line 50
G0 Z0.0 ; Pen down
G1 X118.600 Y33.500 F1000
G1 X118.600 Y30.380 F1000
G1 X120.420 Y30.380 F1000
G1 X118.860 Y30.380 F1000
G1 X118.600 Y30.640 F1000
G1 X118.600 Y31.940 F1000
G1 X118.860 Y32.200 F1000
G1 X120.420 Y32.200 F1000
G1 X118.860 Y32.200 F1000
G1 X118.600 Y32.460 F1000
G1 X118.600 Y33.240 F1000
G1 X119.120 Y33.760 F1000
G1 X120.420 Y33.760 F1000
G0 Z3.0 ; Pen up

G0 X121.980 Y33.240 F3000 ; Travel to line 51
G0 Z0.0 ; Pen down
G1 X121.980 Y32.460 F1000
G1 X122.240 Y32.200 F1000
G1 X123.540 Y32.200 F1000
G1 X123.800 Y32.460 F1000
G1 X123.800 Y33.240 F1000
G1 X123.280 Y33.760 F1000
G1 X122.500 Y33.760 F1000
G0 Z3.0 ; Pen up

G0 X122.240 Y33.760 F3000 ; Travel to line 52
G0 Z0.0 ; Pen down
G1 X121.980 Y33.500 F1000
G1 X121.980 Y30.380 F1000
G1 X121.980 Y31.940 F1000
G1 X122.240 Y32.200 F1000
G1 X123.280 Y32.200 F1000
G1 X123.540 Y31.940 F1000
G1 X123.540 Y31.680 F1000
G1 X124.060 Y31.160 F1000
G1 X124.060 Y30.900 F1000
G1 X124.320 Y30.640 F1000
G1 X124.320 Y30.380 F1000
G1 X124.320 Y30.640 F1000
G1 X124.060 Y30.900 F1000
G1 X124.060 Y31.160 F1000
G1 X123.800 Y31.420 F1000
G1 X123.800 Y31.680 F1000
G1 X123.540 Y31.940 F1000
G1 X123.540 Y32.200 F1000
G1 X123.800 Y32.460 F1000
G1 X123.800 Y33.500 F1000
G1 X123.540 Y33.500 F1000
G1 X123.280 Y33.760 F1000
G0 Z3.0 ; Pen up

G0 X126.400 Y33.760 F3000 ; Travel to line 53
G0 Z0.0 ; Pen down
G1 X126.140 Y33.500 F1000
G1 X125.880 Y33.500 F1000
G1 X125.620 Y33.240 F1000
G1 X125.620 Y32.460 F1000
G1 X125.880 Y32.200 F1000
G1 X126.400 Y32.200 F1000
G1 X126.660 Y31.940 F1000
G1 X127.180 Y31.940 F1000
G1 X127.440 Y31.680 F1000
G1 X127.440 Y30.640 F1000
G1 X127.180 Y30.380 F1000
G1 X125.620 Y30.380 F1000
G1 X127.180 Y30.380 F1000
G1 X127.440 Y30.640 F1000
G1 X127.440 Y31.680 F1000
G1 X127.180 Y31.940 F1000
G1 X126.660 Y31.940 F1000
G1 X126.400 Y32.200 F1000
G1 X125.880 Y32.200 F1000
G1 X125.620 Y32.460 F1000
G1 X125.620 Y33.240 F1000
G1 X125.880 Y33.500 F1000
G1 X126.140 Y33.500 F1000
G1 X126.400 Y33.760 F1000
G1 X126.920 Y33.760 F1000
G1 X127.180 Y33.500 F1000
G1 X127.440 Y33.500 F1000
G1 X127.180 Y33.500 F1000
G1 X126.920 Y33.760 F1000
G0 Z3.0 ; Pen up

G0 X119.380 Y27.260 F3000 ; Travel to line 54
G0 Z0.0 ; Pen down
G1 X119.640 Y27.000 F1000
G1 X119.900 Y27.000 F1000
G1 X119.640 Y27.000 F1000
G1 X119.380 Y27.260 F1000
G1 X119.120 Y27.260 F1000
G1 X118.080 Y26.220 F1000
G1 X118.080 Y25.700 F1000
G1 X118.340 Y25.440 F1000
G1 X118.860 Y25.440 F1000
G1 X119.120 Y25.700 F1000
G1 X119.380 Y25.700 F1000
G1 X119.900 Y25.180 F1000
G1 X119.900 Y24.140 F1000
G1 X119.640 Y23.880 F1000
G1 X118.600 Y23.880 F1000
G1 X118.080 Y24.400 F1000
G1 X118.080 Y26.220 F1000
G1 X119.120 Y27.260 F1000
G0 Z3.0 ; Pen up

G0 X118.860 Y25.440 F3000 ; Travel to line 55
G0 Z0.0 ; Pen down
G1 X119.120 Y25.700 F1000
G1 X119.380 Y25.700 F1000
G1 X119.900 Y25.180 F1000
G1 X119.900 Y24.140 F1000
G1 X119.640 Y23.880 F1000
G1 X118.600 Y23.880 F1000
G1 X118.080 Y24.400 F1000
G1 X118.080 Y25.180 F1000
G1 X118.340 Y25.440 F1000
G0 Z3.0 ; Pen up

G0 X116.780 Y27.260 F3000 ; Travel to line 56
G0 Z0.0 ; Pen down
G1 X115.740 Y27.260 F1000
G1 X115.480 Y27.000 F1000
G1 X115.480 Y23.880 F1000
G1 X115.480 Y27.000 F1000
G1 X115.220 Y27.260 F1000
G1 X114.440 Y27.260 F1000
G0 Z3.0 ; Pen up

G0 X113.920 Y25.180 F3000 ; Travel to line 57
G0 Z0.0 ; Pen down
G1 X113.400 Y25.180 F1000
G0 Z3.0 ; Pen up

G0 X111.060 Y27.260 F3000 ; Travel to line 58
G0 Z0.0 ; Pen down
G1 X111.060 Y24.140 F1000
G1 X111.320 Y23.880 F1000
G1 X111.840 Y23.880 F1000
G1 X110.800 Y23.880 F1000
G1 X111.060 Y24.140 F1000
G1 X111.060 Y27.000 F1000
G1 X110.800 Y27.260 F1000
G1 X110.540 Y27.000 F1000
G1 X110.280 Y27.000 F1000
G1 X110.540 Y27.000 F1000
G1 X110.800 Y27.260 F1000
G0 Z3.0 ; Pen up

G0 X108.200 Y27.260 F3000 ; Travel to line 59
G0 Z0.0 ; Pen down
G1 X108.460 Y27.000 F1000
G1 X108.720 Y27.000 F1000
G1 X108.460 Y27.000 F1000
G1 X108.200 Y27.260 F1000
G1 X107.940 Y27.260 F1000
G1 X106.900 Y26.220 F1000
G1 X106.900 Y25.700 F1000
G1 X107.160 Y25.440 F1000
G1 X107.680 Y25.440 F1000
G1 X107.940 Y25.700 F1000
G1 X108.200 Y25.700 F1000
G1 X108.720 Y25.180 F1000
G1 X108.720 Y24.140 F1000
G1 X108.460 Y23.880 F1000
G1 X107.420 Y23.880 F1000
G1 X106.900 Y24.400 F1000
G1 X106.900 Y26.220 F1000
G1 X107.940 Y27.260 F1000
G0 Z3.0 ; Pen up

G0 X107.680 Y25.440 F3000 ; Travel to line 60
G0 Z0.0 ; Pen down
G1 X107.940 Y25.700 F1000
G1 X108.200 Y25.700 F1000
G1 X108.720 Y25.180 F1000
G1 X108.720 Y24.140 F1000
G1 X108.460 Y23.880 F1000
G1 X107.420 Y23.880 F1000
G1 X106.900 Y24.400 F1000
G1 X106.900 Y25.180 F1000
G1 X107.160 Y25.440 F1000
G0 Z3.0 ; Pen up

G0 X104.560 Y27.260 F3000 ; Travel to line 61
G0 Z0.0 ; Pen down
G1 X104.820 Y27.000 F1000
G1 X105.080 Y27.000 F1000
G1 X105.340 Y26.740 F1000
G1 X105.340 Y24.140 F1000
G1 X105.080 Y23.880 F1000
G1 X104.040 Y23.880 F1000
G1 X103.520 Y24.400 F1000
G1 X103.520 Y24.920 F1000
G1 X103.260 Y25.180 F1000
G1 X103.260 Y25.700 F1000
G1 X103.520 Y25.960 F1000
G1 X103.520 Y26.480 F1000
G1 X104.300 Y27.260 F1000
G1 X104.300 Y27.260 F1000
G1 X104.560 Y27.260 F1000
G1 X104.820 Y27.000 F1000
G1 X105.080 Y27.000 F1000
G1 X105.340 Y26.740 F1000
G1 X105.340 Y24.140 F1000
G1 X105.080 Y23.880 F1000
G1 X104.040 Y23.880 F1000
G1 X103.520 Y24.400 F1000
G1 X103.520 Y24.920 F1000
G1 X103.260 Y25.180 F1000
G1 X103.260 Y25.700 F1000
G1 X103.520 Y25.960 F1000
G1 X103.520 Y26.480 F1000
G0 Z3.0 ; Pen up

G0 X101.440 Y27.260 F3000 ; Travel to line 62
G0 Z0.0 ; Pen down
G1 X101.700 Y27.000 F1000
G1 X101.960 Y27.000 F1000
G1 X101.700 Y27.000 F1000
G1 X101.440 Y27.260 F1000
G1 X101.180 Y27.260 F1000
G1 X100.140 Y26.220 F1000
G1 X100.140 Y25.700 F1000
G1 X100.400 Y25.440 F1000
G1 X100.920 Y25.440 F1000
G1 X101.180 Y25.700 F1000
G1 X101.440 Y25.700 F1000
G1 X101.960 Y25.180 F1000
G1 X101.960 Y24.140 F1000
G1 X101.700 Y23.880 F1000
G1 X100.660 Y23.880 F1000
G1 X100.140 Y24.400 F1000
G1 X100.140 Y26.220 F1000
G1 X101.180 Y27.260 F1000
G0 Z3.0 ; Pen up

G0 X100.920 Y25.440 F3000 ; Travel to line 63
G0 Z0.0 ; Pen down
G1 X101.180 Y25.700 F1000
G1 X101.440 Y25.700 F1000
G1 X101.960 Y25.180 F1000
G1 X101.960 Y24.140 F1000
G1 X101.700 Y23.880 F1000
G1 X100.660 Y23.880 F1000
G1 X100.140 Y24.400 F1000
G1 X100.140 Y25.180 F1000
G1 X100.400 Y25.440 F1000
G0 Z3.0 ; Pen up

G0 X103.520 Y20.500 F3000 ; Travel to line 64
G0 Z0.0 ; Pen down
G1 X103.520 Y17.900 F1000
G1 X104.040 Y17.380 F1000
G1 X105.340 Y17.380 F1000
G1 X105.860 Y17.900 F1000
G1 X105.860 Y20.500 F1000
G1 X105.860 Y17.900 F1000
G1 X105.340 Y17.380 F1000
G1 X104.040 Y17.380 F1000
G1 X103.520 Y17.900 F1000
G0 Z3.0 ; Pen up

G0 X107.680 Y20.240 F3000 ; Travel to line 65
G0 Z0.0 ; Pen down
G1 X107.940 Y19.980 F1000
G1 X108.200 Y19.980 F1000
G1 X108.200 Y19.720 F1000
G1 X108.460 Y19.460 F1000
G1 X108.460 Y19.200 F1000
G1 X108.720 Y18.940 F1000
G1 X108.720 Y18.680 F1000
G1 X109.500 Y17.900 F1000
G1 X109.760 Y18.160 F1000
G1 X109.760 Y20.500 F1000
G1 X109.760 Y17.900 F1000
G1 X109.240 Y17.900 F1000
G1 X109.240 Y18.160 F1000
G1 X108.720 Y18.680 F1000
G1 X108.720 Y18.940 F1000
G1 X108.460 Y19.200 F1000
G1 X108.460 Y19.460 F1000
G1 X107.940 Y19.980 F1000
G1 X107.680 Y19.980 F1000
G1 X107.420 Y19.720 F1000
G1 X107.420 Y17.380 F1000
G1 X107.420 Y19.980 F1000
G1 X107.680 Y20.240 F1000
G1 X107.680 Y20.500 F1000
G0 Z3.0 ; Pen up

G0 X111.320 Y20.500 F3000 ; Travel to line 66
G0 Z0.0 ; Pen down
G1 X111.320 Y17.380 F1000
G1 X113.140 Y17.380 F1000
G1 X111.580 Y17.380 F1000
G1 X111.320 Y17.640 F1000
G0 Z3.0 ; Pen up

G0 X114.440 Y20.760 F3000 ; Travel to line 67
G0 Z0.0 ; Pen down
G1 X114.180 Y20.500 F1000
G1 X114.180 Y17.380 F1000
G1 X116.000 Y17.380 F1000
G1 X114.440 Y17.380 F1000
G1 X114.180 Y17.640 F1000
G1 X114.180 Y18.940 F1000
G1 X114.440 Y19.200 F1000
G1 X116.000 Y19.200 F1000
G1 X114.440 Y19.200 F1000
G1 X114.180 Y19.460 F1000
G1 X114.180 Y20.240 F1000
G1 X114.700 Y20.760 F1000
G1 X116.000 Y20.760 F1000
G0 Z3.0 ; Pen up

G0 X118.340 Y20.760 F3000 ; Travel to line 68
G0 Z0.0 ; Pen down
G1 X118.080 Y20.500 F1000
G1 X117.820 Y20.500 F1000
G1 X117.560 Y20.240 F1000
G1 X117.560 Y19.460 F1000
G1 X117.820 Y19.200 F1000
G1 X118.340 Y19.200 F1000
G1 X118.600 Y18.940 F1000
G1 X119.120 Y18.940 F1000
G1 X119.380 Y18.680 F1000
G1 X119.380 Y17.640 F1000
G1 X119.120 Y17.380 F1000
G1 X117.560 Y17.380 F1000
G1 X119.120 Y17.380 F1000
G1 X119.380 Y17.640 F1000
G1 X119.380 Y18.680 F1000
G1 X119.120 Y18.940 F1000
G1 X118.600 Y18.940 F1000
G1 X118.340 Y19.200 F1000
G1 X117.820 Y19.200 F1000
G1 X117.560 Y19.460 F1000
G1 X117.560 Y20.240 F1000
G1 X117.820 Y20.500 F1000
G1 X118.080 Y20.500 F1000
G1 X118.340 Y20.760 F1000
G1 X118.860 Y20.760 F1000
G1 X119.120 Y20.500 F1000
G1 X119.380 Y20.500 F1000
G1 X119.120 Y20.500 F1000
G1 X118.860 Y20.760 F1000
G0 Z3.0 ; Pen up

G0 X121.460 Y20.760 F3000 ; Travel to line 69
G0 Z0.0 ; Pen down
G1 X121.200 Y20.500 F1000
G1 X120.940 Y20.500 F1000
G1 X120.680 Y20.240 F1000
G1 X120.680 Y19.460 F1000
G1 X120.940 Y19.200 F1000
G1 X121.460 Y19.200 F1000
G1 X121.720 Y18.940 F1000
G1 X122.240 Y18.940 F1000
G1 X122.500 Y18.680 F1000
G1 X122.500 Y17.640 F1000
G1 X122.240 Y17.380 F1000
G1 X120.680 Y17.380 F1000
G1 X122.240 Y17.380 F1000
G1 X122.500 Y17.640 F1000
G1 X122.500 Y18.680 F1000
G1 X122.240 Y18.940 F1000
G1 X121.720 Y18.940 F1000
G1 X121.460 Y19.200 F1000
G1 X120.940 Y19.200 F1000
G1 X120.680 Y19.460 F1000
G1 X120.680 Y20.240 F1000
G1 X120.940 Y20.500 F1000
G1 X121.200 Y20.500 F1000
G1 X121.460 Y20.760 F1000
G1 X121.980 Y20.760 F1000
G1 X122.240 Y20.500 F1000
G1 X122.500 Y20.500 F1000
G1 X122.240 Y20.500 F1000
G1 X121.980 Y20.760 F1000
G0 Z3.0 ; Pen up

G0 X125.880 Y20.500 F3000 ; Travel to line 70
G0 Z0.0 ; Pen down
G1 X125.880 Y20.240 F1000
G1 X125.620 Y19.980 F1000
G1 X125.620 Y17.380 F1000
G1 X125.620 Y19.720 F1000
G1 X125.880 Y19.980 F1000
G1 X126.140 Y19.980 F1000
G1 X126.660 Y19.460 F1000
G1 X126.660 Y19.200 F1000
G1 X126.920 Y18.940 F1000
G1 X126.920 Y18.680 F1000
G1 X127.440 Y18.160 F1000
G1 X127.440 Y17.900 F1000
G1 X127.960 Y17.900 F1000
G1 X127.960 Y20.500 F1000
G1 X127.960 Y18.160 F1000
G1 X127.700 Y17.900 F1000
G1 X126.920 Y18.680 F1000
G1 X126.920 Y18.940 F1000
G1 X126.660 Y19.200 F1000
G1 X126.660 Y19.460 F1000
G1 X126.400 Y19.720 F1000
G1 X126.400 Y19.980 F1000
G1 X126.140 Y19.980 F1000
G1 X125.880 Y20.240 F1000
G0 Z3.0 ; Pen up

G0 X129.520 Y19.720 F3000 ; Travel to line 71
G0 Z0.0 ; Pen down
G1 X129.520 Y19.460 F1000
G1 X129.260 Y19.200 F1000
G1 X129.260 Y18.680 F1000
G1 X129.520 Y18.420 F1000
G1 X129.520 Y18.160 F1000
G1 X130.300 Y17.380 F1000
G1 X131.600 Y17.380 F1000
G1 X132.120 Y17.900 F1000
G1 X132.120 Y18.420 F1000
G1 X132.380 Y18.680 F1000
G1 X132.380 Y19.200 F1000
G1 X132.120 Y19.460 F1000
G1 X132.120 Y19.980 F1000
G1 X131.340 Y20.760 F1000
G1 X130.560 Y20.760 F1000
G1 X130.560 Y20.760 F1000
G1 X129.520 Y19.720 F1000
G1 X129.520 Y19.460 F1000
G1 X129.260 Y19.200 F1000
G1 X129.260 Y18.680 F1000
G1 X129.520 Y18.420 F1000
G1 X129.520 Y18.160 F1000
G1 X130.300 Y17.380 F1000
G1 X131.600 Y17.380 F1000
G1 X132.120 Y17.900 F1000
G1 X132.120 Y18.420 F1000
G1 X132.380 Y18.680 F1000
G1 X132.380 Y19.200 F1000
G1 X132.120 Y19.460 F1000
G1 X132.120 Y19.980 F1000
G1 X131.340 Y20.760 F1000
G0 Z3.0 ; Pen up

G0 X133.420 Y20.760 F3000 ; Travel to line 72
G0 Z0.0 ; Pen down
G1 X134.200 Y20.760 F1000
G1 X134.460 Y20.500 F1000
G1 X134.460 Y17.380 F1000
G1 X134.460 Y20.500 F1000
G1 X134.720 Y20.760 F1000
G1 X135.760 Y20.760 F1000
G0 Z3.0 ; Pen up

G0 X137.060 Y20.760 F3000 ; Travel to line 73
G0 Z0.0 ; Pen down
G1 X136.800 Y20.500 F1000
G1 X136.800 Y17.380 F1000
G1 X138.620 Y17.380 F1000
G1 X137.060 Y17.380 F1000
G1 X136.800 Y17.640 F1000
G1 X136.800 Y18.940 F1000
G1 X137.060 Y19.200 F1000
G1 X138.620 Y19.200 F1000
G1 X137.060 Y19.200 F1000
G1 X136.800 Y19.460 F1000
G1 X136.800 Y20.240 F1000
G1 X137.320 Y20.760 F1000
G1 X138.620 Y20.760 F1000
G0 Z3.0 ; Pen up

G0 X140.180 Y20.240 F3000 ; Travel to line 74
G0 Z0.0 ; Pen down
G1 X140.180 Y17.640 F1000
G1 X140.440 Y17.380 F1000
G1 X142.000 Y17.380 F1000
G1 X142.260 Y17.640 F1000
G1 X142.520 Y17.640 F1000
G1 X142.780 Y17.900 F1000
G1 X142.780 Y19.980 F1000
G1 X142.260 Y20.500 F1000
G1 X142.000 Y20.500 F1000
G1 X141.740 Y20.760 F1000
G1 X140.700 Y20.760 F1000
G0 Z3.0 ; Pen up

G0 X140.440 Y20.760 F3000 ; Travel to line 75
G0 Z0.0 ; Pen down
G1 X140.180 Y20.500 F1000
G1 X140.180 Y17.380 F1000
G1 X142.000 Y17.380 F1000
G1 X142.260 Y17.640 F1000
G1 X142.520 Y17.640 F1000
G1 X142.780 Y17.900 F1000
G1 X142.780 Y19.980 F1000
G1 X142.260 Y20.500 F1000
G1 X142.000 Y20.500 F1000
G1 X141.740 Y20.760 F1000
G0 Z3.0 ; Pen up

G0 X98.060 Y19.720 F3000 ; Travel to line 76
G0 Z0.0 ; Pen down
G1 X98.580 Y19.200 F1000
G1 X98.840 Y19.200 F1000
G1 X99.100 Y19.460 F1000
G1 X99.360 Y19.460 F1000
G1 X99.620 Y19.720 F1000
G1 X99.880 Y19.720 F1000
G1 X100.400 Y19.200 F1000
G1 X100.400 Y17.380 F1000
G1 X100.400 Y19.200 F1000
G1 X99.880 Y19.720 F1000
G1 X99.620 Y19.720 F1000
G1 X99.100 Y19.200 F1000
G1 X98.840 Y19.200 F1000
G1 X98.580 Y18.940 F1000
G1 X98.580 Y17.380 F1000
G1 X98.580 Y19.200 F1000
G1 X98.060 Y19.720 F1000
G1 X97.800 Y19.720 F1000
G1 X97.540 Y19.460 F1000
G1 X97.020 Y19.460 F1000
G1 X96.760 Y19.200 F1000
G1 X96.760 Y17.380 F1000
G1 X96.760 Y19.200 F1000
G1 X97.020 Y19.460 F1000
G1 X97.540 Y19.460 F1000
G1 X97.800 Y19.720 F1000
G0 Z3.0 ; Pen up

G0 X93.120 Y19.720 F3000 ; Travel to line 77
G0 Z0.0 ; Pen down
G1 X93.640 Y19.200 F1000
G1 X93.900 Y19.200 F1000
G1 X94.160 Y19.460 F1000
G1 X94.420 Y19.460 F1000
G1 X94.680 Y19.720 F1000
G1 X94.940 Y19.720 F1000
G1 X95.460 Y19.200 F1000
G1 X95.460 Y17.380 F1000
G1 X95.460 Y19.200 F1000
G1 X94.940 Y19.720 F1000
G1 X94.680 Y19.720 F1000
G1 X94.160 Y19.200 F1000
G1 X93.900 Y19.200 F1000
G1 X93.640 Y18.940 F1000
G1 X93.640 Y17.380 F1000
G1 X93.640 Y19.200 F1000
G1 X93.120 Y19.720 F1000
G1 X92.860 Y19.720 F1000
G1 X92.600 Y19.460 F1000
G1 X92.080 Y19.460 F1000
G1 X91.820 Y19.200 F1000
G1 X91.820 Y17.380 F1000
G1 X91.820 Y19.200 F1000
G1 X92.080 Y19.460 F1000
G1 X92.600 Y19.460 F1000
G1 X92.860 Y19.720 F1000
G0 Z3.0 ; Pen up

G0 X89.480 Y20.760 F3000 ; Travel to line 78
G0 Z0.0 ; Pen down
G1 X89.480 Y17.640 F1000
G1 X89.740 Y17.380 F1000
G1 X90.260 Y17.380 F1000
G1 X89.220 Y17.380 F1000
G1 X89.480 Y17.640 F1000
G1 X89.480 Y20.500 F1000
G1 X89.220 Y20.760 F1000
G1 X88.960 Y20.500 F1000
G1 X88.700 Y20.500 F1000
G1 X88.960 Y20.500 F1000
G1 X89.220 Y20.760 F1000
G0 Z3.0 ; Pen up

G0 X90.260 Y24.400 F3000 ; Travel to line 79
G0 Z0.0 ; Pen down
G1 X90.780 Y23.880 F1000
G1 X92.080 Y23.880 F1000
G1 X92.600 Y24.400 F1000
G1 X92.600 Y27.000 F1000
G1 X92.600 Y24.400 F1000
G1 X92.080 Y23.880 F1000
G1 X90.780 Y23.880 F1000
G1 X90.260 Y24.400 F1000
G1 X90.260 Y27.000 F1000
G0 Z3.0 ; Pen up

G0 X86.620 Y27.000 F3000 ; Travel to line 80
G0 Z0.0 ; Pen down
G1 X86.620 Y26.740 F1000
G1 X86.360 Y26.480 F1000
G1 X86.360 Y23.880 F1000
G1 X86.360 Y26.220 F1000
G1 X86.620 Y26.480 F1000
G1 X86.880 Y26.480 F1000
G1 X87.400 Y25.960 F1000
G1 X87.400 Y25.700 F1000
G1 X87.660 Y25.440 F1000
G1 X87.660 Y25.180 F1000
G1 X88.180 Y24.660 F1000
G1 X88.180 Y24.400 F1000
G1 X88.700 Y24.400 F1000
G1 X88.700 Y27.000 F1000
G1 X88.700 Y24.660 F1000
G1 X88.440 Y24.400 F1000
G1 X87.660 Y25.180 F1000
G1 X87.660 Y25.440 F1000
G1 X87.400 Y25.700 F1000
G1 X87.400 Y25.960 F1000
G1 X87.140 Y26.220 F1000
G1 X87.140 Y26.480 F1000
G1 X86.880 Y26.480 F1000
G1 X86.620 Y26.740 F1000
G0 Z3.0 ; Pen up

G0 X84.800 Y27.000 F3000 ; Travel to line 81
G0 Z0.0 ; Pen down
G1 X84.800 Y23.880 F1000
G0 Z3.0 ; Pen up

G0 X84.540 Y20.760 F3000 ; Travel to line 82
G0 Z0.0 ; Pen down
G1 X84.800 Y20.500 F1000
G1 X85.060 Y20.500 F1000
G1 X85.320 Y20.240 F1000
G1 X85.320 Y17.640 F1000
G1 X85.060 Y17.380 F1000
G1 X84.020 Y17.380 F1000
G1 X83.500 Y17.900 F1000
G1 X83.500 Y18.420 F1000
G1 X83.240 Y18.680 F1000
G1 X83.240 Y19.200 F1000
G1 X83.500 Y19.460 F1000
G1 X83.500 Y19.980 F1000
G1 X84.280 Y20.760 F1000
G1 X84.280 Y20.760 F1000
G1 X84.540 Y20.760 F1000
G1 X84.800 Y20.500 F1000
G1 X85.060 Y20.500 F1000
G1 X85.320 Y20.240 F1000
G1 X85.320 Y17.640 F1000
G1 X85.060 Y17.380 F1000
G1 X84.020 Y17.380 F1000
G1 X83.500 Y17.900 F1000
G1 X83.500 Y18.420 F1000
G1 X83.240 Y18.680 F1000
G1 X83.240 Y19.200 F1000
G1 X83.500 Y19.460 F1000
G1 X83.500 Y19.980 F1000
G0 Z3.0 ; Pen up

G0 X80.640 Y20.240 F3000 ; Travel to line 83
G0 Z0.0 ; Pen down
G1 X80.640 Y19.460 F1000
G1 X80.380 Y19.200 F1000
G1 X79.340 Y19.200 F1000
G1 X80.380 Y19.200 F1000
G1 X80.640 Y18.940 F1000
G1 X80.640 Y17.900 F1000
G1 X80.640 Y18.940 F1000
G1 X80.900 Y19.200 F1000
G1 X81.940 Y19.200 F1000
G1 X80.900 Y19.200 F1000
G1 X80.640 Y19.460 F1000
G0 Z3.0 ; Pen up

G0 X79.340 Y17.380 F3000 ; Travel to line 84
G0 Z0.0 ; Pen down
G1 X81.940 Y17.380 F1000
G0 Z3.0 ; Pen up

G0 X73.880 Y20.760 F3000 ; Travel to line 85
G0 Z0.0 ; Pen down
G1 X74.140 Y20.500 F1000
G1 X74.400 Y20.500 F1000
G1 X74.140 Y20.500 F1000
G1 X73.880 Y20.760 F1000
G1 X73.360 Y20.760 F1000
G1 X73.100 Y20.500 F1000
G1 X72.840 Y20.500 F1000
G1 X72.580 Y20.240 F1000
G1 X72.580 Y19.460 F1000
G1 X72.840 Y19.200 F1000
G1 X73.360 Y19.200 F1000
G1 X73.620 Y18.940 F1000
G1 X74.140 Y18.940 F1000
G1 X74.400 Y18.680 F1000
G1 X74.400 Y17.640 F1000
G1 X74.140 Y17.380 F1000
G1 X72.580 Y17.380 F1000
G1 X74.140 Y17.380 F1000
G1 X74.400 Y17.640 F1000
G1 X74.400 Y18.680 F1000
G1 X74.140 Y18.940 F1000
G1 X73.620 Y18.940 F1000
G1 X73.360 Y19.200 F1000
G1 X72.840 Y19.200 F1000
G1 X72.580 Y19.460 F1000
G1 X72.580 Y20.240 F1000
G1 X72.840 Y20.500 F1000
G1 X73.100 Y20.500 F1000
G1 X73.360 Y20.760 F1000
G0 Z3.0 ; Pen up

G0 X71.020 Y20.760 F3000 ; Travel to line 86
G0 Z0.0 ; Pen down
G1 X69.720 Y20.760 F1000
G1 X69.200 Y20.240 F1000
G1 X69.200 Y19.460 F1000
G1 X69.460 Y19.200 F1000
G1 X71.020 Y19.200 F1000
G1 X69.460 Y19.200 F1000
G1 X69.200 Y18.940 F1000
G1 X69.200 Y17.640 F1000
G1 X69.460 Y17.380 F1000
G1 X71.020 Y17.380 F1000
G1 X69.200 Y17.380 F1000
G1 X69.200 Y20.500 F1000
G1 X69.460 Y20.760 F1000
G0 Z3.0 ; Pen up

G0 X67.380 Y20.760 F3000 ; Travel to line 87
G0 Z0.0 ; Pen down
G1 X67.640 Y20.500 F1000
G1 X67.900 Y20.500 F1000
G1 X67.640 Y20.500 F1000
G1 X67.380 Y20.760 F1000
G1 X66.600 Y20.760 F1000
G1 X65.560 Y19.720 F1000
G1 X65.560 Y19.460 F1000
G1 X65.300 Y19.200 F1000
G1 X65.300 Y18.680 F1000
G1 X65.560 Y18.420 F1000
G1 X65.560 Y18.160 F1000
G1 X66.340 Y17.380 F1000
G1 X67.900 Y17.380 F1000
G1 X66.340 Y17.380 F1000
G1 X65.560 Y18.160 F1000
G1 X65.560 Y18.420 F1000
G1 X65.300 Y18.680 F1000
G1 X65.300 Y19.200 F1000
G1 X65.560 Y19.460 F1000
G1 X65.560 Y19.720 F1000
G1 X66.600 Y20.760 F1000
G0 Z3.0 ; Pen up

G0 X70.760 Y26.220 F3000 ; Travel to line 88
G0 Z0.0 ; Pen down
G1 X70.760 Y25.700 F1000
G1 X70.500 Y25.440 F1000
G1 X70.500 Y24.920 F1000
G1 X70.760 Y24.660 F1000
G1 X71.800 Y24.660 F1000
G1 X72.060 Y24.920 F1000
G1 X72.060 Y25.700 F1000
G1 X71.800 Y25.960 F1000
G1 X71.800 Y26.480 F1000
G1 X71.540 Y26.740 F1000
G1 X71.280 Y26.740 F1000
G0 Z3.0 ; Pen up

G0 X71.020 Y26.740 F3000 ; Travel to line 89
G0 Z0.0 ; Pen down
G1 X71.020 Y26.480 F1000
G1 X70.760 Y26.220 F1000
G1 X70.760 Y25.700 F1000
G1 X70.500 Y25.440 F1000
G1 X70.500 Y24.920 F1000
G1 X70.240 Y24.660 F1000
G1 X70.240 Y24.400 F1000
G1 X69.980 Y24.140 F1000
G1 X69.980 Y23.620 F1000
G1 X69.980 Y24.140 F1000
G1 X70.500 Y24.660 F1000
G1 X72.060 Y24.660 F1000
G1 X72.580 Y24.140 F1000
G1 X72.580 Y23.880 F1000
G1 X72.580 Y24.140 F1000
G1 X72.320 Y24.400 F1000
G1 X72.320 Y24.660 F1000
G1 X72.060 Y24.920 F1000
G1 X72.060 Y25.700 F1000
G1 X71.800 Y25.960 F1000
G1 X71.800 Y26.480 F1000
G1 X71.540 Y26.740 F1000
G0 Z3.0 ; Pen up

G0 X73.880 Y27.000 F3000 ; Travel to line 90
G0 Z0.0 ; Pen down
G1 X73.880 Y23.880 F1000
G1 X75.700 Y23.880 F1000
G1 X74.140 Y23.880 F1000
G1 X73.880 Y24.140 F1000
G0 Z3.0 ; Pen up

G0 X76.480 Y24.400 F3000 ; Travel to line 91
G0 Z0.0 ; Pen down
G1 X77.000 Y23.880 F1000
G1 X78.300 Y23.880 F1000
G1 X78.820 Y24.400 F1000
G1 X78.820 Y27.000 F1000
G1 X78.820 Y24.400 F1000
G1 X78.300 Y23.880 F1000
G1 X77.000 Y23.880 F1000
G1 X76.480 Y24.400 F1000
G1 X76.480 Y27.000 F1000
G0 Z3.0 ; Pen up

G0 X80.640 Y27.000 F3000 ; Travel to line 92
G0 Z0.0 ; Pen down
G1 X80.640 Y26.740 F1000
G1 X80.380 Y26.480 F1000
G1 X80.380 Y23.880 F1000
G1 X80.380 Y26.220 F1000
G1 X80.640 Y26.480 F1000
G1 X80.900 Y26.480 F1000
G1 X81.420 Y25.960 F1000
G1 X81.420 Y25.440 F1000
G1 X81.680 Y25.180 F1000
G1 X81.680 Y24.920 F1000
G1 X82.200 Y24.920 F1000
G1 X82.460 Y25.180 F1000
G1 X82.460 Y25.700 F1000
G1 X82.720 Y25.960 F1000
G1 X82.720 Y26.220 F1000
G1 X82.980 Y26.480 F1000
G1 X83.240 Y26.220 F1000
G1 X83.240 Y23.880 F1000
G1 X83.240 Y27.000 F1000
G1 X83.240 Y26.740 F1000
G1 X82.980 Y26.480 F1000
G1 X82.720 Y26.480 F1000
G1 X82.720 Y25.960 F1000
G1 X82.460 Y25.700 F1000
G1 X82.460 Y25.180 F1000
G1 X82.200 Y24.920 F1000
G1 X81.940 Y24.920 F1000
G1 X81.420 Y25.440 F1000
G1 X81.420 Y25.960 F1000
G1 X81.160 Y26.220 F1000
G1 X81.160 Y26.480 F1000
G1 X80.900 Y26.480 F1000
G1 X80.640 Y26.740 F1000
G0 Z3.0 ; Pen up

G0 X94.420 Y26.740 F3000 ; Travel to line 93
G0 Z0.0 ; Pen down
G1 X94.680 Y26.480 F1000
G1 X94.940 Y26.480 F1000
G1 X94.940 Y26.220 F1000
G1 X95.200 Y25.960 F1000
G1 X95.200 Y25.440 F1000
G1 X95.720 Y24.920 F1000
G1 X95.980 Y24.920 F1000
G1 X96.240 Y25.180 F1000
G1 X96.240 Y25.700 F1000
G1 X96.500 Y25.960 F1000
G1 X96.500 Y26.480 F1000
G1 X96.760 Y26.480 F1000
G1 X97.020 Y26.740 F1000
G1 X97.020 Y27.000 F1000
G1 X97.020 Y23.880 F1000
G1 X97.020 Y26.220 F1000
G1 X96.760 Y26.480 F1000
G1 X96.500 Y26.220 F1000
G1 X96.500 Y25.960 F1000
G1 X96.240 Y25.700 F1000
G1 X96.240 Y25.180 F1000
G1 X95.980 Y24.920 F1000
G1 X95.460 Y24.920 F1000
G1 X95.460 Y25.180 F1000
G1 X95.200 Y25.440 F1000
G1 X95.200 Y25.960 F1000
G1 X94.680 Y26.480 F1000
G1 X94.420 Y26.480 F1000
G1 X94.160 Y26.220 F1000
G1 X94.160 Y23.880 F1000
G1 X94.160 Y26.480 F1000
G1 X94.420 Y26.740 F1000
G1 X94.420 Y27.000 F1000
G0 Z3.0 ; Pen up

G0 X58.020 Y33.240 F3000 ; Travel to line 94
G0 Z0.0 ; Pen down
G1 X58.280 Y32.980 F1000
G1 X58.540 Y32.980 F1000
G1 X58.540 Y32.720 F1000
G1 X58.800 Y32.460 F1000
G1 X58.800 Y31.940 F1000
G1 X59.320 Y31.420 F1000
G1 X59.580 Y31.420 F1000
G1 X59.840 Y31.680 F1000
G1 X59.840 Y32.200 F1000
G1 X60.100 Y32.460 F1000
G1 X60.100 Y32.980 F1000
G1 X60.360 Y32.980 F1000
G1 X60.620 Y33.240 F1000
G1 X60.620 Y33.500 F1000
G1 X60.620 Y30.380 F1000
G1 X60.620 Y32.720 F1000
G1 X60.360 Y32.980 F1000
G1 X60.100 Y32.720 F1000
G1 X60.100 Y32.460 F1000
G1 X59.840 Y32.200 F1000
G1 X59.840 Y31.680 F1000
G1 X59.580 Y31.420 F1000
G1 X59.060 Y31.420 F1000
G1 X59.060 Y31.680 F1000
G1 X58.800 Y31.940 F1000
G1 X58.800 Y32.460 F1000
G1 X58.280 Y32.980 F1000
G1 X58.020 Y32.980 F1000
G1 X57.760 Y32.720 F1000
G1 X57.760 Y30.380 F1000
G1 X57.760 Y32.980 F1000
G1 X58.020 Y33.240 F1000
G1 X58.020 Y33.500 F1000
G0 Z3.0 ; Pen up

G0 X56.200 Y33.500 F3000 ; Travel to line 95
G0 Z0.0 ; Pen down
G1 X56.200 Y30.380 F1000
G0 Z3.0 ; Pen up

G0 X53.860 Y33.760 F3000 ; Travel to line 96
G0 Z0.0 ; Pen down
G1 X54.120 Y33.500 F1000
G1 X54.380 Y33.500 F1000
G1 X54.900 Y32.980 F1000
G1 X54.900 Y30.900 F1000
G1 X54.640 Y30.640 F1000
G1 X54.380 Y30.640 F1000
G1 X54.120 Y30.380 F1000
G1 X52.300 Y30.380 F1000
G1 X52.300 Y33.500 F1000
G1 X52.560 Y33.760 F1000
G0 Z3.0 ; Pen up

G0 X52.820 Y33.760 F3000 ; Travel to line 97
G0 Z0.0 ; Pen down
G1 X53.860 Y33.760 F1000
G1 X54.120 Y33.500 F1000
G1 X54.380 Y33.500 F1000
G1 X54.900 Y32.980 F1000
G1 X54.900 Y30.900 F1000
G1 X54.640 Y30.640 F1000
G1 X54.380 Y30.640 F1000
G1 X54.120 Y30.380 F1000
G1 X52.560 Y30.380 F1000
G1 X52.300 Y30.640 F1000
G1 X52.300 Y33.240 F1000
G0 Z3.0 ; Pen up

G0 X31.760 Y47.800 F3000 ; Travel to line 98
G0 Z0.0 ; Pen down
G1 X265.240 Y47.800 F1000
G0 Z3.0 ; Pen up

G0 X229.880 Y90.700 F3000 ; Travel to line 99
G0 Z0.0 ; Pen down
G1 X230.140 Y90.440 F1000
G1 X230.400 Y90.700 F1000
G1 X230.920 Y90.700 F1000
G1 X231.180 Y90.440 F1000
G1 X231.180 Y88.880 F1000
G1 X231.180 Y90.440 F1000
G1 X230.920 Y90.700 F1000
G1 X230.400 Y90.700 F1000
G1 X229.880 Y90.180 F1000
G1 X229.880 Y89.140 F1000
G1 X229.880 Y90.440 F1000
G1 X229.620 Y90.700 F1000
G1 X228.840 Y90.700 F1000
G1 X228.580 Y90.440 F1000
G1 X228.580 Y89.140 F1000
G1 X228.580 Y90.440 F1000
G1 X228.840 Y90.700 F1000
G0 Z3.0 ; Pen up

G0 X223.900 Y91.220 F3000 ; Travel to line 100
G0 Z0.0 ; Pen down
G1 X224.160 Y90.960 F1000
G1 X224.160 Y90.700 F1000
G1 X224.420 Y90.440 F1000
G1 X224.420 Y89.660 F1000
G1 X224.160 Y89.400 F1000
G1 X224.160 Y89.140 F1000
G1 X223.900 Y88.880 F1000
G1 X223.380 Y88.880 F1000
G1 X222.860 Y89.400 F1000
G1 X222.860 Y90.700 F1000
G1 X223.380 Y91.220 F1000
G0 Z3.0 ; Pen up

G0 X223.120 Y90.960 F3000 ; Travel to line 101
G0 Z0.0 ; Pen down
G1 X223.380 Y91.220 F1000
G1 X223.900 Y91.220 F1000
G1 X224.160 Y90.960 F1000
G1 X224.160 Y90.700 F1000
G1 X224.420 Y90.440 F1000
G1 X224.420 Y89.660 F1000
G1 X224.160 Y89.400 F1000
G1 X224.160 Y89.140 F1000
G1 X223.900 Y88.880 F1000
G1 X223.380 Y88.880 F1000
G1 X223.120 Y89.140 F1000
G1 X223.120 Y89.400 F1000
G1 X222.860 Y89.660 F1000
G1 X222.860 Y90.440 F1000
G1 X223.120 Y90.700 F1000
G0 Z3.0 ; Pen up

G0 X221.560 Y91.220 F3000 ; Travel to line 102
G0 Z0.0 ; Pen down
G1 X221.820 Y90.960 F1000
G1 X221.820 Y90.180 F1000
G1 X220.780 Y89.140 F1000
G1 X221.040 Y88.880 F1000
G1 X222.080 Y88.880 F1000
G1 X220.780 Y88.880 F1000
G1 X220.780 Y89.400 F1000
G1 X221.820 Y90.440 F1000
G1 X221.820 Y90.700 F1000
G1 X221.300 Y91.220 F1000
G1 X220.780 Y91.220 F1000
G1 X220.520 Y90.960 F1000
G1 X220.780 Y91.220 F1000
G0 Z3.0 ; Pen up

G0 X219.220 Y91.220 F3000 ; Travel to line 103
G0 Z0.0 ; Pen down
G1 X219.480 Y90.960 F1000
G1 X219.740 Y91.220 F1000
G1 X219.480 Y90.960 F1000
G1 X219.740 Y90.700 F1000
G1 X219.740 Y89.400 F1000
G1 X219.220 Y88.880 F1000
G1 X218.180 Y88.880 F1000
G1 X217.920 Y89.140 F1000
G1 X217.660 Y88.880 F1000
G1 X217.920 Y89.140 F1000
G1 X217.660 Y89.400 F1000
G1 X217.660 Y90.700 F1000
G1 X218.180 Y91.220 F1000
G0 Z3.0 ; Pen up

G0 X218.440 Y91.220 F3000 ; Travel to line 104
G0 Z0.0 ; Pen down
G1 X218.960 Y91.220 F1000
G1 X219.220 Y90.960 F1000
G1 X219.220 Y90.700 F1000
G1 X218.440 Y89.920 F1000
G1 X218.440 Y89.660 F1000
G1 X218.180 Y89.400 F1000
G1 X217.920 Y89.400 F1000
G1 X217.660 Y89.660 F1000
G1 X217.660 Y90.440 F1000
G0 Z3.0 ; Pen up

G0 X218.960 Y90.440 F3000 ; Travel to line 105
G0 Z0.0 ; Pen down
G1 X219.220 Y90.700 F1000
G1 X219.480 Y90.700 F1000
G1 X219.740 Y90.440 F1000
G1 X219.740 Y89.660 F1000
G1 X218.960 Y88.880 F1000
G1 X218.440 Y88.880 F1000
G1 X218.180 Y89.140 F1000
G1 X218.180 Y89.400 F1000
G1 X218.960 Y90.180 F1000
G0 Z3.0 ; Pen up

G0 X217.920 Y94.860 F3000 ; Travel to line 106
G0 Z0.0 ; Pen down
G1 X218.180 Y94.600 F1000
G1 X220.000 Y94.600 F1000
G1 X220.260 Y94.860 F1000
G1 X220.260 Y95.900 F1000
G1 X220.260 Y92.780 F1000
G1 X220.260 Y94.340 F1000
G1 X220.000 Y94.600 F1000
G1 X218.180 Y94.600 F1000
G1 X217.920 Y94.340 F1000
G1 X217.920 Y92.780 F1000
G1 X217.920 Y95.900 F1000
G0 Z3.0 ; Pen up

G0 X216.100 Y94.600 F3000 ; Travel to line 107
G0 Z0.0 ; Pen down
G1 X215.840 Y94.600 F1000
G1 X215.580 Y94.340 F1000
G1 X215.320 Y94.340 F1000
G1 X215.060 Y94.080 F1000
G1 X214.800 Y94.080 F1000
G1 X214.540 Y93.820 F1000
G1 X214.020 Y93.820 F1000
G1 X213.760 Y93.560 F1000
G1 X213.500 Y93.560 F1000
G1 X213.240 Y93.300 F1000
G1 X212.980 Y93.300 F1000
G1 X212.720 Y93.040 F1000
G1 X212.200 Y93.040 F1000
G1 X211.940 Y92.780 F1000
G1 X211.680 Y92.780 F1000
G1 X211.420 Y92.520 F1000
G1 X211.160 Y92.520 F1000
G1 X210.900 Y92.260 F1000
G1 X210.380 Y92.260 F1000
G1 X210.120 Y92.000 F1000
G1 X209.860 Y92.000 F1000
G1 X209.600 Y91.740 F1000
G1 X209.340 Y91.740 F1000
G1 X209.080 Y91.480 F1000
G1 X208.560 Y91.480 F1000
G1 X208.300 Y91.220 F1000
G1 X208.040 Y91.220 F1000
G1 X207.780 Y90.960 F1000
G1 X207.520 Y90.960 F1000
G1 X207.260 Y90.700 F1000
G1 X207.000 Y90.700 F1000
G1 X207.260 Y90.700 F1000
G1 X207.520 Y90.960 F1000
G1 X207.780 Y90.960 F1000
G1 X208.040 Y91.220 F1000
G1 X208.300 Y91.220 F1000
G1 X208.560 Y91.480 F1000
G1 X209.080 Y91.480 F1000
G1 X209.340 Y91.740 F1000
G1 X209.600 Y91.740 F1000
G1 X209.860 Y92.000 F1000
G1 X210.120 Y92.000 F1000
G1 X210.380 Y92.260 F1000
G1 X210.900 Y92.260 F1000
G1 X211.160 Y92.520 F1000
G1 X211.420 Y92.520 F1000
G1 X211.680 Y92.780 F1000
G1 X211.940 Y92.780 F1000
G1 X212.200 Y93.040 F1000
G1 X212.720 Y93.040 F1000
G1 X212.980 Y93.300 F1000
G1 X213.240 Y93.300 F1000
G1 X213.500 Y93.560 F1000
G1 X213.760 Y93.560 F1000
G1 X214.020 Y93.820 F1000
G1 X214.540 Y93.820 F1000
G1 X214.800 Y94.080 F1000
G1 X215.060 Y94.080 F1000
G1 X215.320 Y94.340 F1000
G1 X215.580 Y94.340 F1000
G1 X215.840 Y94.600 F1000
G0 Z3.0 ; Pen up

G0 X221.820 Y95.120 F3000 ; Travel to line 108
G0 Z0.0 ; Pen down
G1 X221.820 Y94.860 F1000
G1 X221.560 Y94.600 F1000
G1 X221.560 Y94.080 F1000
G1 X221.820 Y93.820 F1000
G1 X221.820 Y93.560 F1000
G1 X222.600 Y92.780 F1000
G1 X223.900 Y92.780 F1000
G1 X224.420 Y93.300 F1000
G1 X224.420 Y93.820 F1000
G1 X224.680 Y94.080 F1000
G1 X224.680 Y94.600 F1000
G1 X224.420 Y94.860 F1000
G1 X224.420 Y95.380 F1000
G1 X223.640 Y96.160 F1000
G1 X222.860 Y96.160 F1000
G1 X222.860 Y96.160 F1000
G1 X221.820 Y95.120 F1000
G1 X221.820 Y94.860 F1000
G1 X221.560 Y94.600 F1000
G1 X221.560 Y94.080 F1000
G1 X221.820 Y93.820 F1000
G1 X221.820 Y93.560 F1000
G1 X222.600 Y92.780 F1000
G1 X223.900 Y92.780 F1000
G1 X224.420 Y93.300 F1000
G1 X224.420 Y93.820 F1000
G1 X224.680 Y94.080 F1000
G1 X224.680 Y94.600 F1000
G1 X224.420 Y94.860 F1000
G1 X224.420 Y95.380 F1000
G1 X223.640 Y96.160 F1000
G0 Z3.0 ; Pen up

G0 X229.100 Y96.160 F3000 ; Travel to line 109
G0 Z0.0 ; Pen down
G1 X228.840 Y95.900 F1000
G1 X228.840 Y92.780 F1000
G1 X230.660 Y92.780 F1000
G1 X229.100 Y92.780 F1000
G1 X228.840 Y93.040 F1000
G1 X228.840 Y94.340 F1000
G1 X229.100 Y94.600 F1000
G1 X230.660 Y94.600 F1000
G1 X229.100 Y94.600 F1000
G1 X228.840 Y94.860 F1000
G1 X228.840 Y95.640 F1000
G1 X229.360 Y96.160 F1000
G1 X230.660 Y96.160 F1000
G0 Z3.0 ; Pen up

G0 X233.780 Y95.640 F3000 ; Travel to line 110
G0 Z0.0 ; Pen down
G1 X233.780 Y93.040 F1000
G1 X234.040 Y92.780 F1000
G1 X235.600 Y92.780 F1000
G1 X235.860 Y93.040 F1000
G1 X236.120 Y93.040 F1000
G1 X236.380 Y93.300 F1000
G1 X236.380 Y95.380 F1000
G1 X235.860 Y95.900 F1000
G1 X235.600 Y95.900 F1000
G1 X235.340 Y96.160 F1000
G1 X234.300 Y96.160 F1000
G0 Z3.0 ; Pen up

G0 X234.040 Y96.160 F3000 ; Travel to line 111
G0 Z0.0 ; Pen down
G1 X233.780 Y95.900 F1000
G1 X233.780 Y92.780 F1000
G1 X235.600 Y92.780 F1000
G1 X235.860 Y93.040 F1000
G1 X236.120 Y93.040 F1000
G1 X236.380 Y93.300 F1000
G1 X236.380 Y95.380 F1000
G1 X235.860 Y95.900 F1000
G1 X235.600 Y95.900 F1000
G1 X235.340 Y96.160 F1000
G0 Z3.0 ; Pen up

G0 X229.880 Y119.300 F3000 ; Travel to line 112
G0 Z0.0 ; Pen down
G1 X230.140 Y119.040 F1000
G1 X230.400 Y119.300 F1000
G1 X230.920 Y119.300 F1000
G1 X231.180 Y119.040 F1000
G1 X231.180 Y117.480 F1000
G1 X231.180 Y119.040 F1000
G1 X230.920 Y119.300 F1000
G1 X230.400 Y119.300 F1000
G1 X229.880 Y118.780 F1000
G1 X229.880 Y117.740 F1000
G1 X229.880 Y119.040 F1000
G1 X229.620 Y119.300 F1000
G1 X228.840 Y119.300 F1000
G1 X228.580 Y119.040 F1000
G1 X228.580 Y117.740 F1000
G1 X228.580 Y119.040 F1000
G1 X228.840 Y119.300 F1000
G0 Z3.0 ; Pen up

G0 X223.900 Y119.820 F3000 ; Travel to line 113
G0 Z0.0 ; Pen down
G1 X224.160 Y119.560 F1000
G1 X224.160 Y119.300 F1000
G1 X224.420 Y119.040 F1000
G1 X224.420 Y118.260 F1000
G1 X224.160 Y118.000 F1000
G1 X224.160 Y117.740 F1000
G1 X223.900 Y117.480 F1000
G1 X223.380 Y117.480 F1000
G1 X222.860 Y118.000 F1000
G1 X222.860 Y119.300 F1000
G1 X223.380 Y119.820 F1000
G0 Z3.0 ; Pen up

G0 X223.120 Y119.560 F3000 ; Travel to line 114
G0 Z0.0 ; Pen down
G1 X223.380 Y119.820 F1000
G1 X223.900 Y119.820 F1000
G1 X224.160 Y119.560 F1000
G1 X224.160 Y119.300 F1000
G1 X224.420 Y119.040 F1000
G1 X224.420 Y118.260 F1000
G1 X224.160 Y118.000 F1000
G1 X224.160 Y117.740 F1000
G1 X223.900 Y117.480 F1000
G1 X223.380 Y117.480 F1000
G1 X223.120 Y117.740 F1000
G1 X223.120 Y118.000 F1000
G1 X222.860 Y118.260 F1000
G1 X222.860 Y119.040 F1000
G1 X223.120 Y119.300 F1000
G0 Z3.0 ; Pen up

G0 X221.560 Y119.820 F3000 ; Travel to line 115
G0 Z0.0 ; Pen down
G1 X221.820 Y119.560 F1000
G1 X221.820 Y118.780 F1000
G1 X220.780 Y117.740 F1000
G1 X221.040 Y117.480 F1000
G1 X222.080 Y117.480 F1000
G1 X220.780 Y117.480 F1000
G1 X220.780 Y118.000 F1000
G1 X221.820 Y119.040 F1000
G1 X221.820 Y119.300 F1000
G1 X221.300 Y119.820 F1000
G1 X220.780 Y119.820 F1000
G1 X220.520 Y119.560 F1000
G1 X220.780 Y119.820 F1000
G0 Z3.0 ; Pen up

G0 X218.960 Y119.040 F3000 ; Travel to line 116
G0 Z0.0 ; Pen down
G1 X219.220 Y119.300 F1000
G1 X219.480 Y119.300 F1000
G1 X219.740 Y119.040 F1000
G1 X219.740 Y118.260 F1000
G1 X218.960 Y117.480 F1000
G1 X218.440 Y117.480 F1000
G1 X218.180 Y117.740 F1000
G1 X218.180 Y118.000 F1000
G1 X218.960 Y118.780 F1000
G0 Z3.0 ; Pen up

G0 X218.440 Y119.820 F3000 ; Travel to line 117
G0 Z0.0 ; Pen down
G1 X218.960 Y119.820 F1000
G1 X219.220 Y119.560 F1000
G1 X219.220 Y119.300 F1000
G1 X218.440 Y118.520 F1000
G1 X218.440 Y118.260 F1000
G1 X218.180 Y118.000 F1000
G1 X217.660 Y118.000 F1000
G1 X217.400 Y118.260 F1000
G1 X217.400 Y118.520 F1000
G1 X217.660 Y118.780 F1000
G1 X217.660 Y119.040 F1000
G0 Z3.0 ; Pen up

G0 X216.880 Y120.860 F3000 ; Travel to line 118
G0 Z0.0 ; Pen down
G1 X215.840 Y120.860 F1000
G1 X215.320 Y120.340 F1000
G1 X215.320 Y119.820 F1000
G1 X215.580 Y119.560 F1000
G1 X216.360 Y119.560 F1000
G1 X216.620 Y119.300 F1000
G1 X216.880 Y119.300 F1000
G1 X217.400 Y118.780 F1000
G1 X217.660 Y119.040 F1000
G1 X217.660 Y119.300 F1000
G1 X218.180 Y119.820 F1000
G1 X219.220 Y119.820 F1000
G1 X219.480 Y119.560 F1000
G1 X219.740 Y119.820 F1000
G1 X219.480 Y119.560 F1000
G1 X219.740 Y119.300 F1000
G1 X219.740 Y118.000 F1000
G1 X219.220 Y117.480 F1000
G1 X218.180 Y117.480 F1000
G1 X217.920 Y117.740 F1000
G1 X217.660 Y117.480 F1000
G1 X217.920 Y117.740 F1000
G1 X217.400 Y118.260 F1000
G1 X217.140 Y118.000 F1000
G1 X217.140 Y117.740 F1000
G1 X216.880 Y117.740 F1000
G1 X216.620 Y117.480 F1000
G1 X215.320 Y117.480 F1000
G1 X216.620 Y117.480 F1000
G1 X217.140 Y118.000 F1000
G1 X217.140 Y118.260 F1000
G1 X217.400 Y118.520 F1000
G1 X217.140 Y118.780 F1000
G1 X217.140 Y119.040 F1000
G1 X216.880 Y119.300 F1000
G1 X216.620 Y119.300 F1000
G1 X216.360 Y119.560 F1000
G1 X215.320 Y119.560 F1000
G1 X215.320 Y120.600 F1000
G1 X215.580 Y120.860 F1000
G0 Z3.0 ; Pen up

G0 X213.760 Y120.340 F3000 ; Travel to line 119
G0 Z0.0 ; Pen down
G1 X213.760 Y117.480 F1000
G1 X213.760 Y118.000 F1000
G1 X213.500 Y118.260 F1000
G1 X212.200 Y118.260 F1000
G1 X212.200 Y118.780 F1000
G1 X212.460 Y119.040 F1000
G1 X212.460 Y119.300 F1000
G1 X212.720 Y119.560 F1000
G1 X212.720 Y119.820 F1000
G1 X213.240 Y120.340 F1000
G0 Z3.0 ; Pen up

G0 X212.980 Y120.080 F3000 ; Travel to line 120
G0 Z0.0 ; Pen down
G1 X213.240 Y120.340 F1000
G1 X213.500 Y120.340 F1000
G1 X213.760 Y120.080 F1000
G1 X213.760 Y118.520 F1000
G1 X213.500 Y118.260 F1000
G1 X212.460 Y118.260 F1000
G1 X212.200 Y118.520 F1000
G1 X212.200 Y118.780 F1000
G1 X212.720 Y119.300 F1000
G1 X212.720 Y119.560 F1000
G1 X212.980 Y119.820 F1000
G0 Z3.0 ; Pen up

G0 X209.080 Y120.080 F3000 ; Travel to line 121
G0 Z0.0 ; Pen down
G1 X209.340 Y120.340 F1000
G1 X209.080 Y120.600 F1000
G1 X208.820 Y120.340 F1000
G0 Z3.0 ; Pen up

G0 X203.100 Y120.860 F3000 ; Travel to line 122
G0 Z0.0 ; Pen down
G1 X203.100 Y117.480 F1000
G1 X203.360 Y117.220 F1000
G1 X203.620 Y117.220 F1000
G1 X203.620 Y116.960 F1000
G1 X204.400 Y116.180 F1000
G1 X204.400 Y115.920 F1000
G1 X204.920 Y115.400 F1000
G1 X204.920 Y115.140 F1000
G1 X205.180 Y114.880 F1000
G1 X205.180 Y114.360 F1000
G1 X205.440 Y114.100 F1000
G1 X205.440 Y113.060 F1000
G1 X205.700 Y112.800 F1000
G1 X207.000 Y112.800 F1000
G1 X205.700 Y112.800 F1000
G1 X205.440 Y112.540 F1000
G1 X205.440 Y111.500 F1000
G1 X205.180 Y111.240 F1000
G1 X205.180 Y110.720 F1000
G1 X204.920 Y110.460 F1000
G1 X204.920 Y110.200 F1000
G1 X204.400 Y109.680 F1000
G1 X204.400 Y109.420 F1000
G1 X203.880 Y108.900 F1000
G1 X203.620 Y108.900 F1000
G1 X203.100 Y108.380 F1000
G1 X202.840 Y108.380 F1000
G1 X202.580 Y108.120 F1000
G1 X202.060 Y108.120 F1000
G1 X201.800 Y107.860 F1000
G1 X200.760 Y107.860 F1000
G1 X200.500 Y107.600 F1000
G1 X200.500 Y106.300 F1000
G1 X200.500 Y107.600 F1000
G1 X200.240 Y107.860 F1000
G1 X199.200 Y107.860 F1000
G1 X198.940 Y108.120 F1000
G1 X198.420 Y108.120 F1000
G1 X198.160 Y108.380 F1000
G1 X197.900 Y108.380 F1000
G1 X197.380 Y108.900 F1000
G1 X197.120 Y108.900 F1000
G1 X196.600 Y109.420 F1000
G1 X196.600 Y109.680 F1000
G1 X196.080 Y110.200 F1000
G1 X196.080 Y110.460 F1000
G1 X195.820 Y110.720 F1000
G1 X195.820 Y110.980 F1000
G1 X195.560 Y111.240 F1000
G1 X195.560 Y111.760 F1000
G1 X195.300 Y112.020 F1000
G1 X195.300 Y112.540 F1000
G1 X195.040 Y112.800 F1000
G1 X194.000 Y112.800 F1000
G1 X195.040 Y112.800 F1000
G1 X195.300 Y113.060 F1000
G1 X195.300 Y113.580 F1000
G1 X195.560 Y113.840 F1000
G1 X195.560 Y114.360 F1000
G1 X195.820 Y114.620 F1000
G1 X195.820 Y114.880 F1000
G1 X196.080 Y115.140 F1000
G1 X196.080 Y115.400 F1000
G1 X196.600 Y115.920 F1000
G1 X196.600 Y116.180 F1000
G1 X197.120 Y116.700 F1000
G1 X197.380 Y116.700 F1000
G1 X197.900 Y117.220 F1000
G1 X198.160 Y117.220 F1000
G1 X198.940 Y118.000 F1000
G1 X198.680 Y118.260 F1000
G1 X197.120 Y118.260 F1000
G1 X196.600 Y117.740 F1000
G1 X196.600 Y117.220 F1000
G1 X196.600 Y117.740 F1000
G1 X196.860 Y118.000 F1000
G1 X196.860 Y118.260 F1000
G1 X197.120 Y118.520 F1000
G1 X197.120 Y119.040 F1000
G1 X197.380 Y119.300 F1000
G1 X197.380 Y119.820 F1000
G1 X197.640 Y120.080 F1000
G1 X197.640 Y120.340 F1000
G1 X198.160 Y120.340 F1000
G1 X198.420 Y120.080 F1000
G1 X198.420 Y119.560 F1000
G1 X198.680 Y119.300 F1000
G1 X198.680 Y118.260 F1000
G1 X199.200 Y117.740 F1000
G1 X199.460 Y118.000 F1000
G1 X200.240 Y118.000 F1000
G1 X200.500 Y118.260 F1000
G1 X200.500 Y119.300 F1000
G1 X200.500 Y118.260 F1000
G1 X200.760 Y118.000 F1000
G1 X201.280 Y118.000 F1000
G1 X201.540 Y117.740 F1000
G1 X202.060 Y117.740 F1000
G1 X202.320 Y117.480 F1000
G1 X202.840 Y117.480 F1000
G1 X203.100 Y117.740 F1000
G1 X203.100 Y120.600 F1000
G1 X202.840 Y120.860 F1000
G1 X202.580 Y120.600 F1000
G1 X202.320 Y120.600 F1000
G1 X202.580 Y120.600 F1000
G1 X202.840 Y120.860 F1000
G0 Z3.0 ; Pen up

G0 X200.500 Y117.740 F3000 ; Travel to line 123
G0 Z0.0 ; Pen down
G1 X200.760 Y118.000 F1000
G1 X201.280 Y118.000 F1000
G1 X201.540 Y117.740 F1000
G1 X201.800 Y117.740 F1000
G1 X202.060 Y117.480 F1000
G1 X203.100 Y117.480 F1000
G1 X203.620 Y116.960 F1000
G1 X203.620 Y116.700 F1000
G1 X204.920 Y115.400 F1000
G1 X204.920 Y115.140 F1000
G1 X205.180 Y114.880 F1000
G1 X205.180 Y114.360 F1000
G1 X205.440 Y114.100 F1000
G1 X205.440 Y113.060 F1000
G1 X205.180 Y112.800 F1000
G1 X200.760 Y112.800 F1000
G1 X200.500 Y113.060 F1000
G0 Z3.0 ; Pen up

G0 X200.500 Y112.540 F3000 ; Travel to line 124
G0 Z0.0 ; Pen down
G1 X200.760 Y112.800 F1000
G1 X205.180 Y112.800 F1000
G1 X205.440 Y112.540 F1000
G1 X205.440 Y111.500 F1000
G1 X205.180 Y111.240 F1000
G1 X205.180 Y110.720 F1000
G1 X204.920 Y110.460 F1000
G1 X204.920 Y110.200 F1000
G1 X203.100 Y108.380 F1000
G1 X202.840 Y108.380 F1000
G1 X202.580 Y108.120 F1000
G1 X202.060 Y108.120 F1000
G1 X201.800 Y107.860 F1000
G1 X200.760 Y107.860 F1000
G1 X200.500 Y108.120 F1000
G0 Z3.0 ; Pen up

G0 X195.300 Y112.020 F3000 ; Travel to line 125
G0 Z0.0 ; Pen down
G1 X195.560 Y111.760 F1000
G1 X195.560 Y111.240 F1000
G1 X195.820 Y110.980 F1000
G1 X195.820 Y110.720 F1000
G1 X196.080 Y110.460 F1000
G1 X196.080 Y110.200 F1000
G1 X197.900 Y108.380 F1000
G1 X198.160 Y108.380 F1000
G1 X198.420 Y108.120 F1000
G1 X198.940 Y108.120 F1000
G1 X199.200 Y107.860 F1000
G1 X200.240 Y107.860 F1000
G1 X200.500 Y108.120 F1000
G1 X200.500 Y112.540 F1000
G1 X200.240 Y112.800 F1000
G1 X195.560 Y112.800 F1000
G1 X195.300 Y112.540 F1000
G0 Z3.0 ; Pen up

G0 X198.940 Y117.740 F3000 ; Travel to line 126
G0 Z0.0 ; Pen down
G1 X198.680 Y117.480 F1000
G1 X198.420 Y117.480 F1000
G1 X198.160 Y117.220 F1000
G1 X197.900 Y117.220 F1000
G1 X196.080 Y115.400 F1000
G1 X196.080 Y115.140 F1000
G1 X195.820 Y114.880 F1000
G1 X195.820 Y114.620 F1000
G1 X195.560 Y114.360 F1000
G1 X195.560 Y113.840 F1000
G1 X195.300 Y113.580 F1000
G1 X195.300 Y113.060 F1000
G1 X195.560 Y112.800 F1000
G1 X200.240 Y112.800 F1000
G1 X200.500 Y113.060 F1000
G1 X200.500 Y117.740 F1000
G1 X200.240 Y118.000 F1000
G1 X199.460 Y118.000 F1000
G1 X199.200 Y117.740 F1000
G0 Z3.0 ; Pen up

G0 X197.380 Y119.820 F3000 ; Travel to line 127
G0 Z0.0 ; Pen down
G1 X197.380 Y119.300 F1000
G1 X197.120 Y119.040 F1000
G1 X197.120 Y118.520 F1000
G1 X197.380 Y118.260 F1000
G1 X198.420 Y118.260 F1000
G1 X198.680 Y118.520 F1000
G1 X198.680 Y119.300 F1000
G1 X198.420 Y119.560 F1000
G1 X198.420 Y120.080 F1000
G1 X198.160 Y120.340 F1000
G1 X197.900 Y120.340 F1000
G0 Z3.0 ; Pen up

G0 X191.140 Y120.860 F3000 ; Travel to line 128
G0 Z0.0 ; Pen down
G1 X191.920 Y120.080 F1000
G1 X191.920 Y119.560 F1000
G1 X192.180 Y119.300 F1000
G1 X192.180 Y118.780 F1000
G1 X191.920 Y118.520 F1000
G1 X191.920 Y118.000 F1000
G1 X191.400 Y117.480 F1000
G1 X190.100 Y117.480 F1000
G1 X189.320 Y118.260 F1000
G1 X189.320 Y118.520 F1000
G1 X189.060 Y118.780 F1000
G1 X189.060 Y119.300 F1000
G1 X189.320 Y119.560 F1000
G1 X189.320 Y119.820 F1000
G1 X190.360 Y120.860 F1000
G1 X190.360 Y120.860 F1000
G1 X191.140 Y120.860 F1000
G1 X191.920 Y120.080 F1000
G1 X191.920 Y119.560 F1000
G1 X192.180 Y119.300 F1000
G1 X192.180 Y118.780 F1000
G1 X191.920 Y118.520 F1000
G1 X191.920 Y118.000 F1000
G1 X191.400 Y117.480 F1000
G1 X190.100 Y117.480 F1000
G1 X189.320 Y118.260 F1000
G1 X189.320 Y118.520 F1000
G1 X189.060 Y118.780 F1000
G1 X189.060 Y119.300 F1000
G1 X189.320 Y119.560 F1000
G1 X189.320 Y119.820 F1000
G0 Z3.0 ; Pen up

G0 X185.680 Y120.340 F3000 ; Travel to line 129
G0 Z0.0 ; Pen down
G1 X185.940 Y120.080 F1000
G1 X186.200 Y120.080 F1000
G1 X186.200 Y119.820 F1000
G1 X186.460 Y119.560 F1000
G1 X186.460 Y119.300 F1000
G1 X186.720 Y119.040 F1000
G1 X186.720 Y118.780 F1000
G1 X187.500 Y118.000 F1000
G1 X187.760 Y118.260 F1000
G1 X187.760 Y120.600 F1000
G1 X187.760 Y118.000 F1000
G1 X187.240 Y118.000 F1000
G1 X187.240 Y118.260 F1000
G1 X186.720 Y118.780 F1000
G1 X186.720 Y119.040 F1000
G1 X186.460 Y119.300 F1000
G1 X186.460 Y119.560 F1000
G1 X185.940 Y120.080 F1000
G1 X185.680 Y120.080 F1000
G1 X185.420 Y119.820 F1000
G1 X185.420 Y117.480 F1000
G1 X185.420 Y120.080 F1000
G1 X185.680 Y120.340 F1000
G1 X185.680 Y120.600 F1000
G0 Z3.0 ; Pen up

G0 X182.820 Y120.860 F3000 ; Travel to line 130
G0 Z0.0 ; Pen down
G1 X181.780 Y120.860 F1000
G1 X181.520 Y120.600 F1000
G1 X181.520 Y117.480 F1000
G1 X181.520 Y120.600 F1000
G1 X181.260 Y120.860 F1000
G1 X180.480 Y120.860 F1000
G0 Z3.0 ; Pen up

G0 X178.660 Y120.860 F3000 ; Travel to line 131
G0 Z0.0 ; Pen down
G1 X178.920 Y120.600 F1000
G1 X179.180 Y120.600 F1000
G1 X179.180 Y119.560 F1000
G1 X178.920 Y119.300 F1000
G1 X178.920 Y119.040 F1000
G1 X179.180 Y118.780 F1000
G1 X179.180 Y118.520 F1000
G1 X179.440 Y118.260 F1000
G1 X179.440 Y118.000 F1000
G1 X179.700 Y117.740 F1000
G1 X179.700 Y117.480 F1000
G1 X179.700 Y117.740 F1000
G1 X179.440 Y118.000 F1000
G1 X179.440 Y118.260 F1000
G1 X178.920 Y118.780 F1000
G1 X178.920 Y119.040 F1000
G1 X178.660 Y119.300 F1000
G1 X177.620 Y119.300 F1000
G1 X177.360 Y119.040 F1000
G1 X177.360 Y117.480 F1000
G1 X177.360 Y120.600 F1000
G1 X177.620 Y120.860 F1000
G0 Z3.0 ; Pen up

G0 X177.880 Y120.860 F3000 ; Travel to line 132
G0 Z0.0 ; Pen down
G1 X178.660 Y120.860 F1000
G1 X179.180 Y120.340 F1000
G1 X179.180 Y119.560 F1000
G1 X178.920 Y119.300 F1000
G1 X177.620 Y119.300 F1000
G1 X177.360 Y119.560 F1000
G1 X177.360 Y120.340 F1000
G0 Z3.0 ; Pen up

G0 X175.280 Y120.340 F3000 ; Travel to line 133
G0 Z0.0 ; Pen down
G1 X175.540 Y120.080 F1000
G1 X175.540 Y119.560 F1000
G1 X175.800 Y119.300 F1000
G1 X175.800 Y118.520 F1000
G1 X176.060 Y118.260 F1000
G1 X176.060 Y118.000 F1000
G1 X176.320 Y117.740 F1000
G1 X176.320 Y117.480 F1000
G1 X176.320 Y117.740 F1000
G1 X175.800 Y118.260 F1000
G1 X174.240 Y118.260 F1000
G1 X173.720 Y117.740 F1000
G1 X173.720 Y117.220 F1000
G1 X173.720 Y117.740 F1000
G1 X173.980 Y118.000 F1000
G1 X173.980 Y118.260 F1000
G1 X174.240 Y118.520 F1000
G1 X174.240 Y119.040 F1000
G1 X174.500 Y119.300 F1000
G1 X174.500 Y119.820 F1000
G1 X174.760 Y120.080 F1000
G1 X174.760 Y120.340 F1000
G0 Z3.0 ; Pen up

G0 X175.020 Y120.340 F3000 ; Travel to line 134
G0 Z0.0 ; Pen down
G1 X175.280 Y120.340 F1000
G1 X175.540 Y120.080 F1000
G1 X175.540 Y119.560 F1000
G1 X175.800 Y119.300 F1000
G1 X175.800 Y118.520 F1000
G1 X175.540 Y118.260 F1000
G1 X174.500 Y118.260 F1000
G1 X174.240 Y118.520 F1000
G1 X174.240 Y119.040 F1000
G1 X174.500 Y119.300 F1000
G1 X174.500 Y119.820 F1000
G0 Z3.0 ; Pen up

G0 X172.420 Y120.860 F3000 ; Travel to line 135
G0 Z0.0 ; Pen down
G1 X172.940 Y120.340 F1000
G1 X172.940 Y119.300 F1000
G1 X172.680 Y119.040 F1000
G1 X171.380 Y119.040 F1000
G1 X171.120 Y118.780 F1000
G1 X171.120 Y117.480 F1000
G1 X171.120 Y120.600 F1000
G1 X171.380 Y120.860 F1000
G0 Z3.0 ; Pen up

G0 X171.640 Y120.860 F3000 ; Travel to line 136
G0 Z0.0 ; Pen down
G1 X172.420 Y120.860 F1000
G1 X172.940 Y120.340 F1000
G1 X172.940 Y119.300 F1000
G1 X172.680 Y119.040 F1000
G1 X171.380 Y119.040 F1000
G1 X171.120 Y119.300 F1000
G1 X171.120 Y120.340 F1000
G0 Z3.0 ; Pen up

G0 X169.300 Y118.000 F3000 ; Travel to line 137
G0 Z0.0 ; Pen down
G1 X168.780 Y117.480 F1000
G1 X168.520 Y117.480 F1000
G1 X167.220 Y116.180 F1000
G1 X166.960 Y116.180 F1000
G1 X165.660 Y114.880 F1000
G1 X165.400 Y114.880 F1000
G1 X164.100 Y113.580 F1000
G1 X163.840 Y113.580 F1000
G1 X162.540 Y112.280 F1000
G1 X162.280 Y112.280 F1000
G1 X160.980 Y110.980 F1000
G1 X160.720 Y110.980 F1000
G1 X159.420 Y109.680 F1000
G1 X159.160 Y109.680 F1000
G1 X157.860 Y108.380 F1000
G1 X157.600 Y108.380 F1000
G1 X156.300 Y107.080 F1000
G1 X156.040 Y107.080 F1000
G1 X154.740 Y105.780 F1000
G1 X154.480 Y105.780 F1000
G1 X153.960 Y105.260 F1000
G1 X153.700 Y105.260 F1000
G1 X153.440 Y105.520 F1000
G1 X153.440 Y106.300 F1000
G1 X153.180 Y106.560 F1000
G1 X153.180 Y107.080 F1000
G1 X152.920 Y107.340 F1000
G1 X152.920 Y107.600 F1000
G1 X152.400 Y108.120 F1000
G1 X152.400 Y108.380 F1000
G1 X151.880 Y108.900 F1000
G1 X151.620 Y108.900 F1000
G1 X151.100 Y109.420 F1000
G1 X150.840 Y109.420 F1000
G1 X150.580 Y109.680 F1000
G1 X150.320 Y109.680 F1000
G1 X150.060 Y109.940 F1000
G1 X149.540 Y109.940 F1000
G1 X149.280 Y110.200 F1000
G1 X147.720 Y110.200 F1000
G1 X147.460 Y109.940 F1000
G1 X146.940 Y109.940 F1000
G1 X146.680 Y109.680 F1000
G1 X146.420 Y109.680 F1000
G1 X146.160 Y109.420 F1000
G1 X145.900 Y109.420 F1000
G1 X145.380 Y108.900 F1000
G1 X145.120 Y108.900 F1000
G1 X144.600 Y108.380 F1000
G1 X144.600 Y108.120 F1000
G1 X144.080 Y107.600 F1000
G1 X144.080 Y107.340 F1000
G1 X143.820 Y107.080 F1000
G1 X143.820 Y106.820 F1000
G1 X143.560 Y106.560 F1000
G1 X143.560 Y106.040 F1000
G1 X143.300 Y105.780 F1000
G1 X143.300 Y104.220 F1000
G1 X143.560 Y103.960 F1000
G1 X143.560 Y103.440 F1000
G1 X143.820 Y103.180 F1000
G1 X143.820 Y102.920 F1000
G1 X144.080 Y102.660 F1000
G1 X144.080 Y102.400 F1000
G1 X144.600 Y101.880 F1000
G1 X144.600 Y101.620 F1000
G1 X145.120 Y101.100 F1000
G1 X145.380 Y101.100 F1000
G1 X145.900 Y100.580 F1000
G1 X146.420 Y100.580 F1000
G1 X146.680 Y100.320 F1000
G1 X150.580 Y100.320 F1000
G1 X150.840 Y100.580 F1000
G1 X151.100 Y100.580 F1000
G1 X151.620 Y101.100 F1000
G1 X151.880 Y101.100 F1000
G1 X152.400 Y101.620 F1000
G1 X152.400 Y101.880 F1000
G1 X152.920 Y102.400 F1000
G1 X152.920 Y102.660 F1000
G1 X153.180 Y102.920 F1000
G1 X153.180 Y103.440 F1000
G1 X153.440 Y103.700 F1000
G1 X153.440 Y105.000 F1000
G1 X153.700 Y105.260 F1000
G1 X153.960 Y105.260 F1000
G1 X154.480 Y105.780 F1000
G1 X154.740 Y105.780 F1000
G1 X156.040 Y107.080 F1000
G1 X156.300 Y107.080 F1000
G1 X157.600 Y108.380 F1000
G1 X157.860 Y108.380 F1000
G1 X159.160 Y109.680 F1000
G1 X159.420 Y109.680 F1000
G1 X160.720 Y110.980 F1000
G1 X160.980 Y110.980 F1000
G1 X162.280 Y112.280 F1000
G1 X162.540 Y112.280 F1000
G1 X163.840 Y113.580 F1000
G1 X164.100 Y113.580 F1000
G1 X165.400 Y114.880 F1000
G1 X165.660 Y114.880 F1000
G1 X166.960 Y116.180 F1000
G1 X167.220 Y116.180 F1000
G1 X168.520 Y117.480 F1000
G1 X168.780 Y117.480 F1000
G0 Z3.0 ; Pen up

G0 X147.460 Y109.940 F3000 ; Travel to line 138
G0 Z0.0 ; Pen down
G1 X147.720 Y110.200 F1000
G1 X149.280 Y110.200 F1000
G1 X149.540 Y109.940 F1000
G1 X150.060 Y109.940 F1000
G1 X150.320 Y109.680 F1000
G1 X150.580 Y109.680 F1000
G1 X150.840 Y109.420 F1000
G1 X151.100 Y109.420 F1000
G1 X152.920 Y107.600 F1000
G1 X152.920 Y107.340 F1000
G1 X153.180 Y107.080 F1000
G1 X153.180 Y106.560 F1000
G1 X153.440 Y106.300 F1000
G1 X153.440 Y103.700 F1000
G1 X153.180 Y103.440 F1000
G1 X153.180 Y102.920 F1000
G1 X152.920 Y102.660 F1000
G1 X152.920 Y102.400 F1000
G1 X151.100 Y100.580 F1000
G1 X150.840 Y100.580 F1000
G1 X150.580 Y100.320 F1000
G1 X148.240 Y100.320 F1000
G1 X147.980 Y100.580 F1000
G1 X147.980 Y105.520 F1000
G1 X146.680 Y105.520 F1000
G1 X147.720 Y105.520 F1000
G1 X147.980 Y105.260 F1000
G1 X147.980 Y100.580 F1000
G1 X147.720 Y100.320 F1000
G1 X146.680 Y100.320 F1000
G1 X146.420 Y100.580 F1000
G1 X145.900 Y100.580 F1000
G1 X144.080 Y102.400 F1000
G1 X144.080 Y102.660 F1000
G1 X143.820 Y102.920 F1000
G1 X143.820 Y103.180 F1000
G1 X143.560 Y103.440 F1000
G1 X143.560 Y103.960 F1000
G1 X143.300 Y104.220 F1000
G1 X143.300 Y105.780 F1000
G1 X143.560 Y106.040 F1000
G1 X143.560 Y106.560 F1000
G1 X143.820 Y106.820 F1000
G1 X143.820 Y107.080 F1000
G1 X144.080 Y107.340 F1000
G1 X144.080 Y107.600 F1000
G1 X145.900 Y109.420 F1000
G1 X146.160 Y109.420 F1000
G1 X146.420 Y109.680 F1000
G1 X146.680 Y109.680 F1000
G1 X146.940 Y109.940 F1000
G0 Z3.0 ; Pen up

G0 X131.600 Y96.160 F3000 ; Travel to line 139
G0 Z0.0 ; Pen down
G1 X131.860 Y95.900 F1000
G1 X132.120 Y95.900 F1000
G1 X131.860 Y95.900 F1000
G1 X131.600 Y96.160 F1000
G1 X130.820 Y96.160 F1000
G1 X129.780 Y95.120 F1000
G1 X129.780 Y94.860 F1000
G1 X129.520 Y94.600 F1000
G1 X129.520 Y94.080 F1000
G1 X129.780 Y93.820 F1000
G1 X129.780 Y93.560 F1000
G1 X130.560 Y92.780 F1000
G1 X132.120 Y92.780 F1000
G1 X130.560 Y92.780 F1000
G1 X129.780 Y93.560 F1000
G1 X129.780 Y93.820 F1000
G1 X129.520 Y94.080 F1000
G1 X129.520 Y94.600 F1000
G1 X129.780 Y94.860 F1000
G1 X129.780 Y95.120 F1000
G1 X130.820 Y96.160 F1000
G0 Z3.0 ; Pen up

G0 X126.660 Y96.160 F3000 ; Travel to line 140
G0 Z0.0 ; Pen down
G1 X125.360 Y96.160 F1000
G1 X124.840 Y95.640 F1000
G1 X124.840 Y94.860 F1000
G1 X125.100 Y94.600 F1000
G1 X126.660 Y94.600 F1000
G1 X125.100 Y94.600 F1000
G1 X124.840 Y94.340 F1000
G1 X124.840 Y93.040 F1000
G1 X125.100 Y92.780 F1000
G1 X126.660 Y92.780 F1000
G1 X124.840 Y92.780 F1000
G1 X124.840 Y95.900 F1000
G1 X125.100 Y96.160 F1000
G0 Z3.0 ; Pen up

G0 X121.980 Y95.900 F3000 ; Travel to line 141
G0 Z0.0 ; Pen down
G1 X121.980 Y92.780 F1000
G1 X123.800 Y92.780 F1000
G1 X122.240 Y92.780 F1000
G1 X121.980 Y93.040 F1000
G0 Z3.0 ; Pen up

G0 X121.460 Y90.700 F3000 ; Travel to line 142
G0 Z0.0 ; Pen down
G1 X121.200 Y90.440 F1000
G1 X121.200 Y89.140 F1000
G1 X121.200 Y90.440 F1000
G1 X121.460 Y90.700 F1000
G1 X122.240 Y90.700 F1000
G1 X122.500 Y90.440 F1000
G1 X122.500 Y89.140 F1000
G1 X122.500 Y90.180 F1000
G1 X123.020 Y90.700 F1000
G1 X123.540 Y90.700 F1000
G1 X123.800 Y90.440 F1000
G1 X123.800 Y88.880 F1000
G1 X123.800 Y90.440 F1000
G1 X123.540 Y90.700 F1000
G1 X123.020 Y90.700 F1000
G1 X122.760 Y90.440 F1000
G1 X122.500 Y90.700 F1000
G0 Z3.0 ; Pen up

G0 X124.840 Y90.700 F3000 ; Travel to line 143
G0 Z0.0 ; Pen down
G1 X124.580 Y90.440 F1000
G1 X124.580 Y89.140 F1000
G1 X124.580 Y90.440 F1000
G1 X124.840 Y90.700 F1000
G1 X125.620 Y90.700 F1000
G1 X125.880 Y90.440 F1000
G1 X125.880 Y89.140 F1000
G1 X125.880 Y90.180 F1000
G1 X126.400 Y90.700 F1000
G1 X126.920 Y90.700 F1000
G1 X127.180 Y90.440 F1000
G1 X127.180 Y88.880 F1000
G1 X127.180 Y90.440 F1000
G1 X126.920 Y90.700 F1000
G1 X126.400 Y90.700 F1000
G1 X126.140 Y90.440 F1000
G1 X125.880 Y90.700 F1000
G0 Z3.0 ; Pen up

G0 X119.900 Y91.220 F3000 ; Travel to line 144
G0 Z0.0 ; Pen down
G1 X120.160 Y90.960 F1000
G1 X120.160 Y90.700 F1000
G1 X120.420 Y90.440 F1000
G1 X120.420 Y89.660 F1000
G1 X120.160 Y89.400 F1000
G1 X120.160 Y89.140 F1000
G1 X119.900 Y88.880 F1000
G1 X119.380 Y88.880 F1000
G1 X118.860 Y89.400 F1000
G1 X118.860 Y90.700 F1000
G1 X119.380 Y91.220 F1000
G0 Z3.0 ; Pen up

G0 X119.120 Y90.960 F3000 ; Travel to line 145
G0 Z0.0 ; Pen down
G1 X119.380 Y91.220 F1000
G1 X119.900 Y91.220 F1000
G1 X120.160 Y90.960 F1000
G1 X120.160 Y90.700 F1000
G1 X120.420 Y90.440 F1000
G1 X120.420 Y89.660 F1000
G1 X120.160 Y89.400 F1000
G1 X120.160 Y89.140 F1000
G1 X119.900 Y88.880 F1000
G1 X119.380 Y88.880 F1000
G1 X119.120 Y89.140 F1000
G1 X119.120 Y89.400 F1000
G1 X118.860 Y89.660 F1000
G1 X118.860 Y90.440 F1000
G1 X119.120 Y90.700 F1000
G0 Z3.0 ; Pen up

G0 X117.560 Y91.220 F3000 ; Travel to line 146
G0 Z0.0 ; Pen down
G1 X117.820 Y90.960 F1000
G1 X117.820 Y90.180 F1000
G1 X116.780 Y89.140 F1000
G1 X117.040 Y88.880 F1000
G1 X118.080 Y88.880 F1000
G1 X116.780 Y88.880 F1000
G1 X116.780 Y89.400 F1000
G1 X117.820 Y90.440 F1000
G1 X117.820 Y90.700 F1000
G1 X117.300 Y91.220 F1000
G1 X116.780 Y91.220 F1000
G1 X116.520 Y90.960 F1000
G1 X116.780 Y91.220 F1000
G0 Z3.0 ; Pen up

G0 X115.220 Y91.220 F3000 ; Travel to line 147
G0 Z0.0 ; Pen down
G1 X115.480 Y90.960 F1000
G1 X115.740 Y91.220 F1000
G1 X115.480 Y90.960 F1000
G1 X115.740 Y90.700 F1000
G1 X115.740 Y89.400 F1000
G1 X115.220 Y88.880 F1000
G1 X114.180 Y88.880 F1000
G1 X113.920 Y89.140 F1000
G1 X113.660 Y88.880 F1000
G1 X113.920 Y89.140 F1000
G1 X113.660 Y89.400 F1000
G1 X113.660 Y90.700 F1000
G1 X114.180 Y91.220 F1000
G0 Z3.0 ; Pen up

G0 X114.440 Y91.220 F3000 ; Travel to line 148
G0 Z0.0 ; Pen down
G1 X114.960 Y91.220 F1000
G1 X115.220 Y90.960 F1000
G1 X115.220 Y90.700 F1000
G1 X114.440 Y89.920 F1000
G1 X114.440 Y89.660 F1000
G1 X114.180 Y89.400 F1000
G1 X113.920 Y89.400 F1000
G1 X113.660 Y89.660 F1000
G1 X113.660 Y90.440 F1000
G0 Z3.0 ; Pen up

G0 X114.960 Y90.440 F3000 ; Travel to line 149
G0 Z0.0 ; Pen down
G1 X115.220 Y90.700 F1000
G1 X115.480 Y90.700 F1000
G1 X115.740 Y90.440 F1000
G1 X115.740 Y89.660 F1000
G1 X114.960 Y88.880 F1000
G1 X114.440 Y88.880 F1000
G1 X114.180 Y89.140 F1000
G1 X114.180 Y89.400 F1000
G1 X114.960 Y90.180 F1000
G0 Z3.0 ; Pen up

G0 X113.920 Y94.860 F3000 ; Travel to line 150
G0 Z0.0 ; Pen down
G1 X114.180 Y94.600 F1000
G1 X116.000 Y94.600 F1000
G1 X116.260 Y94.860 F1000
G1 X116.260 Y95.900 F1000
G1 X116.260 Y92.780 F1000
G1 X116.260 Y94.340 F1000
G1 X116.000 Y94.600 F1000
G1 X114.180 Y94.600 F1000
G1 X113.920 Y94.340 F1000
G1 X113.920 Y92.780 F1000
G1 X113.920 Y95.900 F1000
G0 Z3.0 ; Pen up

G0 X112.100 Y94.600 F3000 ; Travel to line 151
G0 Z0.0 ; Pen down
G1 X111.840 Y94.600 F1000
G1 X111.580 Y94.340 F1000
G1 X111.320 Y94.340 F1000
G1 X111.060 Y94.080 F1000
G1 X110.800 Y94.080 F1000
G1 X110.540 Y93.820 F1000
G1 X110.020 Y93.820 F1000
G1 X109.760 Y93.560 F1000
G1 X109.500 Y93.560 F1000
G1 X109.240 Y93.300 F1000
G1 X108.980 Y93.300 F1000
G1 X108.720 Y93.040 F1000
G1 X108.200 Y93.040 F1000
G1 X107.940 Y92.780 F1000
G1 X107.680 Y92.780 F1000
G1 X107.420 Y92.520 F1000
G1 X107.160 Y92.520 F1000
G1 X106.900 Y92.260 F1000
G1 X106.380 Y92.260 F1000
G1 X106.120 Y92.000 F1000
G1 X105.860 Y92.000 F1000
G1 X105.600 Y91.740 F1000
G1 X105.340 Y91.740 F1000
G1 X105.080 Y91.480 F1000
G1 X104.560 Y91.480 F1000
G1 X104.300 Y91.220 F1000
G1 X104.040 Y91.220 F1000
G1 X103.780 Y90.960 F1000
G1 X103.520 Y90.960 F1000
G1 X103.260 Y90.700 F1000
G1 X103.000 Y90.700 F1000
G1 X103.260 Y90.700 F1000
G1 X103.520 Y90.960 F1000
G1 X103.780 Y90.960 F1000
G1 X104.040 Y91.220 F1000
G1 X104.300 Y91.220 F1000
G1 X104.560 Y91.480 F1000
G1 X105.080 Y91.480 F1000
G1 X105.340 Y91.740 F1000
G1 X105.600 Y91.740 F1000
G1 X105.860 Y92.000 F1000
G1 X106.120 Y92.000 F1000
G1 X106.380 Y92.260 F1000
G1 X106.900 Y92.260 F1000
G1 X107.160 Y92.520 F1000
G1 X107.420 Y92.520 F1000
G1 X107.680 Y92.780 F1000
G1 X107.940 Y92.780 F1000
G1 X108.200 Y93.040 F1000
G1 X108.720 Y93.040 F1000
G1 X108.980 Y93.300 F1000
G1 X109.240 Y93.300 F1000
G1 X109.500 Y93.560 F1000
G1 X109.760 Y93.560 F1000
G1 X110.020 Y93.820 F1000
G1 X110.540 Y93.820 F1000
G1 X110.800 Y94.080 F1000
G1 X111.060 Y94.080 F1000
G1 X111.320 Y94.340 F1000
G1 X111.580 Y94.340 F1000
G1 X111.840 Y94.600 F1000
G0 Z3.0 ; Pen up

G0 X117.820 Y95.120 F3000 ; Travel to line 152
G0 Z0.0 ; Pen down
G1 X117.820 Y94.860 F1000
G1 X117.560 Y94.600 F1000
G1 X117.560 Y94.080 F1000
G1 X117.820 Y93.820 F1000
G1 X117.820 Y93.560 F1000
G1 X118.600 Y92.780 F1000
G1 X119.900 Y92.780 F1000
G1 X120.420 Y93.300 F1000
G1 X120.420 Y93.820 F1000
G1 X120.680 Y94.080 F1000
G1 X120.680 Y94.600 F1000
G1 X120.420 Y94.860 F1000
G1 X120.420 Y95.380 F1000
G1 X119.640 Y96.160 F1000
G1 X118.860 Y96.160 F1000
G1 X118.860 Y96.160 F1000
G1 X117.820 Y95.120 F1000
G1 X117.820 Y94.860 F1000
G1 X117.560 Y94.600 F1000
G1 X117.560 Y94.080 F1000
G1 X117.820 Y93.820 F1000
G1 X117.820 Y93.560 F1000
G1 X118.600 Y92.780 F1000
G1 X119.900 Y92.780 F1000
G1 X120.420 Y93.300 F1000
G1 X120.420 Y93.820 F1000
G1 X120.680 Y94.080 F1000
G1 X120.680 Y94.600 F1000
G1 X120.420 Y94.860 F1000
G1 X120.420 Y95.380 F1000
G1 X119.640 Y96.160 F1000
G0 Z3.0 ; Pen up

G0 X114.960 Y118.780 F3000 ; Travel to line 153
G0 Z0.0 ; Pen down
G1 X114.180 Y118.000 F1000
G1 X114.180 Y117.740 F1000
G1 X114.440 Y117.480 F1000
G1 X114.960 Y117.480 F1000
G1 X115.740 Y118.260 F1000
G1 X115.740 Y119.040 F1000
G1 X115.480 Y119.300 F1000
G1 X115.220 Y119.300 F1000
G1 X114.960 Y119.040 F1000
G0 Z3.0 ; Pen up

G0 X115.220 Y119.820 F3000 ; Travel to line 154
G0 Z0.0 ; Pen down
G1 X115.480 Y119.560 F1000
G1 X115.740 Y119.820 F1000
G1 X115.480 Y119.560 F1000
G1 X115.740 Y119.300 F1000
G1 X115.740 Y118.000 F1000
G1 X115.220 Y117.480 F1000
G1 X114.180 Y117.480 F1000
G1 X113.920 Y117.740 F1000
G1 X113.660 Y117.480 F1000
G1 X113.920 Y117.740 F1000
G1 X113.660 Y118.000 F1000
G1 X113.660 Y119.300 F1000
G1 X114.180 Y119.820 F1000
G0 Z3.0 ; Pen up

G0 X114.440 Y119.820 F3000 ; Travel to line 155
G0 Z0.0 ; Pen down
G1 X114.960 Y119.820 F1000
G1 X115.220 Y119.560 F1000
G1 X115.220 Y119.300 F1000
G1 X114.440 Y118.520 F1000
G1 X114.440 Y118.260 F1000
G1 X114.180 Y118.000 F1000
G1 X113.920 Y118.000 F1000
G1 X113.660 Y118.260 F1000
G1 X113.660 Y119.040 F1000
G0 Z3.0 ; Pen up

G0 X116.780 Y119.820 F3000 ; Travel to line 156
G0 Z0.0 ; Pen down
G1 X116.520 Y119.560 F1000
G1 X116.780 Y119.820 F1000
G1 X117.300 Y119.820 F1000
G1 X117.820 Y119.300 F1000
G1 X117.820 Y119.040 F1000
G1 X116.780 Y118.000 F1000
G1 X116.780 Y117.480 F1000
G1 X118.080 Y117.480 F1000
G1 X117.040 Y117.480 F1000
G1 X116.780 Y117.740 F1000
G1 X117.820 Y118.780 F1000
G1 X117.820 Y119.560 F1000
G1 X117.560 Y119.820 F1000
G0 Z3.0 ; Pen up

G0 X119.120 Y119.560 F3000 ; Travel to line 157
G0 Z0.0 ; Pen down
G1 X119.380 Y119.820 F1000
G1 X119.900 Y119.820 F1000
G1 X120.160 Y119.560 F1000
G1 X120.160 Y119.300 F1000
G1 X120.420 Y119.040 F1000
G1 X120.420 Y118.260 F1000
G1 X120.160 Y118.000 F1000
G1 X120.160 Y117.740 F1000
G1 X119.900 Y117.480 F1000
G1 X119.380 Y117.480 F1000
G1 X119.120 Y117.740 F1000
G1 X119.120 Y118.000 F1000
G1 X118.860 Y118.260 F1000
G1 X118.860 Y119.040 F1000
G1 X119.120 Y119.300 F1000
G0 Z3.0 ; Pen up

G0 X119.380 Y119.820 F3000 ; Travel to line 158
G0 Z0.0 ; Pen down
G1 X118.860 Y119.300 F1000
G1 X118.860 Y118.000 F1000
G1 X119.380 Y117.480 F1000
G1 X119.900 Y117.480 F1000
G1 X120.160 Y117.740 F1000
G1 X120.160 Y118.000 F1000
G1 X120.420 Y118.260 F1000
G1 X120.420 Y119.040 F1000
G1 X120.160 Y119.300 F1000
G1 X120.160 Y119.560 F1000
G1 X119.900 Y119.820 F1000
G0 Z3.0 ; Pen up

G0 X121.460 Y119.300 F3000 ; Travel to line 159
G0 Z0.0 ; Pen down
G1 X121.200 Y119.040 F1000
G1 X121.200 Y117.740 F1000
G1 X121.200 Y119.040 F1000
G1 X121.460 Y119.300 F1000
G1 X122.240 Y119.300 F1000
G1 X122.500 Y119.040 F1000
G1 X122.500 Y117.740 F1000
G1 X122.500 Y118.780 F1000
G1 X123.020 Y119.300 F1000
G1 X123.540 Y119.300 F1000
G1 X123.800 Y119.040 F1000
G1 X123.800 Y117.480 F1000
G1 X123.800 Y119.040 F1000
G1 X123.540 Y119.300 F1000
G1 X123.020 Y119.300 F1000
G1 X122.760 Y119.040 F1000
G1 X122.500 Y119.300 F1000
G0 Z3.0 ; Pen up

G0 X124.840 Y119.300 F3000 ; Travel to line 160
G0 Z0.0 ; Pen down
G1 X124.580 Y119.040 F1000
G1 X124.580 Y117.740 F1000
G1 X124.580 Y119.040 F1000
G1 X124.840 Y119.300 F1000
G1 X125.620 Y119.300 F1000
G1 X125.880 Y119.040 F1000
G1 X125.880 Y117.740 F1000
G1 X125.880 Y118.780 F1000
G1 X126.400 Y119.300 F1000
G1 X126.920 Y119.300 F1000
G1 X127.180 Y119.040 F1000
G1 X127.180 Y117.480 F1000
G1 X127.180 Y119.040 F1000
G1 X126.920 Y119.300 F1000
G1 X126.400 Y119.300 F1000
G1 X126.140 Y119.040 F1000
G1 X125.880 Y119.300 F1000
G0 Z3.0 ; Pen up

G0 X121.980 Y121.640 F3000 ; Travel to line 161
G0 Z0.0 ; Pen down
G1 X122.240 Y121.380 F1000
G1 X123.800 Y121.380 F1000
G1 X121.980 Y121.380 F1000
G1 X121.980 Y124.500 F1000
G0 Z3.0 ; Pen up

G0 X119.640 Y124.760 F3000 ; Travel to line 162
G0 Z0.0 ; Pen down
G1 X120.420 Y123.980 F1000
G1 X120.420 Y123.460 F1000
G1 X120.680 Y123.200 F1000
G1 X120.680 Y122.680 F1000
G1 X120.420 Y122.420 F1000
G1 X120.420 Y121.900 F1000
G1 X119.900 Y121.380 F1000
G1 X118.600 Y121.380 F1000
G1 X117.820 Y122.160 F1000
G1 X117.820 Y122.420 F1000
G1 X117.560 Y122.680 F1000
G1 X117.560 Y123.200 F1000
G1 X117.820 Y123.460 F1000
G1 X117.820 Y123.720 F1000
G1 X118.860 Y124.760 F1000
G1 X118.860 Y124.760 F1000
G1 X119.640 Y124.760 F1000
G1 X120.420 Y123.980 F1000
G1 X120.420 Y123.460 F1000
G1 X120.680 Y123.200 F1000
G1 X120.680 Y122.680 F1000
G1 X120.420 Y122.420 F1000
G1 X120.420 Y121.900 F1000
G1 X119.900 Y121.380 F1000
G1 X118.600 Y121.380 F1000
G1 X117.820 Y122.160 F1000
G1 X117.820 Y122.420 F1000
G1 X117.560 Y122.680 F1000
G1 X117.560 Y123.200 F1000
G1 X117.820 Y123.460 F1000
G1 X117.820 Y123.720 F1000
G0 Z3.0 ; Pen up

G0 X113.920 Y123.460 F3000 ; Travel to line 163
G0 Z0.0 ; Pen down
G1 X114.180 Y123.200 F1000
G1 X116.000 Y123.200 F1000
G1 X116.260 Y123.460 F1000
G1 X116.260 Y124.500 F1000
G1 X116.260 Y121.380 F1000
G1 X116.260 Y122.940 F1000
G1 X116.000 Y123.200 F1000
G1 X114.180 Y123.200 F1000
G1 X113.920 Y122.940 F1000
G1 X113.920 Y121.380 F1000
G1 X113.920 Y124.500 F1000
G0 Z3.0 ; Pen up

G0 X112.100 Y123.200 F3000 ; Travel to line 164
G0 Z0.0 ; Pen down
G1 X111.840 Y123.200 F1000
G1 X111.580 Y122.940 F1000
G1 X111.320 Y122.940 F1000
G1 X111.060 Y122.680 F1000
G1 X110.800 Y122.680 F1000
G1 X110.540 Y122.420 F1000
G1 X110.020 Y122.420 F1000
G1 X109.760 Y122.160 F1000
G1 X109.500 Y122.160 F1000
G1 X109.240 Y121.900 F1000
G1 X108.980 Y121.900 F1000
G1 X108.720 Y121.640 F1000
G1 X108.200 Y121.640 F1000
G1 X107.940 Y121.380 F1000
G1 X107.680 Y121.380 F1000
G1 X107.420 Y121.120 F1000
G1 X107.160 Y121.120 F1000
G1 X106.900 Y120.860 F1000
G1 X106.380 Y120.860 F1000
G1 X106.120 Y120.600 F1000
G1 X105.860 Y120.600 F1000
G1 X105.600 Y120.340 F1000
G1 X105.340 Y120.340 F1000
G1 X105.080 Y120.080 F1000
G1 X104.560 Y120.080 F1000
G1 X104.300 Y119.820 F1000
G1 X104.040 Y119.820 F1000
G1 X103.780 Y119.560 F1000
G1 X103.520 Y119.560 F1000
G1 X103.260 Y119.300 F1000
G1 X103.000 Y119.300 F1000
G1 X103.260 Y119.300 F1000
G1 X103.520 Y119.560 F1000
G1 X103.780 Y119.560 F1000
G1 X104.040 Y119.820 F1000
G1 X104.300 Y119.820 F1000
G1 X104.560 Y120.080 F1000
G1 X105.080 Y120.080 F1000
G1 X105.340 Y120.340 F1000
G1 X105.600 Y120.340 F1000
G1 X105.860 Y120.600 F1000
G1 X106.120 Y120.600 F1000
G1 X106.380 Y120.860 F1000
G1 X106.900 Y120.860 F1000
G1 X107.160 Y121.120 F1000
G1 X107.420 Y121.120 F1000
G1 X107.680 Y121.380 F1000
G1 X107.940 Y121.380 F1000
G1 X108.200 Y121.640 F1000
G1 X108.720 Y121.640 F1000
G1 X108.980 Y121.900 F1000
G1 X109.240 Y121.900 F1000
G1 X109.500 Y122.160 F1000
G1 X109.760 Y122.160 F1000
G1 X110.020 Y122.420 F1000
G1 X110.540 Y122.420 F1000
G1 X110.800 Y122.680 F1000
G1 X111.060 Y122.680 F1000
G1 X111.320 Y122.940 F1000
G1 X111.580 Y122.940 F1000
G1 X111.840 Y123.200 F1000
G0 Z3.0 ; Pen up

G0 X125.100 Y124.760 F3000 ; Travel to line 165
G0 Z0.0 ; Pen down
G1 X124.840 Y124.500 F1000
G1 X124.840 Y121.380 F1000
G1 X126.660 Y121.380 F1000
G1 X125.100 Y121.380 F1000
G1 X124.840 Y121.640 F1000
G1 X124.840 Y122.940 F1000
G1 X125.100 Y123.200 F1000
G1 X126.660 Y123.200 F1000
G1 X125.100 Y123.200 F1000
G1 X124.840 Y123.460 F1000
G1 X124.840 Y124.240 F1000
G1 X125.360 Y124.760 F1000
G1 X126.660 Y124.760 F1000
G0 Z3.0 ; Pen up

G0 X130.300 Y123.720 F3000 ; Travel to line 166
G0 Z0.0 ; Pen down
G1 X130.300 Y123.200 F1000
G1 X130.040 Y122.940 F1000
G1 X130.040 Y122.420 F1000
G1 X130.300 Y122.160 F1000
G1 X131.340 Y122.160 F1000
G1 X131.600 Y122.420 F1000
G1 X131.600 Y123.200 F1000
G1 X131.340 Y123.460 F1000
G1 X131.340 Y123.980 F1000
G1 X131.080 Y124.240 F1000
G1 X130.820 Y124.240 F1000
G0 Z3.0 ; Pen up

G0 X130.560 Y124.240 F3000 ; Travel to line 167
G0 Z0.0 ; Pen down
G1 X130.560 Y123.980 F1000
G1 X130.300 Y123.720 F1000
G1 X130.300 Y123.200 F1000
G1 X130.040 Y122.940 F1000
G1 X130.040 Y122.420 F1000
G1 X129.780 Y122.160 F1000
G1 X129.780 Y121.900 F1000
G1 X129.520 Y121.640 F1000
G1 X129.520 Y121.120 F1000
G1 X129.520 Y121.640 F1000
G1 X130.040 Y122.160 F1000
G1 X131.600 Y122.160 F1000
G1 X132.120 Y121.640 F1000
G1 X132.120 Y121.380 F1000
G1 X132.120 Y121.640 F1000
G1 X131.860 Y121.900 F1000
G1 X131.860 Y122.160 F1000
G1 X131.600 Y122.420 F1000
G1 X131.600 Y123.200 F1000
G1 X131.340 Y123.460 F1000
G1 X131.340 Y123.980 F1000
G1 X131.080 Y124.240 F1000
G0 Z3.0 ; Pen up

G0 X139.660 Y151.020 F3000 ; Travel to line 168
G0 Z0.0 ; Pen down
G1 X139.140 Y150.500 F1000
G1 X139.140 Y149.460 F1000
G1 X139.920 Y148.680 F1000
G1 X140.180 Y148.680 F1000
G1 X140.440 Y148.420 F1000
G1 X141.220 Y148.420 F1000
G1 X141.480 Y148.680 F1000
G1 X141.740 Y148.680 F1000
G1 X142.000 Y148.940 F1000
G1 X142.000 Y149.200 F1000
G1 X142.260 Y149.460 F1000
G1 X142.260 Y150.500 F1000
G1 X141.480 Y151.280 F1000
G1 X140.180 Y151.280 F1000
G1 X139.920 Y151.020 F1000
G0 Z3.0 ; Pen up

G0 X140.440 Y153.620 F3000 ; Travel to line 169
G0 Z0.0 ; Pen down
G1 X140.180 Y153.360 F1000
G1 X139.920 Y153.360 F1000
G1 X139.400 Y152.840 F1000
G1 X139.400 Y152.580 F1000
G1 X139.140 Y152.320 F1000
G1 X139.140 Y151.540 F1000
G1 X138.880 Y151.280 F1000
G1 X138.880 Y150.760 F1000
G1 X139.140 Y150.500 F1000
G1 X139.140 Y149.200 F1000
G1 X139.660 Y148.680 F1000
G1 X140.180 Y148.680 F1000
G1 X140.440 Y148.420 F1000
G1 X141.220 Y148.420 F1000
G1 X141.480 Y148.680 F1000
G1 X141.740 Y148.680 F1000
G1 X142.000 Y148.940 F1000
G1 X142.000 Y149.200 F1000
G1 X142.260 Y149.460 F1000
G1 X142.260 Y150.500 F1000
G1 X141.480 Y151.280 F1000
G1 X140.180 Y151.280 F1000
G1 X139.920 Y151.020 F1000
G1 X139.660 Y151.020 F1000
G1 X139.400 Y150.760 F1000
G1 X139.140 Y150.760 F1000
G1 X138.880 Y151.020 F1000
G1 X138.880 Y151.280 F1000
G1 X139.140 Y151.540 F1000
G1 X139.140 Y152.320 F1000
G1 X139.400 Y152.580 F1000
G1 X139.400 Y152.840 F1000
G1 X139.920 Y153.360 F1000
G1 X140.180 Y153.360 F1000
G1 X140.440 Y153.620 F1000
G1 X142.000 Y153.620 F1000
G0 Z3.0 ; Pen up

G0 X144.340 Y152.580 F3000 ; Travel to line 170
G0 Z0.0 ; Pen down
G1 X144.340 Y152.060 F1000
G1 X144.080 Y151.800 F1000
G1 X144.080 Y150.240 F1000
G1 X144.340 Y149.980 F1000
G1 X144.340 Y149.460 F1000
G1 X145.380 Y148.420 F1000
G1 X146.160 Y148.420 F1000
G1 X146.420 Y148.680 F1000
G1 X146.680 Y148.680 F1000
G1 X146.940 Y148.940 F1000
G1 X146.940 Y149.200 F1000
G1 X147.200 Y149.460 F1000
G1 X147.200 Y149.720 F1000
G1 X147.460 Y149.980 F1000
G1 X147.460 Y152.060 F1000
G1 X147.200 Y152.320 F1000
G1 X147.200 Y152.580 F1000
G1 X146.940 Y152.840 F1000
G1 X146.940 Y153.100 F1000
G1 X146.420 Y153.620 F1000
G1 X145.380 Y153.620 F1000
G0 Z3.0 ; Pen up

G0 X145.120 Y153.620 F3000 ; Travel to line 171
G0 Z0.0 ; Pen down
G1 X144.340 Y152.840 F1000
G1 X144.340 Y152.060 F1000
G1 X144.080 Y151.800 F1000
G1 X144.080 Y150.240 F1000
G1 X144.340 Y149.980 F1000
G1 X144.340 Y149.200 F1000
G1 X144.860 Y148.680 F1000
G1 X145.120 Y148.680 F1000
G1 X145.380 Y148.420 F1000
G1 X146.160 Y148.420 F1000
G1 X146.420 Y148.680 F1000
G1 X146.680 Y148.680 F1000
G1 X146.940 Y148.940 F1000
G1 X146.940 Y149.200 F1000
G1 X147.200 Y149.460 F1000
G1 X147.200 Y149.720 F1000
G1 X147.460 Y149.980 F1000
G1 X147.460 Y152.060 F1000
G1 X147.200 Y152.320 F1000
G1 X147.200 Y152.580 F1000
G1 X146.940 Y152.840 F1000
G1 X146.940 Y153.100 F1000
G1 X146.420 Y153.620 F1000
G0 Z3.0 ; Pen up

G0 X149.800 Y152.580 F3000 ; Travel to line 172
G0 Z0.0 ; Pen down
G1 X149.800 Y152.060 F1000
G1 X149.540 Y151.800 F1000
G1 X149.540 Y150.240 F1000
G1 X149.800 Y149.980 F1000
G1 X149.800 Y149.460 F1000
G1 X150.840 Y148.420 F1000
G1 X151.620 Y148.420 F1000
G1 X151.880 Y148.680 F1000
G1 X152.140 Y148.680 F1000
G1 X152.400 Y148.940 F1000
G1 X152.400 Y149.200 F1000
G1 X152.660 Y149.460 F1000
G1 X152.660 Y149.720 F1000
G1 X152.920 Y149.980 F1000
G1 X152.920 Y152.060 F1000
G1 X152.660 Y152.320 F1000
G1 X152.660 Y152.580 F1000
G1 X152.400 Y152.840 F1000
G1 X152.400 Y153.100 F1000
G1 X151.880 Y153.620 F1000
G1 X150.840 Y153.620 F1000
G0 Z3.0 ; Pen up

G0 X150.580 Y153.620 F3000 ; Travel to line 173
G0 Z0.0 ; Pen down
G1 X149.800 Y152.840 F1000
G1 X149.800 Y152.060 F1000
G1 X149.540 Y151.800 F1000
G1 X149.540 Y150.240 F1000
G1 X149.800 Y149.980 F1000
G1 X149.800 Y149.200 F1000
G1 X150.320 Y148.680 F1000
G1 X150.580 Y148.680 F1000
G1 X150.840 Y148.420 F1000
G1 X151.620 Y148.420 F1000
G1 X151.880 Y148.680 F1000
G1 X152.140 Y148.680 F1000
G1 X152.400 Y148.940 F1000
G1 X152.400 Y149.200 F1000
G1 X152.660 Y149.460 F1000
G1 X152.660 Y149.720 F1000
G1 X152.920 Y149.980 F1000
G1 X152.920 Y152.060 F1000
G1 X152.660 Y152.320 F1000
G1 X152.660 Y152.580 F1000
G1 X152.400 Y152.840 F1000
G1 X152.400 Y153.100 F1000
G1 X151.880 Y153.620 F1000
G0 Z3.0 ; Pen up

G0 X155.000 Y152.320 F3000 ; Travel to line 174
G0 Z0.0 ; Pen down
G1 X155.000 Y148.680 F1000
G1 X155.000 Y151.540 F1000
G1 X155.520 Y152.060 F1000
G1 X155.780 Y152.060 F1000
G1 X156.040 Y152.320 F1000
G1 X157.080 Y152.320 F1000
G1 X157.860 Y151.540 F1000
G1 X157.860 Y148.680 F1000
G1 X157.860 Y151.280 F1000
G1 X158.640 Y152.060 F1000
G1 X158.900 Y152.060 F1000
G1 X159.160 Y152.320 F1000
G1 X160.200 Y152.320 F1000
G1 X160.460 Y152.060 F1000
G1 X160.460 Y151.800 F1000
G1 X160.720 Y151.540 F1000
G1 X160.720 Y148.420 F1000
G1 X160.720 Y151.540 F1000
G1 X160.460 Y151.800 F1000
G1 X160.460 Y152.060 F1000
G1 X160.200 Y152.320 F1000
G1 X158.900 Y152.320 F1000
G1 X158.380 Y151.800 F1000
G1 X158.120 Y151.800 F1000
G1 X157.860 Y151.540 F1000
G1 X157.600 Y151.800 F1000
G1 X157.600 Y152.060 F1000
G1 X157.340 Y152.320 F1000
G1 X156.040 Y152.320 F1000
G1 X155.780 Y152.060 F1000
G1 X155.520 Y152.060 F1000
G1 X155.260 Y151.800 F1000
G1 X155.000 Y152.060 F1000
G0 Z3.0 ; Pen up

G0 X163.060 Y152.060 F3000 ; Travel to line 175
G0 Z0.0 ; Pen down
G1 X163.320 Y151.800 F1000
G1 X163.580 Y152.060 F1000
G1 X163.840 Y152.060 F1000
G1 X164.100 Y152.320 F1000
G1 X165.400 Y152.320 F1000
G1 X165.660 Y152.060 F1000
G1 X165.660 Y151.800 F1000
G1 X165.920 Y151.540 F1000
G1 X166.180 Y151.800 F1000
G1 X166.440 Y151.800 F1000
G1 X166.960 Y152.320 F1000
G1 X168.260 Y152.320 F1000
G1 X168.520 Y152.060 F1000
G1 X168.520 Y151.800 F1000
G1 X168.780 Y151.540 F1000
G1 X168.780 Y148.420 F1000
G1 X168.780 Y151.540 F1000
G1 X168.520 Y151.800 F1000
G1 X168.520 Y152.060 F1000
G1 X168.260 Y152.320 F1000
G1 X167.220 Y152.320 F1000
G1 X166.960 Y152.060 F1000
G1 X166.700 Y152.060 F1000
G1 X165.920 Y151.280 F1000
G1 X165.920 Y148.680 F1000
G1 X165.920 Y151.540 F1000
G1 X165.140 Y152.320 F1000
G1 X164.100 Y152.320 F1000
G1 X163.840 Y152.060 F1000
G1 X163.580 Y152.060 F1000
G1 X163.060 Y151.540 F1000
G1 X163.060 Y148.680 F1000
G1 X163.060 Y152.320 F1000
G0 Z3.0 ; Pen up

G0 X158.640 Y178.320 F3000 ; Travel to line 176
G0 Z0.0 ; Pen down
G1 X158.640 Y177.800 F1000
G1 X158.380 Y177.540 F1000
G1 X158.380 Y177.020 F1000
G1 X158.640 Y176.760 F1000
G1 X159.680 Y176.760 F1000
G1 X159.940 Y177.020 F1000
G1 X159.940 Y177.800 F1000
G1 X159.680 Y178.060 F1000
G1 X159.680 Y178.580 F1000
G1 X159.420 Y178.840 F1000
G1 X159.160 Y178.840 F1000
G0 Z3.0 ; Pen up

G0 X158.900 Y178.840 F3000 ; Travel to line 177
G0 Z0.0 ; Pen down
G1 X158.900 Y178.580 F1000
G1 X158.640 Y178.320 F1000
G1 X158.640 Y177.800 F1000
G1 X158.380 Y177.540 F1000
G1 X158.380 Y177.020 F1000
G1 X158.120 Y176.760 F1000
G1 X158.120 Y176.500 F1000
G1 X157.860 Y176.240 F1000
G1 X157.860 Y175.720 F1000
G1 X157.860 Y176.240 F1000
G1 X158.380 Y176.760 F1000
G1 X159.940 Y176.760 F1000
G1 X160.460 Y176.240 F1000
G1 X160.460 Y175.980 F1000
G1 X160.460 Y176.240 F1000
G1 X160.200 Y176.500 F1000
G1 X160.200 Y176.760 F1000
G1 X159.940 Y177.020 F1000
G1 X159.940 Y177.800 F1000
G1 X159.680 Y178.060 F1000
G1 X159.680 Y178.580 F1000
G1 X159.420 Y178.840 F1000
G0 Z3.0 ; Pen up

G0 X160.980 Y179.360 F3000 ; Travel to line 178
G0 Z0.0 ; Pen down
G1 X161.760 Y179.360 F1000
G1 X162.020 Y179.100 F1000
G1 X162.020 Y175.980 F1000
G1 X162.020 Y179.100 F1000
G1 X162.280 Y179.360 F1000
G1 X163.320 Y179.360 F1000
G0 Z3.0 ; Pen up

G0 X164.620 Y179.360 F3000 ; Travel to line 179
G0 Z0.0 ; Pen down
G1 X164.360 Y179.100 F1000
G1 X164.360 Y175.980 F1000
G1 X166.180 Y175.980 F1000
G1 X164.620 Y175.980 F1000
G1 X164.360 Y176.240 F1000
G1 X164.360 Y177.540 F1000
G1 X164.620 Y177.800 F1000
G1 X166.180 Y177.800 F1000
G1 X164.620 Y177.800 F1000
G1 X164.360 Y178.060 F1000
G1 X164.360 Y178.840 F1000
G1 X164.880 Y179.360 F1000
G1 X166.180 Y179.360 F1000
G0 Z3.0 ; Pen up

G0 X171.640 Y179.360 F3000 ; Travel to line 180
G0 Z0.0 ; Pen down
G1 X171.380 Y179.100 F1000
G1 X171.120 Y179.100 F1000
G1 X171.380 Y179.100 F1000
G1 X171.640 Y179.360 F1000
G1 X172.160 Y179.360 F1000
G1 X172.940 Y178.580 F1000
G1 X172.940 Y178.060 F1000
G1 X171.380 Y176.500 F1000
G1 X171.380 Y175.980 F1000
G1 X172.940 Y175.980 F1000
G1 X171.640 Y175.980 F1000
G1 X171.380 Y176.240 F1000
G1 X172.680 Y177.540 F1000
G1 X172.680 Y177.800 F1000
G1 X172.940 Y178.060 F1000
G1 X172.940 Y178.580 F1000
G1 X172.680 Y178.840 F1000
G1 X172.680 Y179.100 F1000
G1 X172.420 Y179.100 F1000
G1 X172.160 Y179.360 F1000
G0 Z3.0 ; Pen up

G0 X174.500 Y178.580 F3000 ; Travel to line 181
G0 Z0.0 ; Pen down
G1 X174.500 Y178.060 F1000
G1 X174.240 Y177.800 F1000
G1 X174.240 Y177.280 F1000
G1 X174.500 Y177.020 F1000
G1 X174.500 Y176.500 F1000
G1 X175.020 Y175.980 F1000
G1 X176.060 Y175.980 F1000
G1 X176.320 Y176.240 F1000
G1 X176.320 Y178.840 F1000
G1 X176.060 Y179.100 F1000
G1 X175.800 Y179.100 F1000
G1 X175.540 Y179.360 F1000
G1 X175.280 Y179.360 F1000
G1 X175.280 Y179.360 F1000
G1 X174.500 Y178.580 F1000
G1 X174.500 Y178.060 F1000
G1 X174.240 Y177.800 F1000
G1 X174.240 Y177.280 F1000
G1 X174.500 Y177.020 F1000
G1 X174.500 Y176.500 F1000
G1 X175.020 Y175.980 F1000
G1 X176.060 Y175.980 F1000
G1 X176.320 Y176.240 F1000
G1 X176.320 Y178.840 F1000
G1 X176.060 Y179.100 F1000
G1 X175.800 Y179.100 F1000
G1 X175.540 Y179.360 F1000
G0 Z3.0 ; Pen up

G0 X178.400 Y179.360 F3000 ; Travel to line 182
G0 Z0.0 ; Pen down
G1 X178.140 Y179.100 F1000
G1 X177.880 Y179.100 F1000
G1 X178.140 Y179.100 F1000
G1 X178.400 Y179.360 F1000
G1 X178.920 Y179.360 F1000
G1 X179.700 Y178.580 F1000
G1 X179.700 Y178.060 F1000
G1 X178.140 Y176.500 F1000
G1 X178.140 Y175.980 F1000
G1 X179.700 Y175.980 F1000
G1 X178.400 Y175.980 F1000
G1 X178.140 Y176.240 F1000
G1 X179.440 Y177.540 F1000
G1 X179.440 Y177.800 F1000
G1 X179.700 Y178.060 F1000
G1 X179.700 Y178.580 F1000
G1 X179.440 Y178.840 F1000
G1 X179.440 Y179.100 F1000
G1 X179.180 Y179.100 F1000
G1 X178.920 Y179.360 F1000
G0 Z3.0 ; Pen up

G0 X181.260 Y179.360 F3000 ; Travel to line 183
G0 Z0.0 ; Pen down
