; Blueprint to G-code
; Input: test_images_solid/test4_floor_plan_with_walls.png
; Generated with blueprint2gcode.py

G21 ; Set units to millimeters
G90 ; Absolute positioning
G0 Z3.0 ; Pen up
G0 X0 Y0 ; Move to origin

G0 X58.020 Y74.840 F3000 ; Travel to line 1
G0 Z0.0 ; Pen down
G1 X58.280 Y74.580 F1000
G1 X59.840 Y74.580 F1000
G1 X60.100 Y74.840 F1000
G1 X60.100 Y75.880 F1000
G1 X59.580 Y76.400 F1000
G1 X58.280 Y76.400 F1000
G1 X58.020 Y76.140 F1000
G0 Z3.0 ; Pen up

G0 X58.020 Y77.440 F3000 ; Travel to line 2
G0 Z0.0 ; Pen down
G1 X58.020 Y76.660 F1000
G1 X58.280 Y76.400 F1000
G1 X59.580 Y76.400 F1000
G1 X60.100 Y76.920 F1000
G1 X60.100 Y77.440 F1000
G1 X59.580 Y77.960 F1000
G1 X58.540 Y77.960 F1000
G0 Z3.0 ; Pen up

G0 X58.280 Y77.960 F3000 ; Travel to line 3
G0 Z0.0 ; Pen down
G1 X58.020 Y77.700 F1000
G1 X58.020 Y74.580 F1000
G1 X59.840 Y74.580 F1000
G1 X60.100 Y74.840 F1000
G1 X60.100 Y75.880 F1000
G1 X59.840 Y76.140 F1000
G1 X59.840 Y76.400 F1000
G1 X60.100 Y76.660 F1000
G1 X60.100 Y77.440 F1000
G1 X59.580 Y77.960 F1000
G0 Z3.0 ; Pen up

G0 X61.660 Y76.140 F3000 ; Travel to line 4
G0 Z0.0 ; Pen down
G1 X61.920 Y75.880 F1000
G1 X63.220 Y75.880 F1000
G1 X63.480 Y76.140 F1000
G1 X63.480 Y76.400 F1000
G1 X62.960 Y76.920 F1000
G1 X62.440 Y76.920 F1000
G1 X62.440 Y76.920 F1000
G1 X62.180 Y76.660 F1000
G1 X61.920 Y76.660 F1000
G1 X61.660 Y76.400 F1000
G1 X61.660 Y75.100 F1000
G1 X62.180 Y74.580 F1000
G1 X63.740 Y74.580 F1000
G1 X62.180 Y74.580 F1000
G1 X61.660 Y75.100 F1000
G1 X61.660 Y75.620 F1000
G1 X61.920 Y75.880 F1000
G1 X63.480 Y75.880 F1000
G1 X63.480 Y76.400 F1000
G1 X62.960 Y76.920 F1000
G0 Z3.0 ; Pen up

G0 X65.040 Y76.660 F3000 ; Travel to line 5
G0 Z0.0 ; Pen down
G1 X64.780 Y76.400 F1000
G1 X64.780 Y76.140 F1000
G1 X64.520 Y75.880 F1000
G1 X64.520 Y75.360 F1000
G1 X64.780 Y75.100 F1000
G1 X64.780 Y74.840 F1000
G1 X65.040 Y74.580 F1000
G1 X66.340 Y74.580 F1000
G1 X66.600 Y74.840 F1000
G1 X66.600 Y76.400 F1000
G1 X66.340 Y76.660 F1000
G1 X66.080 Y76.660 F1000
G1 X65.820 Y76.920 F1000
G1 X65.560 Y76.920 F1000
G1 X65.300 Y76.660 F1000
G0 Z3.0 ; Pen up

G0 X66.600 Y77.700 F3000 ; Travel to line 6
G0 Z0.0 ; Pen down
G1 X66.600 Y76.920 F1000
G1 X66.340 Y76.660 F1000
G1 X66.080 Y76.660 F1000
G1 X65.820 Y76.920 F1000
G1 X65.560 Y76.920 F1000
G1 X65.300 Y76.660 F1000
G1 X65.040 Y76.660 F1000
G1 X64.780 Y76.400 F1000
G1 X64.780 Y76.140 F1000
G1 X64.520 Y75.880 F1000
G1 X64.520 Y75.360 F1000
G1 X64.780 Y75.100 F1000
G1 X64.780 Y74.840 F1000
G1 X65.040 Y74.580 F1000
G1 X66.600 Y74.580 F1000
G0 Z3.0 ; Pen up

G0 X68.940 Y76.660 F3000 ; Travel to line 7
G0 Z0.0 ; Pen down
G1 X68.420 Y76.660 F1000
G1 X68.160 Y76.400 F1000
G1 X68.160 Y74.580 F1000
G1 X68.160 Y76.400 F1000
G1 X68.420 Y76.660 F1000
G1 X68.940 Y76.660 F1000
G1 X69.200 Y76.920 F1000
G0 Z3.0 ; Pen up

G0 X70.500 Y76.660 F3000 ; Travel to line 8
G0 Z0.0 ; Pen down
G1 X70.240 Y76.400 F1000
G1 X70.240 Y76.140 F1000
G1 X69.980 Y75.880 F1000
G1 X69.980 Y75.360 F1000
G1 X70.240 Y75.100 F1000
G1 X70.240 Y74.840 F1000
G1 X70.500 Y74.580 F1000
G1 X71.800 Y74.580 F1000
G1 X72.060 Y74.840 F1000
G1 X72.060 Y76.400 F1000
G1 X71.800 Y76.660 F1000
G1 X71.540 Y76.660 F1000
G1 X71.280 Y76.920 F1000
G1 X71.020 Y76.920 F1000
G1 X70.760 Y76.660 F1000
G0 Z3.0 ; Pen up

G0 X71.020 Y76.920 F3000 ; Travel to line 9
G0 Z0.0 ; Pen down
G1 X70.760 Y76.660 F1000
G1 X70.500 Y76.660 F1000
G1 X70.240 Y76.400 F1000
G1 X70.240 Y76.140 F1000
G1 X69.980 Y75.880 F1000
G1 X69.980 Y75.360 F1000
G1 X70.240 Y75.100 F1000
G1 X70.240 Y74.840 F1000
G1 X70.500 Y74.580 F1000
G1 X71.800 Y74.580 F1000
G1 X72.060 Y74.840 F1000
G1 X72.060 Y76.400 F1000
G1 X71.800 Y76.660 F1000
G1 X71.540 Y76.660 F1000
G1 X71.280 Y76.920 F1000
G0 Z3.0 ; Pen up

G0 X73.620 Y76.660 F3000 ; Travel to line 10
G0 Z0.0 ; Pen down
G1 X73.360 Y76.400 F1000
G1 X73.360 Y76.140 F1000
G1 X73.100 Y75.880 F1000
G1 X73.100 Y75.360 F1000
G1 X73.360 Y75.100 F1000
G1 X73.360 Y74.840 F1000
G1 X73.620 Y74.580 F1000
G1 X74.920 Y74.580 F1000
G1 X75.180 Y74.840 F1000
G1 X75.180 Y76.400 F1000
G1 X74.920 Y76.660 F1000
G1 X74.660 Y76.660 F1000
G1 X74.400 Y76.920 F1000
G1 X74.140 Y76.920 F1000
G1 X73.880 Y76.660 F1000
G0 Z3.0 ; Pen up

G0 X74.140 Y76.920 F3000 ; Travel to line 11
G0 Z0.0 ; Pen down
G1 X73.880 Y76.660 F1000
G1 X73.620 Y76.660 F1000
G1 X73.360 Y76.400 F1000
G1 X73.360 Y76.140 F1000
G1 X73.100 Y75.880 F1000
G1 X73.100 Y75.360 F1000
G1 X73.360 Y75.100 F1000
G1 X73.360 Y74.840 F1000
G1 X73.620 Y74.580 F1000
G1 X74.920 Y74.580 F1000
G1 X75.180 Y74.840 F1000
G1 X75.180 Y76.400 F1000
G1 X74.920 Y76.660 F1000
G1 X74.660 Y76.660 F1000
G1 X74.400 Y76.920 F1000
G0 Z3.0 ; Pen up

G0 X77.520 Y76.920 F3000 ; Travel to line 12
G0 Z0.0 ; Pen down
G1 X77.260 Y76.660 F1000
G1 X76.740 Y76.660 F1000
G1 X76.480 Y76.400 F1000
G1 X76.480 Y74.580 F1000
G1 X76.480 Y76.400 F1000
G1 X76.740 Y76.660 F1000
G1 X77.260 Y76.660 F1000
G1 X77.520 Y76.920 F1000
G1 X77.780 Y76.920 F1000
G1 X78.300 Y76.400 F1000
G1 X78.300 Y74.580 F1000
G1 X78.300 Y76.140 F1000
G1 X78.560 Y76.400 F1000
G1 X78.820 Y76.400 F1000
G1 X79.340 Y76.920 F1000
G1 X79.600 Y76.920 F1000
G1 X80.120 Y76.400 F1000
G1 X80.120 Y74.580 F1000
G1 X80.120 Y76.400 F1000
G1 X79.600 Y76.920 F1000
G1 X79.340 Y76.920 F1000
G1 X79.080 Y76.660 F1000
G1 X78.820 Y76.660 F1000
G1 X78.560 Y76.400 F1000
G1 X78.300 Y76.400 F1000
G1 X77.780 Y76.920 F1000
G0 Z3.0 ; Pen up

G0 X96.500 Y107.600 F3000 ; Travel to line 13
G0 Z0.0 ; Pen down
G1 X99.100 Y105.000 F1000
G1 X197.900 Y105.000 F1000
G1 X200.500 Y102.400 F1000
G1 X200.500 Y29.860 F1000
G1 X200.760 Y29.600 F1000
G1 X249.640 Y29.600 F1000
G1 X249.900 Y29.860 F1000
G1 X249.900 Y180.400 F1000
G1 X249.640 Y180.660 F1000
G1 X96.760 Y180.660 F1000
G1 X96.500 Y180.400 F1000
G0 Z3.0 ; Pen up

G0 X96.240 Y180.660 F3000 ; Travel to line 14
G0 Z0.0 ; Pen down
G1 X96.500 Y180.400 F1000
G1 X96.760 Y180.660 F1000
G1 X249.900 Y180.660 F1000
G1 X249.900 Y29.600 F1000
G1 X46.840 Y29.600 F1000
G1 X46.840 Y180.400 F1000
G1 X47.100 Y180.660 F1000
G0 Z3.0 ; Pen up

G0 X47.360 Y180.660 F3000 ; Travel to line 15
G0 Z0.0 ; Pen down
G1 X96.240 Y180.660 F1000
G1 X96.500 Y180.400 F1000
G1 X96.500 Y107.600 F1000
G1 X99.100 Y105.000 F1000
G1 X197.900 Y105.000 F1000
G1 X200.500 Y102.400 F1000
G1 X200.500 Y29.860 F1000
G1 X200.240 Y29.600 F1000
G1 X47.100 Y29.600 F1000
G1 X46.840 Y29.860 F1000
G1 X46.840 Y129.440 F1000
G1 X47.100 Y129.700 F1000
G1 X49.440 Y129.700 F1000
G1 X49.700 Y129.960 F1000
G1 X49.960 Y129.960 F1000
G1 X50.740 Y130.740 F1000
G1 X49.960 Y129.960 F1000
G1 X49.700 Y129.960 F1000
G1 X49.440 Y129.700 F1000
G1 X47.100 Y129.700 F1000
G1 X46.840 Y129.960 F1000
G1 X46.840 Y180.140 F1000
G0 Z3.0 ; Pen up

G0 X58.020 Y155.700 F3000 ; Travel to line 16
G0 Z0.0 ; Pen down
G1 X58.020 Y152.580 F1000
G1 X59.840 Y152.580 F1000
G1 X58.280 Y152.580 F1000
G1 X58.020 Y152.840 F1000
G0 Z3.0 ; Pen up

G0 X60.880 Y152.580 F3000 ; Travel to line 17
G0 Z0.0 ; Pen down
G1 X60.880 Y154.660 F1000
G0 Z3.0 ; Pen up

G0 X62.440 Y154.660 F3000 ; Travel to line 18
G0 Z0.0 ; Pen down
G1 X62.440 Y154.140 F1000
G1 X62.700 Y153.880 F1000
G1 X62.700 Y153.360 F1000
G1 X62.960 Y153.100 F1000
G1 X62.960 Y152.840 F1000
G1 X63.740 Y152.840 F1000
G1 X63.740 Y153.360 F1000
G1 X64.000 Y153.620 F1000
G1 X64.000 Y154.140 F1000
G1 X64.260 Y154.400 F1000
G1 X64.260 Y154.660 F1000
G1 X64.260 Y154.400 F1000
G1 X64.000 Y154.140 F1000
G1 X64.000 Y153.620 F1000
G1 X63.740 Y153.360 F1000
G1 X63.740 Y153.100 F1000
G1 X63.480 Y152.840 F1000
G1 X63.220 Y152.840 F1000
G1 X62.700 Y153.360 F1000
G1 X62.700 Y153.880 F1000
G1 X62.440 Y154.140 F1000
G0 Z3.0 ; Pen up

G0 X65.560 Y154.660 F3000 ; Travel to line 19
G0 Z0.0 ; Pen down
G1 X65.560 Y152.580 F1000
G0 Z3.0 ; Pen up

G0 X67.900 Y154.920 F3000 ; Travel to line 20
G0 Z0.0 ; Pen down
G1 X67.640 Y154.660 F1000
G1 X67.120 Y154.660 F1000
G1 X66.860 Y154.400 F1000
G1 X66.860 Y152.580 F1000
G1 X66.860 Y154.400 F1000
G1 X67.120 Y154.660 F1000
G1 X67.640 Y154.660 F1000
G1 X67.900 Y154.920 F1000
G1 X68.160 Y154.920 F1000
G1 X68.680 Y154.400 F1000
G1 X68.680 Y152.580 F1000
G1 X68.680 Y154.400 F1000
G1 X68.160 Y154.920 F1000
G0 Z3.0 ; Pen up

G0 X70.500 Y154.660 F3000 ; Travel to line 21
G0 Z0.0 ; Pen down
G1 X70.240 Y154.400 F1000
G1 X70.240 Y154.140 F1000
G1 X69.980 Y153.880 F1000
G1 X69.980 Y153.360 F1000
G1 X70.240 Y153.100 F1000
G1 X70.240 Y152.840 F1000
G1 X70.500 Y152.580 F1000
G1 X71.800 Y152.580 F1000
G1 X72.060 Y152.840 F1000
G1 X72.060 Y154.400 F1000
G1 X71.800 Y154.660 F1000
G1 X71.540 Y154.660 F1000
G1 X71.280 Y154.920 F1000
G1 X71.020 Y154.920 F1000
G1 X70.760 Y154.660 F1000
G0 Z3.0 ; Pen up

G0 X71.020 Y154.920 F3000 ; Travel to line 22
G0 Z0.0 ; Pen down
G1 X70.760 Y154.660 F1000
G1 X70.500 Y154.660 F1000
G1 X70.240 Y154.400 F1000
G1 X70.240 Y154.140 F1000
G1 X69.980 Y153.880 F1000
G1 X69.980 Y153.360 F1000
G1 X70.240 Y153.100 F1000
G1 X70.240 Y152.840 F1000
G1 X70.500 Y152.580 F1000
G1 X71.800 Y152.580 F1000
G1 X72.060 Y152.320 F1000
G1 X72.060 Y151.800 F1000
G1 X71.800 Y151.540 F1000
G1 X70.500 Y151.540 F1000
G1 X71.800 Y151.540 F1000
G1 X72.060 Y151.800 F1000
G1 X72.060 Y154.660 F1000
G1 X71.540 Y154.660 F1000
G1 X71.280 Y154.920 F1000
G0 Z3.0 ; Pen up

G0 X75.180 Y155.440 F3000 ; Travel to line 23
G0 Z0.0 ; Pen down
G1 X75.180 Y154.660 F1000
G1 X75.440 Y154.400 F1000
G1 X76.740 Y154.400 F1000
G1 X77.000 Y154.660 F1000
G1 X77.000 Y155.440 F1000
G1 X76.480 Y155.960 F1000
G1 X75.700 Y155.960 F1000
G0 Z3.0 ; Pen up

G0 X75.440 Y155.960 F3000 ; Travel to line 24
G0 Z0.0 ; Pen down
G1 X75.180 Y155.700 F1000
G1 X75.180 Y152.580 F1000
G1 X75.180 Y154.140 F1000
G1 X75.440 Y154.400 F1000
G1 X76.480 Y154.400 F1000
G1 X76.740 Y154.140 F1000
G1 X76.740 Y153.880 F1000
G1 X77.260 Y153.360 F1000
G1 X77.260 Y153.100 F1000
G1 X77.520 Y152.840 F1000
G1 X77.520 Y152.580 F1000
G1 X77.520 Y152.840 F1000
G1 X77.260 Y153.100 F1000
G1 X77.260 Y153.360 F1000
G1 X77.000 Y153.620 F1000
G1 X77.000 Y153.880 F1000
G1 X76.740 Y154.140 F1000
G1 X76.740 Y154.400 F1000
G1 X77.000 Y154.660 F1000
G1 X77.000 Y155.700 F1000
G1 X76.740 Y155.700 F1000
G1 X76.480 Y155.960 F1000
G0 Z3.0 ; Pen up

G0 X78.820 Y154.660 F3000 ; Travel to line 25
G0 Z0.0 ; Pen down
G1 X78.560 Y154.400 F1000
G1 X78.560 Y154.140 F1000
G1 X78.300 Y153.880 F1000
G1 X78.300 Y153.360 F1000
G1 X78.560 Y153.100 F1000
G1 X78.560 Y152.840 F1000
G1 X78.820 Y152.580 F1000
G1 X80.120 Y152.580 F1000
G1 X80.380 Y152.840 F1000
G1 X80.380 Y154.400 F1000
G1 X80.120 Y154.660 F1000
G1 X79.860 Y154.660 F1000
G1 X79.600 Y154.920 F1000
G1 X79.340 Y154.920 F1000
G1 X79.080 Y154.660 F1000
G0 Z3.0 ; Pen up

G0 X79.340 Y154.920 F3000 ; Travel to line 26
G0 Z0.0 ; Pen down
G1 X79.080 Y154.660 F1000
G1 X78.820 Y154.660 F1000
G1 X78.560 Y154.400 F1000
G1 X78.560 Y154.140 F1000
G1 X78.300 Y153.880 F1000
G1 X78.300 Y153.360 F1000
G1 X78.560 Y153.100 F1000
G1 X78.560 Y152.840 F1000
G1 X78.820 Y152.580 F1000
G1 X80.120 Y152.580 F1000
G1 X80.380 Y152.840 F1000
G1 X80.380 Y154.400 F1000
G1 X80.120 Y154.660 F1000
G1 X79.860 Y154.660 F1000
G1 X79.600 Y154.920 F1000
G0 Z3.0 ; Pen up

G0 X81.940 Y154.660 F3000 ; Travel to line 27
G0 Z0.0 ; Pen down
G1 X81.680 Y154.400 F1000
G1 X81.680 Y154.140 F1000
G1 X81.420 Y153.880 F1000
G1 X81.420 Y153.360 F1000
G1 X81.680 Y153.100 F1000
G1 X81.680 Y152.840 F1000
G1 X81.940 Y152.580 F1000
G1 X83.240 Y152.580 F1000
G1 X83.500 Y152.840 F1000
G1 X83.500 Y154.400 F1000
G1 X83.240 Y154.660 F1000
G1 X82.980 Y154.660 F1000
G1 X82.720 Y154.920 F1000
G1 X82.460 Y154.920 F1000
G1 X82.200 Y154.660 F1000
G0 Z3.0 ; Pen up

G0 X82.460 Y154.920 F3000 ; Travel to line 28
G0 Z0.0 ; Pen down
G1 X82.200 Y154.660 F1000
G1 X81.940 Y154.660 F1000
G1 X81.680 Y154.400 F1000
G1 X81.680 Y154.140 F1000
G1 X81.420 Y153.880 F1000
G1 X81.420 Y153.360 F1000
G1 X81.680 Y153.100 F1000
G1 X81.680 Y152.840 F1000
G1 X81.940 Y152.580 F1000
G1 X83.240 Y152.580 F1000
G1 X83.500 Y152.840 F1000
G1 X83.500 Y154.400 F1000
G1 X83.240 Y154.660 F1000
G1 X82.980 Y154.660 F1000
G1 X82.720 Y154.920 F1000
G0 Z3.0 ; Pen up

G0 X85.840 Y154.920 F3000 ; Travel to line 29
G0 Z0.0 ; Pen down
G1 X85.580 Y154.660 F1000
G1 X85.060 Y154.660 F1000
G1 X84.800 Y154.400 F1000
G1 X84.800 Y152.580 F1000
G1 X84.800 Y154.400 F1000
G1 X85.060 Y154.660 F1000
G1 X85.580 Y154.660 F1000
G1 X85.840 Y154.920 F1000
G1 X86.100 Y154.920 F1000
G1 X86.620 Y154.400 F1000
G1 X86.620 Y152.580 F1000
G1 X86.620 Y154.140 F1000
G1 X86.880 Y154.400 F1000
G1 X87.140 Y154.400 F1000
G1 X87.660 Y154.920 F1000
G1 X87.920 Y154.920 F1000
G1 X88.440 Y154.400 F1000
G1 X88.440 Y152.580 F1000
G1 X88.440 Y154.400 F1000
G1 X87.920 Y154.920 F1000
G1 X87.660 Y154.920 F1000
G1 X87.400 Y154.660 F1000
G1 X87.140 Y154.660 F1000
G1 X86.880 Y154.400 F1000
G1 X86.620 Y154.400 F1000
G1 X86.100 Y154.920 F1000
G0 Z3.0 ; Pen up

G0 X57.240 Y124.240 F3000 ; Travel to line 30
G0 Z0.0 ; Pen down
G1 X57.240 Y123.200 F1000
G1 X56.980 Y122.940 F1000
G1 X56.980 Y122.160 F1000
G1 X56.720 Y121.900 F1000
G1 X56.720 Y121.640 F1000
G1 X56.460 Y121.380 F1000
G1 X56.460 Y121.120 F1000
G1 X54.380 Y119.040 F1000
G1 X54.120 Y119.040 F1000
G1 X53.860 Y118.780 F1000
G1 X53.600 Y118.780 F1000
G1 X53.340 Y118.520 F1000
G1 X52.560 Y118.520 F1000
G1 X52.300 Y118.260 F1000
G1 X51.260 Y118.260 F1000
G1 X52.300 Y118.260 F1000
G1 X52.560 Y118.520 F1000
G1 X53.340 Y118.520 F1000
G1 X53.600 Y118.780 F1000
G1 X53.860 Y118.780 F1000
G1 X54.120 Y119.040 F1000
G1 X54.380 Y119.040 F1000
G1 X54.900 Y119.560 F1000
G1 X55.160 Y119.560 F1000
G1 X55.940 Y120.340 F1000
G1 X55.940 Y120.600 F1000
G1 X56.460 Y121.120 F1000
G1 X56.460 Y121.380 F1000
G1 X56.720 Y121.640 F1000
G1 X56.720 Y121.900 F1000
G1 X56.980 Y122.160 F1000
G1 X56.980 Y122.940 F1000
G1 X57.240 Y123.200 F1000
G0 Z3.0 ; Pen up

G0 X151.100 Y155.960 F3000 ; Travel to line 31
G0 Z0.0 ; Pen down
G1 X149.800 Y154.660 F1000
G1 X149.800 Y154.400 F1000
G1 X149.540 Y154.140 F1000
G1 X149.280 Y154.140 F1000
G1 X149.020 Y154.400 F1000
G1 X149.020 Y155.700 F1000
G1 X149.020 Y152.580 F1000
G1 X149.020 Y153.880 F1000
G1 X149.280 Y154.140 F1000
G1 X149.540 Y154.140 F1000
G1 X151.360 Y152.320 F1000
G1 X150.840 Y152.840 F1000
G1 X150.840 Y153.100 F1000
G1 X149.800 Y154.140 F1000
G1 X149.800 Y154.400 F1000
G1 X151.360 Y155.960 F1000
G1 X151.620 Y155.960 F1000
G0 Z3.0 ; Pen up

G0 X152.400 Y154.660 F3000 ; Travel to line 32
G0 Z0.0 ; Pen down
G1 X152.400 Y152.580 F1000
G0 Z3.0 ; Pen up

G0 X153.960 Y155.180 F3000 ; Travel to line 33
G0 Z0.0 ; Pen down
G1 X154.220 Y154.920 F1000
G1 X154.740 Y154.920 F1000
G1 X154.220 Y154.920 F1000
G1 X153.960 Y154.660 F1000
G1 X153.960 Y152.840 F1000
G1 X154.220 Y152.580 F1000
G1 X154.740 Y152.580 F1000
G1 X154.220 Y152.580 F1000
G1 X153.960 Y152.840 F1000
G1 X153.960 Y155.440 F1000
G0 Z3.0 ; Pen up

G0 X156.820 Y154.920 F3000 ; Travel to line 34
G0 Z0.0 ; Pen down
G1 X155.780 Y153.880 F1000
G1 X155.780 Y153.360 F1000
G1 X156.560 Y152.580 F1000
G1 X157.860 Y152.580 F1000
G1 X156.560 Y152.580 F1000
G1 X155.780 Y153.360 F1000
G1 X155.780 Y153.880 F1000
G1 X156.820 Y154.920 F1000
G1 X157.340 Y154.920 F1000
G1 X157.600 Y154.660 F1000
G1 X157.860 Y154.660 F1000
G1 X157.600 Y154.660 F1000
G1 X157.340 Y154.920 F1000
G0 Z3.0 ; Pen up

G0 X158.900 Y154.920 F3000 ; Travel to line 35
G0 Z0.0 ; Pen down
G1 X159.160 Y154.660 F1000
G1 X159.680 Y154.660 F1000
G1 X159.940 Y154.920 F1000
G1 X160.200 Y154.920 F1000
G1 X160.720 Y154.400 F1000
G1 X160.720 Y152.580 F1000
G1 X160.720 Y154.400 F1000
G1 X160.200 Y154.920 F1000
G1 X159.940 Y154.920 F1000
G1 X159.680 Y154.660 F1000
G1 X159.160 Y154.660 F1000
G1 X158.900 Y154.400 F1000
G1 X158.900 Y152.580 F1000
G1 X158.900 Y155.700 F1000
G0 Z3.0 ; Pen up

G0 X162.020 Y154.140 F3000 ; Travel to line 36
G0 Z0.0 ; Pen down
G1 X162.280 Y153.880 F1000
G1 X163.580 Y153.880 F1000
G1 X163.840 Y154.140 F1000
G1 X163.840 Y154.400 F1000
G1 X163.320 Y154.920 F1000
G1 X162.800 Y154.920 F1000
G1 X162.800 Y154.920 F1000
G1 X162.540 Y154.660 F1000
G1 X162.280 Y154.660 F1000
G1 X162.020 Y154.400 F1000
G1 X162.020 Y153.100 F1000
G1 X162.540 Y152.580 F1000
G1 X164.100 Y152.580 F1000
G1 X162.540 Y152.580 F1000
G1 X162.020 Y153.100 F1000
G1 X162.020 Y153.620 F1000
G1 X162.280 Y153.880 F1000
G1 X163.840 Y153.880 F1000
G1 X163.840 Y154.400 F1000
G1 X163.320 Y154.920 F1000
G0 Z3.0 ; Pen up

G0 X166.440 Y154.920 F3000 ; Travel to line 37
G0 Z0.0 ; Pen down
G1 X166.180 Y154.660 F1000
G1 X165.660 Y154.660 F1000
G1 X165.400 Y154.400 F1000
G1 X165.400 Y152.580 F1000
G1 X165.400 Y154.400 F1000
G1 X165.660 Y154.660 F1000
G1 X166.180 Y154.660 F1000
G1 X166.440 Y154.920 F1000
G1 X166.700 Y154.920 F1000
G1 X167.220 Y154.400 F1000
G1 X167.220 Y152.580 F1000
G1 X167.220 Y154.400 F1000
G1 X166.700 Y154.920 F1000
G0 Z3.0 ; Pen up

G0 X214.280 Y77.960 F3000 ; Travel to line 38
G0 Z0.0 ; Pen down
G1 X214.020 Y77.700 F1000
G1 X214.020 Y74.580 F1000
G1 X215.840 Y74.580 F1000
G1 X216.100 Y74.840 F1000
G1 X216.100 Y75.880 F1000
G1 X215.840 Y76.140 F1000
G1 X215.840 Y76.400 F1000
G1 X216.100 Y76.660 F1000
G1 X216.100 Y77.440 F1000
G1 X215.580 Y77.960 F1000
G0 Z3.0 ; Pen up

G0 X214.540 Y77.960 F3000 ; Travel to line 39
G0 Z0.0 ; Pen down
G1 X215.580 Y77.960 F1000
G1 X216.100 Y77.440 F1000
G1 X216.100 Y76.920 F1000
G1 X215.580 Y76.400 F1000
G1 X214.280 Y76.400 F1000
G1 X214.020 Y76.660 F1000
G1 X214.020 Y77.440 F1000
G0 Z3.0 ; Pen up

G0 X214.020 Y76.140 F3000 ; Travel to line 40
G0 Z0.0 ; Pen down
G1 X214.280 Y76.400 F1000
G1 X215.580 Y76.400 F1000
G1 X216.100 Y75.880 F1000
G1 X216.100 Y74.840 F1000
G1 X215.840 Y74.580 F1000
G1 X214.280 Y74.580 F1000
G1 X214.020 Y74.840 F1000
G0 Z3.0 ; Pen up

G0 X217.660 Y75.360 F3000 ; Travel to line 41
G0 Z0.0 ; Pen down
G1 X217.660 Y74.840 F1000
G1 X217.920 Y74.580 F1000
G1 X218.960 Y74.580 F1000
G1 X219.480 Y75.100 F1000
G1 X219.480 Y75.620 F1000
G1 X219.220 Y75.880 F1000
G1 X218.180 Y75.880 F1000
G0 Z3.0 ; Pen up

G0 X218.180 Y76.920 F3000 ; Travel to line 42
G0 Z0.0 ; Pen down
G1 X217.920 Y76.660 F1000
G1 X217.660 Y76.660 F1000
G1 X217.920 Y76.660 F1000
G1 X218.180 Y76.920 F1000
G1 X218.700 Y76.920 F1000
G1 X219.480 Y76.140 F1000
G1 X219.220 Y75.880 F1000
G1 X218.180 Y75.880 F1000
G1 X217.660 Y75.360 F1000
G1 X217.660 Y74.840 F1000
G1 X217.920 Y74.580 F1000
G1 X218.960 Y74.580 F1000
G1 X219.220 Y74.840 F1000
G1 X219.480 Y74.580 F1000
G1 X219.220 Y74.840 F1000
G1 X219.480 Y75.100 F1000
G1 X219.480 Y76.400 F1000
G1 X219.220 Y76.660 F1000
G1 X218.960 Y76.660 F1000
G1 X218.700 Y76.920 F1000
G0 Z3.0 ; Pen up

G0 X220.780 Y77.180 F3000 ; Travel to line 43
G0 Z0.0 ; Pen down
G1 X221.040 Y76.920 F1000
G1 X221.560 Y76.920 F1000
G1 X221.040 Y76.920 F1000
G1 X220.780 Y76.660 F1000
G1 X220.780 Y74.840 F1000
G1 X221.040 Y74.580 F1000
G1 X221.560 Y74.580 F1000
G1 X221.040 Y74.580 F1000
G1 X220.780 Y74.840 F1000
G1 X220.780 Y77.440 F1000
G0 Z3.0 ; Pen up

G0 X222.860 Y77.700 F3000 ; Travel to line 44
G0 Z0.0 ; Pen down
G1 X222.860 Y74.580 F1000
G1 X222.860 Y76.400 F1000
G1 X223.120 Y76.660 F1000
G1 X223.640 Y76.660 F1000
G1 X223.900 Y76.920 F1000
G1 X224.160 Y76.920 F1000
G1 X224.680 Y76.400 F1000
G1 X224.680 Y74.580 F1000
G1 X224.680 Y76.400 F1000
G1 X224.160 Y76.920 F1000
G1 X223.900 Y76.920 F1000
G1 X223.640 Y76.660 F1000
G1 X223.120 Y76.660 F1000
G1 X222.860 Y76.920 F1000
G0 Z3.0 ; Pen up

; Return to origin
G0 X0 Y0
G0 Z3.0

; Total drawing distance: 2605.23 mm
; Total travel distance: 462.48 mm
; Total lines: 44
; Estimated time: 165.6 seconds (2.8 minutes)
M2 ; End program