; Blueprint to G-code
; Input: test_images/test7_geodesic_dome.png
; Generated with blueprint2gcode.py

G21 ; Set units to millimeters
G90 ; Absolute positioning
G0 Z3.0 ; Pen up
G0 X0 Y0 ; Move to origin

G0 X36.388 Y10.984 F3000 ; Travel to line 1
G0 Z0.0 ; Pen down
G1 X36.388 Y10.776 F1000
G1 X36.596 Y10.568 F1000
G1 X37.012 Y10.568 F1000
G1 X37.220 Y10.776 F1000
G1 X37.220 Y11.400 F1000
G1 X37.012 Y11.608 F1000
G0 Z3.0 ; Pen up

G0 X36.804 Y11.608 F3000 ; Travel to line 2
G0 Z0.0 ; Pen down
G1 X36.804 Y11.400 F1000
G1 X36.388 Y10.984 F1000
G1 X36.388 Y10.568 F1000
G1 X37.012 Y10.568 F1000
G1 X37.220 Y10.360 F1000
G1 X37.220 Y10.152 F1000
G1 X37.220 Y11.608 F1000
G0 Z3.0 ; Pen up

G0 X39.508 Y11.816 F3000 ; Travel to line 3
G0 Z0.0 ; Pen down
G1 X39.508 Y10.152 F1000
G1 X39.508 Y10.776 F1000
G1 X39.716 Y10.984 F1000
G1 X40.340 Y10.984 F1000
G1 X39.716 Y10.984 F1000
G1 X39.508 Y11.192 F1000
G1 X39.508 Y11.608 F1000
G1 X39.716 Y11.816 F1000
G1 X40.340 Y11.816 F1000
G0 Z3.0 ; Pen up

G0 X40.964 Y11.400 F3000 ; Travel to line 4
G0 Z0.0 ; Pen down
G1 X40.964 Y10.568 F1000
G1 X41.380 Y10.152 F1000
G1 X41.796 Y10.152 F1000
G1 X42.212 Y10.568 F1000
G1 X42.212 Y11.400 F1000
G1 X41.796 Y11.816 F1000
G1 X41.380 Y11.816 F1000
G1 X41.380 Y11.816 F1000
G1 X40.964 Y11.400 F1000
G1 X40.964 Y10.568 F1000
G1 X41.380 Y10.152 F1000
G1 X42.004 Y10.152 F1000
G1 X42.212 Y10.360 F1000
G1 X42.212 Y11.608 F1000
G1 X42.004 Y11.816 F1000
G0 Z3.0 ; Pen up

G0 X43.044 Y11.816 F3000 ; Travel to line 5
G0 Z0.0 ; Pen down
G1 X43.044 Y10.568 F1000
G1 X43.252 Y10.360 F1000
G1 X43.252 Y10.152 F1000
G1 X43.876 Y10.152 F1000
G1 X44.292 Y10.568 F1000
G1 X44.292 Y11.816 F1000
G1 X44.292 Y10.776 F1000
G1 X44.084 Y10.568 F1000
G1 X44.084 Y10.360 F1000
G1 X43.876 Y10.152 F1000
G1 X43.460 Y10.152 F1000
G1 X43.044 Y10.568 F1000
G0 Z3.0 ; Pen up

G0 X45.956 Y10.360 F3000 ; Travel to line 6
G0 Z0.0 ; Pen down
G1 X45.540 Y10.360 F1000
G1 X45.540 Y10.568 F1000
G1 X45.332 Y10.776 F1000
G1 X45.332 Y10.984 F1000
G1 X45.124 Y11.192 F1000
G1 X45.124 Y11.400 F1000
G1 X44.916 Y11.608 F1000
G1 X44.708 Y11.400 F1000
G1 X44.708 Y10.152 F1000
G1 X44.708 Y11.608 F1000
G1 X45.124 Y11.608 F1000
G1 X45.124 Y11.400 F1000
G1 X45.332 Y11.192 F1000
G1 X45.332 Y10.984 F1000
G1 X45.540 Y10.776 F1000
G1 X45.540 Y10.568 F1000
G1 X45.748 Y10.360 F1000
G1 X45.956 Y10.568 F1000
G1 X45.956 Y11.816 F1000
G0 Z3.0 ; Pen up

G0 X46.580 Y11.816 F3000 ; Travel to line 7
G0 Z0.0 ; Pen down
G1 X46.580 Y10.152 F1000
G1 X47.412 Y10.152 F1000
G1 X47.620 Y10.360 F1000
G1 X47.828 Y10.360 F1000
G1 X47.828 Y11.608 F1000
G1 X47.620 Y11.608 F1000
G1 X47.412 Y11.816 F1000
G0 Z3.0 ; Pen up

G0 X46.580 Y11.608 F3000 ; Travel to line 8
G0 Z0.0 ; Pen down
G1 X46.788 Y11.816 F1000
G1 X47.412 Y11.816 F1000
G1 X47.828 Y11.400 F1000
G1 X47.828 Y10.568 F1000
G1 X47.412 Y10.152 F1000
G1 X46.788 Y10.152 F1000
G1 X46.580 Y10.360 F1000
G0 Z3.0 ; Pen up

G0 X48.660 Y11.192 F3000 ; Travel to line 9
G0 Z0.0 ; Pen down
G1 X48.660 Y10.776 F1000
G1 X48.868 Y10.568 F1000
G1 X49.284 Y10.568 F1000
G1 X49.492 Y10.776 F1000
G1 X49.284 Y10.984 F1000
G1 X49.284 Y11.400 F1000
G1 X49.076 Y11.608 F1000
G1 X49.076 Y11.608 F1000
G1 X49.284 Y11.400 F1000
G1 X49.284 Y10.984 F1000
G1 X49.492 Y10.776 F1000
G1 X49.492 Y10.568 F1000
G1 X48.660 Y10.568 F1000
G1 X48.452 Y10.360 F1000
G1 X48.452 Y10.152 F1000
G1 X48.452 Y10.568 F1000
G1 X48.660 Y10.776 F1000
G1 X48.660 Y11.192 F1000
G1 X48.868 Y11.400 F1000
G1 X48.868 Y11.608 F1000
G0 Z3.0 ; Pen up

G0 X49.908 Y11.816 F3000 ; Travel to line 10
G0 Z0.0 ; Pen down
G1 X50.324 Y11.816 F1000
G1 X50.532 Y11.608 F1000
G1 X50.532 Y10.152 F1000
G1 X50.532 Y11.608 F1000
G1 X50.740 Y11.816 F1000
G1 X51.156 Y11.816 F1000
G0 Z3.0 ; Pen up

G0 X51.572 Y11.816 F3000 ; Travel to line 11
G0 Z0.0 ; Pen down
G1 X51.572 Y10.152 F1000
G0 Z3.0 ; Pen up

G0 X52.404 Y11.400 F3000 ; Travel to line 12
G0 Z0.0 ; Pen down
G1 X52.404 Y10.568 F1000
G1 X52.820 Y10.152 F1000
G1 X53.236 Y10.152 F1000
G1 X53.652 Y10.568 F1000
G1 X53.652 Y11.400 F1000
G1 X53.236 Y11.816 F1000
G1 X52.820 Y11.816 F1000
G1 X52.820 Y11.816 F1000
G1 X52.404 Y11.400 F1000
G1 X52.404 Y10.568 F1000
G1 X52.820 Y10.152 F1000
G1 X53.444 Y10.152 F1000
G1 X53.652 Y10.360 F1000
G1 X53.652 Y11.608 F1000
G1 X53.444 Y11.816 F1000
G0 Z3.0 ; Pen up

G0 X55.524 Y11.816 F3000 ; Travel to line 13
G0 Z0.0 ; Pen down
G1 X55.524 Y10.568 F1000
G1 X55.316 Y10.360 F1000
G1 X55.108 Y10.568 F1000
G1 X55.108 Y10.776 F1000
G1 X54.900 Y10.984 F1000
G1 X54.900 Y11.192 F1000
G1 X54.692 Y11.400 F1000
G1 X54.692 Y11.608 F1000
G1 X54.276 Y11.608 F1000
G1 X54.276 Y10.152 F1000
G1 X54.276 Y11.400 F1000
G1 X54.484 Y11.608 F1000
G1 X54.692 Y11.400 F1000
G1 X54.692 Y11.192 F1000
G1 X54.900 Y10.984 F1000
G1 X54.900 Y10.776 F1000
G1 X55.108 Y10.568 F1000
G1 X55.108 Y10.360 F1000
G1 X55.524 Y10.360 F1000
G0 Z3.0 ; Pen up

G0 X58.228 Y11.816 F3000 ; Travel to line 14
G0 Z0.0 ; Pen down
G1 X57.812 Y11.400 F1000
G1 X57.812 Y10.568 F1000
G1 X58.228 Y10.152 F1000
G1 X58.852 Y10.152 F1000
G1 X59.060 Y10.360 F1000
G1 X58.852 Y10.152 F1000
G1 X58.228 Y10.152 F1000
G1 X57.812 Y10.568 F1000
G1 X57.812 Y11.400 F1000
G1 X58.228 Y11.816 F1000
G1 X58.852 Y11.816 F1000
G1 X59.060 Y11.608 F1000
G1 X58.852 Y11.816 F1000
G0 Z3.0 ; Pen up

G0 X59.476 Y11.400 F3000 ; Travel to line 15
G0 Z0.0 ; Pen down
G1 X59.476 Y10.568 F1000
G1 X59.892 Y10.152 F1000
G1 X60.308 Y10.152 F1000
G1 X60.724 Y10.568 F1000
G1 X60.724 Y11.400 F1000
G1 X60.308 Y11.816 F1000
G1 X59.892 Y11.816 F1000
G1 X59.892 Y11.816 F1000
G1 X59.476 Y11.400 F1000
G1 X59.476 Y10.568 F1000
G1 X59.892 Y10.152 F1000
G1 X60.516 Y10.152 F1000
G1 X60.724 Y10.360 F1000
G1 X60.724 Y11.608 F1000
G1 X60.516 Y11.816 F1000
G0 Z3.0 ; Pen up

G0 X62.804 Y11.816 F3000 ; Travel to line 16
G0 Z0.0 ; Pen down
G1 X62.804 Y10.568 F1000
G1 X62.596 Y10.360 F1000
G1 X62.388 Y10.568 F1000
G1 X62.388 Y10.776 F1000
G1 X62.180 Y10.984 F1000
G1 X62.180 Y11.192 F1000
G1 X61.972 Y11.400 F1000
G1 X61.972 Y11.608 F1000
G1 X61.556 Y11.608 F1000
G1 X61.556 Y10.152 F1000
G1 X61.556 Y11.400 F1000
G1 X61.764 Y11.608 F1000
G1 X61.972 Y11.400 F1000
G1 X61.972 Y11.192 F1000
G1 X62.180 Y10.984 F1000
G1 X62.180 Y10.776 F1000
G1 X62.388 Y10.568 F1000
G1 X62.388 Y10.360 F1000
G1 X62.804 Y10.360 F1000
G0 Z3.0 ; Pen up

G0 X63.844 Y11.816 F3000 ; Travel to line 17
G0 Z0.0 ; Pen down
G1 X63.428 Y11.400 F1000
G1 X63.428 Y10.568 F1000
G1 X63.844 Y10.152 F1000
G1 X64.468 Y10.152 F1000
G1 X64.676 Y10.360 F1000
G1 X64.468 Y10.152 F1000
G1 X63.844 Y10.152 F1000
G1 X63.428 Y10.568 F1000
G1 X63.428 Y11.400 F1000
G1 X63.844 Y11.816 F1000
G1 X64.468 Y11.816 F1000
G1 X64.676 Y11.608 F1000
G1 X64.468 Y11.816 F1000
G0 Z3.0 ; Pen up

G0 X65.092 Y11.816 F3000 ; Travel to line 18
G0 Z0.0 ; Pen down
G1 X65.092 Y10.152 F1000
G1 X65.092 Y10.776 F1000
G1 X65.300 Y10.984 F1000
G1 X65.716 Y10.984 F1000
G1 X66.132 Y10.568 F1000
G1 X66.132 Y10.152 F1000
G1 X66.132 Y10.568 F1000
G1 X65.924 Y10.776 F1000
G1 X65.924 Y10.984 F1000
G1 X66.132 Y11.192 F1000
G1 X66.132 Y11.608 F1000
G1 X65.924 Y11.816 F1000
G0 Z3.0 ; Pen up

G0 X66.756 Y11.816 F3000 ; Travel to line 19
G0 Z0.0 ; Pen down
G1 X66.756 Y10.152 F1000
G1 X67.796 Y10.152 F1000
G1 X66.964 Y10.152 F1000
G1 X66.756 Y10.360 F1000
G1 X66.756 Y10.776 F1000
G1 X66.964 Y10.984 F1000
G1 X67.796 Y10.984 F1000
G1 X66.964 Y10.984 F1000
G1 X66.756 Y11.192 F1000
G1 X66.756 Y11.608 F1000
G1 X66.964 Y11.816 F1000
G1 X67.796 Y11.816 F1000
G0 Z3.0 ; Pen up

G0 X68.212 Y11.816 F3000 ; Travel to line 20
G0 Z0.0 ; Pen down
G1 X68.628 Y11.816 F1000
G1 X68.836 Y11.608 F1000
G1 X68.836 Y10.152 F1000
G1 X68.836 Y11.608 F1000
G1 X69.044 Y11.816 F1000
G1 X69.460 Y11.816 F1000
G0 Z3.0 ; Pen up

G0 X69.876 Y11.816 F3000 ; Travel to line 21
G0 Z0.0 ; Pen down
G1 X69.876 Y10.152 F1000
G1 X70.916 Y10.152 F1000
G1 X70.084 Y10.152 F1000
G1 X69.876 Y10.360 F1000
G1 X69.876 Y10.776 F1000
G1 X70.084 Y10.984 F1000
G1 X70.916 Y10.984 F1000
G1 X70.084 Y10.984 F1000
G1 X69.876 Y11.192 F1000
G1 X69.876 Y11.608 F1000
G1 X70.084 Y11.816 F1000
G1 X70.916 Y11.816 F1000
G0 Z3.0 ; Pen up

G0 X72.372 Y11.816 F3000 ; Travel to line 22
G0 Z0.0 ; Pen down
G1 X72.372 Y10.152 F1000
G1 X72.372 Y10.776 F1000
G1 X72.580 Y10.984 F1000
G1 X73.204 Y10.984 F1000
G1 X73.412 Y11.192 F1000
G1 X73.412 Y11.608 F1000
G1 X73.204 Y11.816 F1000
G0 Z3.0 ; Pen up

G0 X73.828 Y11.816 F3000 ; Travel to line 23
G0 Z0.0 ; Pen down
G1 X73.828 Y10.152 F1000
G0 Z3.0 ; Pen up

G0 X74.452 Y11.816 F3000 ; Travel to line 24
G0 Z0.0 ; Pen down
G1 X74.452 Y10.152 F1000
G1 X75.492 Y10.152 F1000
G1 X74.660 Y10.152 F1000
G1 X74.452 Y10.360 F1000
G1 X74.452 Y10.776 F1000
G1 X74.660 Y10.984 F1000
G1 X75.492 Y10.984 F1000
G1 X74.660 Y10.984 F1000
G1 X74.452 Y11.192 F1000
G1 X74.452 Y11.608 F1000
G1 X74.660 Y11.816 F1000
G1 X75.492 Y11.816 F1000
G0 Z3.0 ; Pen up

G0 X76.116 Y11.816 F3000 ; Travel to line 25
G0 Z0.0 ; Pen down
G1 X76.116 Y10.152 F1000
G1 X76.116 Y10.776 F1000
G1 X76.324 Y10.984 F1000
G1 X76.740 Y10.984 F1000
G1 X77.156 Y10.568 F1000
G1 X77.156 Y10.152 F1000
G1 X77.156 Y10.568 F1000
G1 X76.948 Y10.776 F1000
G1 X76.948 Y10.984 F1000
G1 X77.156 Y11.192 F1000
G1 X77.156 Y11.608 F1000
G1 X76.948 Y11.816 F1000
G0 Z3.0 ; Pen up

G0 X76.116 Y11.608 F3000 ; Travel to line 26
G0 Z0.0 ; Pen down
G1 X76.324 Y11.816 F1000
G1 X76.740 Y11.816 F1000
G1 X77.156 Y11.400 F1000
G1 X76.740 Y10.984 F1000
G1 X76.324 Y10.984 F1000
G1 X76.116 Y11.192 F1000
G0 Z3.0 ; Pen up

G0 X77.988 Y11.816 F3000 ; Travel to line 27
G0 Z0.0 ; Pen down
G1 X77.780 Y11.608 F1000
G1 X77.780 Y11.192 F1000
G1 X77.988 Y10.984 F1000
G1 X78.404 Y10.984 F1000
G1 X78.820 Y10.568 F1000
G1 X78.404 Y10.152 F1000
G1 X77.988 Y10.152 F1000
G1 X77.780 Y10.360 F1000
G1 X77.988 Y10.152 F1000
G1 X78.612 Y10.152 F1000
G1 X78.820 Y10.360 F1000
G1 X78.820 Y10.776 F1000
G1 X78.612 Y10.984 F1000
G1 X78.196 Y10.984 F1000
G1 X77.780 Y11.400 F1000
G1 X77.780 Y11.608 F1000
G1 X77.988 Y11.816 F1000
G1 X78.612 Y11.816 F1000
G0 Z3.0 ; Pen up

G0 X80.484 Y11.192 F3000 ; Travel to line 28
G0 Z0.0 ; Pen down
G1 X80.484 Y10.776 F1000
G1 X80.692 Y10.568 F1000
G1 X81.108 Y10.568 F1000
G1 X81.316 Y10.776 F1000
G1 X81.108 Y10.984 F1000
G1 X81.108 Y11.400 F1000
G1 X80.900 Y11.608 F1000
G1 X80.900 Y11.608 F1000
G1 X81.108 Y11.400 F1000
G1 X81.108 Y10.984 F1000
G1 X81.316 Y10.776 F1000
G1 X81.316 Y10.568 F1000
G1 X80.484 Y10.568 F1000
G1 X80.276 Y10.360 F1000
G1 X80.276 Y10.152 F1000
G1 X80.276 Y10.568 F1000
G1 X80.484 Y10.776 F1000
G1 X80.484 Y11.192 F1000
G1 X80.692 Y11.400 F1000
G1 X80.692 Y11.608 F1000
G0 Z3.0 ; Pen up

G0 X81.524 Y11.816 F3000 ; Travel to line 29
G0 Z0.0 ; Pen down
G1 X81.940 Y11.816 F1000
G1 X82.148 Y11.608 F1000
G1 X82.148 Y10.152 F1000
G1 X82.148 Y11.608 F1000
G1 X82.356 Y11.816 F1000
G1 X82.772 Y11.816 F1000
G0 Z3.0 ; Pen up

G0 X84.020 Y11.816 F3000 ; Travel to line 30
G0 Z0.0 ; Pen down
G1 X84.020 Y10.152 F1000
G1 X84.852 Y10.152 F1000
G1 X85.060 Y10.360 F1000
G1 X85.060 Y10.776 F1000
G1 X84.852 Y10.984 F1000
G1 X85.060 Y11.192 F1000
G1 X85.060 Y11.608 F1000
G1 X84.852 Y11.816 F1000
G0 Z3.0 ; Pen up

G0 X84.020 Y11.608 F3000 ; Travel to line 31
G0 Z0.0 ; Pen down
G1 X84.228 Y11.816 F1000
G1 X84.644 Y11.816 F1000
G1 X85.060 Y11.400 F1000
G1 X84.644 Y10.984 F1000
G1 X84.228 Y10.984 F1000
G1 X84.020 Y11.192 F1000
G0 Z3.0 ; Pen up

G0 X84.020 Y10.776 F3000 ; Travel to line 32
G0 Z0.0 ; Pen down
G1 X84.228 Y10.984 F1000
G1 X84.852 Y10.984 F1000
G1 X85.060 Y10.776 F1000
G1 X85.060 Y10.360 F1000
G1 X84.852 Y10.152 F1000
G1 X84.228 Y10.152 F1000
G1 X84.020 Y10.360 F1000
G0 Z3.0 ; Pen up

G0 X85.892 Y11.192 F3000 ; Travel to line 33
G0 Z0.0 ; Pen down
G1 X85.892 Y10.776 F1000
G1 X86.100 Y10.568 F1000
G1 X86.516 Y10.568 F1000
G1 X86.724 Y10.776 F1000
G1 X86.516 Y10.984 F1000
G1 X86.516 Y11.400 F1000
G1 X86.308 Y11.608 F1000
G1 X86.308 Y11.608 F1000
G1 X86.516 Y11.400 F1000
G1 X86.516 Y10.984 F1000
G1 X86.724 Y10.776 F1000
G1 X86.724 Y10.568 F1000
G1 X85.892 Y10.568 F1000
G1 X85.684 Y10.360 F1000
G1 X85.684 Y10.152 F1000
G1 X85.684 Y10.568 F1000
G1 X85.892 Y10.776 F1000
G1 X85.892 Y11.192 F1000
G1 X86.100 Y11.400 F1000
G1 X86.100 Y11.608 F1000
G0 Z3.0 ; Pen up

G0 X87.764 Y11.816 F3000 ; Travel to line 34
G0 Z0.0 ; Pen down
G1 X87.556 Y11.608 F1000
G1 X87.556 Y11.192 F1000
G1 X87.764 Y10.984 F1000
G1 X88.180 Y10.984 F1000
G1 X88.596 Y10.568 F1000
G1 X88.180 Y10.152 F1000
G1 X87.764 Y10.152 F1000
G1 X87.556 Y10.360 F1000
G1 X87.764 Y10.152 F1000
G1 X88.388 Y10.152 F1000
G1 X88.596 Y10.360 F1000
G1 X88.596 Y10.776 F1000
G1 X88.388 Y10.984 F1000
G1 X87.972 Y10.984 F1000
G1 X87.556 Y11.400 F1000
G1 X87.556 Y11.608 F1000
G1 X87.764 Y11.816 F1000
G1 X88.388 Y11.816 F1000
G0 Z3.0 ; Pen up

G0 X89.012 Y11.816 F3000 ; Travel to line 35
G0 Z0.0 ; Pen down
G1 X89.012 Y10.152 F1000
G1 X90.052 Y10.152 F1000
G1 X89.220 Y10.152 F1000
G1 X89.012 Y10.360 F1000
G1 X89.012 Y10.776 F1000
G1 X89.220 Y10.984 F1000
G1 X90.052 Y10.984 F1000
G1 X89.220 Y10.984 F1000
G1 X89.012 Y11.192 F1000
G1 X89.012 Y11.608 F1000
G1 X89.220 Y11.816 F1000
G1 X90.052 Y11.816 F1000
G0 Z3.0 ; Pen up

G0 X91.508 Y11.816 F3000 ; Travel to line 36
G0 Z0.0 ; Pen down
G1 X91.508 Y11.192 F1000
G1 X91.716 Y10.984 F1000
G1 X91.716 Y10.776 F1000
G1 X91.924 Y10.568 F1000
G1 X92.340 Y10.568 F1000
G1 X92.340 Y10.984 F1000
G1 X92.548 Y11.192 F1000
G1 X92.548 Y11.608 F1000
G1 X92.548 Y11.192 F1000
G1 X92.340 Y10.984 F1000
G1 X92.340 Y10.776 F1000
G1 X92.132 Y10.568 F1000
G1 X91.924 Y10.568 F1000
G1 X91.716 Y10.776 F1000
G1 X91.716 Y11.192 F1000
G1 X91.508 Y11.400 F1000
G0 Z3.0 ; Pen up

G0 X93.172 Y11.816 F3000 ; Travel to line 37
G0 Z0.0 ; Pen down
G1 X93.172 Y10.152 F1000
G1 X94.212 Y10.152 F1000
G1 X93.380 Y10.152 F1000
G1 X93.172 Y10.360 F1000
G1 X93.172 Y10.776 F1000
G1 X93.380 Y10.984 F1000
G1 X94.212 Y10.984 F1000
G1 X93.380 Y10.984 F1000
G1 X93.172 Y11.192 F1000
G1 X93.172 Y11.608 F1000
G1 X93.380 Y11.816 F1000
G1 X94.212 Y11.816 F1000
G0 Z3.0 ; Pen up

G0 X94.628 Y11.816 F3000 ; Travel to line 38
G0 Z0.0 ; Pen down
G1 X94.628 Y10.152 F1000
G1 X94.628 Y10.776 F1000
G1 X94.836 Y10.984 F1000
G1 X95.252 Y10.984 F1000
G1 X95.668 Y10.568 F1000
G1 X95.668 Y10.152 F1000
G1 X95.668 Y10.568 F1000
G1 X95.460 Y10.776 F1000
G1 X95.460 Y10.984 F1000
G1 X95.668 Y11.192 F1000
G1 X95.668 Y11.608 F1000
G1 X95.460 Y11.816 F1000
G0 Z3.0 ; Pen up

G0 X96.084 Y11.816 F3000 ; Travel to line 39
G0 Z0.0 ; Pen down
G1 X96.500 Y11.816 F1000
G1 X96.708 Y11.608 F1000
G1 X96.708 Y10.152 F1000
G1 X96.708 Y11.608 F1000
G1 X96.916 Y11.816 F1000
G1 X97.332 Y11.816 F1000
G0 Z3.0 ; Pen up

G0 X97.748 Y11.816 F3000 ; Travel to line 40
G0 Z0.0 ; Pen down
G1 X97.748 Y10.152 F1000
G0 Z3.0 ; Pen up

G0 X98.996 Y11.816 F3000 ; Travel to line 41
G0 Z0.0 ; Pen down
G1 X98.580 Y11.400 F1000
G1 X98.580 Y10.568 F1000
G1 X98.996 Y10.152 F1000
G1 X99.620 Y10.152 F1000
G1 X99.828 Y10.360 F1000
G1 X99.620 Y10.152 F1000
G1 X98.996 Y10.152 F1000
G1 X98.580 Y10.568 F1000
G1 X98.580 Y11.400 F1000
G1 X98.996 Y11.816 F1000
G1 X99.620 Y11.816 F1000
G1 X99.828 Y11.608 F1000
G1 X99.620 Y11.816 F1000
G0 Z3.0 ; Pen up

G0 X100.244 Y11.816 F3000 ; Travel to line 42
G0 Z0.0 ; Pen down
G1 X100.244 Y10.152 F1000
G1 X101.284 Y10.152 F1000
G1 X100.452 Y10.152 F1000
G1 X100.244 Y10.360 F1000
G1 X100.244 Y10.776 F1000
G1 X100.452 Y10.984 F1000
G1 X101.284 Y10.984 F1000
G1 X100.452 Y10.984 F1000
G1 X100.244 Y11.192 F1000
G1 X100.244 Y11.608 F1000
G1 X100.452 Y11.816 F1000
G1 X101.284 Y11.816 F1000
G0 Z3.0 ; Pen up

G0 X102.116 Y11.816 F3000 ; Travel to line 43
G0 Z0.0 ; Pen down
G1 X101.908 Y11.608 F1000
G1 X101.908 Y11.192 F1000
G1 X102.116 Y10.984 F1000
G1 X102.532 Y10.984 F1000
G1 X102.948 Y10.568 F1000
G1 X102.532 Y10.152 F1000
G1 X102.116 Y10.152 F1000
G1 X101.908 Y10.360 F1000
G1 X102.116 Y10.152 F1000
G1 X102.740 Y10.152 F1000
G1 X102.948 Y10.360 F1000
G1 X102.948 Y10.776 F1000
G1 X102.740 Y10.984 F1000
G1 X102.324 Y10.984 F1000
G1 X101.908 Y11.400 F1000
G1 X101.908 Y11.608 F1000
G1 X102.116 Y11.816 F1000
G1 X102.740 Y11.816 F1000
G0 Z3.0 ; Pen up

G0 X101.700 Y14.520 F3000 ; Travel to line 44
G0 Z0.0 ; Pen down
G1 X101.908 Y14.312 F1000
G1 X102.740 Y14.312 F1000
G1 X102.948 Y14.520 F1000
G1 X103.156 Y14.312 F1000
G1 X103.572 Y14.312 F1000
G1 X103.988 Y14.728 F1000
G1 X103.572 Y15.144 F1000
G1 X103.156 Y15.144 F1000
G1 X102.948 Y15.352 F1000
G1 X102.948 Y15.768 F1000
G1 X103.156 Y15.976 F1000
G1 X103.780 Y15.976 F1000
G1 X103.156 Y15.976 F1000
G1 X102.948 Y15.768 F1000
G1 X102.948 Y15.560 F1000
G1 X103.364 Y15.144 F1000
G1 X103.780 Y15.144 F1000
G1 X103.988 Y14.936 F1000
G1 X103.988 Y14.520 F1000
G1 X103.780 Y14.312 F1000
G1 X103.156 Y14.312 F1000
G1 X102.948 Y14.520 F1000
G1 X102.740 Y14.312 F1000
G1 X101.700 Y14.312 F1000
G1 X101.700 Y15.976 F1000
G0 Z3.0 ; Pen up

G0 X101.076 Y15.976 F3000 ; Travel to line 45
G0 Z0.0 ; Pen down
G1 X100.244 Y15.976 F1000
G1 X100.036 Y15.768 F1000
G1 X100.036 Y15.352 F1000
G1 X100.244 Y15.144 F1000
G1 X101.076 Y15.144 F1000
G1 X100.244 Y15.144 F1000
G1 X100.036 Y14.936 F1000
G1 X100.036 Y14.520 F1000
G1 X100.244 Y14.312 F1000
G1 X101.076 Y14.312 F1000
G1 X100.036 Y14.312 F1000
G1 X100.036 Y15.976 F1000
G0 Z3.0 ; Pen up

G0 X99.412 Y15.976 F3000 ; Travel to line 46
G0 Z0.0 ; Pen down
G1 X99.412 Y14.728 F1000
G1 X99.204 Y14.520 F1000
G1 X98.996 Y14.728 F1000
G1 X98.996 Y14.936 F1000
G1 X98.788 Y15.144 F1000
G1 X98.788 Y15.352 F1000
G1 X98.580 Y15.560 F1000
G1 X98.580 Y15.768 F1000
G1 X98.164 Y15.768 F1000
G1 X98.164 Y14.312 F1000
G1 X98.164 Y15.560 F1000
G1 X98.372 Y15.768 F1000
G1 X98.580 Y15.560 F1000
G1 X98.580 Y15.352 F1000
G1 X98.788 Y15.144 F1000
G1 X98.788 Y14.936 F1000
G1 X98.996 Y14.728 F1000
G1 X98.996 Y14.520 F1000
G1 X99.412 Y14.520 F1000
G0 Z3.0 ; Pen up

G0 X96.916 Y15.768 F3000 ; Travel to line 47
G0 Z0.0 ; Pen down
G1 X96.916 Y15.560 F1000
G1 X96.708 Y15.352 F1000
G1 X96.708 Y14.936 F1000
G1 X96.500 Y14.728 F1000
G1 X96.500 Y14.312 F1000
G1 X96.500 Y14.520 F1000
G1 X96.708 Y14.728 F1000
G1 X97.540 Y14.728 F1000
G1 X97.540 Y14.936 F1000
G1 X97.332 Y15.144 F1000
G1 X97.332 Y15.560 F1000
G1 X97.124 Y15.768 F1000
G1 X97.124 Y15.768 F1000
G1 X97.332 Y15.560 F1000
G1 X97.332 Y15.144 F1000
G1 X97.540 Y14.936 F1000
G1 X97.332 Y14.728 F1000
G1 X96.916 Y14.728 F1000
G1 X96.708 Y14.936 F1000
G1 X96.708 Y15.352 F1000
G0 Z3.0 ; Pen up

G0 X96.084 Y15.976 F3000 ; Travel to line 48
G0 Z0.0 ; Pen down
G1 X96.292 Y15.768 F1000
G1 X96.292 Y15.352 F1000
G1 X96.084 Y15.144 F1000
G1 X95.460 Y15.144 F1000
G1 X95.252 Y14.936 F1000
G1 X95.252 Y14.312 F1000
G1 X95.252 Y15.976 F1000
G0 Z3.0 ; Pen up

G0 X95.252 Y15.768 F3000 ; Travel to line 49
G0 Z0.0 ; Pen down
G1 X95.460 Y15.976 F1000
G1 X95.876 Y15.976 F1000
G1 X96.292 Y15.560 F1000
G1 X95.876 Y15.144 F1000
G1 X95.460 Y15.144 F1000
G1 X95.252 Y15.352 F1000
G0 Z3.0 ; Pen up

G0 X93.796 Y15.976 F3000 ; Travel to line 50
G0 Z0.0 ; Pen down
G1 X92.964 Y15.976 F1000
G1 X92.756 Y15.768 F1000
G1 X92.756 Y15.352 F1000
G1 X92.964 Y15.144 F1000
G1 X93.796 Y15.144 F1000
G1 X92.964 Y15.144 F1000
G1 X92.756 Y14.936 F1000
G1 X92.756 Y14.520 F1000
G1 X92.964 Y14.312 F1000
G1 X93.796 Y14.312 F1000
G1 X92.756 Y14.312 F1000
G1 X92.756 Y15.976 F1000
G0 Z3.0 ; Pen up

G0 X92.340 Y15.976 F3000 ; Travel to line 51
G0 Z0.0 ; Pen down
G1 X91.924 Y15.976 F1000
G1 X91.716 Y15.768 F1000
G1 X91.716 Y14.312 F1000
G1 X91.716 Y15.768 F1000
G1 X91.508 Y15.976 F1000
G1 X91.092 Y15.976 F1000
G0 Z3.0 ; Pen up

G0 X90.260 Y15.768 F3000 ; Travel to line 52
G0 Z0.0 ; Pen down
G1 X90.260 Y15.560 F1000
G1 X90.052 Y15.352 F1000
G1 X90.052 Y14.936 F1000
G1 X89.844 Y14.728 F1000
G1 X89.844 Y14.312 F1000
G1 X89.844 Y14.520 F1000
G1 X90.052 Y14.728 F1000
G1 X90.884 Y14.728 F1000
G1 X90.884 Y14.936 F1000
G1 X90.676 Y15.144 F1000
G1 X90.676 Y15.560 F1000
G1 X90.468 Y15.768 F1000
G1 X90.468 Y15.768 F1000
G1 X90.676 Y15.560 F1000
G1 X90.676 Y15.144 F1000
G1 X90.884 Y14.936 F1000
G1 X90.676 Y14.728 F1000
G1 X90.260 Y14.728 F1000
G1 X90.052 Y14.936 F1000
G1 X90.052 Y15.352 F1000
G0 Z3.0 ; Pen up

G0 X89.220 Y15.976 F3000 ; Travel to line 53
G0 Z0.0 ; Pen down
G1 X89.220 Y14.728 F1000
G1 X89.012 Y14.520 F1000
G1 X88.804 Y14.728 F1000
G1 X88.804 Y14.936 F1000
G1 X88.596 Y15.144 F1000
G1 X88.596 Y15.352 F1000
G1 X88.388 Y15.560 F1000
G1 X88.388 Y15.768 F1000
G1 X87.972 Y15.768 F1000
G1 X87.972 Y14.312 F1000
G1 X87.972 Y15.560 F1000
G1 X88.180 Y15.768 F1000
G1 X88.388 Y15.560 F1000
G1 X88.388 Y15.352 F1000
G1 X88.596 Y15.144 F1000
G1 X88.596 Y14.936 F1000
G1 X88.804 Y14.728 F1000
G1 X88.804 Y14.520 F1000
G1 X89.220 Y14.520 F1000
G0 Z3.0 ; Pen up

G0 X86.932 Y15.976 F3000 ; Travel to line 54
G0 Z0.0 ; Pen down
G1 X87.140 Y15.768 F1000
G1 X87.140 Y14.520 F1000
G1 X86.932 Y14.312 F1000
G1 X86.308 Y14.312 F1000
G1 X85.892 Y14.728 F1000
G1 X85.892 Y15.560 F1000
G1 X86.308 Y15.976 F1000
G1 X86.308 Y15.976 F1000
G1 X86.724 Y15.976 F1000
G1 X87.140 Y15.560 F1000
G1 X87.140 Y14.728 F1000
G1 X86.724 Y14.312 F1000
G1 X86.308 Y14.312 F1000
G1 X85.892 Y14.728 F1000
G1 X85.892 Y15.560 F1000
G0 Z3.0 ; Pen up

G0 X85.060 Y15.976 F3000 ; Travel to line 55
G0 Z0.0 ; Pen down
G1 X85.268 Y15.768 F1000
G1 X85.268 Y15.352 F1000
G1 X85.060 Y15.144 F1000
G1 X85.268 Y14.936 F1000
G1 X85.268 Y14.520 F1000
G1 X85.060 Y14.312 F1000
G1 X84.228 Y14.312 F1000
G1 X84.228 Y15.976 F1000
G0 Z3.0 ; Pen up

G0 X84.228 Y15.768 F3000 ; Travel to line 56
G0 Z0.0 ; Pen down
G1 X84.436 Y15.976 F1000
G1 X84.852 Y15.976 F1000
G1 X85.268 Y15.560 F1000
G1 X84.852 Y15.144 F1000
G1 X84.436 Y15.144 F1000
G1 X84.228 Y15.352 F1000
G0 Z3.0 ; Pen up

G0 X84.228 Y14.936 F3000 ; Travel to line 57
G0 Z0.0 ; Pen down
G1 X84.436 Y15.144 F1000
G1 X85.060 Y15.144 F1000
G1 X85.268 Y14.936 F1000
G1 X85.268 Y14.520 F1000
G1 X85.060 Y14.312 F1000
G1 X84.436 Y14.312 F1000
G1 X84.228 Y14.520 F1000
G0 Z3.0 ; Pen up

G0 X83.396 Y15.976 F3000 ; Travel to line 58
G0 Z0.0 ; Pen down
G1 X83.604 Y15.768 F1000
G1 X83.604 Y15.352 F1000
G1 X83.396 Y15.144 F1000
G1 X83.396 Y14.936 F1000
G1 X83.604 Y14.728 F1000
G1 X83.604 Y14.312 F1000
G1 X83.604 Y14.728 F1000
G1 X83.188 Y15.144 F1000
G1 X82.772 Y15.144 F1000
G1 X82.564 Y14.936 F1000
G1 X82.564 Y14.312 F1000
G1 X82.564 Y15.976 F1000
G0 Z3.0 ; Pen up

G0 X82.564 Y15.768 F3000 ; Travel to line 59
G0 Z0.0 ; Pen down
G1 X82.772 Y15.976 F1000
G1 X83.188 Y15.976 F1000
G1 X83.604 Y15.560 F1000
G1 X83.188 Y15.144 F1000
G1 X82.772 Y15.144 F1000
G1 X82.564 Y15.352 F1000
G0 Z3.0 ; Pen up

G0 X81.316 Y15.768 F3000 ; Travel to line 60
G0 Z0.0 ; Pen down
G1 X81.316 Y15.560 F1000
G1 X81.108 Y15.352 F1000
G1 X81.108 Y14.936 F1000
G1 X80.900 Y14.728 F1000
G1 X80.900 Y14.312 F1000
G1 X80.900 Y14.520 F1000
G1 X81.108 Y14.728 F1000
G1 X81.940 Y14.728 F1000
G1 X81.940 Y14.936 F1000
G1 X81.732 Y15.144 F1000
G1 X81.732 Y15.560 F1000
G1 X81.524 Y15.768 F1000
G1 X81.524 Y15.768 F1000
G1 X81.732 Y15.560 F1000
G1 X81.732 Y15.144 F1000
G1 X81.940 Y14.936 F1000
G1 X81.732 Y14.728 F1000
G1 X81.316 Y14.728 F1000
G1 X81.108 Y14.936 F1000
G1 X81.108 Y15.352 F1000
G0 Z3.0 ; Pen up

G0 X80.068 Y15.976 F3000 ; Travel to line 61
G0 Z0.0 ; Pen down
G1 X80.276 Y15.768 F1000
G1 X80.068 Y15.976 F1000
G1 X79.444 Y15.976 F1000
G1 X79.028 Y15.560 F1000
G1 X79.028 Y14.728 F1000
G1 X79.444 Y14.312 F1000
G1 X80.068 Y14.312 F1000
G1 X80.276 Y14.520 F1000
G1 X80.068 Y14.312 F1000
G1 X79.444 Y14.312 F1000
G1 X79.028 Y14.728 F1000
G1 X79.028 Y15.560 F1000
G1 X79.444 Y15.976 F1000
G0 Z3.0 ; Pen up

G0 X77.780 Y15.976 F3000 ; Travel to line 62
G0 Z0.0 ; Pen down
G1 X77.780 Y15.768 F1000
G1 X77.988 Y15.560 F1000
G1 X77.988 Y15.352 F1000
G1 X78.196 Y15.144 F1000
G1 X78.196 Y14.312 F1000
G1 X78.196 Y15.144 F1000
G1 X78.612 Y15.560 F1000
G1 X78.612 Y15.768 F1000
G1 X78.820 Y15.976 F1000
G1 X78.196 Y15.352 F1000
G1 X77.780 Y15.768 F1000
G0 Z3.0 ; Pen up

G0 X76.532 Y15.976 F3000 ; Travel to line 63
G0 Z0.0 ; Pen down
G1 X76.532 Y14.312 F1000
G1 X77.572 Y14.312 F1000
G1 X76.740 Y14.312 F1000
G1 X76.532 Y14.520 F1000
G0 Z3.0 ; Pen up

G0 X75.700 Y15.976 F3000 ; Travel to line 64
G0 Z0.0 ; Pen down
G1 X75.908 Y15.768 F1000
G1 X75.908 Y14.520 F1000
G1 X75.700 Y14.312 F1000
G1 X75.076 Y14.312 F1000
G1 X74.660 Y14.728 F1000
G1 X74.660 Y15.560 F1000
G1 X75.076 Y15.976 F1000
G1 X75.076 Y15.976 F1000
G1 X75.492 Y15.976 F1000
G1 X75.908 Y15.560 F1000
G1 X75.908 Y14.728 F1000
G1 X75.492 Y14.312 F1000
G1 X75.076 Y14.312 F1000
G1 X74.660 Y14.728 F1000
G1 X74.660 Y15.560 F1000
G0 Z3.0 ; Pen up

G0 X74.036 Y15.976 F3000 ; Travel to line 65
G0 Z0.0 ; Pen down
G1 X74.244 Y15.768 F1000
G1 X74.244 Y15.352 F1000
G1 X74.036 Y15.144 F1000
G1 X73.412 Y15.144 F1000
G1 X73.204 Y14.936 F1000
G1 X73.204 Y14.312 F1000
G1 X73.204 Y15.976 F1000
G0 Z3.0 ; Pen up

G0 X73.204 Y15.768 F3000 ; Travel to line 66
G0 Z0.0 ; Pen down
G1 X73.412 Y15.976 F1000
G1 X73.828 Y15.976 F1000
G1 X74.244 Y15.560 F1000
G1 X73.828 Y15.144 F1000
G1 X73.412 Y15.144 F1000
G1 X73.204 Y15.352 F1000
G0 Z3.0 ; Pen up

G0 X71.956 Y15.976 F3000 ; Travel to line 67
G0 Z0.0 ; Pen down
G1 X71.540 Y15.976 F1000
G1 X71.332 Y15.768 F1000
G1 X71.332 Y14.312 F1000
G1 X71.332 Y15.768 F1000
G1 X71.124 Y15.976 F1000
G1 X70.708 Y15.976 F1000
G0 Z3.0 ; Pen up

G0 X70.292 Y15.976 F3000 ; Travel to line 68
G0 Z0.0 ; Pen down
G1 X70.292 Y14.728 F1000
G1 X70.084 Y14.520 F1000
G1 X69.876 Y14.728 F1000
G1 X69.876 Y14.936 F1000
G1 X69.668 Y15.144 F1000
G1 X69.668 Y15.352 F1000
G1 X69.460 Y15.560 F1000
G1 X69.460 Y15.768 F1000
G1 X69.044 Y15.768 F1000
G1 X69.044 Y14.312 F1000
G1 X69.044 Y15.560 F1000
G1 X69.252 Y15.768 F1000
G1 X69.460 Y15.560 F1000
G1 X69.460 Y15.352 F1000
G1 X69.668 Y15.144 F1000
G1 X69.668 Y14.936 F1000
G1 X69.876 Y14.728 F1000
G1 X69.876 Y14.520 F1000
G1 X70.292 Y14.520 F1000
G0 Z3.0 ; Pen up

G0 X67.588 Y15.768 F3000 ; Travel to line 69
G0 Z0.0 ; Pen down
G1 X67.588 Y15.560 F1000
G1 X67.380 Y15.352 F1000
G1 X67.380 Y14.936 F1000
G1 X67.172 Y14.728 F1000
G1 X67.172 Y14.312 F1000
G1 X67.172 Y14.520 F1000
G1 X67.380 Y14.728 F1000
G1 X68.212 Y14.728 F1000
G1 X68.212 Y14.936 F1000
G1 X68.004 Y15.144 F1000
G1 X68.004 Y15.560 F1000
G1 X67.796 Y15.768 F1000
G1 X67.796 Y15.768 F1000
G1 X68.004 Y15.560 F1000
G1 X68.004 Y15.144 F1000
G1 X68.212 Y14.936 F1000
G1 X68.004 Y14.728 F1000
G1 X67.588 Y14.728 F1000
G1 X67.380 Y14.936 F1000
G1 X67.380 Y15.352 F1000
G0 Z3.0 ; Pen up

G0 X66.964 Y15.976 F3000 ; Travel to line 70
G0 Z0.0 ; Pen down
G1 X66.548 Y15.976 F1000
G1 X66.340 Y15.768 F1000
G1 X66.340 Y14.312 F1000
G1 X66.340 Y15.768 F1000
G1 X66.132 Y15.976 F1000
G1 X65.716 Y15.976 F1000
G0 Z3.0 ; Pen up

G0 X65.092 Y15.976 F3000 ; Travel to line 71
G0 Z0.0 ; Pen down
G1 X64.468 Y15.976 F1000
G1 X64.260 Y15.768 F1000
G1 X64.260 Y15.560 F1000
G1 X64.676 Y15.144 F1000
G1 X65.092 Y15.144 F1000
G1 X65.300 Y14.936 F1000
G1 X65.300 Y14.520 F1000
G1 X65.092 Y14.312 F1000
G1 X64.468 Y14.312 F1000
G1 X64.260 Y14.520 F1000
G1 X64.468 Y14.312 F1000
G1 X64.884 Y14.312 F1000
G1 X65.300 Y14.728 F1000
G1 X64.884 Y15.144 F1000
G1 X64.468 Y15.144 F1000
G1 X64.260 Y15.352 F1000
G1 X64.260 Y15.768 F1000
G1 X64.468 Y15.976 F1000
G0 Z3.0 ; Pen up

G0 X63.636 Y15.976 F3000 ; Travel to line 72
G0 Z0.0 ; Pen down
G1 X63.636 Y14.312 F1000
G0 Z3.0 ; Pen up

G0 X62.804 Y15.976 F3000 ; Travel to line 73
G0 Z0.0 ; Pen down
G1 X62.180 Y15.976 F1000
G1 X61.972 Y15.768 F1000
G1 X61.972 Y15.560 F1000
G1 X62.388 Y15.144 F1000
G1 X62.804 Y15.144 F1000
G1 X63.012 Y14.936 F1000
G1 X63.012 Y14.520 F1000
G1 X62.804 Y14.312 F1000
G1 X62.180 Y14.312 F1000
G1 X61.972 Y14.520 F1000
G1 X62.180 Y14.312 F1000
G1 X62.596 Y14.312 F1000
G1 X63.012 Y14.728 F1000
G1 X62.596 Y15.144 F1000
G1 X62.180 Y15.144 F1000
G1 X61.972 Y15.352 F1000
G1 X61.972 Y15.768 F1000
G1 X62.180 Y15.976 F1000
G0 Z3.0 ; Pen up

G0 X61.556 Y15.976 F3000 ; Travel to line 74
G0 Z0.0 ; Pen down
G1 X60.724 Y15.976 F1000
G1 X60.516 Y15.768 F1000
G1 X60.516 Y15.352 F1000
G1 X60.724 Y15.144 F1000
G1 X61.556 Y15.144 F1000
G1 X60.724 Y15.144 F1000
G1 X60.516 Y14.936 F1000
G1 X60.516 Y14.520 F1000
G1 X60.724 Y14.312 F1000
G1 X61.556 Y14.312 F1000
G1 X60.516 Y14.312 F1000
G1 X60.516 Y15.976 F1000
G0 Z3.0 ; Pen up

G0 X59.476 Y15.976 F3000 ; Travel to line 75
G0 Z0.0 ; Pen down
G1 X59.684 Y15.768 F1000
G1 X59.684 Y15.352 F1000
G1 X59.476 Y15.144 F1000
G1 X59.476 Y14.936 F1000
G1 X59.684 Y14.728 F1000
G1 X59.684 Y14.312 F1000
G1 X59.684 Y14.728 F1000
G1 X59.268 Y15.144 F1000
G1 X58.852 Y15.144 F1000
G1 X58.644 Y14.936 F1000
G1 X58.644 Y14.312 F1000
G1 X58.644 Y15.976 F1000
G0 Z3.0 ; Pen up

G0 X58.644 Y15.768 F3000 ; Travel to line 76
G0 Z0.0 ; Pen down
G1 X58.852 Y15.976 F1000
G1 X59.268 Y15.976 F1000
G1 X59.684 Y15.560 F1000
G1 X59.268 Y15.144 F1000
G1 X58.852 Y15.144 F1000
G1 X58.644 Y15.352 F1000
G0 Z3.0 ; Pen up

G0 X58.228 Y14.936 F3000 ; Travel to line 77
G0 Z0.0 ; Pen down
G1 X57.812 Y14.936 F1000
G0 Z3.0 ; Pen up

G0 X54.484 Y14.728 F3000 ; Travel to line 78
G0 Z0.0 ; Pen down
G1 X54.900 Y14.312 F1000
G1 X55.316 Y14.312 F1000
G1 X55.524 Y14.520 F1000
G1 X55.524 Y14.728 F1000
G1 X55.732 Y14.936 F1000
G1 X55.732 Y15.976 F1000
G1 X56.148 Y15.976 F1000
G1 X56.148 Y15.560 F1000
G1 X56.356 Y15.352 F1000
G1 X56.356 Y14.936 F1000
G1 X56.564 Y14.728 F1000
G1 X56.772 Y14.728 F1000
G1 X56.980 Y14.936 F1000
G1 X56.980 Y15.144 F1000
G1 X57.188 Y15.352 F1000
G1 X57.188 Y15.768 F1000
G1 X57.188 Y15.352 F1000
G1 X56.980 Y15.144 F1000
G1 X56.980 Y14.728 F1000
G1 X56.564 Y14.728 F1000
G1 X56.356 Y14.936 F1000
G1 X56.356 Y15.144 F1000
G1 X56.148 Y15.352 F1000
G1 X56.148 Y15.768 F1000
G1 X55.940 Y15.976 F1000
G1 X55.732 Y15.768 F1000
G1 X55.732 Y14.728 F1000
G1 X55.316 Y14.312 F1000
G1 X54.692 Y14.312 F1000
G1 X54.692 Y14.520 F1000
G1 X54.484 Y14.728 F1000
G1 X54.484 Y15.976 F1000
G0 Z3.0 ; Pen up

G0 X51.988 Y15.976 F3000 ; Travel to line 79
G0 Z0.0 ; Pen down
G1 X52.196 Y15.768 F1000
G1 X51.988 Y15.976 F1000
G1 X51.364 Y15.976 F1000
G1 X50.948 Y15.560 F1000
G1 X50.948 Y14.728 F1000
G1 X51.364 Y14.312 F1000
G1 X51.988 Y14.312 F1000
G1 X52.196 Y14.520 F1000
G1 X52.196 Y14.936 F1000
G1 X51.988 Y15.144 F1000
G1 X51.780 Y15.144 F1000
G1 X52.196 Y15.144 F1000
G1 X52.196 Y14.520 F1000
G1 X51.988 Y14.312 F1000
G1 X51.364 Y14.312 F1000
G1 X50.948 Y14.728 F1000
G1 X50.948 Y15.560 F1000
G1 X51.364 Y15.976 F1000
G0 Z3.0 ; Pen up

G0 X50.324 Y15.976 F3000 ; Travel to line 80
G0 Z0.0 ; Pen down
G1 X50.324 Y14.728 F1000
G1 X50.116 Y14.520 F1000
G1 X49.908 Y14.728 F1000
G1 X49.908 Y14.936 F1000
G1 X49.700 Y15.144 F1000
G1 X49.700 Y15.352 F1000
G1 X49.492 Y15.560 F1000
G1 X49.492 Y15.768 F1000
G1 X49.076 Y15.768 F1000
G1 X49.076 Y14.312 F1000
G1 X49.076 Y15.560 F1000
G1 X49.284 Y15.768 F1000
G1 X49.492 Y15.560 F1000
G1 X49.492 Y15.352 F1000
G1 X49.700 Y15.144 F1000
G1 X49.700 Y14.936 F1000
G1 X49.908 Y14.728 F1000
G1 X49.908 Y14.520 F1000
G1 X50.324 Y14.520 F1000
G0 Z3.0 ; Pen up

G0 X48.244 Y14.312 F3000 ; Travel to line 81
G0 Z0.0 ; Pen down
G1 X48.244 Y15.976 F1000
G0 Z3.0 ; Pen up

G0 X47.412 Y15.976 F3000 ; Travel to line 82
G0 Z0.0 ; Pen down
G1 X47.620 Y15.768 F1000
G1 X47.620 Y15.352 F1000
G1 X47.412 Y15.144 F1000
G1 X47.412 Y14.936 F1000
G1 X47.620 Y14.728 F1000
G1 X47.620 Y14.312 F1000
G1 X47.620 Y14.728 F1000
G1 X47.204 Y15.144 F1000
G1 X46.788 Y15.144 F1000
G1 X46.580 Y14.936 F1000
G1 X46.580 Y14.312 F1000
G1 X46.580 Y15.976 F1000
G0 Z3.0 ; Pen up

G0 X46.580 Y15.768 F3000 ; Travel to line 83
G0 Z0.0 ; Pen down
G1 X46.788 Y15.976 F1000
G1 X47.204 Y15.976 F1000
G1 X47.620 Y15.560 F1000
G1 X47.204 Y15.144 F1000
G1 X46.788 Y15.144 F1000
G1 X46.580 Y15.352 F1000
G0 Z3.0 ; Pen up

G0 X45.956 Y15.976 F3000 ; Travel to line 84
G0 Z0.0 ; Pen down
G1 X45.124 Y15.976 F1000
G1 X44.916 Y15.768 F1000
G1 X44.916 Y15.352 F1000
G1 X45.124 Y15.144 F1000
G1 X45.956 Y15.144 F1000
G1 X45.124 Y15.144 F1000
G1 X44.916 Y14.936 F1000
G1 X44.916 Y14.520 F1000
G1 X45.124 Y14.312 F1000
G1 X45.956 Y14.312 F1000
G1 X44.916 Y14.312 F1000
G1 X44.916 Y15.976 F1000
G0 Z3.0 ; Pen up

G0 X43.252 Y15.976 F3000 ; Travel to line 85
G0 Z0.0 ; Pen down
G1 X43.252 Y15.352 F1000
G1 X43.460 Y15.144 F1000
G1 X43.460 Y14.936 F1000
G1 X43.668 Y14.728 F1000
G1 X44.084 Y14.728 F1000
G1 X44.084 Y15.144 F1000
G1 X44.292 Y15.352 F1000
G1 X44.292 Y15.768 F1000
G1 X44.292 Y15.352 F1000
G1 X44.084 Y15.144 F1000
G1 X44.084 Y14.936 F1000
G1 X43.876 Y14.728 F1000
G1 X43.668 Y14.728 F1000
G1 X43.460 Y14.936 F1000
G1 X43.460 Y15.352 F1000
G1 X43.252 Y15.560 F1000
G0 Z3.0 ; Pen up

G0 X42.420 Y15.976 F3000 ; Travel to line 86
G0 Z0.0 ; Pen down
G1 X42.628 Y15.768 F1000
G1 X42.628 Y14.520 F1000
G1 X42.420 Y14.312 F1000
G1 X41.796 Y14.312 F1000
G1 X41.380 Y14.728 F1000
G1 X41.380 Y15.560 F1000
G1 X41.796 Y15.976 F1000
G1 X41.796 Y15.976 F1000
G1 X42.212 Y15.976 F1000
G1 X42.628 Y15.560 F1000
G1 X42.628 Y14.728 F1000
G1 X42.212 Y14.312 F1000
G1 X41.796 Y14.312 F1000
G1 X41.380 Y14.728 F1000
G1 X41.380 Y15.560 F1000
G0 Z3.0 ; Pen up

G0 X40.548 Y15.976 F3000 ; Travel to line 87
G0 Z0.0 ; Pen down
G1 X40.756 Y15.768 F1000
G1 X40.548 Y15.976 F1000
G1 X39.924 Y15.976 F1000
G1 X39.508 Y15.560 F1000
G1 X39.508 Y14.728 F1000
G1 X39.924 Y14.312 F1000
G1 X40.548 Y14.312 F1000
G1 X40.756 Y14.520 F1000
G1 X40.548 Y14.312 F1000
G1 X39.924 Y14.312 F1000
G1 X39.508 Y14.728 F1000
G1 X39.508 Y15.560 F1000
G1 X39.924 Y15.976 F1000
G0 Z3.0 ; Pen up

G0 X37.012 Y15.976 F3000 ; Travel to line 88
G0 Z0.0 ; Pen down
G1 X37.220 Y15.768 F1000
G1 X37.220 Y15.352 F1000
G1 X37.012 Y15.144 F1000
G1 X37.220 Y14.936 F1000
G1 X37.220 Y14.520 F1000
G1 X37.012 Y14.312 F1000
G1 X36.596 Y14.312 F1000
G1 X36.388 Y14.520 F1000
G1 X36.596 Y14.312 F1000
G1 X37.012 Y14.312 F1000
G1 X37.220 Y14.520 F1000
G1 X37.220 Y14.936 F1000
G1 X37.012 Y15.144 F1000
G1 X36.596 Y15.144 F1000
G1 X37.012 Y15.144 F1000
G1 X37.220 Y15.352 F1000
G1 X37.220 Y15.768 F1000
G1 X37.012 Y15.976 F1000
G1 X36.596 Y15.976 F1000
G1 X36.388 Y15.768 F1000
G1 X36.596 Y15.976 F1000
G0 Z3.0 ; Pen up

G0 X36.596 Y20.136 F3000 ; Travel to line 89
G0 Z0.0 ; Pen down
G1 X36.388 Y19.928 F1000
G1 X36.596 Y20.136 F1000
G1 X37.012 Y20.136 F1000
G1 X37.220 Y19.928 F1000
G1 X37.220 Y19.512 F1000
G1 X36.596 Y18.888 F1000
G1 X36.596 Y18.472 F1000
G1 X37.220 Y18.472 F1000
G1 X36.804 Y18.472 F1000
G1 X36.596 Y18.680 F1000
G1 X37.220 Y19.304 F1000
G1 X37.220 Y19.928 F1000
G1 X37.012 Y20.136 F1000
G0 Z3.0 ; Pen up

G0 X39.508 Y20.136 F3000 ; Travel to line 90
G0 Z0.0 ; Pen down
G1 X39.508 Y18.472 F1000
G1 X39.508 Y19.096 F1000
G1 X39.716 Y19.304 F1000
G1 X40.548 Y19.304 F1000
G1 X40.756 Y19.096 F1000
G1 X40.756 Y20.136 F1000
G1 X40.756 Y19.512 F1000
G1 X40.548 Y19.304 F1000
G1 X39.716 Y19.304 F1000
G1 X39.508 Y19.512 F1000
G0 Z3.0 ; Pen up

G0 X41.380 Y20.136 F3000 ; Travel to line 91
G0 Z0.0 ; Pen down
G1 X41.380 Y18.888 F1000
G1 X41.588 Y18.680 F1000
G1 X41.588 Y18.472 F1000
G1 X42.212 Y18.472 F1000
G1 X42.628 Y18.888 F1000
G1 X42.628 Y20.136 F1000
G1 X42.628 Y19.096 F1000
G1 X42.420 Y18.888 F1000
G1 X42.420 Y18.680 F1000
G1 X42.212 Y18.472 F1000
G1 X41.796 Y18.472 F1000
G1 X41.380 Y18.888 F1000
G0 Z3.0 ; Pen up

G0 X43.252 Y18.680 F3000 ; Travel to line 92
G0 Z0.0 ; Pen down
G1 X43.460 Y18.472 F1000
G1 X44.084 Y18.472 F1000
G1 X44.292 Y18.680 F1000
G1 X44.292 Y19.096 F1000
G1 X44.084 Y19.304 F1000
G1 X43.460 Y19.304 F1000
G1 X43.252 Y19.096 F1000
G0 Z3.0 ; Pen up

G0 X43.252 Y19.512 F3000 ; Travel to line 93
G0 Z0.0 ; Pen down
G1 X43.460 Y19.304 F1000
G1 X43.876 Y19.304 F1000
G1 X44.292 Y19.720 F1000
G1 X43.876 Y20.136 F1000
G1 X43.460 Y20.136 F1000
G1 X43.252 Y19.928 F1000
G0 Z3.0 ; Pen up

G0 X43.252 Y20.136 F3000 ; Travel to line 94
G0 Z0.0 ; Pen down
G1 X43.252 Y18.472 F1000
G1 X44.084 Y18.472 F1000
G1 X44.292 Y18.680 F1000
G1 X44.292 Y19.096 F1000
G1 X44.084 Y19.304 F1000
G1 X44.292 Y19.512 F1000
G1 X44.292 Y19.928 F1000
G1 X44.084 Y20.136 F1000
G0 Z3.0 ; Pen up

G0 X46.164 Y20.136 F3000 ; Travel to line 95
G0 Z0.0 ; Pen down
G1 X45.748 Y19.720 F1000
G1 X45.748 Y18.888 F1000
G1 X46.164 Y18.472 F1000
G1 X46.788 Y18.472 F1000
G1 X46.996 Y18.680 F1000
G1 X46.788 Y18.472 F1000
G1 X46.164 Y18.472 F1000
G1 X45.748 Y18.888 F1000
G1 X45.748 Y19.720 F1000
G1 X46.164 Y20.136 F1000
G1 X46.788 Y20.136 F1000
G1 X46.996 Y19.928 F1000
G1 X46.788 Y20.136 F1000
G0 Z3.0 ; Pen up

G0 X47.620 Y19.720 F3000 ; Travel to line 96
G0 Z0.0 ; Pen down
G1 X47.620 Y18.888 F1000
G1 X48.036 Y18.472 F1000
G1 X48.452 Y18.472 F1000
G1 X48.868 Y18.888 F1000
G1 X48.868 Y19.720 F1000
G1 X48.452 Y20.136 F1000
G1 X48.036 Y20.136 F1000
G1 X48.036 Y20.136 F1000
G1 X47.620 Y19.720 F1000
G1 X47.620 Y18.888 F1000
G1 X48.036 Y18.472 F1000
G1 X48.660 Y18.472 F1000
G1 X48.868 Y18.680 F1000
G1 X48.868 Y19.928 F1000
G1 X48.660 Y20.136 F1000
G0 Z3.0 ; Pen up

G0 X50.740 Y20.136 F3000 ; Travel to line 97
G0 Z0.0 ; Pen down
G1 X50.740 Y18.888 F1000
G1 X50.532 Y18.680 F1000
G1 X50.324 Y18.888 F1000
G1 X50.324 Y19.096 F1000
G1 X50.116 Y19.304 F1000
G1 X50.116 Y19.512 F1000
G1 X49.908 Y19.720 F1000
G1 X49.908 Y19.928 F1000
G1 X49.492 Y19.928 F1000
G1 X49.492 Y18.472 F1000
G1 X49.492 Y19.720 F1000
G1 X49.700 Y19.928 F1000
G1 X49.908 Y19.720 F1000
G1 X49.908 Y19.512 F1000
G1 X50.116 Y19.304 F1000
G1 X50.116 Y19.096 F1000
G1 X50.324 Y18.888 F1000
G1 X50.324 Y18.680 F1000
G1 X50.740 Y18.680 F1000
G0 Z3.0 ; Pen up

G0 X52.612 Y18.680 F3000 ; Travel to line 98
G0 Z0.0 ; Pen down
G1 X52.196 Y18.680 F1000
G1 X52.196 Y18.888 F1000
G1 X51.988 Y19.096 F1000
G1 X51.988 Y19.304 F1000
G1 X51.780 Y19.512 F1000
G1 X51.780 Y19.720 F1000
G1 X51.572 Y19.928 F1000
G1 X51.364 Y19.720 F1000
G1 X51.364 Y18.472 F1000
G1 X51.364 Y19.928 F1000
G1 X51.780 Y19.928 F1000
G1 X51.780 Y19.720 F1000
G1 X51.988 Y19.512 F1000
G1 X51.988 Y19.304 F1000
G1 X52.196 Y19.096 F1000
G1 X52.196 Y18.888 F1000
G1 X52.404 Y18.680 F1000
G1 X52.612 Y18.888 F1000
G1 X52.612 Y20.136 F1000
G0 Z3.0 ; Pen up

G0 X53.236 Y20.136 F3000 ; Travel to line 99
G0 Z0.0 ; Pen down
G1 X53.236 Y18.472 F1000
G1 X54.276 Y18.472 F1000
G1 X53.444 Y18.472 F1000
G1 X53.236 Y18.680 F1000
G1 X53.236 Y19.096 F1000
G1 X53.444 Y19.304 F1000
G1 X54.276 Y19.304 F1000
G1 X53.444 Y19.304 F1000
G1 X53.236 Y19.512 F1000
G1 X53.236 Y19.928 F1000
G1 X53.444 Y20.136 F1000
G1 X54.276 Y20.136 F1000
G0 Z3.0 ; Pen up

G0 X55.316 Y20.136 F3000 ; Travel to line 100
G0 Z0.0 ; Pen down
G1 X54.900 Y19.720 F1000
G1 X54.900 Y18.888 F1000
G1 X55.316 Y18.472 F1000
G1 X55.940 Y18.472 F1000
G1 X56.148 Y18.680 F1000
G1 X55.940 Y18.472 F1000
G1 X55.316 Y18.472 F1000
G1 X54.900 Y18.888 F1000
G1 X54.900 Y19.720 F1000
G1 X55.316 Y20.136 F1000
G1 X55.940 Y20.136 F1000
G1 X56.148 Y19.928 F1000
G1 X56.356 Y20.136 F1000
G1 X56.772 Y20.136 F1000
G1 X56.980 Y19.928 F1000
G1 X56.980 Y18.472 F1000
G1 X56.980 Y19.928 F1000
G1 X57.188 Y20.136 F1000
G1 X57.604 Y20.136 F1000
G1 X56.356 Y20.136 F1000
G1 X56.148 Y19.928 F1000
G1 X55.940 Y20.136 F1000
G0 Z3.0 ; Pen up

G0 X58.020 Y19.720 F3000 ; Travel to line 101
G0 Z0.0 ; Pen down
G1 X58.020 Y18.888 F1000
G1 X58.436 Y18.472 F1000
G1 X58.852 Y18.472 F1000
G1 X59.268 Y18.888 F1000
G1 X59.268 Y19.720 F1000
G1 X58.852 Y20.136 F1000
G1 X58.436 Y20.136 F1000
G1 X58.436 Y20.136 F1000
G1 X58.020 Y19.720 F1000
G1 X58.020 Y18.888 F1000
G1 X58.436 Y18.472 F1000
G1 X59.060 Y18.472 F1000
G1 X59.268 Y18.680 F1000
G1 X59.268 Y19.928 F1000
G1 X59.060 Y20.136 F1000
G0 Z3.0 ; Pen up

G0 X60.100 Y20.136 F3000 ; Travel to line 102
G0 Z0.0 ; Pen down
G1 X60.100 Y18.472 F1000
G1 X60.100 Y19.096 F1000
G1 X60.308 Y19.304 F1000
G1 X60.724 Y19.304 F1000
G1 X61.140 Y18.888 F1000
G1 X61.140 Y18.472 F1000
G1 X61.140 Y18.888 F1000
G1 X60.932 Y19.096 F1000
G1 X60.932 Y19.304 F1000
G1 X61.140 Y19.512 F1000
G1 X61.140 Y19.928 F1000
G1 X60.932 Y20.136 F1000
G0 Z3.0 ; Pen up

G0 X60.100 Y19.928 F3000 ; Travel to line 103
G0 Z0.0 ; Pen down
G1 X60.308 Y20.136 F1000
G1 X60.724 Y20.136 F1000
G1 X61.140 Y19.720 F1000
G1 X60.724 Y19.304 F1000
G1 X60.308 Y19.304 F1000
G1 X60.100 Y19.512 F1000
G0 Z3.0 ; Pen up

G0 X61.972 Y20.136 F3000 ; Travel to line 104
G0 Z0.0 ; Pen down
G1 X61.764 Y19.928 F1000
G1 X61.764 Y19.512 F1000
G1 X61.972 Y19.304 F1000
G1 X62.388 Y19.304 F1000
G1 X62.804 Y18.888 F1000
G1 X62.388 Y18.472 F1000
G1 X61.972 Y18.472 F1000
G1 X61.764 Y18.680 F1000
G1 X61.972 Y18.472 F1000
G1 X62.596 Y18.472 F1000
G1 X62.804 Y18.680 F1000
G1 X62.804 Y19.096 F1000
G1 X62.596 Y19.304 F1000
G1 X62.180 Y19.304 F1000
G1 X61.764 Y19.720 F1000
G1 X61.764 Y19.928 F1000
G1 X61.972 Y20.136 F1000
G1 X62.596 Y20.136 F1000
G0 Z3.0 ; Pen up

G0 X64.884 Y19.096 F3000 ; Travel to line 105
G0 Z0.0 ; Pen down
G1 X64.884 Y18.888 F1000
G1 X65.300 Y18.472 F1000
G1 X65.508 Y18.472 F1000
G1 X65.924 Y18.888 F1000
G1 X65.924 Y19.096 F1000
G1 X65.508 Y19.512 F1000
G1 X65.300 Y19.512 F1000
G0 Z3.0 ; Pen up

G0 X65.300 Y20.136 F3000 ; Travel to line 106
G0 Z0.0 ; Pen down
G1 X64.884 Y19.720 F1000
G1 X64.884 Y18.680 F1000
G1 X65.092 Y18.472 F1000
G1 X65.716 Y18.472 F1000
G1 X65.716 Y18.680 F1000
G1 X65.924 Y18.888 F1000
G1 X65.924 Y19.304 F1000
G1 X65.716 Y19.512 F1000
G1 X65.300 Y19.512 F1000
G1 X65.092 Y19.304 F1000
G1 X64.884 Y19.512 F1000
G1 X64.884 Y19.720 F1000
G1 X65.300 Y20.136 F1000
G1 X65.716 Y20.136 F1000
G0 Z3.0 ; Pen up

G0 X66.548 Y19.096 F3000 ; Travel to line 107
G0 Z0.0 ; Pen down
G1 X66.964 Y19.096 F1000
G0 Z3.0 ; Pen up

G0 X67.380 Y19.512 F3000 ; Travel to line 108
G0 Z0.0 ; Pen down
G1 X67.588 Y19.304 F1000
G1 X67.588 Y18.888 F1000
G1 X67.796 Y18.680 F1000
G1 X68.004 Y18.888 F1000
G1 X68.004 Y19.512 F1000
G1 X68.212 Y19.720 F1000
G1 X68.420 Y19.720 F1000
G1 X68.420 Y19.512 F1000
G1 X68.628 Y19.304 F1000
G1 X68.628 Y18.888 F1000
G1 X68.836 Y18.680 F1000
G1 X69.044 Y18.888 F1000
G1 X69.044 Y19.512 F1000
G1 X69.252 Y19.720 F1000
G1 X69.252 Y20.136 F1000
G1 X69.252 Y19.512 F1000
G1 X69.044 Y19.304 F1000
G1 X69.044 Y18.680 F1000
G1 X68.628 Y18.680 F1000
G1 X68.628 Y19.304 F1000
G1 X68.212 Y19.720 F1000
G1 X68.004 Y19.512 F1000
G1 X68.004 Y18.888 F1000
G1 X67.796 Y18.680 F1000
G1 X67.588 Y18.680 F1000
G1 X67.588 Y19.096 F1000
G1 X67.380 Y19.304 F1000
G1 X67.380 Y20.136 F1000
G0 Z3.0 ; Pen up

G0 X69.876 Y19.512 F3000 ; Travel to line 109
G0 Z0.0 ; Pen down
G1 X69.876 Y19.096 F1000
G1 X70.084 Y18.888 F1000
G1 X70.500 Y18.888 F1000
G1 X70.708 Y19.096 F1000
G1 X70.500 Y19.304 F1000
G1 X70.500 Y19.720 F1000
G1 X70.292 Y19.928 F1000
G1 X70.292 Y19.928 F1000
G1 X70.500 Y19.720 F1000
G1 X70.500 Y19.304 F1000
G1 X70.708 Y19.096 F1000
G1 X70.708 Y18.888 F1000
G1 X69.876 Y18.888 F1000
G1 X69.668 Y18.680 F1000
G1 X69.668 Y18.472 F1000
G1 X69.668 Y18.888 F1000
G1 X69.876 Y19.096 F1000
G1 X69.876 Y19.512 F1000
G1 X70.084 Y19.720 F1000
G1 X70.084 Y19.928 F1000
G0 Z3.0 ; Pen up

G0 X71.124 Y19.928 F3000 ; Travel to line 110
G0 Z0.0 ; Pen down
G1 X71.540 Y19.512 F1000
G1 X72.164 Y20.136 F1000
G1 X71.956 Y19.928 F1000
G1 X71.956 Y19.720 F1000
G1 X71.540 Y19.304 F1000
G1 X71.540 Y18.472 F1000
G1 X71.540 Y19.304 F1000
G1 X71.332 Y19.512 F1000
G1 X71.332 Y19.720 F1000
G1 X71.124 Y19.928 F1000
G1 X71.124 Y20.136 F1000
G0 Z3.0 ; Pen up

G0 X70.084 Y22.840 F3000 ; Travel to line 111
G0 Z0.0 ; Pen down
G1 X69.668 Y22.840 F1000
G1 X69.668 Y23.048 F1000
G1 X69.460 Y23.256 F1000
G1 X69.460 Y23.464 F1000
G1 X69.252 Y23.672 F1000
G1 X69.252 Y23.880 F1000
G1 X69.044 Y24.088 F1000
G1 X68.836 Y23.880 F1000
G1 X68.836 Y22.632 F1000
G1 X68.836 Y24.088 F1000
G1 X69.252 Y24.088 F1000
G1 X69.252 Y23.880 F1000
G1 X69.460 Y23.672 F1000
G1 X69.460 Y23.464 F1000
G1 X69.668 Y23.256 F1000
G1 X69.668 Y23.048 F1000
G1 X69.876 Y22.840 F1000
G1 X70.084 Y23.048 F1000
G1 X70.084 Y24.296 F1000
G0 Z3.0 ; Pen up

G0 X70.708 Y24.296 F3000 ; Travel to line 112
G0 Z0.0 ; Pen down
G1 X70.708 Y23.048 F1000
G1 X70.916 Y22.840 F1000
G1 X70.916 Y22.632 F1000
G1 X71.540 Y22.632 F1000
G1 X71.956 Y23.048 F1000
G1 X71.956 Y24.296 F1000
G1 X71.956 Y23.256 F1000
G1 X71.748 Y23.048 F1000
G1 X71.748 Y22.840 F1000
G1 X71.540 Y22.632 F1000
G1 X71.124 Y22.632 F1000
G1 X70.708 Y23.048 F1000
G0 Z3.0 ; Pen up

G0 X72.580 Y24.088 F3000 ; Travel to line 113
G0 Z0.0 ; Pen down
G1 X72.580 Y22.632 F1000
G1 X72.580 Y23.880 F1000
G1 X72.788 Y24.088 F1000
G1 X72.996 Y23.880 F1000
G1 X72.996 Y23.672 F1000
G1 X73.204 Y23.464 F1000
G1 X73.204 Y23.256 F1000
G1 X73.412 Y23.256 F1000
G1 X73.620 Y23.464 F1000
G1 X73.620 Y23.880 F1000
G1 X73.828 Y24.088 F1000
G1 X74.036 Y23.880 F1000
G1 X74.036 Y22.632 F1000
G1 X74.036 Y24.088 F1000
G1 X73.828 Y24.088 F1000
G1 X73.620 Y23.880 F1000
G1 X73.620 Y23.464 F1000
G1 X73.412 Y23.256 F1000
G1 X72.996 Y23.672 F1000
G1 X72.996 Y24.088 F1000
G0 Z3.0 ; Pen up

G0 X75.284 Y24.296 F3000 ; Travel to line 114
G0 Z0.0 ; Pen down
G1 X75.700 Y24.296 F1000
G1 X75.908 Y24.088 F1000
G1 X75.908 Y22.632 F1000
G1 X75.908 Y24.088 F1000
G1 X76.116 Y24.296 F1000
G1 X76.532 Y24.296 F1000
G0 Z3.0 ; Pen up

G0 X77.156 Y24.296 F3000 ; Travel to line 115
G0 Z0.0 ; Pen down
G1 X77.156 Y23.048 F1000
G1 X77.364 Y22.840 F1000
G1 X77.364 Y22.632 F1000
G1 X77.988 Y22.632 F1000
G1 X78.404 Y23.048 F1000
G1 X78.404 Y24.296 F1000
G1 X78.404 Y23.256 F1000
G1 X78.196 Y23.048 F1000
G1 X78.196 Y22.840 F1000
G1 X77.988 Y22.632 F1000
G1 X77.572 Y22.632 F1000
G1 X77.156 Y23.048 F1000
G0 Z3.0 ; Pen up

G0 X78.820 Y22.840 F3000 ; Travel to line 116
G0 Z0.0 ; Pen down
G1 X79.028 Y22.632 F1000
G1 X79.652 Y22.632 F1000
G1 X79.860 Y22.840 F1000
G1 X79.860 Y23.256 F1000
G1 X79.652 Y23.464 F1000
G1 X79.028 Y23.464 F1000
G1 X78.820 Y23.256 F1000
G0 Z3.0 ; Pen up

G0 X78.820 Y23.672 F3000 ; Travel to line 117
G0 Z0.0 ; Pen down
G1 X79.028 Y23.464 F1000
G1 X79.444 Y23.464 F1000
G1 X79.860 Y23.880 F1000
G1 X79.444 Y24.296 F1000
G1 X79.028 Y24.296 F1000
G1 X78.820 Y24.088 F1000
G0 Z3.0 ; Pen up

G0 X78.820 Y24.296 F3000 ; Travel to line 118
G0 Z0.0 ; Pen down
G1 X78.820 Y22.632 F1000
G1 X79.652 Y22.632 F1000
G1 X79.860 Y22.840 F1000
G1 X79.860 Y23.256 F1000
G1 X79.652 Y23.464 F1000
G1 X79.860 Y23.672 F1000
G1 X79.860 Y24.088 F1000
G1 X79.652 Y24.296 F1000
G0 Z3.0 ; Pen up

G0 X80.692 Y24.296 F3000 ; Travel to line 119
G0 Z0.0 ; Pen down
G1 X80.692 Y22.632 F1000
G1 X81.732 Y22.632 F1000
G1 X80.900 Y22.632 F1000
G1 X80.692 Y22.840 F1000
G1 X80.692 Y23.256 F1000
G1 X80.900 Y23.464 F1000
G1 X81.732 Y23.464 F1000
G1 X80.900 Y23.464 F1000
G1 X80.692 Y23.672 F1000
G1 X80.692 Y24.088 F1000
G1 X80.900 Y24.296 F1000
G1 X81.732 Y24.296 F1000
G0 Z3.0 ; Pen up

G0 X82.980 Y23.880 F3000 ; Travel to line 120
G0 Z0.0 ; Pen down
G1 X82.980 Y23.256 F1000
G1 X83.188 Y23.048 F1000
G1 X84.020 Y23.880 F1000
G1 X84.020 Y24.088 F1000
G1 X83.812 Y24.296 F1000
G1 X83.396 Y24.296 F1000
G1 X83.396 Y24.296 F1000
G1 X82.980 Y23.880 F1000
G1 X82.980 Y23.048 F1000
G1 X83.396 Y22.632 F1000
G1 X84.020 Y22.632 F1000
G1 X84.228 Y22.840 F1000
G1 X84.228 Y24.088 F1000
G1 X84.436 Y24.296 F1000
G1 X84.228 Y24.088 F1000
G1 X84.020 Y24.296 F1000
G0 Z3.0 ; Pen up

G0 X84.020 Y23.880 F3000 ; Travel to line 121
G0 Z0.0 ; Pen down
G1 X84.228 Y23.672 F1000
G1 X84.228 Y23.048 F1000
G1 X83.812 Y22.632 F1000
G1 X83.396 Y22.632 F1000
G1 X83.188 Y22.840 F1000
G1 X83.396 Y23.048 F1000
G1 X83.396 Y23.256 F1000
G0 Z3.0 ; Pen up

G0 X85.060 Y23.256 F3000 ; Travel to line 122
G0 Z0.0 ; Pen down
G1 X85.060 Y23.048 F1000
G1 X85.476 Y22.632 F1000
G1 X85.684 Y22.632 F1000
G1 X86.100 Y23.048 F1000
G1 X86.100 Y23.256 F1000
G1 X85.684 Y23.672 F1000
G1 X85.476 Y23.672 F1000
G0 Z3.0 ; Pen up

G0 X85.476 Y24.296 F3000 ; Travel to line 123
G0 Z0.0 ; Pen down
G1 X85.060 Y23.880 F1000
G1 X85.060 Y22.840 F1000
G1 X85.268 Y22.632 F1000
G1 X85.892 Y22.632 F1000
G1 X85.892 Y22.840 F1000
G1 X86.100 Y23.048 F1000
G1 X86.100 Y23.464 F1000
G1 X85.892 Y23.672 F1000
G1 X85.476 Y23.672 F1000
G1 X85.268 Y23.464 F1000
G1 X85.060 Y23.672 F1000
G1 X85.060 Y23.880 F1000
G1 X85.476 Y24.296 F1000
G1 X85.892 Y24.296 F1000
G0 Z3.0 ; Pen up

G0 X86.516 Y23.880 F3000 ; Travel to line 124
G0 Z0.0 ; Pen down
G1 X86.516 Y23.048 F1000
G1 X86.932 Y22.632 F1000
G1 X87.140 Y22.632 F1000
G1 X87.348 Y22.840 F1000
G1 X87.348 Y23.048 F1000
G1 X87.556 Y23.256 F1000
G1 X87.556 Y23.672 F1000
G1 X87.348 Y23.880 F1000
G1 X87.348 Y24.088 F1000
G1 X87.140 Y24.296 F1000
G1 X86.932 Y24.296 F1000
G0 Z3.0 ; Pen up

G0 X87.140 Y24.296 F3000 ; Travel to line 125
G0 Z0.0 ; Pen down
G1 X87.556 Y23.880 F1000
G1 X87.556 Y23.048 F1000
G1 X87.140 Y22.632 F1000
G1 X86.724 Y22.632 F1000
G1 X86.516 Y22.840 F1000
G1 X86.516 Y24.088 F1000
G1 X86.724 Y24.296 F1000
G0 Z3.0 ; Pen up

G0 X88.388 Y23.880 F3000 ; Travel to line 126
G0 Z0.0 ; Pen down
G1 X88.180 Y23.672 F1000
G1 X88.180 Y22.632 F1000
G1 X88.180 Y23.672 F1000
G1 X88.388 Y23.880 F1000
G1 X88.804 Y23.880 F1000
G1 X89.012 Y23.672 F1000
G1 X89.012 Y22.632 F1000
G1 X89.012 Y23.464 F1000
G1 X89.428 Y23.880 F1000
G1 X89.636 Y23.880 F1000
G1 X90.052 Y23.464 F1000
G1 X90.052 Y22.632 F1000
G1 X90.052 Y23.464 F1000
G1 X89.844 Y23.672 F1000
G1 X89.844 Y23.880 F1000
G1 X89.428 Y23.880 F1000
G1 X89.220 Y23.672 F1000
G1 X89.012 Y23.880 F1000
G0 Z3.0 ; Pen up

G0 X90.884 Y23.880 F3000 ; Travel to line 127
G0 Z0.0 ; Pen down
G1 X90.676 Y23.672 F1000
G1 X90.676 Y22.632 F1000
G1 X90.676 Y23.672 F1000
G1 X90.884 Y23.880 F1000
G1 X91.300 Y23.880 F1000
G1 X91.508 Y23.672 F1000
G1 X91.508 Y22.632 F1000
G1 X91.508 Y23.464 F1000
G1 X91.924 Y23.880 F1000
G1 X92.132 Y23.880 F1000
G1 X92.548 Y23.464 F1000
G1 X92.548 Y22.632 F1000
G1 X92.548 Y23.464 F1000
G1 X92.340 Y23.672 F1000
G1 X92.340 Y23.880 F1000
G1 X91.924 Y23.880 F1000
G1 X91.716 Y23.672 F1000
G1 X91.508 Y23.880 F1000
G0 Z3.0 ; Pen up

G0 X93.796 Y23.880 F3000 ; Travel to line 128
G0 Z0.0 ; Pen down
G1 X94.004 Y23.672 F1000
G1 X94.004 Y23.464 F1000
G1 X94.212 Y23.256 F1000
G1 X94.212 Y23.048 F1000
G1 X94.212 Y23.464 F1000
G0 Z3.0 ; Pen up

G0 X96.292 Y24.296 F3000 ; Travel to line 129
G0 Z0.0 ; Pen down
G1 X96.084 Y24.088 F1000
G1 X96.292 Y24.296 F1000
G1 X96.708 Y24.296 F1000
G1 X96.916 Y24.088 F1000
G1 X96.916 Y23.672 F1000
G1 X96.708 Y23.464 F1000
G1 X96.292 Y23.464 F1000
G1 X96.708 Y23.464 F1000
G1 X96.916 Y23.256 F1000
G1 X96.916 Y22.840 F1000
G1 X96.708 Y22.632 F1000
G1 X96.292 Y22.632 F1000
G1 X96.084 Y22.840 F1000
G1 X96.292 Y22.632 F1000
G1 X96.708 Y22.632 F1000
G1 X96.916 Y22.840 F1000
G1 X96.916 Y23.256 F1000
G1 X96.708 Y23.464 F1000
G1 X96.916 Y23.672 F1000
G1 X96.916 Y24.088 F1000
G1 X96.708 Y24.296 F1000
G0 Z3.0 ; Pen up

G0 X97.956 Y23.880 F3000 ; Travel to line 130
G0 Z0.0 ; Pen down
G1 X97.748 Y23.672 F1000
G1 X97.748 Y22.632 F1000
G1 X97.748 Y23.672 F1000
G1 X97.956 Y23.880 F1000
G1 X98.372 Y23.880 F1000
G1 X98.580 Y23.672 F1000
G1 X98.580 Y22.632 F1000
G1 X98.580 Y23.464 F1000
G1 X98.996 Y23.880 F1000
G1 X99.204 Y23.880 F1000
G1 X99.620 Y23.464 F1000
G1 X99.620 Y22.632 F1000
G1 X99.620 Y23.464 F1000
G1 X99.412 Y23.672 F1000
G1 X99.412 Y23.880 F1000
G1 X98.996 Y23.880 F1000
G1 X98.788 Y23.672 F1000
G1 X98.580 Y23.880 F1000
G0 Z3.0 ; Pen up

G0 X100.244 Y23.880 F3000 ; Travel to line 131
G0 Z0.0 ; Pen down
G1 X100.036 Y23.672 F1000
G1 X100.036 Y22.632 F1000
G1 X100.036 Y23.672 F1000
G1 X100.244 Y23.880 F1000
G1 X100.660 Y23.880 F1000
G1 X100.868 Y23.672 F1000
G1 X100.868 Y22.632 F1000
G1 X100.868 Y23.464 F1000
G1 X101.284 Y23.880 F1000
G1 X101.492 Y23.880 F1000
G1 X101.908 Y23.464 F1000
G1 X101.908 Y22.632 F1000
G1 X101.908 Y23.464 F1000
G1 X101.700 Y23.672 F1000
G1 X101.700 Y23.880 F1000
G1 X101.284 Y23.880 F1000
G1 X101.076 Y23.672 F1000
G1 X100.868 Y23.880 F1000
G0 Z3.0 ; Pen up

G0 X103.364 Y23.672 F3000 ; Travel to line 132
G0 Z0.0 ; Pen down
G1 X103.572 Y23.464 F1000
G1 X103.572 Y23.048 F1000
G1 X103.780 Y22.840 F1000
G1 X103.988 Y23.048 F1000
G1 X103.988 Y23.672 F1000
G1 X104.196 Y23.880 F1000
G1 X104.404 Y23.880 F1000
G1 X104.404 Y23.672 F1000
G1 X104.612 Y23.464 F1000
G1 X104.612 Y23.048 F1000
G1 X104.820 Y22.840 F1000
G1 X105.028 Y23.048 F1000
G1 X105.028 Y23.672 F1000
G1 X105.236 Y23.880 F1000
G1 X105.236 Y24.296 F1000
G1 X105.236 Y23.672 F1000
G1 X105.028 Y23.464 F1000
G1 X105.028 Y22.840 F1000
G1 X104.612 Y22.840 F1000
G1 X104.612 Y23.464 F1000
G1 X104.196 Y23.880 F1000
G1 X103.988 Y23.672 F1000
G1 X103.988 Y23.048 F1000
G1 X103.780 Y22.840 F1000
G1 X103.572 Y22.840 F1000
G1 X103.572 Y23.256 F1000
G1 X103.364 Y23.464 F1000
G1 X103.364 Y24.296 F1000
G0 Z3.0 ; Pen up

G0 X105.860 Y23.672 F3000 ; Travel to line 133
G0 Z0.0 ; Pen down
G1 X105.860 Y23.256 F1000
G1 X106.068 Y23.048 F1000
G1 X106.484 Y23.048 F1000
G1 X106.692 Y23.256 F1000
G1 X106.484 Y23.464 F1000
G1 X106.484 Y23.880 F1000
G1 X106.276 Y24.088 F1000
G1 X106.276 Y24.088 F1000
G1 X106.484 Y23.880 F1000
G1 X106.484 Y23.464 F1000
G1 X106.692 Y23.256 F1000
G1 X106.692 Y23.048 F1000
G1 X105.860 Y23.048 F1000
G1 X105.652 Y22.840 F1000
G1 X105.652 Y22.632 F1000
G1 X105.652 Y23.048 F1000
G1 X105.860 Y23.256 F1000
G1 X105.860 Y23.672 F1000
G1 X106.068 Y23.880 F1000
G1 X106.068 Y24.088 F1000
G0 Z3.0 ; Pen up

G0 X107.316 Y24.296 F3000 ; Travel to line 134
G0 Z0.0 ; Pen down
G1 X107.316 Y22.632 F1000
G1 X108.356 Y22.632 F1000
G1 X107.524 Y22.632 F1000
G1 X107.316 Y22.840 F1000
G0 Z3.0 ; Pen up

G0 X107.940 Y31.992 F3000 ; Travel to line 135
G0 Z0.0 ; Pen down
G1 X107.732 Y31.784 F1000
G1 X107.732 Y31.576 F1000
G1 X106.068 Y31.576 F1000
G1 X105.860 Y31.368 F1000
G1 X103.988 Y31.368 F1000
G1 X103.780 Y31.160 F1000
G1 X102.948 Y31.160 F1000
G1 X102.740 Y30.952 F1000
G1 X102.740 Y30.536 F1000
G1 X104.404 Y28.872 F1000
G1 X104.612 Y28.872 F1000
G1 X108.772 Y24.712 F1000
G1 X108.772 Y24.504 F1000
G1 X109.188 Y24.088 F1000
G1 X109.396 Y24.088 F1000
G1 X111.684 Y21.800 F1000
G1 X111.892 Y21.800 F1000
G1 X112.100 Y21.592 F1000
G1 X112.516 Y22.008 F1000
G1 X112.516 Y22.216 F1000
G1 X112.308 Y22.424 F1000
G1 X112.308 Y23.672 F1000
G1 X112.516 Y23.880 F1000
G1 X112.516 Y25.544 F1000
G1 X112.724 Y25.752 F1000
G1 X112.724 Y27.416 F1000
G1 X112.932 Y27.624 F1000
G1 X112.932 Y29.288 F1000
G1 X113.140 Y29.496 F1000
G1 X113.140 Y31.160 F1000
G1 X113.348 Y31.368 F1000
G1 X113.348 Y31.784 F1000
G1 X113.140 Y31.992 F1000
G1 X111.476 Y31.992 F1000
G1 X111.268 Y32.200 F1000
G1 X109.604 Y32.200 F1000
G1 X109.396 Y31.992 F1000
G0 Z3.0 ; Pen up

G0 X111.060 Y34.696 F3000 ; Travel to line 136
G0 Z0.0 ; Pen down
G1 X111.268 Y34.904 F1000
G1 X111.476 Y34.904 F1000
G1 X111.684 Y34.696 F1000
G1 X111.892 Y34.696 F1000
G1 X112.100 Y34.488 F1000
G1 X112.516 Y34.488 F1000
G1 X112.724 Y34.280 F1000
G1 X113.140 Y34.280 F1000
G1 X113.348 Y34.072 F1000
G1 X113.348 Y33.240 F1000
G1 X113.140 Y33.032 F1000
G1 X112.932 Y33.032 F1000
G1 X112.724 Y33.240 F1000
G1 X112.516 Y33.240 F1000
G0 Z3.0 ; Pen up

G0 X113.348 Y33.656 F3000 ; Travel to line 137
G0 Z0.0 ; Pen down
G1 X113.556 Y33.864 F1000
G1 X114.180 Y33.864 F1000
G1 X114.388 Y33.656 F1000
G1 X114.596 Y33.656 F1000
G1 X114.804 Y33.448 F1000
G1 X115.220 Y33.448 F1000
G1 X115.428 Y33.240 F1000
G1 X115.220 Y33.032 F1000
G1 X115.012 Y33.032 F1000
G1 X114.804 Y32.824 F1000
G1 X114.596 Y32.824 F1000
G1 X114.388 Y32.616 F1000
G1 X113.972 Y32.616 F1000
G1 X113.764 Y32.408 F1000
G1 X113.348 Y32.824 F1000
G0 Z3.0 ; Pen up

G0 X113.348 Y31.784 F3000 ; Travel to line 138
G0 Z0.0 ; Pen down
G1 X113.556 Y31.992 F1000
G1 X114.180 Y31.992 F1000
G1 X114.388 Y31.784 F1000
G1 X114.388 Y31.368 F1000
G1 X114.596 Y31.160 F1000
G1 X114.596 Y30.952 F1000
G1 X115.220 Y30.328 F1000
G1 X115.220 Y30.120 F1000
G1 X115.844 Y29.496 F1000
G1 X115.844 Y29.288 F1000
G1 X116.468 Y28.664 F1000
G1 X116.468 Y28.456 F1000
G1 X116.052 Y28.040 F1000
G1 X116.052 Y27.832 F1000
G1 X115.844 Y27.624 F1000
G1 X115.844 Y27.416 F1000
G1 X115.428 Y27.000 F1000
G1 X115.428 Y26.792 F1000
G1 X115.220 Y26.584 F1000
G1 X115.220 Y26.376 F1000
G1 X115.012 Y26.168 F1000
G1 X115.012 Y25.960 F1000
G1 X114.596 Y25.544 F1000
G1 X114.596 Y25.336 F1000
G1 X114.388 Y25.128 F1000
G1 X114.388 Y24.920 F1000
G1 X114.180 Y24.712 F1000
G1 X114.180 Y24.504 F1000
G1 X113.764 Y24.088 F1000
G1 X113.764 Y23.880 F1000
G1 X113.556 Y23.672 F1000
G1 X113.556 Y23.464 F1000
G1 X113.348 Y23.256 F1000
G1 X113.348 Y23.048 F1000
G1 X112.516 Y22.216 F1000
G1 X112.308 Y22.424 F1000
G1 X112.308 Y23.672 F1000
G1 X112.516 Y23.880 F1000
G1 X112.516 Y25.544 F1000
G1 X112.724 Y25.752 F1000
G1 X112.724 Y27.416 F1000
G1 X112.932 Y27.624 F1000
G1 X112.932 Y29.288 F1000
G1 X113.140 Y29.496 F1000
G1 X113.140 Y31.160 F1000
G1 X113.348 Y31.368 F1000
G0 Z3.0 ; Pen up

G0 X114.388 Y31.576 F3000 ; Travel to line 139
G0 Z0.0 ; Pen down
G1 X114.596 Y31.784 F1000
G1 X114.804 Y31.576 F1000
G1 X114.596 Y31.368 F1000
G1 X114.596 Y31.368 F1000
G1 X114.804 Y31.576 F1000
G1 X117.924 Y31.576 F1000
G1 X118.132 Y31.368 F1000
G1 X117.716 Y30.952 F1000
G1 X117.716 Y30.744 F1000
G1 X117.508 Y30.536 F1000
G1 X117.508 Y30.328 F1000
G1 X117.092 Y29.912 F1000
G1 X117.092 Y29.704 F1000
G1 X116.884 Y29.496 F1000
G1 X116.884 Y29.288 F1000
G1 X116.468 Y28.872 F1000
G1 X116.260 Y28.872 F1000
G1 X115.844 Y29.288 F1000
G1 X115.844 Y29.496 F1000
G1 X115.220 Y30.120 F1000
G1 X115.220 Y30.328 F1000
G1 X114.596 Y30.952 F1000
G0 Z3.0 ; Pen up

G0 X114.804 Y31.784 F3000 ; Travel to line 140
G0 Z0.0 ; Pen down
G1 X115.012 Y31.576 F1000
G1 X117.716 Y31.576 F1000
G1 X117.924 Y31.784 F1000
G1 X117.924 Y31.992 F1000
G1 X117.716 Y32.200 F1000
G1 X115.012 Y32.200 F1000
G1 X114.804 Y31.992 F1000
G0 Z3.0 ; Pen up

G0 X115.220 Y33.032 F3000 ; Travel to line 141
G0 Z0.0 ; Pen down
G1 X115.012 Y32.824 F1000
G1 X114.804 Y32.824 F1000
G1 X114.596 Y32.616 F1000
G1 X114.180 Y32.616 F1000
G1 X113.764 Y32.200 F1000
G1 X113.972 Y31.992 F1000
G1 X114.388 Y31.992 F1000
G1 X114.596 Y31.784 F1000
G1 X114.804 Y31.992 F1000
G1 X114.804 Y32.200 F1000
G1 X117.300 Y32.200 F1000
G1 X117.508 Y32.408 F1000
G1 X117.300 Y32.616 F1000
G1 X116.884 Y32.616 F1000
G1 X116.676 Y32.824 F1000
G1 X116.468 Y32.824 F1000
G1 X116.260 Y33.032 F1000
G1 X116.052 Y33.032 F1000
G1 X115.844 Y33.240 F1000
G1 X115.636 Y33.240 F1000
G1 X115.428 Y33.032 F1000
G0 Z3.0 ; Pen up

G0 X116.676 Y33.448 F3000 ; Travel to line 142
G0 Z0.0 ; Pen down
G1 X116.260 Y33.448 F1000
G1 X116.052 Y33.240 F1000
G1 X116.260 Y33.032 F1000
G1 X116.468 Y33.032 F1000
G1 X116.676 Y32.824 F1000
G1 X116.884 Y32.824 F1000
G1 X117.092 Y32.616 F1000
G1 X117.300 Y32.616 F1000
G1 X117.508 Y32.824 F1000
G1 X117.508 Y33.032 F1000
G1 X117.716 Y33.240 F1000
G1 X117.716 Y33.448 F1000
G1 X117.300 Y33.864 F1000
G1 X116.884 Y33.864 F1000
G1 X116.676 Y33.656 F1000
G0 Z3.0 ; Pen up

G0 X116.884 Y33.864 F3000 ; Travel to line 143
G0 Z0.0 ; Pen down
G1 X117.092 Y34.072 F1000
G1 X116.884 Y34.280 F1000
G1 X116.676 Y34.072 F1000
G1 X116.676 Y34.072 F1000
G1 X116.884 Y34.280 F1000
G1 X116.676 Y34.488 F1000
G1 X116.468 Y34.280 F1000
G0 Z3.0 ; Pen up

G0 X116.260 Y34.280 F3000 ; Travel to line 144
G0 Z0.0 ; Pen down
G1 X116.468 Y34.488 F1000
G1 X116.260 Y34.696 F1000
G1 X116.052 Y34.488 F1000
G1 X116.052 Y34.488 F1000
G1 X116.260 Y34.696 F1000
G1 X116.052 Y34.904 F1000
G1 X115.844 Y34.696 F1000
G0 Z3.0 ; Pen up

G0 X115.220 Y34.904 F3000 ; Travel to line 145
G0 Z0.0 ; Pen down
G1 X115.428 Y34.696 F1000
G1 X115.844 Y34.696 F1000
G1 X116.052 Y34.904 F1000
G1 X116.052 Y35.112 F1000
G1 X115.844 Y35.320 F1000
G1 X115.428 Y35.320 F1000
G1 X115.220 Y35.112 F1000
G0 Z3.0 ; Pen up

G0 X112.932 Y35.528 F3000 ; Travel to line 146
G0 Z0.0 ; Pen down
G1 X113.140 Y35.320 F1000
G1 X113.140 Y34.280 F1000
G1 X113.556 Y33.864 F1000
G1 X114.388 Y33.864 F1000
G1 X114.596 Y33.656 F1000
G1 X114.804 Y33.656 F1000
G1 X115.012 Y33.448 F1000
G1 X115.428 Y33.448 F1000
G1 X115.636 Y33.240 F1000
G1 X115.844 Y33.240 F1000
G1 X116.052 Y33.448 F1000
G1 X116.468 Y33.448 F1000
G1 X116.676 Y33.656 F1000
G1 X116.676 Y33.864 F1000
G1 X116.260 Y34.280 F1000
G1 X116.052 Y34.280 F1000
G1 X115.636 Y34.696 F1000
G1 X115.428 Y34.696 F1000
G1 X115.012 Y35.112 F1000
G1 X114.804 Y35.112 F1000
G1 X114.596 Y35.320 F1000
G1 X114.388 Y35.320 F1000
G1 X113.972 Y35.736 F1000
G1 X113.764 Y35.736 F1000
G1 X113.556 Y35.944 F1000
G1 X113.140 Y35.944 F1000
G1 X112.932 Y35.736 F1000
G0 Z3.0 ; Pen up

G0 X112.724 Y36.568 F3000 ; Travel to line 147
G0 Z0.0 ; Pen down
G1 X112.932 Y36.360 F1000
G1 X112.932 Y36.152 F1000
G1 X113.140 Y35.944 F1000
G1 X113.556 Y35.944 F1000
G1 X113.764 Y35.736 F1000
G1 X113.972 Y35.736 F1000
G1 X114.388 Y35.320 F1000
G1 X114.596 Y35.320 F1000
G1 X114.804 Y35.112 F1000
G1 X115.220 Y35.112 F1000
G1 X115.428 Y35.320 F1000
G1 X115.428 Y35.528 F1000
G1 X114.804 Y36.152 F1000
G1 X114.596 Y36.152 F1000
G1 X113.764 Y36.984 F1000
G1 X113.556 Y36.984 F1000
G1 X113.348 Y37.192 F1000
G1 X112.932 Y37.192 F1000
G1 X112.724 Y36.984 F1000
G0 Z3.0 ; Pen up

G0 X112.308 Y38.232 F3000 ; Travel to line 148
G0 Z0.0 ; Pen down
G1 X112.516 Y38.440 F1000
G1 X112.308 Y38.648 F1000
G1 X112.100 Y38.440 F1000
G0 Z3.0 ; Pen up

G0 X111.684 Y42.392 F3000 ; Travel to line 149
G0 Z0.0 ; Pen down
G1 X111.892 Y42.184 F1000
G1 X111.892 Y41.144 F1000
G1 X112.100 Y40.936 F1000
G1 X112.100 Y40.104 F1000
G1 X112.308 Y39.896 F1000
G1 X112.308 Y38.856 F1000
G1 X112.516 Y38.648 F1000
G1 X112.516 Y38.024 F1000
G1 X112.724 Y37.816 F1000
G1 X112.724 Y37.608 F1000
G1 X113.140 Y37.192 F1000
G1 X113.348 Y37.192 F1000
G1 X113.556 Y36.984 F1000
G1 X113.764 Y36.984 F1000
G1 X114.596 Y36.152 F1000
G1 X114.804 Y36.152 F1000
G1 X115.636 Y35.320 F1000
G1 X115.844 Y35.320 F1000
G1 X116.676 Y34.488 F1000
G1 X116.884 Y34.696 F1000
G1 X116.884 Y35.528 F1000
G1 X116.676 Y35.736 F1000
G1 X116.676 Y36.360 F1000
G1 X116.468 Y36.568 F1000
G1 X116.468 Y36.984 F1000
G1 X116.260 Y37.192 F1000
G1 X116.260 Y37.816 F1000
G1 X116.052 Y38.024 F1000
G1 X116.052 Y38.440 F1000
G1 X115.844 Y38.648 F1000
G1 X115.844 Y39.272 F1000
G1 X115.636 Y39.480 F1000
G1 X115.636 Y39.896 F1000
G1 X115.428 Y40.104 F1000
G1 X115.428 Y40.728 F1000
G1 X115.220 Y40.936 F1000
G1 X115.220 Y41.352 F1000
G1 X115.012 Y41.560 F1000
G1 X115.012 Y42.184 F1000
G1 X114.804 Y42.392 F1000
G1 X114.804 Y42.600 F1000
G1 X114.596 Y42.808 F1000
G1 X113.140 Y42.808 F1000
G1 X112.932 Y43.016 F1000
G1 X111.892 Y43.016 F1000
G1 X111.684 Y42.808 F1000
G0 Z3.0 ; Pen up

G0 X114.804 Y42.392 F3000 ; Travel to line 150
G0 Z0.0 ; Pen down
G1 X115.012 Y42.600 F1000
G1 X115.844 Y42.600 F1000
G1 X116.260 Y42.184 F1000
G1 X116.260 Y41.976 F1000
G1 X116.468 Y41.768 F1000
G1 X116.468 Y41.560 F1000
G1 X116.676 Y41.352 F1000
G1 X116.676 Y41.144 F1000
G1 X116.884 Y40.936 F1000
G1 X116.884 Y40.520 F1000
G1 X117.092 Y40.312 F1000
G1 X117.092 Y40.104 F1000
G1 X117.300 Y39.896 F1000
G1 X117.300 Y39.688 F1000
G1 X117.508 Y39.480 F1000
G1 X117.508 Y39.064 F1000
G1 X117.716 Y38.856 F1000
G1 X117.716 Y38.648 F1000
G1 X117.924 Y38.440 F1000
G1 X117.924 Y38.232 F1000
G1 X118.132 Y38.024 F1000
G1 X118.132 Y37.608 F1000
G1 X118.340 Y37.400 F1000
G1 X118.340 Y37.192 F1000
G1 X118.548 Y36.984 F1000
G1 X118.548 Y36.776 F1000
G1 X118.756 Y36.568 F1000
G1 X118.756 Y36.360 F1000
G1 X118.964 Y36.152 F1000
G1 X118.964 Y35.736 F1000
G1 X119.172 Y35.528 F1000
G1 X119.172 Y35.320 F1000
G1 X119.380 Y35.320 F1000
G1 X119.588 Y35.112 F1000
G1 X119.588 Y34.696 F1000
G1 X119.380 Y34.488 F1000
G1 X118.548 Y34.488 F1000
G1 X118.340 Y34.280 F1000
G1 X118.132 Y34.280 F1000
G1 X117.924 Y34.072 F1000
G1 X117.716 Y34.072 F1000
G1 X117.508 Y33.864 F1000
G1 X117.300 Y33.864 F1000
G1 X117.092 Y34.072 F1000
G1 X117.092 Y34.280 F1000
G1 X116.884 Y34.488 F1000
G1 X116.884 Y35.528 F1000
G1 X116.676 Y35.736 F1000
G1 X116.676 Y36.360 F1000
G1 X116.468 Y36.568 F1000
G1 X116.468 Y36.984 F1000
G1 X116.260 Y37.192 F1000
G1 X116.260 Y37.816 F1000
G1 X116.052 Y38.024 F1000
G1 X116.052 Y38.440 F1000
G1 X115.844 Y38.648 F1000
G1 X115.844 Y39.272 F1000
G1 X115.636 Y39.480 F1000
G1 X115.636 Y39.896 F1000
G1 X115.428 Y40.104 F1000
G1 X115.428 Y40.728 F1000
G1 X115.220 Y40.936 F1000
G1 X115.220 Y41.352 F1000
G1 X115.012 Y41.560 F1000
G1 X115.012 Y42.184 F1000
G0 Z3.0 ; Pen up

G0 X116.260 Y42.184 F3000 ; Travel to line 151
G0 Z0.0 ; Pen down
G1 X116.468 Y42.392 F1000
G1 X117.300 Y42.392 F1000
G1 X117.508 Y42.184 F1000
G1 X118.756 Y42.184 F1000
G1 X118.964 Y41.976 F1000
G1 X120.212 Y41.976 F1000
G1 X120.420 Y41.768 F1000
G1 X121.876 Y41.768 F1000
G1 X122.084 Y41.560 F1000
G1 X122.084 Y41.352 F1000
G1 X121.876 Y41.144 F1000
G1 X121.876 Y40.936 F1000
G1 X121.668 Y40.728 F1000
G1 X121.668 Y40.312 F1000
G1 X121.460 Y40.104 F1000
G1 X121.460 Y39.896 F1000
G1 X121.252 Y39.688 F1000
G1 X121.252 Y39.272 F1000
G1 X121.044 Y39.064 F1000
G1 X121.044 Y38.648 F1000
G1 X120.836 Y38.440 F1000
G1 X120.836 Y38.232 F1000
G1 X120.628 Y38.024 F1000
G1 X120.628 Y37.608 F1000
G1 X120.420 Y37.400 F1000
G1 X120.420 Y36.984 F1000
G1 X120.212 Y36.776 F1000
G1 X120.212 Y36.568 F1000
G1 X120.004 Y36.360 F1000
G1 X120.004 Y35.944 F1000
G1 X119.796 Y35.736 F1000
G1 X119.796 Y35.528 F1000
G1 X119.588 Y35.320 F1000
G1 X119.380 Y35.320 F1000
G1 X118.964 Y35.736 F1000
G1 X118.964 Y36.152 F1000
G1 X118.756 Y36.360 F1000
G1 X118.756 Y36.568 F1000
G1 X118.548 Y36.776 F1000
G1 X118.548 Y36.984 F1000
G1 X118.340 Y37.192 F1000
G1 X118.340 Y37.400 F1000
G1 X118.132 Y37.608 F1000
G1 X118.132 Y38.024 F1000
G1 X117.924 Y38.232 F1000
G1 X117.924 Y38.440 F1000
G1 X117.716 Y38.648 F1000
G1 X117.716 Y38.856 F1000
G1 X117.508 Y39.064 F1000
G1 X117.508 Y39.480 F1000
G1 X117.300 Y39.688 F1000
G1 X117.300 Y39.896 F1000
G1 X117.092 Y40.104 F1000
G1 X117.092 Y40.312 F1000
G1 X116.884 Y40.520 F1000
G1 X116.884 Y40.936 F1000
G1 X116.676 Y41.144 F1000
G1 X116.676 Y41.352 F1000
G1 X116.468 Y41.560 F1000
G1 X116.468 Y41.768 F1000
G1 X116.260 Y41.976 F1000
G0 Z3.0 ; Pen up

G0 X113.764 Y46.136 F3000 ; Travel to line 152
G0 Z0.0 ; Pen down
G1 X113.972 Y45.928 F1000
G1 X113.972 Y45.304 F1000
G1 X114.180 Y45.096 F1000
G1 X114.180 Y44.472 F1000
G1 X114.388 Y44.264 F1000
G1 X114.388 Y43.848 F1000
G1 X114.596 Y43.640 F1000
G1 X114.596 Y42.808 F1000
G1 X114.804 Y42.600 F1000
G1 X115.636 Y42.600 F1000
G1 X115.844 Y42.808 F1000
G1 X115.844 Y43.224 F1000
G1 X115.636 Y43.432 F1000
G1 X115.636 Y43.640 F1000
G1 X115.428 Y43.848 F1000
G1 X115.428 Y44.264 F1000
G1 X115.220 Y44.472 F1000
G1 X115.220 Y44.680 F1000
G1 X115.012 Y44.888 F1000
G1 X115.012 Y45.096 F1000
G1 X114.804 Y45.304 F1000
G1 X114.804 Y45.512 F1000
G1 X114.596 Y45.720 F1000
G1 X114.596 Y46.136 F1000
G1 X114.180 Y46.552 F1000
G0 Z3.0 ; Pen up

G0 X113.556 Y46.760 F3000 ; Travel to line 153
G0 Z0.0 ; Pen down
G1 X113.972 Y46.344 F1000
G1 X114.180 Y46.552 F1000
G1 X114.180 Y46.760 F1000
G1 X113.764 Y47.176 F1000
G1 X113.556 Y46.968 F1000
G0 Z3.0 ; Pen up

G0 X113.764 Y47.176 F3000 ; Travel to line 154
G0 Z0.0 ; Pen down
G1 X113.972 Y47.384 F1000
G1 X113.764 Y47.592 F1000
G1 X113.556 Y47.384 F1000
G0 Z3.0 ; Pen up

G0 X113.556 Y48.008 F3000 ; Travel to line 155
G0 Z0.0 ; Pen down
G1 X113.556 Y47.800 F1000
G1 X113.764 Y47.592 F1000
G1 X113.972 Y47.592 F1000
G1 X113.972 Y47.176 F1000
G1 X114.180 Y46.968 F1000
G1 X114.180 Y46.760 F1000
G1 X114.388 Y46.552 F1000
G1 X114.388 Y46.344 F1000
G1 X114.596 Y46.136 F1000
G1 X114.596 Y45.720 F1000
G1 X114.804 Y45.512 F1000
G1 X114.804 Y45.304 F1000
G1 X115.012 Y45.096 F1000
G1 X115.012 Y44.888 F1000
G1 X115.220 Y44.680 F1000
G1 X115.220 Y44.472 F1000
G1 X115.428 Y44.264 F1000
G1 X115.428 Y43.848 F1000
G1 X115.636 Y43.640 F1000
G1 X115.636 Y43.432 F1000
G1 X115.844 Y43.224 F1000
G1 X115.844 Y42.808 F1000
G1 X116.260 Y42.392 F1000
G1 X117.508 Y42.392 F1000
G1 X117.716 Y42.184 F1000
G1 X118.964 Y42.184 F1000
G1 X119.172 Y41.976 F1000
G1 X120.420 Y41.976 F1000
G1 X120.628 Y41.768 F1000
G1 X122.084 Y41.768 F1000
G1 X122.292 Y41.976 F1000
G1 X122.292 Y42.392 F1000
G1 X122.084 Y42.600 F1000
G1 X121.876 Y42.600 F1000
G1 X121.460 Y43.016 F1000
G1 X121.252 Y43.016 F1000
G1 X120.628 Y43.640 F1000
G1 X120.420 Y43.640 F1000
G1 X119.796 Y44.264 F1000
G1 X119.588 Y44.264 F1000
G1 X118.964 Y44.888 F1000
G1 X118.756 Y44.888 F1000
G1 X117.924 Y45.720 F1000
G1 X117.716 Y45.720 F1000
G1 X117.092 Y46.344 F1000
G1 X116.884 Y46.344 F1000
G1 X116.260 Y46.968 F1000
G1 X116.052 Y46.968 F1000
G1 X115.428 Y47.592 F1000
G1 X115.220 Y47.592 F1000
G1 X114.596 Y48.216 F1000
G1 X114.388 Y48.216 F1000
G1 X114.180 Y48.424 F1000
G1 X113.972 Y48.424 F1000
G0 Z3.0 ; Pen up

G0 X113.764 Y48.216 F3000 ; Travel to line 156
G0 Z0.0 ; Pen down
G1 X113.972 Y48.424 F1000
G1 X113.764 Y48.632 F1000
G1 X113.556 Y48.424 F1000
G0 Z3.0 ; Pen up

G0 X114.180 Y49.880 F3000 ; Travel to line 157
G0 Z0.0 ; Pen down
G1 X114.388 Y50.088 F1000
G1 X114.180 Y50.296 F1000
G1 X113.972 Y50.088 F1000
G0 Z3.0 ; Pen up

G0 X113.764 Y50.712 F3000 ; Travel to line 158
G0 Z0.0 ; Pen down
G1 X113.764 Y50.504 F1000
G1 X113.972 Y50.296 F1000
G1 X114.388 Y50.296 F1000
G1 X114.596 Y50.088 F1000
G1 X115.012 Y50.088 F1000
G1 X115.220 Y49.880 F1000
G1 X115.636 Y49.880 F1000
G1 X115.844 Y49.672 F1000
G1 X116.260 Y49.672 F1000
G1 X116.468 Y49.464 F1000
G1 X116.884 Y49.464 F1000
G1 X117.092 Y49.256 F1000
G1 X117.508 Y49.256 F1000
G1 X117.716 Y49.048 F1000
G1 X118.132 Y49.048 F1000
G1 X118.340 Y48.840 F1000
G1 X118.756 Y48.840 F1000
G1 X118.964 Y48.632 F1000
G1 X119.380 Y48.632 F1000
G1 X119.588 Y48.424 F1000
G1 X120.004 Y48.424 F1000
G1 X120.212 Y48.216 F1000
G1 X120.628 Y48.216 F1000
G1 X120.836 Y48.008 F1000
G1 X121.252 Y48.008 F1000
G1 X121.460 Y47.800 F1000
G1 X121.876 Y47.800 F1000
G1 X122.084 Y47.592 F1000
G1 X122.500 Y47.592 F1000
G1 X122.708 Y47.384 F1000
G1 X123.124 Y47.384 F1000
G1 X123.332 Y47.176 F1000
G1 X123.748 Y47.176 F1000
G1 X123.956 Y46.968 F1000
G1 X124.164 Y47.176 F1000
G1 X124.164 Y47.384 F1000
G1 X124.372 Y47.592 F1000
G1 X124.372 Y47.800 F1000
G1 X124.580 Y48.008 F1000
G1 X124.580 Y48.424 F1000
G1 X124.788 Y48.632 F1000
G1 X124.788 Y49.048 F1000
G1 X124.996 Y49.256 F1000
G1 X124.996 Y49.672 F1000
G1 X124.788 Y49.880 F1000
G1 X124.372 Y49.880 F1000
G1 X124.164 Y50.088 F1000
G1 X122.292 Y50.088 F1000
G1 X122.084 Y50.296 F1000
G1 X120.212 Y50.296 F1000
G1 X120.004 Y50.504 F1000
G1 X118.132 Y50.504 F1000
G1 X117.924 Y50.712 F1000
G1 X116.260 Y50.712 F1000
G1 X116.052 Y50.920 F1000
G1 X114.596 Y50.920 F1000
G1 X114.388 Y51.128 F1000
G1 X114.180 Y51.128 F1000
G0 Z3.0 ; Pen up

G0 X114.180 Y51.336 F3000 ; Travel to line 159
G0 Z0.0 ; Pen down
G1 X114.388 Y51.544 F1000
G1 X114.596 Y51.336 F1000
G1 X114.388 Y51.128 F1000
G0 Z3.0 ; Pen up

G0 X114.596 Y51.544 F3000 ; Travel to line 160
G0 Z0.0 ; Pen down
G1 X114.804 Y51.752 F1000
G1 X115.012 Y51.752 F1000
G1 X115.220 Y51.544 F1000
G1 X115.012 Y51.336 F1000
G1 X114.804 Y51.336 F1000
G0 Z3.0 ; Pen up

G0 X115.012 Y51.752 F3000 ; Travel to line 161
G0 Z0.0 ; Pen down
G1 X115.220 Y51.960 F1000
G1 X115.428 Y51.960 F1000
G1 X115.636 Y51.752 F1000
G1 X115.428 Y51.544 F1000
G1 X115.220 Y51.544 F1000
G0 Z3.0 ; Pen up

G0 X114.596 Y49.880 F3000 ; Travel to line 162
G0 Z0.0 ; Pen down
G1 X114.804 Y50.088 F1000
G1 X115.012 Y49.880 F1000
G1 X114.804 Y49.672 F1000
G0 Z3.0 ; Pen up

G0 X115.220 Y49.672 F3000 ; Travel to line 163
G0 Z0.0 ; Pen down
G1 X115.428 Y49.880 F1000
G1 X115.636 Y49.672 F1000
G1 X115.428 Y49.464 F1000
G0 Z3.0 ; Pen up

G0 X115.844 Y49.464 F3000 ; Travel to line 164
G0 Z0.0 ; Pen down
G1 X116.052 Y49.672 F1000
G1 X116.260 Y49.464 F1000
G1 X116.052 Y49.256 F1000
G0 Z3.0 ; Pen up

G0 X116.468 Y49.256 F3000 ; Travel to line 165
G0 Z0.0 ; Pen down
G1 X116.676 Y49.464 F1000
G1 X116.884 Y49.256 F1000
G1 X116.676 Y49.048 F1000
G0 Z3.0 ; Pen up

G0 X116.676 Y48.840 F3000 ; Travel to line 166
G0 Z0.0 ; Pen down
G1 X116.884 Y49.048 F1000
G1 X117.092 Y48.840 F1000
G1 X116.884 Y48.632 F1000
G0 Z3.0 ; Pen up

G0 X117.092 Y48.632 F3000 ; Travel to line 167
G0 Z0.0 ; Pen down
G1 X117.300 Y48.840 F1000
G1 X117.508 Y48.840 F1000
G1 X117.716 Y48.632 F1000
G1 X117.508 Y48.424 F1000
G1 X117.300 Y48.424 F1000
G0 Z3.0 ; Pen up

G0 X117.716 Y48.424 F3000 ; Travel to line 168
G0 Z0.0 ; Pen down
G1 X117.924 Y48.632 F1000
G1 X118.132 Y48.632 F1000
G1 X118.340 Y48.424 F1000
G1 X118.132 Y48.216 F1000
G1 X117.924 Y48.216 F1000
G0 Z3.0 ; Pen up

G0 X118.132 Y48.216 F3000 ; Travel to line 169
G0 Z0.0 ; Pen down
G1 X118.340 Y48.424 F1000
G1 X118.756 Y48.424 F1000
G1 X118.964 Y48.216 F1000
G1 X119.380 Y48.216 F1000
G1 X119.588 Y48.008 F1000
G1 X120.004 Y48.008 F1000
G1 X120.212 Y47.800 F1000
G1 X120.628 Y47.800 F1000
G1 X120.836 Y47.592 F1000
G1 X121.252 Y47.592 F1000
G1 X121.460 Y47.384 F1000
G1 X121.876 Y47.384 F1000
G1 X122.084 Y47.176 F1000
G1 X122.500 Y47.176 F1000
G1 X122.708 Y46.968 F1000
G1 X123.124 Y46.968 F1000
G1 X123.332 Y46.760 F1000
G1 X123.748 Y46.760 F1000
G1 X123.956 Y46.552 F1000
G1 X123.956 Y46.344 F1000
G1 X123.748 Y46.136 F1000
G1 X123.748 Y45.928 F1000
G1 X123.540 Y45.720 F1000
G1 X123.124 Y45.720 F1000
G1 X122.916 Y45.928 F1000
G1 X122.708 Y45.928 F1000
G1 X122.500 Y46.136 F1000
G1 X122.292 Y46.136 F1000
G1 X122.084 Y46.344 F1000
G1 X121.876 Y46.344 F1000
G1 X121.668 Y46.552 F1000
G1 X121.460 Y46.552 F1000
G1 X121.252 Y46.760 F1000
G1 X120.836 Y46.760 F1000
G1 X120.628 Y46.968 F1000
G1 X120.420 Y46.968 F1000
G1 X120.212 Y47.176 F1000
G1 X120.004 Y47.176 F1000
G1 X119.796 Y47.384 F1000
G1 X119.588 Y47.384 F1000
G1 X119.380 Y47.592 F1000
G1 X119.172 Y47.592 F1000
G1 X118.964 Y47.800 F1000
G1 X118.756 Y47.800 F1000
G1 X118.548 Y48.008 F1000
G1 X118.340 Y48.008 F1000
G0 Z3.0 ; Pen up

G0 X118.548 Y48.424 F3000 ; Travel to line 170
G0 Z0.0 ; Pen down
G1 X118.756 Y48.632 F1000
G1 X118.548 Y48.840 F1000
G1 X118.340 Y48.632 F1000
G0 Z3.0 ; Pen up

G0 X117.924 Y48.632 F3000 ; Travel to line 171
G0 Z0.0 ; Pen down
G1 X118.132 Y48.840 F1000
G1 X117.924 Y49.048 F1000
G1 X117.716 Y48.840 F1000
G0 Z3.0 ; Pen up

G0 X117.300 Y48.840 F3000 ; Travel to line 172
G0 Z0.0 ; Pen down
G1 X117.508 Y49.048 F1000
G1 X117.300 Y49.256 F1000
G1 X117.092 Y49.048 F1000
G0 Z3.0 ; Pen up

G0 X118.964 Y48.424 F3000 ; Travel to line 173
G0 Z0.0 ; Pen down
G1 X119.172 Y48.632 F1000
G1 X119.380 Y48.424 F1000
G1 X119.172 Y48.216 F1000
G0 Z3.0 ; Pen up

G0 X119.588 Y48.216 F3000 ; Travel to line 174
G0 Z0.0 ; Pen down
G1 X119.796 Y48.424 F1000
G1 X120.004 Y48.216 F1000
G1 X119.796 Y48.008 F1000
G0 Z3.0 ; Pen up

G0 X120.212 Y48.008 F3000 ; Travel to line 175
G0 Z0.0 ; Pen down
G1 X120.420 Y48.216 F1000
G1 X120.628 Y48.008 F1000
G1 X120.420 Y47.800 F1000
G0 Z3.0 ; Pen up

G0 X120.836 Y47.800 F3000 ; Travel to line 176
G0 Z0.0 ; Pen down
G1 X121.044 Y48.008 F1000
G1 X121.252 Y47.800 F1000
G1 X121.044 Y47.592 F1000
G0 Z3.0 ; Pen up

G0 X121.460 Y47.592 F3000 ; Travel to line 177
G0 Z0.0 ; Pen down
G1 X121.668 Y47.800 F1000
G1 X121.876 Y47.592 F1000
G1 X121.668 Y47.384 F1000
G0 Z3.0 ; Pen up

G0 X122.084 Y47.384 F3000 ; Travel to line 178
G0 Z0.0 ; Pen down
G1 X122.292 Y47.592 F1000
G1 X122.500 Y47.384 F1000
G1 X122.292 Y47.176 F1000
G0 Z3.0 ; Pen up

G0 X122.708 Y47.176 F3000 ; Travel to line 179
G0 Z0.0 ; Pen down
G1 X122.916 Y47.384 F1000
G1 X123.124 Y47.176 F1000
G1 X122.916 Y46.968 F1000
G0 Z3.0 ; Pen up

G0 X123.332 Y46.968 F3000 ; Travel to line 180
G0 Z0.0 ; Pen down
G1 X123.540 Y47.176 F1000
G1 X123.748 Y46.968 F1000
G1 X123.540 Y46.760 F1000
G0 Z3.0 ; Pen up

G0 X123.956 Y46.552 F3000 ; Travel to line 181
G0 Z0.0 ; Pen down
G1 X124.164 Y46.760 F1000
G1 X124.372 Y46.760 F1000
G1 X124.580 Y46.552 F1000
G1 X124.580 Y46.344 F1000
G1 X124.996 Y46.344 F1000
G1 X125.204 Y46.136 F1000
G1 X125.620 Y46.136 F1000
G1 X125.828 Y45.928 F1000
G1 X126.244 Y45.928 F1000
G1 X126.452 Y45.720 F1000
G1 X126.868 Y45.720 F1000
G1 X127.076 Y45.512 F1000
G1 X127.492 Y45.512 F1000
G1 X127.700 Y45.304 F1000
G1 X128.116 Y45.304 F1000
G1 X128.324 Y45.096 F1000
G1 X128.740 Y45.096 F1000
G1 X128.948 Y44.888 F1000
G1 X129.988 Y44.888 F1000
G1 X130.196 Y44.680 F1000
G1 X130.612 Y44.680 F1000
G1 X130.820 Y44.472 F1000
G1 X131.236 Y44.472 F1000
G1 X131.444 Y44.264 F1000
G1 X132.068 Y44.264 F1000
G1 X132.276 Y44.056 F1000
G1 X132.484 Y44.056 F1000
G1 X132.692 Y43.848 F1000
G1 X132.692 Y43.016 F1000
G1 X132.900 Y42.808 F1000
G1 X132.900 Y42.184 F1000
G1 X133.108 Y41.976 F1000
G1 X133.108 Y41.352 F1000
G1 X132.900 Y41.144 F1000
G1 X132.692 Y41.352 F1000
G1 X132.484 Y41.352 F1000
G1 X132.276 Y41.560 F1000
G1 X132.068 Y41.560 F1000
G1 X131.860 Y41.768 F1000
G1 X131.652 Y41.768 F1000
G1 X131.444 Y41.976 F1000
G1 X131.236 Y41.976 F1000
G1 X131.028 Y42.184 F1000
G1 X130.612 Y42.184 F1000
G1 X130.404 Y42.392 F1000
G1 X130.196 Y42.392 F1000
G1 X129.988 Y42.600 F1000
G1 X129.780 Y42.600 F1000
G1 X129.572 Y42.808 F1000
G1 X129.364 Y42.808 F1000
G1 X129.156 Y43.016 F1000
G1 X128.948 Y43.016 F1000
G1 X128.740 Y43.224 F1000
G1 X128.532 Y43.224 F1000
G1 X128.324 Y43.432 F1000
G1 X128.116 Y43.432 F1000
G1 X127.908 Y43.640 F1000
G1 X127.700 Y43.640 F1000
G1 X127.492 Y43.848 F1000
G1 X127.076 Y43.848 F1000
G1 X126.868 Y44.056 F1000
G1 X126.660 Y44.056 F1000
G1 X126.452 Y44.264 F1000
G1 X126.244 Y44.264 F1000
G1 X126.036 Y44.472 F1000
G1 X125.828 Y44.472 F1000
G1 X125.620 Y44.680 F1000
G1 X125.412 Y44.680 F1000
G1 X125.204 Y44.888 F1000
G1 X124.996 Y44.888 F1000
G1 X124.788 Y45.096 F1000
G1 X124.580 Y45.096 F1000
G1 X124.372 Y45.304 F1000
G1 X123.748 Y45.304 F1000
G1 X123.540 Y45.512 F1000
G1 X123.540 Y45.720 F1000
G1 X123.748 Y45.928 F1000
G1 X123.748 Y46.136 F1000
G1 X123.956 Y46.344 F1000
G0 Z3.0 ; Pen up

G0 X124.580 Y46.552 F3000 ; Travel to line 182
G0 Z0.0 ; Pen down
G1 X124.788 Y46.760 F1000
G1 X124.996 Y46.552 F1000
G1 X124.788 Y46.344 F1000
G0 Z3.0 ; Pen up

G0 X125.204 Y46.344 F3000 ; Travel to line 183
G0 Z0.0 ; Pen down
G1 X125.412 Y46.552 F1000
G1 X125.620 Y46.344 F1000
G1 X125.412 Y46.136 F1000
G0 Z3.0 ; Pen up

G0 X125.828 Y46.136 F3000 ; Travel to line 184
G0 Z0.0 ; Pen down
G1 X126.036 Y46.344 F1000
G1 X126.244 Y46.136 F1000
G1 X126.036 Y45.928 F1000
G0 Z3.0 ; Pen up

G0 X126.452 Y45.928 F3000 ; Travel to line 185
G0 Z0.0 ; Pen down
G1 X126.660 Y46.136 F1000
G1 X126.868 Y45.928 F1000
G1 X126.660 Y45.720 F1000
G0 Z3.0 ; Pen up

G0 X127.076 Y45.720 F3000 ; Travel to line 186
G0 Z0.0 ; Pen down
G1 X127.284 Y45.928 F1000
G1 X127.492 Y45.720 F1000
G1 X127.284 Y45.512 F1000
G0 Z3.0 ; Pen up

G0 X127.700 Y45.512 F3000 ; Travel to line 187
G0 Z0.0 ; Pen down
G1 X127.908 Y45.720 F1000
G1 X128.116 Y45.512 F1000
G1 X127.908 Y45.304 F1000
G0 Z3.0 ; Pen up

G0 X128.324 Y45.304 F3000 ; Travel to line 188
G0 Z0.0 ; Pen down
G1 X128.532 Y45.512 F1000
G1 X128.740 Y45.304 F1000
G1 X128.532 Y45.096 F1000
G0 Z3.0 ; Pen up

G0 X128.948 Y45.096 F3000 ; Travel to line 189
G0 Z0.0 ; Pen down
G1 X129.156 Y45.304 F1000
G1 X129.364 Y45.096 F1000
G1 X129.156 Y44.888 F1000
G0 Z3.0 ; Pen up

G0 X132.692 Y43.432 F3000 ; Travel to line 190
G0 Z0.0 ; Pen down
G1 X132.900 Y43.640 F1000
G1 X133.732 Y43.640 F1000
G1 X133.940 Y43.432 F1000
G1 X134.356 Y43.432 F1000
G1 X134.564 Y43.224 F1000
G1 X134.980 Y43.224 F1000
G1 X135.188 Y43.016 F1000
G1 X135.812 Y43.016 F1000
G1 X136.228 Y42.600 F1000
G1 X136.020 Y42.392 F1000
G1 X136.020 Y41.768 F1000
G1 X135.812 Y41.560 F1000
G1 X135.812 Y40.312 F1000
G1 X135.604 Y40.104 F1000
G1 X135.188 Y40.104 F1000
G1 X134.980 Y40.312 F1000
G1 X134.772 Y40.312 F1000
G1 X134.564 Y40.520 F1000
G1 X134.356 Y40.520 F1000
G1 X134.148 Y40.728 F1000
G1 X133.524 Y40.728 F1000
G1 X133.108 Y41.144 F1000
G1 X133.108 Y41.976 F1000
G1 X132.900 Y42.184 F1000
G1 X132.900 Y42.808 F1000
G1 X132.692 Y43.016 F1000
G0 Z3.0 ; Pen up

G0 X133.316 Y40.520 F3000 ; Travel to line 191
G0 Z0.0 ; Pen down
G1 X133.524 Y40.728 F1000
G1 X133.940 Y40.728 F1000
G1 X134.148 Y40.520 F1000
G1 X134.356 Y40.520 F1000
G1 X134.564 Y40.312 F1000
G1 X134.772 Y40.312 F1000
G1 X134.980 Y40.104 F1000
G1 X134.772 Y39.896 F1000
G1 X133.732 Y39.896 F1000
G1 X133.316 Y40.312 F1000
G0 Z3.0 ; Pen up

G0 X133.524 Y39.688 F3000 ; Travel to line 192
G0 Z0.0 ; Pen down
G1 X133.732 Y39.896 F1000
G1 X134.564 Y39.896 F1000
G1 X134.772 Y39.688 F1000
G1 X134.356 Y39.272 F1000
G1 X133.940 Y39.272 F1000
G1 X133.940 Y39.272 F1000
G1 X133.732 Y39.064 F1000
G1 X133.732 Y38.856 F1000
G1 X133.940 Y38.648 F1000
G1 X133.940 Y38.440 F1000
G1 X134.148 Y38.232 F1000
G1 X134.564 Y38.232 F1000
G1 X134.772 Y38.440 F1000
G1 X134.772 Y38.648 F1000
G1 X134.980 Y38.856 F1000
G1 X134.980 Y39.272 F1000
G1 X134.772 Y39.480 F1000
G1 X134.564 Y39.480 F1000
G1 X134.356 Y39.272 F1000
G0 Z3.0 ; Pen up

G0 X133.732 Y38.856 F3000 ; Travel to line 193
G0 Z0.0 ; Pen down
G1 X133.940 Y38.648 F1000
G1 X133.940 Y38.440 F1000
G1 X133.732 Y38.232 F1000
G1 X133.524 Y38.232 F1000
G1 X133.316 Y38.440 F1000
G0 Z3.0 ; Pen up

G0 X132.692 Y38.232 F3000 ; Travel to line 194
G0 Z0.0 ; Pen down
G1 X132.900 Y38.440 F1000
G1 X133.108 Y38.440 F1000
G1 X133.316 Y38.232 F1000
G1 X133.732 Y38.232 F1000
G1 X134.148 Y37.816 F1000
G1 X134.148 Y37.608 F1000
G1 X134.356 Y37.400 F1000
G1 X134.148 Y37.192 F1000
G1 X133.732 Y37.192 F1000
G1 X133.524 Y36.984 F1000
G1 X133.316 Y36.984 F1000
G1 X133.108 Y36.776 F1000
G1 X132.692 Y36.776 F1000
G1 X132.484 Y36.568 F1000
G1 X132.068 Y36.568 F1000
G1 X131.860 Y36.360 F1000
G1 X131.652 Y36.360 F1000
G1 X131.444 Y36.152 F1000
G1 X131.028 Y36.152 F1000
G1 X130.820 Y35.944 F1000
G1 X130.404 Y35.944 F1000
G1 X130.196 Y35.736 F1000
G1 X129.780 Y35.736 F1000
G1 X129.572 Y35.944 F1000
G1 X129.572 Y36.152 F1000
G1 X129.988 Y36.568 F1000
G1 X130.196 Y36.568 F1000
G1 X130.612 Y36.984 F1000
G1 X130.820 Y36.984 F1000
G1 X131.236 Y37.400 F1000
G1 X131.444 Y37.400 F1000
G1 X131.652 Y37.608 F1000
G1 X131.860 Y37.608 F1000
G1 X132.068 Y37.816 F1000
G1 X132.068 Y38.024 F1000
G1 X132.276 Y38.232 F1000
G0 Z3.0 ; Pen up

G0 X133.940 Y38.024 F3000 ; Travel to line 195
G0 Z0.0 ; Pen down
G1 X134.148 Y38.232 F1000
G1 X134.564 Y38.232 F1000
G1 X134.772 Y38.024 F1000
G1 X134.356 Y37.608 F1000
G0 Z3.0 ; Pen up

G0 X134.148 Y36.984 F3000 ; Travel to line 196
G0 Z0.0 ; Pen down
G1 X134.356 Y37.192 F1000
G1 X134.980 Y36.568 F1000
G1 X134.980 Y36.360 F1000
G1 X135.188 Y36.152 F1000
G1 X135.188 Y35.944 F1000
G1 X135.604 Y35.528 F1000
G1 X135.604 Y35.320 F1000
G1 X135.812 Y35.112 F1000
G1 X135.812 Y34.904 F1000
G1 X136.020 Y34.696 F1000
G1 X136.020 Y34.488 F1000
G1 X136.436 Y34.072 F1000
G1 X136.436 Y33.864 F1000
G1 X136.644 Y33.656 F1000
G1 X136.644 Y33.448 F1000
G1 X136.852 Y33.240 F1000
G1 X136.852 Y33.032 F1000
G1 X137.060 Y32.824 F1000
G1 X136.852 Y32.616 F1000
G1 X135.188 Y32.616 F1000
G1 X135.188 Y32.408 F1000
G1 X134.980 Y32.200 F1000
G1 X132.484 Y32.200 F1000
G1 X132.276 Y32.408 F1000
G1 X132.484 Y32.616 F1000
G1 X132.484 Y32.824 F1000
G1 X132.692 Y33.032 F1000
G1 X132.692 Y33.448 F1000
G1 X132.900 Y33.656 F1000
G1 X132.900 Y33.864 F1000
G1 X133.108 Y34.072 F1000
G1 X133.108 Y34.280 F1000
G1 X133.316 Y34.488 F1000
G1 X133.316 Y34.904 F1000
G1 X133.524 Y35.112 F1000
G1 X133.524 Y35.320 F1000
G1 X133.732 Y35.528 F1000
G1 X133.732 Y35.944 F1000
G1 X133.940 Y36.152 F1000
G1 X133.940 Y36.360 F1000
G1 X134.148 Y36.568 F1000
G0 Z3.0 ; Pen up

G0 X133.732 Y36.984 F3000 ; Travel to line 197
G0 Z0.0 ; Pen down
G1 X133.940 Y37.192 F1000
G1 X134.148 Y36.984 F1000
G1 X134.148 Y36.568 F1000
G1 X133.940 Y36.360 F1000
G1 X133.940 Y36.152 F1000
G1 X133.732 Y35.944 F1000
G1 X133.732 Y35.528 F1000
G1 X133.524 Y35.320 F1000
G1 X133.524 Y35.112 F1000
G1 X133.316 Y34.904 F1000
G1 X133.316 Y34.488 F1000
G1 X133.108 Y34.280 F1000
G1 X133.108 Y34.072 F1000
G1 X132.900 Y33.864 F1000
G1 X132.900 Y33.656 F1000
G1 X132.692 Y33.448 F1000
G1 X132.692 Y33.032 F1000
G1 X132.484 Y32.824 F1000
G1 X132.484 Y32.616 F1000
G1 X132.068 Y32.200 F1000
G1 X131.860 Y32.200 F1000
G1 X131.652 Y32.408 F1000
G1 X131.652 Y32.616 F1000
G1 X131.444 Y32.824 F1000
G1 X131.444 Y33.032 F1000
G1 X130.820 Y33.656 F1000
G1 X130.820 Y33.864 F1000
G1 X130.404 Y34.280 F1000
G1 X130.404 Y34.488 F1000
G1 X129.780 Y35.112 F1000
G1 X129.780 Y35.528 F1000
G1 X129.988 Y35.736 F1000
G1 X130.404 Y35.736 F1000
G1 X130.612 Y35.944 F1000
G1 X131.028 Y35.944 F1000
G1 X131.236 Y36.152 F1000
G1 X131.652 Y36.152 F1000
G1 X131.860 Y36.360 F1000
G1 X132.068 Y36.360 F1000
G1 X132.276 Y36.568 F1000
G1 X132.692 Y36.568 F1000
G1 X132.900 Y36.776 F1000
G1 X133.316 Y36.776 F1000
G1 X133.524 Y36.984 F1000
G0 Z3.0 ; Pen up

G0 X135.188 Y38.232 F3000 ; Travel to line 198
G0 Z0.0 ; Pen down
G1 X134.980 Y38.024 F1000
G1 X134.772 Y38.024 F1000
G1 X134.564 Y37.816 F1000
G1 X134.564 Y37.608 F1000
G1 X134.356 Y37.400 F1000
G1 X134.356 Y37.192 F1000
G1 X134.564 Y36.984 F1000
G1 X134.772 Y36.984 F1000
G1 X134.772 Y36.776 F1000
G1 X134.980 Y36.568 F1000
G1 X134.980 Y36.360 F1000
G1 X135.396 Y35.944 F1000
G1 X135.396 Y35.736 F1000
G1 X135.604 Y35.528 F1000
G1 X135.604 Y35.320 F1000
G1 X135.812 Y35.112 F1000
G1 X135.812 Y34.904 F1000
G1 X136.228 Y34.488 F1000
G1 X136.228 Y34.280 F1000
G1 X136.436 Y34.072 F1000
G1 X136.436 Y33.864 F1000
G1 X136.644 Y33.656 F1000
G1 X136.644 Y33.448 F1000
G1 X137.268 Y32.824 F1000
G1 X139.140 Y32.824 F1000
G1 X139.348 Y33.032 F1000
G1 X141.012 Y33.032 F1000
G1 X141.220 Y33.240 F1000
G1 X143.092 Y33.240 F1000
G1 X143.300 Y33.448 F1000
G1 X145.172 Y33.448 F1000
G1 X145.380 Y33.656 F1000
G1 X146.004 Y33.656 F1000
G1 X146.420 Y34.072 F1000
G1 X146.420 Y34.488 F1000
G1 X146.628 Y34.696 F1000
G1 X146.628 Y35.112 F1000
G1 X146.836 Y35.320 F1000
G1 X146.836 Y35.528 F1000
G1 X147.044 Y35.736 F1000
G1 X147.044 Y36.152 F1000
G1 X147.252 Y36.360 F1000
G1 X147.252 Y36.776 F1000
G1 X147.460 Y36.984 F1000
G1 X147.460 Y37.400 F1000
G1 X147.252 Y37.608 F1000
G1 X146.420 Y37.608 F1000
G1 X146.212 Y37.816 F1000
G1 X145.380 Y37.816 F1000
G1 X145.380 Y38.024 F1000
G1 X145.172 Y38.232 F1000
G1 X143.300 Y38.232 F1000
G1 X143.092 Y38.440 F1000
G1 X142.676 Y38.440 F1000
G1 X142.468 Y38.232 F1000
G1 X136.020 Y38.232 F1000
G1 X135.812 Y38.440 F1000
G1 X135.604 Y38.440 F1000
G1 X135.396 Y38.232 F1000
G0 Z3.0 ; Pen up

G0 X136.852 Y39.272 F3000 ; Travel to line 199
G0 Z0.0 ; Pen down
G1 X136.644 Y39.064 F1000
G1 X136.436 Y39.064 F1000
G1 X136.020 Y38.648 F1000
G1 X136.020 Y38.440 F1000
G1 X136.228 Y38.232 F1000
G1 X142.260 Y38.232 F1000
G1 X142.468 Y38.440 F1000
G1 X142.260 Y38.648 F1000
G1 X141.428 Y38.648 F1000
G1 X141.220 Y38.856 F1000
G1 X140.388 Y38.856 F1000
G1 X140.180 Y39.064 F1000
G1 X139.348 Y39.064 F1000
G1 X139.140 Y39.272 F1000
G1 X138.308 Y39.272 F1000
G1 X138.100 Y39.480 F1000
G1 X137.684 Y39.480 F1000
G1 X137.476 Y39.688 F1000
G1 X137.060 Y39.688 F1000
G1 X136.852 Y39.480 F1000
G0 Z3.0 ; Pen up

G0 X136.852 Y40.520 F3000 ; Travel to line 200
G0 Z0.0 ; Pen down
G1 X136.644 Y40.312 F1000
G1 X136.228 Y40.312 F1000
G1 X136.020 Y40.104 F1000
G1 X136.228 Y39.896 F1000
G1 X136.436 Y39.896 F1000
G1 X136.644 Y39.688 F1000
G1 X137.476 Y39.688 F1000
G1 X138.308 Y40.520 F1000
G1 X138.100 Y40.728 F1000
G1 X137.476 Y40.728 F1000
G1 X137.268 Y40.520 F1000
G0 Z3.0 ; Pen up

G0 X138.100 Y40.728 F3000 ; Travel to line 201
G0 Z0.0 ; Pen down
G1 X138.308 Y40.936 F1000
G1 X138.516 Y40.728 F1000
G1 X138.308 Y40.520 F1000
G0 Z3.0 ; Pen up

G0 X138.932 Y41.560 F3000 ; Travel to line 202
G0 Z0.0 ; Pen down
G1 X139.140 Y41.768 F1000
G1 X138.932 Y41.976 F1000
G1 X138.724 Y41.768 F1000
G0 Z3.0 ; Pen up

G0 X138.308 Y41.768 F3000 ; Travel to line 203
G0 Z0.0 ; Pen down
G1 X138.516 Y41.976 F1000
G1 X138.308 Y42.184 F1000
G1 X138.100 Y41.976 F1000
G0 Z3.0 ; Pen up

G0 X137.684 Y41.976 F3000 ; Travel to line 204
G0 Z0.0 ; Pen down
G1 X137.892 Y42.184 F1000
G1 X137.684 Y42.392 F1000
G1 X137.476 Y42.184 F1000
G0 Z3.0 ; Pen up

G0 X137.060 Y42.184 F3000 ; Travel to line 205
G0 Z0.0 ; Pen down
G1 X137.268 Y42.392 F1000
G1 X137.060 Y42.600 F1000
G1 X136.852 Y42.392 F1000
G0 Z3.0 ; Pen up

G0 X137.060 Y41.976 F3000 ; Travel to line 206
G0 Z0.0 ; Pen down
G1 X137.268 Y42.184 F1000
G1 X137.476 Y41.976 F1000
G1 X137.892 Y41.976 F1000
G1 X138.100 Y41.768 F1000
G1 X138.516 Y41.768 F1000
G1 X138.724 Y41.560 F1000
G1 X139.140 Y41.560 F1000
G1 X139.348 Y41.352 F1000
G1 X139.140 Y41.144 F1000
G1 X138.932 Y41.144 F1000
G1 X138.724 Y40.936 F1000
G1 X138.100 Y40.936 F1000
G1 X137.892 Y40.728 F1000
G1 X137.476 Y40.728 F1000
G1 X137.268 Y40.520 F1000
G1 X136.644 Y40.520 F1000
G1 X136.436 Y40.312 F1000
G1 X136.020 Y40.312 F1000
G1 X135.812 Y40.520 F1000
G1 X135.812 Y40.728 F1000
G1 X136.020 Y40.936 F1000
G1 X136.228 Y40.936 F1000
G1 X137.060 Y41.768 F1000
G0 Z3.0 ; Pen up

G0 X136.020 Y41.768 F3000 ; Travel to line 207
G0 Z0.0 ; Pen down
G1 X135.812 Y41.560 F1000
G1 X136.228 Y41.144 F1000
G1 X136.436 Y41.144 F1000
G1 X137.060 Y41.768 F1000
G1 X137.060 Y41.976 F1000
G1 X136.852 Y42.184 F1000
G1 X136.852 Y42.392 F1000
G1 X136.644 Y42.600 F1000
G1 X136.228 Y42.600 F1000
G1 X136.020 Y42.392 F1000
G0 Z3.0 ; Pen up

G0 X135.812 Y41.144 F3000 ; Travel to line 208
G0 Z0.0 ; Pen down
G1 X136.020 Y41.352 F1000
G1 X136.228 Y41.144 F1000
G1 X136.020 Y40.936 F1000
G0 Z3.0 ; Pen up

G0 X135.604 Y40.104 F3000 ; Travel to line 209
G0 Z0.0 ; Pen down
G1 X135.812 Y40.312 F1000
G1 X136.020 Y40.104 F1000
G1 X136.020 Y39.896 F1000
G1 X136.228 Y39.896 F1000
G1 X136.436 Y39.688 F1000
G1 X136.644 Y39.688 F1000
G1 X136.852 Y39.480 F1000
G1 X136.852 Y39.272 F1000
G1 X136.644 Y39.064 F1000
G1 X136.436 Y39.064 F1000
G1 X135.812 Y38.440 F1000
G1 X135.604 Y38.440 F1000
G1 X135.396 Y38.232 F1000
G1 X135.188 Y38.232 F1000
G1 X134.980 Y38.024 F1000
G1 X134.772 Y38.232 F1000
G1 X134.772 Y38.648 F1000
G1 X134.980 Y38.856 F1000
G1 X134.980 Y39.480 F1000
G1 X134.772 Y39.688 F1000
G1 X135.188 Y40.104 F1000
G0 Z3.0 ; Pen up

G0 X139.348 Y41.144 F3000 ; Travel to line 210
G0 Z0.0 ; Pen down
G1 X139.140 Y41.144 F1000
G1 X138.932 Y40.936 F1000
G1 X138.724 Y40.936 F1000
G1 X138.516 Y40.728 F1000
G1 X138.516 Y40.520 F1000
G1 X138.308 Y40.312 F1000
G1 X138.100 Y40.312 F1000
G1 X137.684 Y39.896 F1000
G1 X137.684 Y39.688 F1000
G1 X137.892 Y39.480 F1000
G1 X138.308 Y39.480 F1000
G1 X138.516 Y39.272 F1000
G1 X139.348 Y39.272 F1000
G1 X139.556 Y39.064 F1000
G1 X140.388 Y39.064 F1000
G1 X140.596 Y38.856 F1000
G1 X141.428 Y38.856 F1000
G1 X141.636 Y38.648 F1000
G1 X142.468 Y38.648 F1000
G1 X142.676 Y38.440 F1000
G1 X143.092 Y38.440 F1000
G1 X143.300 Y38.232 F1000
G1 X147.668 Y38.232 F1000
G1 X147.876 Y38.440 F1000
G1 X147.668 Y38.648 F1000
G1 X147.460 Y38.648 F1000
G1 X147.252 Y38.856 F1000
G1 X146.836 Y38.856 F1000
G1 X146.628 Y39.064 F1000
G1 X146.212 Y39.064 F1000
G1 X146.004 Y39.272 F1000
G1 X145.588 Y39.272 F1000
G1 X145.380 Y39.480 F1000
G1 X144.964 Y39.480 F1000
G1 X144.756 Y39.688 F1000
G1 X144.340 Y39.688 F1000
G1 X144.132 Y39.896 F1000
G1 X143.716 Y39.896 F1000
G1 X143.508 Y40.104 F1000
G1 X143.092 Y40.104 F1000
G1 X142.884 Y40.312 F1000
G1 X142.468 Y40.312 F1000
G1 X142.260 Y40.520 F1000
G1 X141.844 Y40.520 F1000
G1 X141.636 Y40.728 F1000
G1 X141.220 Y40.728 F1000
G1 X141.012 Y40.936 F1000
G1 X140.596 Y40.936 F1000
G1 X140.388 Y41.144 F1000
G1 X139.972 Y41.144 F1000
G1 X139.972 Y41.352 F1000
G1 X139.764 Y41.560 F1000
G1 X139.556 Y41.560 F1000
G1 X139.348 Y41.352 F1000
G0 Z3.0 ; Pen up

G0 X139.972 Y41.352 F3000 ; Travel to line 211
G0 Z0.0 ; Pen down
G1 X140.180 Y41.560 F1000
G1 X140.388 Y41.352 F1000
G1 X140.180 Y41.144 F1000
G0 Z3.0 ; Pen up

G0 X140.596 Y41.144 F3000 ; Travel to line 212
G0 Z0.0 ; Pen down
G1 X140.804 Y41.352 F1000
G1 X141.012 Y41.144 F1000
G1 X140.804 Y40.936 F1000
G0 Z3.0 ; Pen up

G0 X141.220 Y40.936 F3000 ; Travel to line 213
G0 Z0.0 ; Pen down
G1 X141.428 Y41.144 F1000
G1 X141.636 Y40.936 F1000
G1 X141.428 Y40.728 F1000
G0 Z3.0 ; Pen up

G0 X141.844 Y40.728 F3000 ; Travel to line 214
G0 Z0.0 ; Pen down
G1 X142.052 Y40.936 F1000
G1 X142.260 Y40.728 F1000
G1 X142.052 Y40.520 F1000
G0 Z3.0 ; Pen up

G0 X142.468 Y40.520 F3000 ; Travel to line 215
G0 Z0.0 ; Pen down
G1 X142.676 Y40.728 F1000
G1 X142.884 Y40.520 F1000
G1 X142.676 Y40.312 F1000
G0 Z3.0 ; Pen up

G0 X143.092 Y40.312 F3000 ; Travel to line 216
G0 Z0.0 ; Pen down
G1 X143.300 Y40.520 F1000
G1 X143.508 Y40.312 F1000
G1 X143.300 Y40.104 F1000
G0 Z3.0 ; Pen up

G0 X143.716 Y40.104 F3000 ; Travel to line 217
G0 Z0.0 ; Pen down
G1 X143.924 Y40.312 F1000
G1 X144.132 Y40.104 F1000
G1 X143.924 Y39.896 F1000
G0 Z3.0 ; Pen up

G0 X144.340 Y39.896 F3000 ; Travel to line 218
G0 Z0.0 ; Pen down
G1 X144.548 Y40.104 F1000
G1 X144.756 Y39.896 F1000
G1 X144.548 Y39.688 F1000
G0 Z3.0 ; Pen up

G0 X144.964 Y39.688 F3000 ; Travel to line 219
G0 Z0.0 ; Pen down
G1 X145.172 Y39.896 F1000
G1 X145.380 Y39.688 F1000
G1 X145.172 Y39.480 F1000
G0 Z3.0 ; Pen up

G0 X145.588 Y39.480 F3000 ; Travel to line 220
G0 Z0.0 ; Pen down
G1 X145.796 Y39.688 F1000
G1 X146.004 Y39.480 F1000
G1 X145.796 Y39.272 F1000
G0 Z3.0 ; Pen up

G0 X146.212 Y39.272 F3000 ; Travel to line 221
G0 Z0.0 ; Pen down
G1 X146.420 Y39.480 F1000
G1 X146.628 Y39.272 F1000
G1 X146.420 Y39.064 F1000
G0 Z3.0 ; Pen up

G0 X146.836 Y39.064 F3000 ; Travel to line 222
G0 Z0.0 ; Pen down
G1 X147.044 Y39.272 F1000
G1 X147.252 Y39.064 F1000
G1 X147.044 Y38.856 F1000
G0 Z3.0 ; Pen up

G0 X147.460 Y38.856 F3000 ; Travel to line 223
G0 Z0.0 ; Pen down
G1 X147.668 Y39.064 F1000
G1 X147.876 Y38.856 F1000
G1 X147.668 Y38.648 F1000
G0 Z3.0 ; Pen up

G0 X148.084 Y38.648 F3000 ; Travel to line 224
G0 Z0.0 ; Pen down
G1 X148.292 Y38.856 F1000
G1 X148.500 Y38.648 F1000
G1 X148.292 Y38.440 F1000
G0 Z3.0 ; Pen up

G0 X148.084 Y38.440 F3000 ; Travel to line 225
G0 Z0.0 ; Pen down
G1 X149.124 Y38.440 F1000
G1 X149.332 Y38.232 F1000
G1 X149.332 Y38.024 F1000
G1 X149.748 Y38.024 F1000
G1 X149.956 Y37.816 F1000
G1 X150.372 Y37.816 F1000
G1 X150.580 Y37.608 F1000
G1 X150.996 Y37.608 F1000
G1 X151.204 Y37.400 F1000
G1 X151.620 Y37.400 F1000
G1 X151.828 Y37.192 F1000
G1 X152.244 Y37.192 F1000
G1 X152.452 Y36.984 F1000
G1 X152.868 Y36.984 F1000
G1 X153.076 Y36.776 F1000
G1 X153.492 Y36.776 F1000
G1 X153.700 Y36.568 F1000
G1 X154.116 Y36.568 F1000
G1 X154.324 Y36.360 F1000
G1 X154.116 Y36.152 F1000
G1 X153.492 Y36.152 F1000
G1 X153.284 Y36.360 F1000
G1 X152.452 Y36.360 F1000
G1 X152.244 Y36.568 F1000
G1 X151.620 Y36.568 F1000
G1 X151.412 Y36.776 F1000
G1 X150.580 Y36.776 F1000
G1 X150.372 Y36.984 F1000
G1 X149.540 Y36.984 F1000
G1 X149.332 Y37.192 F1000
G1 X148.500 Y37.192 F1000
G1 X148.292 Y37.400 F1000
G1 X147.876 Y37.400 F1000
G1 X147.668 Y37.608 F1000
G1 X147.668 Y38.024 F1000
G0 Z3.0 ; Pen up

G0 X147.460 Y37.192 F3000 ; Travel to line 226
G0 Z0.0 ; Pen down
G1 X147.668 Y37.400 F1000
G1 X148.084 Y37.400 F1000
G1 X148.292 Y37.192 F1000
G1 X149.124 Y37.192 F1000
G1 X149.332 Y36.984 F1000
G1 X150.164 Y36.984 F1000
G1 X150.372 Y36.776 F1000
G1 X151.204 Y36.776 F1000
G1 X151.412 Y36.568 F1000
G1 X152.036 Y36.568 F1000
G1 X152.244 Y36.360 F1000
G1 X153.076 Y36.360 F1000
G1 X153.284 Y36.152 F1000
G1 X154.116 Y36.152 F1000
G1 X154.324 Y35.944 F1000
G1 X154.948 Y35.944 F1000
G1 X155.156 Y36.152 F1000
G1 X155.364 Y35.944 F1000
G1 X155.988 Y35.944 F1000
G1 X156.196 Y35.736 F1000
G1 X156.612 Y35.736 F1000
G1 X156.820 Y35.528 F1000
G1 X157.236 Y35.528 F1000
G1 X157.444 Y35.320 F1000
G1 X157.860 Y35.320 F1000
G1 X158.068 Y35.112 F1000
G1 X157.860 Y34.904 F1000
G1 X157.236 Y34.904 F1000
G1 X157.028 Y34.696 F1000
G1 X155.364 Y34.696 F1000
G1 X155.156 Y34.488 F1000
G1 X153.284 Y34.488 F1000
G1 X153.076 Y34.280 F1000
G1 X151.204 Y34.280 F1000
G1 X150.996 Y34.072 F1000
G1 X149.332 Y34.072 F1000
G1 X149.124 Y33.864 F1000
G1 X147.252 Y33.864 F1000
G1 X147.044 Y33.656 F1000
G1 X146.420 Y33.656 F1000
G1 X146.212 Y33.864 F1000
G1 X146.420 Y34.072 F1000
G1 X146.420 Y34.488 F1000
G1 X146.628 Y34.696 F1000
G1 X146.628 Y35.112 F1000
G1 X146.836 Y35.320 F1000
G1 X146.836 Y35.528 F1000
G1 X147.044 Y35.736 F1000
G1 X147.044 Y36.152 F1000
G1 X147.252 Y36.360 F1000
G1 X147.252 Y36.776 F1000
G1 X147.460 Y36.984 F1000
G0 Z3.0 ; Pen up

G0 X145.588 Y37.816 F3000 ; Travel to line 227
G0 Z0.0 ; Pen down
G1 X146.420 Y37.816 F1000
G1 X146.628 Y37.608 F1000
G1 X147.252 Y37.608 F1000
G1 X147.460 Y37.400 F1000
G1 X147.668 Y37.608 F1000
G1 X147.668 Y38.024 F1000
G1 X147.460 Y38.232 F1000
G1 X145.588 Y38.232 F1000
G1 X145.380 Y38.024 F1000
G0 Z3.0 ; Pen up

G0 X146.212 Y39.480 F3000 ; Travel to line 228
G0 Z0.0 ; Pen down
G1 X146.420 Y39.480 F1000
G1 X146.628 Y39.688 F1000
G1 X146.420 Y39.896 F1000
G1 X146.212 Y39.896 F1000
G1 X146.004 Y39.688 F1000
G0 Z3.0 ; Pen up

G0 X146.628 Y39.480 F3000 ; Travel to line 229
G0 Z0.0 ; Pen down
G1 X146.836 Y39.688 F1000
G1 X147.044 Y39.480 F1000
G1 X146.836 Y39.272 F1000
G0 Z3.0 ; Pen up

G0 X148.708 Y44.264 F3000 ; Travel to line 230
G0 Z0.0 ; Pen down
G1 X148.500 Y44.056 F1000
G1 X148.084 Y44.056 F1000
G1 X147.876 Y43.848 F1000
G1 X147.460 Y43.848 F1000
G1 X147.252 Y43.640 F1000
G1 X146.836 Y43.640 F1000
G1 X146.628 Y43.432 F1000
G1 X146.212 Y43.432 F1000
G1 X146.004 Y43.224 F1000
G1 X145.380 Y43.224 F1000
G1 X145.172 Y43.016 F1000
G1 X144.756 Y43.016 F1000
G1 X144.548 Y42.808 F1000
G1 X144.132 Y42.808 F1000
G1 X143.924 Y42.600 F1000
G1 X143.508 Y42.600 F1000
G1 X143.300 Y42.392 F1000
G1 X143.092 Y42.392 F1000
G1 X142.884 Y42.184 F1000
G1 X143.300 Y41.768 F1000
G1 X143.508 Y41.768 F1000
G1 X143.716 Y41.560 F1000
G1 X143.924 Y41.560 F1000
G1 X144.340 Y41.144 F1000
G1 X144.548 Y41.144 F1000
G1 X144.756 Y40.936 F1000
G1 X144.964 Y40.936 F1000
G1 X145.380 Y40.520 F1000
G1 X145.588 Y40.520 F1000
G1 X145.796 Y40.312 F1000
G1 X146.004 Y40.312 F1000
G1 X146.420 Y39.896 F1000
G1 X146.628 Y39.896 F1000
G1 X146.836 Y39.688 F1000
G1 X147.044 Y39.688 F1000
G1 X147.044 Y39.480 F1000
G1 X147.460 Y39.064 F1000
G1 X147.876 Y39.064 F1000
G1 X148.084 Y38.856 F1000
G1 X148.292 Y39.064 F1000
G1 X148.292 Y39.480 F1000
G1 X148.500 Y39.688 F1000
G1 X148.500 Y40.104 F1000
G1 X148.708 Y40.312 F1000
G1 X148.708 Y40.728 F1000
G1 X148.916 Y40.936 F1000
G1 X148.916 Y41.144 F1000
G1 X149.124 Y41.352 F1000
G1 X149.124 Y41.768 F1000
G1 X149.332 Y41.976 F1000
G1 X149.332 Y42.392 F1000
G1 X149.540 Y42.600 F1000
G1 X149.540 Y42.808 F1000
G1 X149.748 Y43.016 F1000
G1 X149.748 Y43.432 F1000
G1 X149.956 Y43.640 F1000
G1 X149.956 Y44.264 F1000
G1 X149.748 Y44.472 F1000
G1 X149.332 Y44.472 F1000
G1 X149.124 Y44.264 F1000
G0 Z3.0 ; Pen up

G0 X150.580 Y45.720 F3000 ; Travel to line 231
G0 Z0.0 ; Pen down
G1 X150.580 Y45.304 F1000
G1 X150.372 Y45.096 F1000
G1 X150.580 Y44.888 F1000
G1 X150.996 Y44.888 F1000
G1 X151.204 Y45.096 F1000
G1 X151.620 Y45.096 F1000
G1 X151.828 Y45.304 F1000
G1 X152.244 Y45.304 F1000
G1 X152.452 Y45.512 F1000
G1 X153.076 Y45.512 F1000
G1 X153.284 Y45.720 F1000
G1 X153.076 Y45.928 F1000
G1 X152.244 Y45.928 F1000
G1 X152.036 Y46.136 F1000
G1 X150.996 Y46.136 F1000
G0 Z3.0 ; Pen up

G0 X153.284 Y45.720 F3000 ; Travel to line 232
G0 Z0.0 ; Pen down
G1 X153.076 Y45.512 F1000
G1 X152.660 Y45.512 F1000
G1 X152.452 Y45.304 F1000
G1 X152.036 Y45.304 F1000
G1 X151.828 Y45.096 F1000
G1 X151.412 Y45.096 F1000
G1 X151.204 Y44.888 F1000
G1 X150.580 Y44.888 F1000
G1 X149.956 Y44.264 F1000
G1 X149.956 Y43.640 F1000
G1 X149.748 Y43.432 F1000
G1 X149.748 Y43.016 F1000
G1 X149.540 Y42.808 F1000
G1 X149.540 Y42.600 F1000
G1 X149.332 Y42.392 F1000
G1 X149.332 Y41.976 F1000
G1 X149.124 Y41.768 F1000
G1 X149.124 Y41.352 F1000
G1 X148.916 Y41.144 F1000
G1 X148.916 Y40.936 F1000
G1 X148.708 Y40.728 F1000
G1 X148.708 Y40.312 F1000
G1 X148.500 Y40.104 F1000
G1 X148.500 Y39.688 F1000
G1 X148.292 Y39.480 F1000
G1 X148.292 Y39.064 F1000
G1 X148.500 Y38.856 F1000
G1 X148.500 Y38.648 F1000
G1 X148.708 Y38.440 F1000
G1 X149.956 Y38.440 F1000
G1 X150.164 Y38.648 F1000
G1 X150.788 Y38.648 F1000
G1 X150.996 Y38.856 F1000
G1 X151.828 Y38.856 F1000
G1 X152.036 Y39.064 F1000
G1 X152.868 Y39.064 F1000
G1 X153.076 Y39.272 F1000
G1 X153.700 Y39.272 F1000
G1 X153.908 Y39.480 F1000
G1 X154.740 Y39.480 F1000
G1 X154.948 Y39.688 F1000
G1 X155.572 Y39.688 F1000
G1 X155.780 Y39.896 F1000
G1 X156.612 Y39.896 F1000
G1 X157.028 Y40.312 F1000
G1 X157.028 Y40.520 F1000
G1 X156.820 Y40.728 F1000
G1 X156.820 Y41.144 F1000
G1 X156.612 Y41.352 F1000
G1 X156.612 Y41.560 F1000
G1 X156.404 Y41.768 F1000
G1 X156.404 Y42.184 F1000
G1 X156.196 Y42.392 F1000
G1 X156.196 Y42.600 F1000
G1 X155.988 Y42.808 F1000
G1 X155.988 Y43.224 F1000
G1 X155.780 Y43.432 F1000
G1 X155.780 Y43.848 F1000
G1 X155.572 Y44.056 F1000
G1 X155.572 Y44.264 F1000
G1 X155.364 Y44.472 F1000
G1 X155.364 Y44.888 F1000
G1 X155.156 Y45.096 F1000
G1 X155.156 Y45.304 F1000
G1 X154.948 Y45.512 F1000
G1 X154.948 Y45.720 F1000
G1 X154.740 Y45.928 F1000
G1 X154.116 Y45.928 F1000
G1 X153.908 Y45.720 F1000
G0 Z3.0 ; Pen up

G0 X155.156 Y45.304 F3000 ; Travel to line 233
G0 Z0.0 ; Pen down
G1 X155.364 Y45.512 F1000
G1 X155.988 Y45.512 F1000
G1 X156.196 Y45.304 F1000
G1 X157.236 Y45.304 F1000
G1 X157.444 Y45.096 F1000
G1 X158.484 Y45.096 F1000
G1 X158.692 Y44.888 F1000
G1 X159.316 Y44.888 F1000
G1 X159.524 Y44.680 F1000
G1 X159.524 Y41.560 F1000
G1 X159.316 Y41.352 F1000
G1 X159.316 Y40.728 F1000
G1 X159.108 Y40.520 F1000
G1 X158.692 Y40.520 F1000
G1 X158.484 Y40.312 F1000
G1 X157.860 Y40.312 F1000
G1 X157.652 Y40.104 F1000
G1 X157.236 Y40.104 F1000
G1 X157.028 Y40.312 F1000
G1 X157.028 Y40.520 F1000
G1 X156.820 Y40.728 F1000
G1 X156.820 Y41.144 F1000
