; Blueprint to G-code
; Input: test_underscores.png
; Generated with blueprint2gcode.py

G21 ; Set units to millimeters
G90 ; Absolute positioning
G0 Z3.0 ; Pen up
G0 X0 Y0 ; Move to origin

G0 X25.780 Y29.427 F3000 ; Travel to line 1
G0 Z0.0 ; Pen down
G1 X25.087 Y30.813 F1000
G0 Z3.0 ; Pen up

G0 X25.780 Y31.507 F3000 ; Travel to line 2
G0 Z0.0 ; Pen down
G1 X27.860 Y28.733 F1000
G0 Z3.0 ; Pen up

G0 X29.247 Y28.733 F3000 ; Travel to line 3
G0 Z0.0 ; Pen down
G1 X27.860 Y30.813 F1000
G1 X27.860 Y30.813 F1000
G1 X29.940 Y28.733 F1000
G0 Z3.0 ; Pen up

G0 X30.633 Y28.733 F3000 ; Travel to line 4
G0 Z0.0 ; Pen down
G1 X28.553 Y30.813 F1000
G0 Z3.0 ; Pen up

G0 X27.860 Y30.813 F3000 ; Travel to line 5
G0 Z0.0 ; Pen down
G1 X29.247 Y28.733 F1000
G1 X29.247 Y28.733 F1000
G1 X27.167 Y30.813 F1000
G1 X27.167 Y30.813 F1000
G1 X28.553 Y28.733 F1000
G1 X28.553 Y28.733 F1000
G1 X27.167 Y30.813 F1000
G0 Z3.0 ; Pen up

G0 X29.940 Y30.813 F3000 ; Travel to line 6
G0 Z0.0 ; Pen down
G1 X31.327 Y28.733 F1000
G0 Z3.0 ; Pen up

G0 X32.713 Y29.427 F3000 ; Travel to line 7
G0 Z0.0 ; Pen down
G1 X31.327 Y31.507 F1000
G0 Z3.0 ; Pen up

G0 X32.713 Y32.200 F3000 ; Travel to line 8
G0 Z0.0 ; Pen down
G1 X34.100 Y30.120 F1000
G0 Z3.0 ; Pen up

G0 X35.487 Y30.813 F3000 ; Travel to line 9
G0 Z0.0 ; Pen down
G1 X33.407 Y33.587 F1000
G1 X33.407 Y33.587 F1000
G1 X35.487 Y31.507 F1000
G1 X35.487 Y31.507 F1000
G1 X33.407 Y33.587 F1000
G0 Z3.0 ; Pen up

G0 X33.407 Y34.280 F3000 ; Travel to line 10
G0 Z0.0 ; Pen down
G1 X35.487 Y32.200 F1000
G1 X35.487 Y32.200 F1000
G1 X33.407 Y34.280 F1000
G0 Z3.0 ; Pen up

G0 X33.407 Y32.893 F3000 ; Travel to line 11
G0 Z0.0 ; Pen down
G1 X34.793 Y30.813 F1000
G1 X34.793 Y30.813 F1000
G1 X33.407 Y32.893 F1000
G0 Z3.0 ; Pen up

G0 X35.487 Y33.587 F3000 ; Travel to line 12
G0 Z0.0 ; Pen down
G1 X29.940 Y39.133 F1000
G0 Z3.0 ; Pen up

G0 X31.327 Y39.133 F3000 ; Travel to line 13
G0 Z0.0 ; Pen down
G1 X35.487 Y34.973 F1000
G1 X35.487 Y34.973 F1000
G1 X30.633 Y39.133 F1000
G1 X30.633 Y39.133 F1000
G1 X35.487 Y34.973 F1000
G0 Z3.0 ; Pen up

G0 X35.487 Y34.280 F3000 ; Travel to line 14
G0 Z0.0 ; Pen down
G1 X36.180 Y34.280 F1000
G1 X36.180 Y34.280 F1000
G1 X35.487 Y34.280 F1000
G0 Z3.0 ; Pen up

G0 X30.633 Y37.053 F3000 ; Travel to line 15
G0 Z0.0 ; Pen down
G1 X28.553 Y39.133 F1000
G0 Z3.0 ; Pen up

G0 X27.860 Y39.133 F3000 ; Travel to line 16
G0 Z0.0 ; Pen down
G1 X29.940 Y37.053 F1000
G1 X29.940 Y37.053 F1000
G1 X27.860 Y39.133 F1000
G1 X27.860 Y39.133 F1000
G1 X29.940 Y37.053 F1000
G0 Z3.0 ; Pen up

G0 X28.553 Y37.053 F3000 ; Travel to line 17
G0 Z0.0 ; Pen down
G1 X25.780 Y41.213 F1000
G1 X25.780 Y41.213 F1000
G1 X29.247 Y37.053 F1000
G1 X29.247 Y37.053 F1000
G1 X25.780 Y41.907 F1000
G1 X25.780 Y41.907 F1000
G1 X27.860 Y39.827 F1000
G1 X27.860 Y39.827 F1000
G1 X25.780 Y41.907 F1000
G0 Z3.0 ; Pen up

G0 X25.780 Y43.987 F3000 ; Travel to line 18
G0 Z0.0 ; Pen down
G1 X27.860 Y41.907 F1000
G0 Z3.0 ; Pen up

G0 X27.860 Y42.600 F3000 ; Travel to line 19
G0 Z0.0 ; Pen down
G1 X25.780 Y44.680 F1000
G1 X25.780 Y44.680 F1000
G1 X27.860 Y42.600 F1000
G1 X27.860 Y42.600 F1000
G1 X25.780 Y44.680 F1000
G0 Z3.0 ; Pen up

G0 X26.473 Y44.680 F3000 ; Travel to line 20
G0 Z0.0 ; Pen down
G1 X28.553 Y42.600 F1000
G1 X28.553 Y42.600 F1000
G1 X26.473 Y44.680 F1000
G0 Z3.0 ; Pen up

G0 X27.860 Y44.680 F3000 ; Travel to line 21
G0 Z0.0 ; Pen down
G1 X29.940 Y42.600 F1000
G0 Z3.0 ; Pen up

G0 X29.940 Y44.680 F3000 ; Travel to line 22
G0 Z0.0 ; Pen down
G1 X32.020 Y42.600 F1000
G0 Z3.0 ; Pen up

G0 X32.020 Y44.680 F3000 ; Travel to line 23
G0 Z0.0 ; Pen down
G1 X34.100 Y42.600 F1000
G0 Z3.0 ; Pen up

G0 X34.793 Y43.987 F3000 ; Travel to line 24
G0 Z0.0 ; Pen down
G1 X34.100 Y44.680 F1000
G0 Z3.0 ; Pen up

G0 X32.020 Y39.133 F3000 ; Travel to line 25
G0 Z0.0 ; Pen down
G1 X35.487 Y35.667 F1000
G1 X35.487 Y35.667 F1000
G1 X32.020 Y39.133 F1000
G0 Z3.0 ; Pen up

G0 X27.860 Y39.827 F3000 ; Travel to line 26
G0 Z0.0 ; Pen down
G1 X25.780 Y42.600 F1000
G1 X25.780 Y42.600 F1000
G1 X27.860 Y40.520 F1000
G0 Z3.0 ; Pen up

G0 X25.780 Y39.827 F3000 ; Travel to line 27
G0 Z0.0 ; Pen down
G1 X27.860 Y37.053 F1000
G0 Z3.0 ; Pen up

G0 X26.473 Y36.360 F3000 ; Travel to line 28
G0 Z0.0 ; Pen down
G1 X25.780 Y38.440 F1000
G0 Z3.0 ; Pen up

G0 X32.713 Y63.400 F3000 ; Travel to line 29
G0 Z0.0 ; Pen down
G1 X32.020 Y64.787 F1000
G0 Z3.0 ; Pen up

G0 X32.020 Y66.173 F3000 ; Travel to line 30
G0 Z0.0 ; Pen down
G1 X33.407 Y63.400 F1000
G0 Z3.0 ; Pen up

G0 X34.100 Y65.480 F3000 ; Travel to line 31
G0 Z0.0 ; Pen down
G1 X31.327 Y68.253 F1000
G0 Z3.0 ; Pen up

G0 X32.020 Y68.947 F3000 ; Travel to line 32
G0 Z0.0 ; Pen down
G1 X34.100 Y66.867 F1000
G1 X34.100 Y66.867 F1000
G1 X32.020 Y68.947 F1000
G0 Z3.0 ; Pen up

G0 X32.713 Y69.640 F3000 ; Travel to line 33
G0 Z0.0 ; Pen down
G1 X34.793 Y66.867 F1000
G1 X34.793 Y66.867 F1000
G1 X32.713 Y69.640 F1000
G1 X32.713 Y69.640 F1000
G1 X34.793 Y66.867 F1000
G0 Z3.0 ; Pen up

G0 X34.793 Y68.947 F3000 ; Travel to line 34
G0 Z0.0 ; Pen down
G1 X36.873 Y67.560 F1000
G1 X36.873 Y67.560 F1000
G1 X34.793 Y68.947 F1000
G0 Z3.0 ; Pen up

G0 X35.487 Y68.947 F3000 ; Travel to line 35
G0 Z0.0 ; Pen down
G1 X36.873 Y68.253 F1000
G1 X36.873 Y68.253 F1000
G1 X35.487 Y68.947 F1000
G1 X35.487 Y68.947 F1000
G1 X36.873 Y68.253 F1000
G0 Z3.0 ; Pen up

G0 X34.100 Y71.027 F3000 ; Travel to line 36
G0 Z0.0 ; Pen down
G1 X32.713 Y72.413 F1000
G1 X32.713 Y72.413 F1000
G1 X34.100 Y71.027 F1000
G1 X34.100 Y71.027 F1000
G1 X32.713 Y72.413 F1000
G0 Z3.0 ; Pen up

G0 X32.713 Y71.720 F3000 ; Travel to line 37
G0 Z0.0 ; Pen down
G1 X34.100 Y70.333 F1000
G1 X34.100 Y70.333 F1000
G1 X32.713 Y71.720 F1000
G0 Z3.0 ; Pen up

G0 X32.713 Y70.333 F3000 ; Travel to line 38
G0 Z0.0 ; Pen down
G1 X35.487 Y66.867 F1000
G1 X35.487 Y66.867 F1000
G1 X32.713 Y70.333 F1000
G0 Z3.0 ; Pen up

G0 X34.100 Y73.107 F3000 ; Travel to line 39
G0 Z0.0 ; Pen down
G1 X32.713 Y74.493 F1000
G0 Z3.0 ; Pen up

G0 X32.713 Y73.800 F3000 ; Travel to line 40
G0 Z0.0 ; Pen down
G1 X34.100 Y72.413 F1000
G1 X34.100 Y72.413 F1000
G1 X32.713 Y73.800 F1000
G0 Z3.0 ; Pen up

G0 X34.100 Y75.880 F3000 ; Travel to line 41
G0 Z0.0 ; Pen down
G1 X31.327 Y78.653 F1000
G0 Z3.0 ; Pen up

G0 X32.020 Y79.347 F3000 ; Travel to line 42
G0 Z0.0 ; Pen down
G1 X34.100 Y77.267 F1000
G0 Z3.0 ; Pen up

G0 X30.633 Y76.573 F3000 ; Travel to line 43
G0 Z0.0 ; Pen down
G1 X29.940 Y77.267 F1000
G0 Z3.0 ; Pen up

G0 X29.247 Y76.573 F3000 ; Travel to line 44
G0 Z0.0 ; Pen down
G1 X29.940 Y75.880 F1000
G1 X29.940 Y75.880 F1000
G1 X29.247 Y76.573 F1000
G1 X29.247 Y76.573 F1000
G1 X29.940 Y75.880 F1000
G1 X29.940 Y75.880 F1000
G1 X29.247 Y76.573 F1000
G1 X29.247 Y76.573 F1000
G1 X29.940 Y75.880 F1000
G0 Z3.0 ; Pen up

G0 X28.553 Y75.187 F3000 ; Travel to line 45
G0 Z0.0 ; Pen down
G1 X29.247 Y74.493 F1000
G1 X29.247 Y74.493 F1000
G1 X28.553 Y75.187 F1000
G1 X28.553 Y75.187 F1000
G1 X29.247 Y74.493 F1000
G1 X29.247 Y74.493 F1000
G1 X28.553 Y75.187 F1000
G0 Z3.0 ; Pen up

G0 X27.860 Y74.493 F3000 ; Travel to line 46
G0 Z0.0 ; Pen down
G1 X28.553 Y73.800 F1000
G1 X28.553 Y73.800 F1000
G1 X27.860 Y74.493 F1000
G1 X27.860 Y74.493 F1000
G1 X28.553 Y73.800 F1000
G0 Z3.0 ; Pen up

G0 X27.860 Y73.800 F3000 ; Travel to line 47
G0 Z0.0 ; Pen down
G1 X28.553 Y73.107 F1000
G1 X28.553 Y73.107 F1000
G1 X27.860 Y73.800 F1000
G0 Z3.0 ; Pen up

G0 X27.167 Y73.107 F3000 ; Travel to line 48
G0 Z0.0 ; Pen down
G1 X27.860 Y72.413 F1000
G0 Z3.0 ; Pen up

G0 X27.167 Y71.720 F3000 ; Travel to line 49
G0 Z0.0 ; Pen down
G1 X26.473 Y72.413 F1000
G0 Z3.0 ; Pen up

G0 X25.780 Y71.027 F3000 ; Travel to line 50
G0 Z0.0 ; Pen down
G1 X26.473 Y70.333 F1000
G0 Z3.0 ; Pen up

G0 X25.780 Y69.640 F3000 ; Travel to line 51
G0 Z0.0 ; Pen down
G1 X25.087 Y70.333 F1000
G0 Z3.0 ; Pen up

G0 X25.087 Y69.640 F3000 ; Travel to line 52
G0 Z0.0 ; Pen down
G1 X27.167 Y66.867 F1000
G1 X27.167 Y66.867 F1000
G1 X25.087 Y69.640 F1000
G1 X25.087 Y69.640 F1000
G1 X27.167 Y66.867 F1000
G0 Z3.0 ; Pen up

G0 X27.860 Y66.867 F3000 ; Travel to line 53
G0 Z0.0 ; Pen down
G1 X26.473 Y68.253 F1000
G0 Z3.0 ; Pen up

G0 X26.473 Y66.867 F3000 ; Travel to line 54
G0 Z0.0 ; Pen down
G1 X25.087 Y68.947 F1000
G1 X25.087 Y68.947 F1000
G1 X25.780 Y66.867 F1000
G1 X25.780 Y66.867 F1000
G1 X25.087 Y68.947 F1000
G0 Z3.0 ; Pen up

G0 X25.087 Y67.560 F3000 ; Travel to line 55
G0 Z0.0 ; Pen down
G1 X25.087 Y66.867 F1000
G0 Z3.0 ; Pen up

G0 X28.553 Y68.253 F3000 ; Travel to line 56
G0 Z0.0 ; Pen down
G1 X29.940 Y66.867 F1000
G0 Z3.0 ; Pen up

G0 X30.633 Y66.867 F3000 ; Travel to line 57
G0 Z0.0 ; Pen down
G1 X29.247 Y68.253 F1000
G0 Z3.0 ; Pen up

G0 X51.433 Y66.867 F3000 ; Travel to line 58
G0 Z0.0 ; Pen down
G1 X120.767 Y66.867 F1000
G0 Z3.0 ; Pen up

G0 X120.767 Y66.173 F3000 ; Travel to line 59
G0 Z0.0 ; Pen down
G1 X51.433 Y66.173 F1000
G0 Z3.0 ; Pen up

G0 X51.433 Y65.480 F3000 ; Travel to line 60
G0 Z0.0 ; Pen down
G1 X120.767 Y65.480 F1000
G0 Z3.0 ; Pen up

G0 X120.767 Y64.787 F3000 ; Travel to line 61
G0 Z0.0 ; Pen down
G1 X51.433 Y64.787 F1000
G0 Z3.0 ; Pen up

G0 X51.433 Y32.200 F3000 ; Travel to line 62
G0 Z0.0 ; Pen down
G1 X134.633 Y32.200 F1000
G0 Z3.0 ; Pen up

G0 X134.633 Y31.507 F3000 ; Travel to line 63
G0 Z0.0 ; Pen down
G1 X51.433 Y31.507 F1000
G0 Z3.0 ; Pen up

G0 X51.433 Y30.813 F3000 ; Travel to line 64
G0 Z0.0 ; Pen down
G1 X134.633 Y30.813 F1000
G0 Z3.0 ; Pen up

G0 X134.633 Y30.120 F3000 ; Travel to line 65
G0 Z0.0 ; Pen down
G1 X51.433 Y30.120 F1000
G0 Z3.0 ; Pen up

G0 X51.433 Y99.453 F3000 ; Travel to line 66
G0 Z0.0 ; Pen down
G1 X106.900 Y99.453 F1000
G0 Z3.0 ; Pen up

G0 X106.900 Y100.147 F3000 ; Travel to line 67
G0 Z0.0 ; Pen down
G1 X51.433 Y100.147 F1000
G0 Z3.0 ; Pen up

G0 X51.433 Y100.840 F3000 ; Travel to line 68
G0 Z0.0 ; Pen down
G1 X106.900 Y100.840 F1000
G0 Z3.0 ; Pen up

G0 X106.900 Y101.533 F3000 ; Travel to line 69
G0 Z0.0 ; Pen down
G1 X51.433 Y101.533 F1000
G0 Z3.0 ; Pen up

G0 X36.180 Y102.920 F3000 ; Travel to line 70
G0 Z0.0 ; Pen down
G1 X30.633 Y107.773 F1000
G0 Z3.0 ; Pen up

G0 X32.020 Y107.773 F3000 ; Travel to line 71
G0 Z0.0 ; Pen down
G1 X36.180 Y103.613 F1000
G1 X36.180 Y103.613 F1000
G1 X31.327 Y107.773 F1000
G1 X31.327 Y107.773 F1000
G1 X36.180 Y103.613 F1000
G0 Z3.0 ; Pen up

G0 X34.100 Y102.920 F3000 ; Travel to line 72
G0 Z0.0 ; Pen down
G1 X35.487 Y101.533 F1000
G1 X35.487 Y101.533 F1000
G1 X34.100 Y102.920 F1000
G0 Z3.0 ; Pen up

G0 X33.407 Y102.227 F3000 ; Travel to line 73
G0 Z0.0 ; Pen down
G1 X35.487 Y100.840 F1000
G1 X35.487 Y100.840 F1000
G1 X33.407 Y102.227 F1000
G1 X33.407 Y102.227 F1000
G1 X34.793 Y100.147 F1000
G1 X34.793 Y100.147 F1000
G1 X33.407 Y102.227 F1000
G1 X33.407 Y102.227 F1000
G1 X35.487 Y100.147 F1000
G0 Z3.0 ; Pen up

G0 X34.100 Y99.453 F3000 ; Travel to line 74
G0 Z0.0 ; Pen down
G1 X32.713 Y100.840 F1000
G0 Z3.0 ; Pen up

G0 X31.327 Y100.147 F3000 ; Travel to line 75
G0 Z0.0 ; Pen down
G1 X32.713 Y98.760 F1000
G0 Z3.0 ; Pen up

G0 X31.327 Y98.067 F3000 ; Travel to line 76
G0 Z0.0 ; Pen down
G1 X29.940 Y100.147 F1000
G0 Z3.0 ; Pen up

G0 X28.553 Y100.147 F3000 ; Travel to line 77
G0 Z0.0 ; Pen down
G1 X30.633 Y98.067 F1000
G0 Z3.0 ; Pen up

G0 X29.940 Y98.067 F3000 ; Travel to line 78
G0 Z0.0 ; Pen down
G1 X27.860 Y100.147 F1000
G1 X27.860 Y100.147 F1000
G1 X29.247 Y98.067 F1000
G0 Z3.0 ; Pen up

G0 X27.860 Y98.067 F3000 ; Travel to line 79
G0 Z0.0 ; Pen down
G1 X25.780 Y100.840 F1000
G0 Z3.0 ; Pen up

G0 X25.087 Y100.147 F3000 ; Travel to line 80
G0 Z0.0 ; Pen down
G1 X25.780 Y98.760 F1000
G0 Z3.0 ; Pen up

G0 X27.167 Y100.147 F3000 ; Travel to line 81
G0 Z0.0 ; Pen down
G1 X28.553 Y98.067 F1000
G1 X28.553 Y98.067 F1000
G1 X27.167 Y100.147 F1000
G1 X27.167 Y100.147 F1000
G1 X29.247 Y98.067 F1000
G1 X29.247 Y98.067 F1000
G1 X27.860 Y100.147 F1000
G0 Z3.0 ; Pen up

G0 X27.860 Y105.693 F3000 ; Travel to line 82
G0 Z0.0 ; Pen down
G1 X27.860 Y106.387 F1000
G0 Z3.0 ; Pen up

G0 X27.860 Y107.773 F3000 ; Travel to line 83
G0 Z0.0 ; Pen down
G1 X29.940 Y105.693 F1000
G1 X29.940 Y105.693 F1000
G1 X27.860 Y107.773 F1000
G1 X27.860 Y107.773 F1000
G1 X29.247 Y105.693 F1000
G0 Z3.0 ; Pen up

G0 X30.633 Y105.693 F3000 ; Travel to line 84
G0 Z0.0 ; Pen down
G1 X28.553 Y107.773 F1000
G1 X28.553 Y107.773 F1000
G1 X30.633 Y105.693 F1000
G1 X30.633 Y105.693 F1000
G1 X28.553 Y107.773 F1000
G0 Z3.0 ; Pen up

G0 X29.247 Y107.773 F3000 ; Travel to line 85
G0 Z0.0 ; Pen down
G1 X31.327 Y105.693 F1000
G0 Z3.0 ; Pen up

G0 X32.020 Y108.467 F3000 ; Travel to line 86
G0 Z0.0 ; Pen down
G1 X33.407 Y107.080 F1000
G1 X33.407 Y107.080 F1000
G1 X32.020 Y108.467 F1000
G0 Z3.0 ; Pen up

G0 X33.407 Y108.467 F3000 ; Travel to line 87
G0 Z0.0 ; Pen down
G1 X34.100 Y107.773 F1000
G0 Z3.0 ; Pen up

G0 X34.100 Y106.387 F3000 ; Travel to line 88
G0 Z0.0 ; Pen down
G1 X35.487 Y105.000 F1000
G1 X35.487 Y105.000 F1000
G1 X34.100 Y106.387 F1000
G0 Z3.0 ; Pen up

G0 X35.487 Y108.467 F3000 ; Travel to line 89
G0 Z0.0 ; Pen down
G1 X33.407 Y110.547 F1000
G0 Z3.0 ; Pen up

G0 X32.713 Y111.240 F3000 ; Travel to line 90
G0 Z0.0 ; Pen down
G1 X29.940 Y114.013 F1000
G0 Z3.0 ; Pen up

G0 X32.020 Y114.013 F3000 ; Travel to line 91
G0 Z0.0 ; Pen down
G1 X35.487 Y110.547 F1000
G0 Z3.0 ; Pen up

G0 X29.940 Y111.933 F3000 ; Travel to line 92
G0 Z0.0 ; Pen down
G1 X27.860 Y114.013 F1000
G0 Z3.0 ; Pen up

G0 X27.167 Y114.013 F3000 ; Travel to line 93
G0 Z0.0 ; Pen down
G1 X28.553 Y111.933 F1000
G1 X28.553 Y111.933 F1000
G1 X27.167 Y114.013 F1000
G0 Z3.0 ; Pen up

G0 X26.473 Y113.320 F3000 ; Travel to line 94
G0 Z0.0 ; Pen down
G1 X27.860 Y111.933 F1000
G0 Z3.0 ; Pen up

G0 X27.167 Y111.933 F3000 ; Travel to line 95
G0 Z0.0 ; Pen down
G1 X25.780 Y113.320 F1000
G1 X25.780 Y113.320 F1000
G1 X27.167 Y111.933 F1000
G1 X27.167 Y111.933 F1000
G1 X25.780 Y113.320 F1000
G0 Z3.0 ; Pen up

G0 X25.780 Y111.933 F3000 ; Travel to line 96
G0 Z0.0 ; Pen down
G1 X25.780 Y111.240 F1000
G0 Z3.0 ; Pen up

G0 X25.780 Y132.733 F3000 ; Travel to line 97
G0 Z0.0 ; Pen down
G1 X25.087 Y134.120 F1000
G0 Z3.0 ; Pen up

G0 X25.780 Y134.813 F3000 ; Travel to line 98
G0 Z0.0 ; Pen down
G1 X27.167 Y132.733 F1000
G0 Z3.0 ; Pen up

G0 X27.860 Y132.733 F3000 ; Travel to line 99
G0 Z0.0 ; Pen down
G1 X25.780 Y135.507 F1000
G0 Z3.0 ; Pen up

G0 X26.473 Y136.200 F3000 ; Travel to line 100
G0 Z0.0 ; Pen down
G1 X28.553 Y132.733 F1000
G1 X28.553 Y132.733 F1000
G1 X26.473 Y136.200 F1000
G1 X26.473 Y136.200 F1000
G1 X29.247 Y132.733 F1000
G0 Z3.0 ; Pen up

G0 X29.940 Y132.733 F3000 ; Travel to line 101
G0 Z0.0 ; Pen down
G1 X27.167 Y136.893 F1000
G1 X27.167 Y136.893 F1000
G1 X28.553 Y135.507 F1000
G0 Z3.0 ; Pen up

G0 X29.247 Y134.813 F3000 ; Travel to line 102
G0 Z0.0 ; Pen down
G1 X30.633 Y132.733 F1000
G0 Z3.0 ; Pen up

G0 X30.633 Y134.813 F3000 ; Travel to line 103
G0 Z0.0 ; Pen down
G1 X32.713 Y132.733 F1000
G0 Z3.0 ; Pen up

G0 X34.100 Y132.733 F3000 ; Travel to line 104
G0 Z0.0 ; Pen down
G1 X32.020 Y134.813 F1000
G0 Z3.0 ; Pen up

G0 X33.407 Y134.813 F3000 ; Travel to line 105
G0 Z0.0 ; Pen down
G1 X34.793 Y132.733 F1000
G0 Z3.0 ; Pen up

G0 X35.487 Y134.120 F3000 ; Travel to line 106
G0 Z0.0 ; Pen down
G1 X34.100 Y134.813 F1000
G1 X34.100 Y134.813 F1000
G1 X35.487 Y134.120 F1000
G1 X35.487 Y134.120 F1000
G1 X34.100 Y134.813 F1000
G0 Z3.0 ; Pen up

G0 X34.793 Y134.813 F3000 ; Travel to line 107
G0 Z0.0 ; Pen down
G1 X35.487 Y134.813 F1000
G0 Z3.0 ; Pen up

G0 X32.020 Y138.973 F3000 ; Travel to line 108
G0 Z0.0 ; Pen down
G1 X30.633 Y140.360 F1000
G1 X30.633 Y140.360 F1000
G1 X31.327 Y138.280 F1000
G1 X31.327 Y138.280 F1000
G1 X29.940 Y139.667 F1000
G1 X29.940 Y139.667 F1000
G1 X31.327 Y138.280 F1000
G1 X31.327 Y138.280 F1000
G1 X29.940 Y139.667 F1000
G0 Z3.0 ; Pen up

G0 X30.633 Y140.360 F3000 ; Travel to line 109
G0 Z0.0 ; Pen down
G1 X32.020 Y138.973 F1000
G1 X32.020 Y138.973 F1000
G1 X30.633 Y140.360 F1000
G0 Z3.0 ; Pen up

G0 X31.327 Y141.053 F3000 ; Travel to line 110
G0 Z0.0 ; Pen down
G1 X32.713 Y139.667 F1000
G0 Z3.0 ; Pen up

G0 X32.713 Y141.747 F3000 ; Travel to line 111
G0 Z0.0 ; Pen down
G1 X33.407 Y140.360 F1000
G1 X33.407 Y140.360 F1000
G1 X32.713 Y141.747 F1000
G0 Z3.0 ; Pen up

G0 X32.713 Y142.440 F3000 ; Travel to line 112
G0 Z0.0 ; Pen down
G1 X34.100 Y141.053 F1000
G1 X34.100 Y141.053 F1000
G1 X32.713 Y142.440 F1000
G0 Z3.0 ; Pen up

G0 X32.713 Y143.133 F3000 ; Travel to line 113
G0 Z0.0 ; Pen down
G1 X34.793 Y141.053 F1000
G0 Z3.0 ; Pen up

G0 X35.487 Y142.440 F3000 ; Travel to line 114
G0 Z0.0 ; Pen down
G1 X33.407 Y144.520 F1000
G0 Z3.0 ; Pen up

G0 X35.487 Y144.520 F3000 ; Travel to line 115
G0 Z0.0 ; Pen down
G1 X31.327 Y148.680 F1000
G0 Z3.0 ; Pen up

G0 X29.247 Y148.680 F3000 ; Travel to line 116
G0 Z0.0 ; Pen down
G1 X31.327 Y146.600 F1000
G0 Z3.0 ; Pen up

G0 X29.247 Y146.600 F3000 ; Travel to line 117
G0 Z0.0 ; Pen down
G1 X27.167 Y148.680 F1000
G0 Z3.0 ; Pen up

G0 X26.473 Y147.987 F3000 ; Travel to line 118
G0 Z0.0 ; Pen down
G1 X27.860 Y146.600 F1000
G1 X27.860 Y146.600 F1000
G1 X26.473 Y147.987 F1000
G1 X26.473 Y147.987 F1000
G1 X27.860 Y146.600 F1000
G1 X27.860 Y146.600 F1000
G1 X26.473 Y147.987 F1000
G0 Z3.0 ; Pen up

G0 X25.780 Y147.987 F3000 ; Travel to line 119
G0 Z0.0 ; Pen down
G1 X27.167 Y146.600 F1000
G1 X27.167 Y146.600 F1000
G1 X25.780 Y147.987 F1000
G0 Z3.0 ; Pen up

G0 X25.087 Y147.987 F3000 ; Travel to line 120
G0 Z0.0 ; Pen down
G1 X26.473 Y145.907 F1000
G0 Z3.0 ; Pen up

G0 X32.020 Y141.747 F3000 ; Travel to line 121
G0 Z0.0 ; Pen down
G1 X33.407 Y140.360 F1000
G1 X33.407 Y140.360 F1000
G1 X32.020 Y141.747 F1000
G0 Z3.0 ; Pen up

G0 X29.247 Y138.973 F3000 ; Travel to line 122
G0 Z0.0 ; Pen down
G1 X29.940 Y136.893 F1000
G0 Z3.0 ; Pen up

G0 X29.940 Y136.200 F3000 ; Travel to line 123
G0 Z0.0 ; Pen down
G1 X28.553 Y138.280 F1000
G0 Z3.0 ; Pen up

G0 X27.167 Y136.893 F3000 ; Travel to line 124
G0 Z0.0 ; Pen down
G1 X29.940 Y132.733 F1000
G1 X29.940 Y132.733 F1000
G1 X27.167 Y136.893 F1000
G0 Z3.0 ; Pen up

G0 X51.433 Y136.200 F3000 ; Travel to line 125
G0 Z0.0 ; Pen down
G1 X93.033 Y136.200 F1000
G0 Z3.0 ; Pen up

G0 X93.033 Y135.507 F3000 ; Travel to line 126
G0 Z0.0 ; Pen down
G1 X51.433 Y135.507 F1000
G0 Z3.0 ; Pen up

G0 X51.433 Y134.813 F3000 ; Travel to line 127
G0 Z0.0 ; Pen down
G1 X93.033 Y134.813 F1000
G0 Z3.0 ; Pen up

G0 X93.033 Y134.120 F3000 ; Travel to line 128
G0 Z0.0 ; Pen down
G1 X51.433 Y134.120 F1000
G0 Z3.0 ; Pen up

G0 X51.433 Y168.787 F3000 ; Travel to line 129
G0 Z0.0 ; Pen down
G1 X79.167 Y168.787 F1000
G0 Z3.0 ; Pen up

G0 X79.167 Y169.480 F3000 ; Travel to line 130
G0 Z0.0 ; Pen down
G1 X51.433 Y169.480 F1000
G0 Z3.0 ; Pen up

G0 X51.433 Y170.173 F3000 ; Travel to line 131
G0 Z0.0 ; Pen down
G1 X79.167 Y170.173 F1000
G0 Z3.0 ; Pen up

G0 X79.167 Y170.867 F3000 ; Travel to line 132
G0 Z0.0 ; Pen down
G1 X51.433 Y170.867 F1000
G0 Z3.0 ; Pen up

G0 X30.633 Y182.653 F3000 ; Travel to line 133
G0 Z0.0 ; Pen down
G1 X30.633 Y169.480 F1000
G1 X31.327 Y168.787 F1000
G1 X33.407 Y168.787 F1000
G1 X29.940 Y168.787 F1000
G1 X30.633 Y169.480 F1000
G1 X30.633 Y181.960 F1000
G1 X29.940 Y182.653 F1000
G1 X27.167 Y182.653 F1000
G0 Z3.0 ; Pen up

; Return to origin
G0 X0 Y0
G0 Z3.0

; Total drawing distance: 1951.79 mm
; Total travel distance: 502.53 mm
; Total lines: 133
; Estimated time: 127.2 seconds (2.1 minutes)
M2 ; End program