; Blueprint to G-code
; Input: test_images/test8_interlocking_gears.png
; Generated with blueprint2gcode.py

G21 ; Set units to millimeters
G90 ; Absolute positioning
G0 Z3.0 ; Pen up
G0 X0 Y0 ; Move to origin

G0 X6.253 Y7.153 F3000 ; Travel to line 1
G0 Z0.0 ; Pen down
G1 X13.257 Y7.153 F1000
G1 X13.257 Y140.744 F1000
G1 X13.154 Y140.847 F1000
G1 X6.253 Y140.847 F1000
G0 Z3.0 ; Pen up

G0 X24.690 Y84.918 F3000 ; Travel to line 2
G0 Z0.0 ; Pen down
G1 X24.587 Y85.021 F1000
G1 X24.793 Y85.227 F1000
G1 X24.896 Y85.227 F1000
G1 X24.999 Y85.330 F1000
G1 X25.102 Y85.330 F1000
G1 X25.205 Y85.433 F1000
G1 X25.411 Y85.433 F1000
G1 X25.514 Y85.536 F1000
G1 X25.617 Y85.536 F1000
G1 X25.720 Y85.433 F1000
G1 X25.720 Y85.227 F1000
G1 X25.823 Y85.124 F1000
G1 X25.823 Y84.918 F1000
G1 X25.926 Y84.815 F1000
G1 X25.926 Y84.712 F1000
G1 X26.029 Y84.609 F1000
G1 X26.029 Y84.403 F1000
G1 X26.132 Y84.300 F1000
G1 X26.132 Y84.197 F1000
G1 X25.926 Y83.991 F1000
G1 X25.823 Y83.991 F1000
G1 X25.720 Y83.888 F1000
G1 X25.514 Y83.888 F1000
G1 X25.411 Y83.785 F1000
G1 X25.308 Y83.785 F1000
G1 X25.102 Y83.991 F1000
G1 X25.102 Y84.094 F1000
G1 X24.999 Y84.197 F1000
G1 X24.999 Y84.300 F1000
G1 X24.896 Y84.403 F1000
G1 X24.896 Y84.506 F1000
G1 X24.793 Y84.609 F1000
G1 X24.793 Y84.712 F1000
G1 X24.690 Y84.815 F1000
G0 Z3.0 ; Pen up

G0 X23.660 Y84.300 F3000 ; Travel to line 3
G0 Z0.0 ; Pen down
G1 X23.660 Y84.197 F1000
G1 X23.866 Y83.991 F1000
G1 X23.866 Y83.888 F1000
G1 X24.072 Y83.682 F1000
G1 X24.072 Y83.579 F1000
G1 X24.381 Y83.270 F1000
G1 X24.484 Y83.373 F1000
G1 X24.587 Y83.373 F1000
G1 X24.690 Y83.476 F1000
G1 X24.793 Y83.476 F1000
G1 X24.896 Y83.579 F1000
G1 X24.999 Y83.579 F1000
G1 X25.205 Y83.785 F1000
G1 X25.102 Y83.888 F1000
G1 X25.102 Y83.991 F1000
G1 X24.999 Y84.094 F1000
G1 X24.999 Y84.197 F1000
G1 X24.896 Y84.300 F1000
G1 X24.896 Y84.403 F1000
G1 X24.793 Y84.506 F1000
G1 X24.793 Y84.609 F1000
G1 X24.690 Y84.712 F1000
G1 X24.690 Y84.815 F1000
G1 X24.484 Y85.021 F1000
G1 X24.278 Y85.021 F1000
G1 X24.175 Y84.918 F1000
G1 X24.072 Y84.918 F1000
G1 X23.866 Y84.712 F1000
G1 X23.763 Y84.712 F1000
G1 X23.660 Y84.609 F1000
G1 X23.557 Y84.609 F1000
G1 X23.454 Y84.506 F1000
G0 Z3.0 ; Pen up

G0 X22.630 Y83.682 F3000 ; Travel to line 4
G0 Z0.0 ; Pen down
G1 X22.527 Y83.785 F1000
G1 X22.527 Y83.888 F1000
G1 X22.733 Y84.094 F1000
G1 X22.836 Y84.094 F1000
G1 X23.042 Y84.300 F1000
G1 X23.145 Y84.300 F1000
G1 X23.248 Y84.403 F1000
G1 X23.454 Y84.403 F1000
G1 X23.763 Y84.094 F1000
G1 X23.763 Y83.991 F1000
G1 X23.969 Y83.785 F1000
G1 X23.969 Y83.682 F1000
G1 X24.175 Y83.476 F1000
G1 X24.175 Y83.373 F1000
G1 X24.278 Y83.270 F1000
G1 X24.072 Y83.064 F1000
G1 X23.969 Y83.064 F1000
G1 X23.763 Y82.858 F1000
G1 X23.660 Y82.858 F1000
G1 X23.454 Y82.652 F1000
G1 X23.351 Y82.652 F1000
G1 X23.248 Y82.755 F1000
G1 X23.248 Y82.858 F1000
G1 X22.939 Y83.167 F1000
G1 X22.939 Y83.270 F1000
G1 X22.630 Y83.579 F1000
G0 Z3.0 ; Pen up

G0 X21.600 Y82.961 F3000 ; Travel to line 5
G0 Z0.0 ; Pen down
G1 X21.600 Y83.064 F1000
G1 X22.218 Y83.682 F1000
G1 X22.321 Y83.682 F1000
G1 X22.424 Y83.785 F1000
G1 X22.527 Y83.785 F1000
G1 X22.630 Y83.682 F1000
G1 X22.630 Y83.579 F1000
G1 X22.939 Y83.270 F1000
G1 X22.939 Y83.167 F1000
G1 X23.248 Y82.858 F1000
G1 X23.248 Y82.549 F1000
G1 X22.939 Y82.240 F1000
G1 X22.836 Y82.240 F1000
G1 X22.527 Y81.931 F1000
G1 X22.115 Y82.343 F1000
G1 X22.115 Y82.446 F1000
G0 Z3.0 ; Pen up

G0 X21.291 Y81.622 F3000 ; Travel to line 6
G0 Z0.0 ; Pen down
G1 X21.394 Y81.622 F1000
G1 X21.806 Y81.210 F1000
G1 X22.424 Y81.828 F1000
G1 X22.424 Y82.034 F1000
G1 X22.012 Y82.446 F1000
G1 X22.012 Y82.549 F1000
G1 X21.600 Y82.961 F1000
G1 X21.394 Y82.961 F1000
G1 X20.776 Y82.343 F1000
G1 X20.776 Y82.137 F1000
G0 Z3.0 ; Pen up

G0 X20.158 Y81.107 F3000 ; Travel to line 7
G0 Z0.0 ; Pen down
G1 X20.467 Y80.798 F1000
G1 X20.570 Y80.798 F1000
G1 X20.879 Y80.489 F1000
G1 X20.982 Y80.489 F1000
G1 X21.085 Y80.386 F1000
G1 X21.188 Y80.386 F1000
G1 X21.291 Y80.489 F1000
G1 X21.291 Y80.592 F1000
G1 X21.600 Y80.901 F1000
G1 X21.600 Y81.004 F1000
G1 X21.703 Y81.107 F1000
G1 X21.703 Y81.313 F1000
G1 X21.394 Y81.622 F1000
G1 X21.291 Y81.622 F1000
G1 X20.776 Y82.137 F1000
G1 X20.673 Y82.137 F1000
G1 X20.158 Y81.622 F1000
G1 X20.158 Y81.519 F1000
G1 X19.952 Y81.313 F1000
G1 X19.952 Y81.210 F1000
G1 X20.055 Y81.107 F1000
G0 Z3.0 ; Pen up

G0 X19.437 Y80.180 F3000 ; Travel to line 8
G0 Z0.0 ; Pen down
G1 X19.540 Y80.283 F1000
G1 X19.540 Y80.386 F1000
G1 X19.437 Y80.489 F1000
G1 X19.231 Y80.283 F1000
G1 X19.334 Y80.180 F1000
G0 Z3.0 ; Pen up

G0 X19.643 Y79.871 F3000 ; Travel to line 9
G0 Z0.0 ; Pen down
G1 X19.540 Y79.974 F1000
G1 X19.540 Y80.901 F1000
G1 X19.643 Y81.004 F1000
G1 X19.643 Y81.107 F1000
G1 X19.746 Y81.210 F1000
G1 X19.849 Y81.210 F1000
G1 X19.952 Y81.107 F1000
G1 X20.158 Y81.107 F1000
G1 X20.467 Y80.798 F1000
G1 X20.570 Y80.798 F1000
G1 X20.879 Y80.489 F1000
G1 X20.982 Y80.489 F1000
G1 X21.085 Y80.386 F1000
G1 X21.085 Y80.283 F1000
G1 X20.982 Y80.180 F1000
G1 X20.982 Y80.077 F1000
G1 X20.776 Y79.871 F1000
G1 X20.776 Y79.768 F1000
G1 X20.673 Y79.665 F1000
G1 X20.673 Y79.562 F1000
G1 X20.570 Y79.459 F1000
G1 X20.364 Y79.459 F1000
G1 X20.158 Y79.665 F1000
G1 X20.055 Y79.665 F1000
G1 X19.849 Y79.871 F1000
G0 Z3.0 ; Pen up

G0 X19.025 Y79.047 F3000 ; Travel to line 10
G0 Z0.0 ; Pen down
G1 X19.128 Y78.944 F1000
G1 X19.231 Y78.944 F1000
G1 X19.334 Y78.841 F1000
G1 X19.437 Y78.841 F1000
G1 X19.540 Y78.944 F1000
G1 X19.540 Y80.077 F1000
G1 X19.437 Y80.180 F1000
G1 X19.334 Y80.180 F1000
G1 X18.922 Y79.768 F1000
G1 X18.922 Y79.665 F1000
G1 X18.819 Y79.562 F1000
G1 X18.819 Y79.459 F1000
G1 X18.716 Y79.356 F1000
G1 X18.716 Y79.150 F1000
G1 X18.819 Y79.047 F1000
G0 Z3.0 ; Pen up

G0 X19.643 Y78.635 F3000 ; Travel to line 11
G0 Z0.0 ; Pen down
G1 X19.540 Y78.738 F1000
G1 X19.540 Y79.768 F1000
G1 X19.643 Y79.871 F1000
G1 X19.849 Y79.871 F1000
G1 X20.055 Y79.665 F1000
G1 X20.158 Y79.665 F1000
G1 X20.467 Y79.356 F1000
G1 X20.467 Y79.253 F1000
G1 X20.364 Y79.150 F1000
G1 X20.364 Y79.047 F1000
G1 X20.261 Y78.944 F1000
G1 X20.261 Y78.841 F1000
G1 X20.158 Y78.738 F1000
G1 X20.158 Y78.635 F1000
G1 X20.055 Y78.532 F1000
G1 X19.952 Y78.532 F1000
G1 X19.849 Y78.635 F1000
G0 Z3.0 ; Pen up

G0 X19.746 Y77.914 F3000 ; Travel to line 12
G0 Z0.0 ; Pen down
G1 X19.849 Y78.017 F1000
G1 X19.849 Y78.120 F1000
G1 X19.952 Y78.223 F1000
G1 X19.952 Y78.429 F1000
G1 X19.746 Y78.635 F1000
G1 X19.643 Y78.635 F1000
G1 X19.540 Y78.532 F1000
G1 X19.540 Y78.017 F1000
G1 X19.643 Y77.914 F1000
G0 Z3.0 ; Pen up

G0 X18.407 Y78.017 F3000 ; Travel to line 13
G0 Z0.0 ; Pen down
G1 X18.510 Y77.914 F1000
G1 X18.716 Y77.914 F1000
G1 X18.819 Y77.811 F1000
G1 X19.025 Y77.811 F1000
G1 X19.128 Y77.708 F1000
G1 X19.231 Y77.708 F1000
G1 X19.334 Y77.605 F1000
G1 X19.540 Y77.605 F1000
G1 X19.643 Y77.708 F1000
G1 X19.643 Y77.811 F1000
G1 X19.540 Y77.914 F1000
G1 X19.540 Y78.738 F1000
G1 X19.437 Y78.841 F1000
G1 X19.231 Y78.841 F1000
G1 X19.128 Y78.944 F1000
G1 X19.025 Y78.944 F1000
G1 X18.922 Y79.047 F1000
G1 X18.613 Y79.047 F1000
G1 X18.510 Y78.944 F1000
G1 X18.510 Y78.738 F1000
G1 X18.407 Y78.635 F1000
G1 X18.407 Y78.532 F1000
G1 X18.304 Y78.429 F1000
G1 X18.304 Y78.223 F1000
G1 X18.201 Y78.120 F1000
G1 X18.304 Y78.017 F1000
G0 Z3.0 ; Pen up

G0 X18.407 Y76.781 F3000 ; Travel to line 14
G0 Z0.0 ; Pen down
G1 X18.510 Y76.678 F1000
G1 X18.819 Y76.678 F1000
G1 X18.922 Y76.575 F1000
G1 X19.437 Y76.575 F1000
G1 X19.540 Y76.678 F1000
G1 X19.540 Y77.502 F1000
G1 X19.437 Y77.605 F1000
G1 X19.334 Y77.605 F1000
G1 X19.231 Y77.708 F1000
G1 X19.128 Y77.708 F1000
G1 X19.025 Y77.811 F1000
G1 X18.819 Y77.811 F1000
G1 X18.716 Y77.914 F1000
G1 X18.510 Y77.914 F1000
G1 X18.407 Y78.017 F1000
G1 X18.304 Y78.017 F1000
G1 X18.098 Y77.811 F1000
G1 X18.098 Y77.605 F1000
G1 X17.995 Y77.502 F1000
G1 X17.995 Y77.296 F1000
G1 X17.892 Y77.193 F1000
G1 X17.892 Y76.884 F1000
G1 X17.995 Y76.781 F1000
G0 Z3.0 ; Pen up

G0 X17.995 Y75.648 F3000 ; Travel to line 15
G0 Z0.0 ; Pen down
G1 X18.098 Y75.545 F1000
G1 X18.819 Y75.545 F1000
G1 X18.922 Y75.442 F1000
G1 X19.025 Y75.442 F1000
G1 X19.128 Y75.545 F1000
G1 X19.128 Y75.648 F1000
G1 X19.231 Y75.751 F1000
G1 X19.231 Y76.163 F1000
G1 X19.334 Y76.266 F1000
G1 X19.334 Y76.369 F1000
G1 X19.437 Y76.472 F1000
G1 X19.334 Y76.575 F1000
G1 X18.922 Y76.575 F1000
G1 X18.819 Y76.678 F1000
G1 X18.510 Y76.678 F1000
G1 X18.407 Y76.781 F1000
G1 X17.995 Y76.781 F1000
G1 X17.892 Y76.884 F1000
G1 X17.789 Y76.781 F1000
G1 X17.789 Y76.472 F1000
G1 X17.686 Y76.369 F1000
G1 X17.686 Y75.751 F1000
G1 X17.789 Y75.648 F1000
G0 Z3.0 ; Pen up

G0 X17.480 Y74.927 F3000 ; Travel to line 16
G0 Z0.0 ; Pen down
G1 X17.583 Y75.030 F1000
G1 X17.583 Y75.648 F1000
G1 X17.686 Y75.751 F1000
G1 X17.686 Y76.369 F1000
G1 X17.789 Y76.472 F1000
G1 X17.789 Y76.781 F1000
G1 X17.892 Y76.884 F1000
G1 X17.892 Y77.193 F1000
G1 X17.995 Y77.296 F1000
G1 X17.995 Y77.502 F1000
G1 X18.098 Y77.605 F1000
G1 X18.098 Y77.811 F1000
G1 X18.201 Y77.914 F1000
G1 X18.201 Y78.120 F1000
G1 X18.304 Y78.223 F1000
G1 X18.304 Y78.429 F1000
G1 X18.407 Y78.532 F1000
G1 X18.407 Y78.635 F1000
G1 X18.510 Y78.738 F1000
G1 X18.510 Y78.944 F1000
G1 X18.716 Y79.150 F1000
G1 X18.716 Y79.356 F1000
G1 X18.819 Y79.459 F1000
G1 X18.819 Y79.562 F1000
G1 X18.922 Y79.665 F1000
G1 X18.922 Y79.768 F1000
G1 X19.128 Y79.974 F1000
G1 X19.128 Y80.077 F1000
G1 X19.231 Y80.180 F1000
G1 X19.231 Y80.283 F1000
G1 X19.334 Y80.386 F1000
G1 X19.334 Y80.489 F1000
G1 X19.437 Y80.489 F1000
G1 X19.540 Y80.592 F1000
G1 X19.540 Y80.901 F1000
G1 X19.643 Y81.004 F1000
G1 X19.643 Y81.107 F1000
G1 X19.540 Y81.210 F1000
G1 X19.540 Y94.497 F1000
G1 X19.540 Y81.313 F1000
G1 X19.643 Y81.210 F1000
G1 X19.849 Y81.210 F1000
G1 X20.055 Y81.416 F1000
G1 X20.055 Y81.519 F1000
G1 X20.364 Y81.828 F1000
G1 X20.364 Y81.931 F1000
G1 X20.570 Y82.137 F1000
G1 X20.673 Y82.137 F1000
G1 X20.776 Y82.240 F1000
G1 X20.776 Y82.343 F1000
G1 X21.394 Y82.961 F1000
G1 X21.497 Y82.961 F1000
G1 X21.600 Y83.064 F1000
G1 X21.600 Y83.167 F1000
G1 X21.909 Y83.476 F1000
G1 X22.012 Y83.476 F1000
G1 X22.321 Y83.785 F1000
G1 X22.424 Y83.785 F1000
G1 X22.527 Y83.888 F1000
G1 X22.527 Y83.991 F1000
G1 X22.630 Y83.991 F1000
G1 X22.733 Y84.094 F1000
G1 X22.836 Y84.094 F1000
G1 X23.042 Y84.300 F1000
G1 X23.145 Y84.300 F1000
G1 X23.248 Y84.403 F1000
G1 X23.351 Y84.403 F1000
G1 X23.557 Y84.609 F1000
G1 X23.660 Y84.609 F1000
G1 X23.763 Y84.712 F1000
G1 X23.866 Y84.712 F1000
G1 X24.072 Y84.918 F1000
G1 X24.175 Y84.918 F1000
G1 X24.278 Y85.021 F1000
G1 X24.484 Y85.021 F1000
G1 X24.690 Y85.227 F1000
G1 X24.896 Y85.227 F1000
G1 X24.999 Y85.330 F1000
G1 X25.102 Y85.330 F1000
G1 X25.205 Y85.433 F1000
G1 X25.411 Y85.433 F1000
G1 X25.514 Y85.536 F1000
G1 X25.720 Y85.536 F1000
G1 X25.823 Y85.639 F1000
G1 X26.029 Y85.639 F1000
G1 X26.132 Y85.742 F1000
G1 X26.338 Y85.742 F1000
G1 X26.441 Y85.845 F1000
G1 X26.750 Y85.845 F1000
G1 X26.853 Y85.948 F1000
G1 X27.059 Y85.948 F1000
G1 X27.162 Y86.051 F1000
G1 X27.677 Y86.051 F1000
G1 X27.780 Y86.154 F1000
G1 X28.604 Y86.154 F1000
G1 X28.707 Y86.257 F1000
G1 X30.973 Y86.257 F1000
G1 X31.076 Y86.154 F1000
G1 X31.797 Y86.154 F1000
G1 X31.900 Y86.051 F1000
G1 X32.415 Y86.051 F1000
G1 X32.518 Y85.948 F1000
G1 X32.827 Y85.948 F1000
G1 X32.930 Y85.845 F1000
G1 X33.239 Y85.845 F1000
G1 X33.342 Y85.742 F1000
G1 X33.548 Y85.742 F1000
G1 X33.651 Y85.639 F1000
G1 X33.857 Y85.639 F1000
G1 X33.960 Y85.536 F1000
G1 X34.166 Y85.536 F1000
G1 X34.269 Y85.433 F1000
G1 X34.372 Y85.536 F1000
G1 X34.372 Y85.639 F1000
G1 X34.475 Y85.742 F1000
G1 X34.475 Y85.948 F1000
G1 X34.578 Y86.051 F1000
G1 X34.578 Y86.154 F1000
G1 X34.681 Y86.257 F1000
G1 X34.681 Y86.360 F1000
G1 X34.784 Y86.463 F1000
G1 X34.784 Y86.566 F1000
G1 X34.887 Y86.669 F1000
G1 X34.887 Y86.772 F1000
G1 X34.990 Y86.875 F1000
G1 X34.990 Y86.978 F1000
G1 X35.093 Y87.081 F1000
G1 X35.093 Y87.184 F1000
G1 X35.196 Y87.287 F1000
G1 X35.196 Y87.390 F1000
G1 X35.299 Y87.390 F1000
G1 X35.402 Y87.493 F1000
G1 X35.402 Y87.699 F1000
G1 X35.711 Y88.008 F1000
G1 X35.711 Y88.111 F1000
G1 X35.814 Y88.214 F1000
G1 X35.917 Y88.214 F1000
G1 X36.020 Y88.317 F1000
G1 X36.020 Y88.523 F1000
G1 X36.638 Y89.141 F1000
G1 X36.741 Y89.141 F1000
G1 X37.153 Y89.553 F1000
G1 X37.256 Y89.553 F1000
G1 X37.462 Y89.759 F1000
G1 X37.565 Y89.759 F1000
G1 X37.668 Y89.862 F1000
G1 X37.668 Y89.965 F1000
G1 X37.771 Y89.965 F1000
G1 X37.874 Y90.068 F1000
G1 X37.977 Y90.068 F1000
G1 X38.080 Y90.171 F1000
G1 X38.183 Y90.171 F1000
G1 X38.286 Y90.274 F1000
G1 X38.492 Y90.274 F1000
G1 X38.698 Y90.480 F1000
G1 X38.801 Y90.480 F1000
G1 X38.904 Y90.583 F1000
G1 X39.110 Y90.583 F1000
G1 X39.213 Y90.686 F1000
G1 X39.316 Y90.686 F1000
G1 X39.419 Y90.789 F1000
G1 X39.625 Y90.789 F1000
G1 X39.728 Y90.892 F1000
G1 X40.037 Y90.892 F1000
G1 X40.140 Y90.995 F1000
G1 X40.449 Y90.995 F1000
G1 X40.552 Y91.098 F1000
G1 X41.170 Y91.098 F1000
G1 X41.273 Y91.201 F1000
G1 X43.127 Y91.201 F1000
G1 X43.230 Y91.098 F1000
G1 X43.745 Y91.098 F1000
G1 X43.848 Y90.995 F1000
G1 X44.260 Y90.995 F1000
G1 X44.363 Y90.892 F1000
G1 X44.672 Y90.892 F1000
G1 X44.775 Y90.789 F1000
G1 X44.981 Y90.789 F1000
G1 X45.084 Y90.686 F1000
G1 X45.187 Y90.686 F1000
G1 X45.290 Y90.583 F1000
G1 X45.496 Y90.583 F1000
G1 X45.599 Y90.480 F1000
G1 X45.702 Y90.480 F1000
G1 X45.908 Y90.274 F1000
G1 X46.114 Y90.274 F1000
G1 X46.217 Y90.171 F1000
G1 X46.320 Y90.171 F1000
G1 X46.423 Y90.068 F1000
G1 X46.526 Y90.068 F1000
G1 X46.629 Y89.965 F1000
G1 X46.629 Y89.862 F1000
G1 X46.732 Y89.759 F1000
G1 X46.938 Y89.759 F1000
G1 X47.144 Y89.553 F1000
G1 X47.247 Y89.553 F1000
G1 X47.453 Y89.347 F1000
G1 X47.453 Y89.244 F1000
G1 X47.556 Y89.141 F1000
G1 X47.659 Y89.141 F1000
G1 X48.277 Y88.523 F1000
G1 X48.277 Y88.420 F1000
G1 X48.380 Y88.317 F1000
G1 X48.483 Y88.317 F1000
G1 X48.689 Y88.111 F1000
G1 X48.689 Y88.008 F1000
G1 X48.895 Y87.802 F1000
G1 X48.895 Y87.596 F1000
G1 X49.204 Y87.287 F1000
G1 X49.204 Y87.184 F1000
G1 X49.307 Y87.081 F1000
G1 X49.307 Y86.978 F1000
G1 X49.410 Y86.875 F1000
G1 X49.410 Y86.772 F1000
G1 X49.616 Y86.566 F1000
G1 X49.616 Y86.360 F1000
G1 X49.719 Y86.257 F1000
G1 X49.719 Y86.154 F1000
G1 X49.822 Y86.051 F1000
G1 X49.822 Y85.742 F1000
G1 X49.925 Y85.639 F1000
G1 X49.925 Y85.433 F1000
G1 X50.028 Y85.330 F1000
G1 X50.028 Y85.124 F1000
G1 X50.131 Y85.021 F1000
G1 X50.131 Y84.712 F1000
G1 X50.234 Y84.609 F1000
G1 X50.234 Y84.094 F1000
G1 X50.337 Y83.991 F1000
G1 X50.337 Y82.137 F1000
G1 X50.234 Y82.034 F1000
G1 X50.234 Y81.725 F1000
G1 X50.337 Y81.622 F1000
G1 X50.646 Y81.622 F1000
G1 X50.749 Y81.519 F1000
G1 X50.955 Y81.519 F1000
G1 X51.058 Y81.416 F1000
G1 X51.161 Y81.416 F1000
G1 X51.367 Y81.210 F1000
G1 X51.573 Y81.210 F1000
G1 X51.676 Y81.107 F1000
G1 X51.779 Y81.107 F1000
G1 X51.882 Y81.004 F1000
G1 X51.985 Y81.004 F1000
G1 X52.088 Y80.901 F1000
G1 X52.088 Y80.798 F1000
G1 X52.191 Y80.695 F1000
G1 X52.397 Y80.695 F1000
G1 X52.603 Y80.489 F1000
G1 X52.706 Y80.489 F1000
G1 X52.912 Y80.283 F1000
G1 X52.912 Y80.180 F1000
G1 X53.015 Y80.077 F1000
G1 X53.118 Y80.077 F1000
G1 X53.736 Y79.459 F1000
G1 X53.736 Y79.356 F1000
G1 X53.839 Y79.253 F1000
G1 X53.942 Y79.253 F1000
G1 X54.148 Y79.047 F1000
G1 X54.148 Y78.944 F1000
G1 X54.354 Y78.738 F1000
G1 X54.354 Y78.532 F1000
G1 X54.663 Y78.223 F1000
G1 X54.663 Y78.120 F1000
G1 X54.766 Y78.017 F1000
G1 X54.766 Y77.914 F1000
G1 X54.869 Y77.811 F1000
G1 X54.869 Y77.708 F1000
G1 X55.075 Y77.502 F1000
G1 X55.075 Y77.399 F1000
G1 X55.178 Y77.296 F1000
G1 X55.178 Y77.090 F1000
G1 X55.281 Y76.987 F1000
G1 X55.281 Y76.678 F1000
G1 X55.384 Y76.575 F1000
G1 X55.384 Y76.472 F1000
G1 X55.487 Y76.369 F1000
G1 X55.487 Y76.060 F1000
G1 X55.590 Y75.957 F1000
G1 X55.590 Y75.648 F1000
G1 X55.693 Y75.545 F1000
G1 X55.693 Y75.030 F1000
G1 X55.796 Y74.927 F1000
G1 X55.796 Y73.073 F1000
G1 X55.693 Y72.970 F1000
G1 X55.693 Y72.455 F1000
G1 X55.590 Y72.352 F1000
G1 X55.590 Y72.043 F1000
G1 X55.487 Y71.940 F1000
G1 X55.487 Y71.631 F1000
G1 X55.384 Y71.528 F1000
G1 X55.384 Y71.425 F1000
G1 X55.281 Y71.322 F1000
G1 X55.281 Y71.013 F1000
G1 X55.178 Y70.910 F1000
G1 X55.178 Y70.704 F1000
G1 X55.075 Y70.601 F1000
G1 X55.075 Y70.498 F1000
G1 X54.869 Y70.292 F1000
G1 X54.869 Y70.086 F1000
G1 X54.766 Y69.983 F1000
G1 X54.766 Y69.880 F1000
G1 X54.560 Y69.674 F1000
G1 X54.560 Y69.571 F1000
G1 X54.354 Y69.365 F1000
G1 X54.354 Y69.262 F1000
G1 X54.148 Y69.056 F1000
G1 X54.148 Y68.953 F1000
G1 X54.045 Y68.953 F1000
G1 X53.942 Y68.850 F1000
G1 X53.942 Y68.747 F1000
G1 X54.045 Y68.644 F1000
G1 X54.045 Y68.335 F1000
G1 X54.148 Y68.232 F1000
G1 X54.148 Y67.820 F1000
G1 X54.251 Y67.717 F1000
G1 X54.251 Y67.099 F1000
G1 X54.354 Y66.996 F1000
G1 X54.354 Y66.481 F1000
G1 X54.457 Y66.378 F1000
G1 X54.457 Y64.112 F1000
G1 X54.354 Y64.009 F1000
G1 X54.354 Y63.391 F1000
G1 X54.251 Y63.288 F1000
G1 X54.251 Y62.773 F1000
G1 X54.148 Y62.670 F1000
G1 X54.148 Y62.258 F1000
G1 X54.045 Y62.155 F1000
G1 X54.045 Y61.846 F1000
G1 X53.942 Y61.743 F1000
G1 X53.942 Y61.537 F1000
G1 X53.839 Y61.434 F1000
G1 X53.839 Y61.228 F1000
G1 X53.633 Y61.022 F1000
G1 X53.633 Y60.713 F1000
G1 X53.530 Y60.610 F1000
G1 X53.530 Y60.404 F1000
G1 X53.427 Y60.301 F1000
G1 X53.427 Y60.198 F1000
G1 X53.324 Y60.095 F1000
G1 X53.324 Y59.992 F1000
G1 X53.221 Y59.889 F1000
G1 X53.221 Y59.683 F1000
G1 X53.118 Y59.580 F1000
G1 X53.118 Y59.477 F1000
G1 X52.912 Y59.271 F1000
G1 X52.912 Y59.168 F1000
G1 X52.809 Y59.065 F1000
G1 X52.809 Y58.962 F1000
G1 X52.706 Y58.962 F1000
G1 X52.603 Y58.859 F1000
G1 X52.603 Y58.653 F1000
G1 X52.397 Y58.447 F1000
G1 X52.397 Y58.344 F1000
G1 X52.294 Y58.241 F1000
G1 X52.294 Y58.138 F1000
G1 X51.985 Y57.829 F1000
G1 X51.985 Y57.726 F1000
G1 X51.676 Y57.417 F1000
G1 X51.676 Y57.314 F1000
G1 X51.367 Y57.005 F1000
G1 X51.264 Y57.005 F1000
G1 X51.161 Y56.902 F1000
G1 X51.161 Y56.799 F1000
G1 X50.543 Y56.181 F1000
G1 X50.440 Y56.181 F1000
G1 X50.337 Y56.078 F1000
G1 X50.337 Y55.975 F1000
G1 X50.131 Y55.769 F1000
G1 X50.028 Y55.769 F1000
G1 X49.719 Y55.460 F1000
G1 X49.616 Y55.460 F1000
G1 X49.410 Y55.254 F1000
G1 X49.410 Y55.048 F1000
G1 X49.616 Y54.842 F1000
G1 X49.719 Y54.842 F1000
G1 X49.822 Y54.739 F1000
G1 X50.028 Y54.739 F1000
G1 X50.131 Y54.636 F1000
G1 X50.234 Y54.636 F1000
G1 X50.337 Y54.533 F1000
G1 X50.440 Y54.533 F1000
G1 X50.543 Y54.430 F1000
G1 X50.646 Y54.430 F1000
G1 X50.749 Y54.327 F1000
G1 X50.852 Y54.327 F1000
G1 X50.852 Y54.224 F1000
G1 X50.955 Y54.121 F1000
G1 X51.161 Y54.121 F1000
G1 X51.264 Y54.018 F1000
G1 X51.367 Y54.018 F1000
G1 X51.470 Y53.915 F1000
G1 X51.573 Y53.915 F1000
G1 X51.676 Y53.812 F1000
G1 X51.779 Y53.812 F1000
G1 X51.882 Y53.709 F1000
G1 X51.882 Y53.606 F1000
G1 X51.985 Y53.503 F1000
G1 X52.191 Y53.503 F1000
G1 X52.294 Y53.400 F1000
G1 X52.397 Y53.400 F1000
G1 X52.603 Y53.194 F1000
G1 X52.706 Y53.194 F1000
G1 X52.809 Y53.091 F1000
G1 X52.809 Y52.988 F1000
G1 X52.912 Y52.885 F1000
G1 X53.118 Y52.885 F1000
G1 X53.324 Y52.679 F1000
G1 X53.427 Y52.679 F1000
G1 X53.736 Y52.370 F1000
G1 X53.839 Y52.370 F1000
G1 X53.839 Y52.267 F1000
G1 X53.942 Y52.164 F1000
G1 X54.045 Y52.164 F1000
G1 X54.354 Y51.855 F1000
G1 X54.457 Y51.855 F1000
G1 X54.766 Y51.546 F1000
G1 X54.766 Y51.443 F1000
G1 X54.869 Y51.340 F1000
G1 X54.972 Y51.340 F1000
G1 X55.590 Y50.722 F1000
G1 X55.590 Y50.619 F1000
G1 X55.693 Y50.516 F1000
G1 X55.796 Y50.516 F1000
G1 X56.105 Y50.207 F1000
G1 X56.105 Y50.104 F1000
G1 X56.414 Y49.795 F1000
G1 X56.414 Y49.692 F1000
G1 X56.517 Y49.589 F1000
G1 X56.620 Y49.589 F1000
G1 X56.620 Y49.486 F1000
G1 X56.826 Y49.280 F1000
G1 X56.826 Y49.177 F1000
G1 X57.032 Y48.971 F1000
G1 X57.032 Y48.765 F1000
G1 X57.238 Y48.559 F1000
G1 X57.341 Y48.559 F1000
G1 X57.444 Y48.456 F1000
G1 X57.444 Y48.353 F1000
G1 X57.650 Y48.147 F1000
G1 X57.650 Y48.044 F1000
G1 X57.753 Y47.941 F1000
G1 X57.753 Y47.735 F1000
G1 X57.856 Y47.632 F1000
G1 X57.959 Y47.632 F1000
G1 X57.959 Y47.529 F1000
G1 X58.062 Y47.426 F1000
G1 X58.062 Y47.323 F1000
G1 X58.165 Y47.220 F1000
G1 X58.165 Y47.117 F1000
G1 X58.371 Y46.911 F1000
G1 X58.371 Y46.705 F1000
G1 X58.474 Y46.602 F1000
G1 X58.577 Y46.602 F1000
G1 X58.577 Y46.499 F1000
G1 X58.680 Y46.396 F1000
G1 X58.680 Y46.293 F1000
G1 X58.783 Y46.190 F1000
G1 X58.783 Y46.087 F1000
G1 X58.886 Y45.984 F1000
G1 X58.886 Y45.675 F1000
G1 X59.092 Y45.469 F1000
G1 X59.092 Y45.263 F1000
G1 X59.195 Y45.160 F1000
G1 X59.195 Y45.057 F1000
G1 X59.298 Y44.954 F1000
G1 X59.298 Y44.748 F1000
G1 X59.401 Y44.645 F1000
G1 X59.401 Y44.542 F1000
G1 X59.504 Y44.439 F1000
G1 X59.504 Y44.336 F1000
G1 X59.607 Y44.233 F1000
G1 X59.607 Y44.027 F1000
G1 X59.710 Y43.924 F1000
G1 X59.710 Y43.718 F1000
G1 X59.813 Y43.615 F1000
G1 X59.813 Y43.409 F1000
G1 X59.916 Y43.306 F1000
G1 X59.916 Y42.997 F1000
G1 X60.019 Y42.894 F1000
G1 X60.019 Y42.585 F1000
G1 X60.122 Y42.482 F1000
G1 X60.122 Y42.173 F1000
G1 X60.225 Y42.070 F1000
G1 X60.225 Y41.761 F1000
G1 X60.328 Y41.658 F1000
G1 X60.328 Y41.040 F1000
G1 X60.431 Y40.937 F1000
G1 X60.431 Y40.422 F1000
G1 X60.534 Y40.319 F1000
G1 X60.534 Y39.495 F1000
G1 X60.637 Y39.392 F1000
G1 X60.637 Y36.508 F1000
G1 X60.534 Y36.405 F1000
G1 X60.534 Y35.478 F1000
G1 X60.431 Y35.375 F1000
G1 X60.431 Y34.963 F1000
G1 X60.328 Y34.860 F1000
G1 X60.328 Y34.242 F1000
G1 X60.225 Y34.139 F1000
G1 X60.225 Y33.830 F1000
G1 X60.122 Y33.727 F1000
G1 X60.122 Y33.315 F1000
G1 X60.019 Y33.212 F1000
G1 X60.019 Y33.006 F1000
G1 X59.916 Y32.903 F1000
G1 X59.916 Y32.594 F1000
G1 X59.813 Y32.491 F1000
G1 X59.813 Y32.285 F1000
G1 X59.710 Y32.182 F1000
G1 X59.710 Y31.976 F1000
G1 X59.607 Y31.873 F1000
G1 X59.607 Y31.667 F1000
G1 X59.504 Y31.564 F1000
G1 X59.504 Y31.461 F1000
G1 X59.401 Y31.358 F1000
G1 X59.401 Y31.152 F1000
G1 X59.298 Y31.049 F1000
G1 X59.298 Y30.946 F1000
G1 X59.195 Y30.843 F1000
G1 X59.195 Y30.637 F1000
G1 X59.092 Y30.534 F1000
G1 X59.092 Y30.431 F1000
G1 X58.886 Y30.225 F1000
G1 X58.886 Y29.916 F1000
G1 X58.783 Y29.813 F1000
G1 X58.783 Y29.710 F1000
G1 X58.680 Y29.607 F1000
G1 X58.680 Y29.504 F1000
G1 X58.577 Y29.401 F1000
G1 X58.577 Y29.298 F1000
G1 X58.474 Y29.298 F1000
G1 X58.371 Y29.195 F1000
G1 X58.371 Y28.989 F1000
G1 X58.268 Y28.886 F1000
G1 X58.268 Y28.783 F1000
G1 X58.165 Y28.680 F1000
G1 X58.165 Y28.577 F1000
G1 X57.959 Y28.371 F1000
G1 X57.959 Y28.268 F1000
G1 X57.753 Y28.062 F1000
G1 X57.753 Y27.959 F1000
G1 X57.650 Y27.856 F1000
G1 X57.650 Y27.753 F1000
G1 X57.444 Y27.547 F1000
G1 X57.444 Y27.444 F1000
G1 X57.135 Y27.135 F1000
G1 X57.135 Y27.032 F1000
G1 X56.929 Y26.826 F1000
G1 X56.929 Y26.723 F1000
G1 X56.723 Y26.517 F1000
G1 X56.723 Y26.414 F1000
G1 X56.105 Y25.796 F1000
G1 X56.105 Y25.693 F1000
G1 X55.796 Y25.384 F1000
G1 X55.693 Y25.384 F1000
G1 X55.590 Y25.281 F1000
G1 X55.590 Y25.178 F1000
G1 X55.487 Y25.075 F1000
G1 X55.487 Y24.972 F1000
G1 X54.972 Y24.457 F1000
G1 X54.766 Y24.457 F1000
G1 X54.663 Y24.354 F1000
G1 X54.663 Y24.251 F1000
G1 X54.457 Y24.045 F1000
G1 X54.354 Y24.045 F1000
G1 X54.045 Y23.736 F1000
G1 X53.942 Y23.736 F1000
G1 X53.839 Y23.633 F1000
G1 X53.839 Y23.530 F1000
G1 X53.427 Y23.118 F1000
G1 X53.324 Y23.118 F1000
G1 X53.118 Y22.912 F1000
G1 X52.912 Y22.912 F1000
G1 X52.706 Y22.706 F1000
G1 X52.603 Y22.706 F1000
G1 X52.397 Y22.500 F1000
G1 X52.294 Y22.500 F1000
G1 X52.088 Y22.294 F1000
G1 X51.985 Y22.294 F1000
G1 X51.882 Y22.191 F1000
G1 X51.882 Y22.088 F1000
G1 X51.779 Y21.985 F1000
G1 X51.676 Y21.985 F1000
G1 X51.573 Y21.882 F1000
G1 X51.470 Y21.882 F1000
G1 X51.367 Y21.779 F1000
G1 X51.264 Y21.779 F1000
G1 X51.161 Y21.676 F1000
G1 X51.058 Y21.676 F1000
G1 X50.955 Y21.573 F1000
G1 X50.852 Y21.573 F1000
G1 X50.749 Y21.470 F1000
G1 X50.543 Y21.470 F1000
G1 X50.440 Y21.367 F1000
G1 X50.337 Y21.367 F1000
G1 X50.234 Y21.264 F1000
G1 X50.131 Y21.264 F1000
G1 X50.028 Y21.161 F1000
G1 X49.925 Y21.161 F1000
G1 X49.719 Y20.955 F1000
G1 X49.616 Y20.955 F1000
G1 X49.513 Y20.852 F1000
G1 X49.410 Y20.852 F1000
G1 X49.307 Y20.749 F1000
G1 X49.101 Y20.749 F1000
G1 X48.998 Y20.646 F1000
G1 X48.689 Y20.646 F1000
G1 X48.586 Y20.543 F1000
G1 X48.380 Y20.543 F1000
G1 X48.277 Y20.440 F1000
G1 X48.071 Y20.440 F1000
G1 X47.968 Y20.337 F1000
G1 X47.762 Y20.337 F1000
G1 X47.659 Y20.234 F1000
G1 X47.556 Y20.234 F1000
G1 X47.453 Y20.131 F1000
G1 X47.247 Y20.131 F1000
G1 X47.144 Y20.028 F1000
G1 X46.938 Y20.028 F1000
G1 X46.835 Y19.925 F1000
G1 X46.320 Y19.925 F1000
G1 X46.217 Y19.822 F1000
G1 X45.805 Y19.822 F1000
G1 X45.702 Y19.719 F1000
G1 X45.187 Y19.719 F1000
G1 X45.084 Y19.616 F1000
G1 X44.775 Y19.616 F1000
G1 X44.672 Y19.513 F1000
G1 X43.539 Y19.513 F1000
G1 X43.436 Y19.410 F1000
G1 X40.964 Y19.410 F1000
G1 X40.861 Y19.513 F1000
G1 X39.625 Y19.513 F1000
G1 X39.522 Y19.616 F1000
G1 X39.110 Y19.616 F1000
G1 X39.007 Y19.719 F1000
G1 X38.698 Y19.719 F1000
G1 X38.595 Y19.822 F1000
G1 X38.286 Y19.822 F1000
G1 X38.183 Y19.925 F1000
G1 X37.565 Y19.925 F1000
G1 X37.462 Y20.028 F1000
G1 X37.153 Y20.028 F1000
G1 X37.050 Y20.131 F1000
G1 X36.844 Y20.131 F1000
G1 X36.638 Y20.337 F1000
G1 X36.432 Y20.337 F1000
G1 X36.329 Y20.440 F1000
G1 X36.123 Y20.440 F1000
G1 X36.020 Y20.543 F1000
G1 X35.608 Y20.543 F1000
G1 X35.402 Y20.749 F1000
G1 X35.093 Y20.749 F1000
G1 X34.990 Y20.852 F1000
G1 X34.887 Y20.852 F1000
G1 X34.784 Y20.955 F1000
G1 X34.681 Y20.955 F1000
G1 X34.475 Y21.161 F1000
G1 X34.372 Y21.161 F1000
G1 X34.269 Y21.264 F1000
G1 X34.166 Y21.264 F1000
G1 X34.063 Y21.367 F1000
G1 X33.960 Y21.367 F1000
G1 X33.857 Y21.470 F1000
G1 X33.754 Y21.470 F1000
G1 X33.651 Y21.573 F1000
G1 X33.445 Y21.573 F1000
G1 X33.342 Y21.676 F1000
G1 X33.239 Y21.676 F1000
G1 X33.136 Y21.779 F1000
G1 X33.033 Y21.779 F1000
G1 X32.930 Y21.882 F1000
G1 X32.827 Y21.882 F1000
G1 X32.724 Y21.985 F1000
G1 X32.621 Y21.985 F1000
G1 X32.415 Y22.191 F1000
G1 X32.415 Y22.294 F1000
G1 X32.312 Y22.397 F1000
G1 X32.209 Y22.397 F1000
G1 X32.106 Y22.500 F1000
G1 X32.003 Y22.500 F1000
G1 X31.797 Y22.706 F1000
G1 X31.694 Y22.706 F1000
G1 X31.591 Y22.809 F1000
G1 X31.488 Y22.809 F1000
G1 X31.282 Y23.015 F1000
G1 X31.179 Y23.015 F1000
G1 X31.076 Y23.118 F1000
G1 X30.973 Y23.118 F1000
G1 X30.664 Y23.427 F1000
G1 X30.561 Y23.427 F1000
G1 X30.458 Y23.530 F1000
G1 X30.458 Y23.633 F1000
G1 X30.046 Y24.045 F1000
G1 X29.943 Y24.045 F1000
G1 X29.428 Y24.560 F1000
G1 X29.325 Y24.560 F1000
G1 X28.707 Y25.178 F1000
G1 X28.501 Y25.178 F1000
G1 X28.398 Y25.281 F1000
G1 X27.471 Y25.281 F1000
G1 X27.986 Y25.281 F1000
G1 X28.089 Y25.384 F1000
G1 X27.780 Y25.693 F1000
G1 X27.986 Y25.487 F1000
G1 X28.192 Y25.487 F1000
G1 X28.295 Y25.590 F1000
G1 X28.295 Y25.796 F1000
G1 X28.089 Y26.002 F1000
G1 X27.986 Y26.002 F1000
G1 X27.986 Y26.105 F1000
G1 X27.368 Y26.723 F1000
G1 X27.368 Y26.826 F1000
G1 X27.265 Y26.929 F1000
G1 X27.265 Y27.135 F1000
G1 X27.162 Y27.238 F1000
G1 X27.059 Y27.238 F1000
G1 X27.059 Y27.341 F1000
G1 X26.956 Y27.444 F1000
G1 X26.956 Y27.547 F1000
G1 X26.750 Y27.753 F1000
G1 X26.750 Y27.856 F1000
G1 X26.647 Y27.959 F1000
G1 X26.647 Y28.062 F1000
G1 X26.544 Y28.165 F1000
G1 X26.441 Y28.165 F1000
G1 X26.441 Y28.268 F1000
G1 X26.338 Y28.371 F1000
G1 X26.235 Y28.371 F1000
G1 X26.132 Y28.268 F1000
G1 X25.720 Y28.268 F1000
G1 X25.514 Y28.474 F1000
G1 X25.514 Y28.783 F1000
G1 X25.617 Y28.886 F1000
G1 X25.514 Y28.783 F1000
G1 X25.514 Y28.474 F1000
G1 X25.720 Y28.268 F1000
G1 X26.132 Y28.268 F1000
G1 X26.235 Y28.371 F1000
G1 X26.235 Y28.680 F1000
G1 X26.029 Y28.886 F1000
G1 X26.029 Y29.092 F1000
G1 X25.926 Y29.195 F1000
G1 X25.823 Y29.195 F1000
G1 X25.823 Y29.298 F1000
G1 X25.720 Y29.401 F1000
G1 X25.720 Y29.504 F1000
G1 X25.617 Y29.607 F1000
G1 X25.617 Y29.813 F1000
G1 X25.514 Y29.916 F1000
G1 X25.514 Y30.225 F1000
G1 X25.411 Y30.328 F1000
G1 X25.308 Y30.328 F1000
G1 X25.308 Y30.431 F1000
G1 X25.205 Y30.534 F1000
G1 X25.205 Y30.637 F1000
G1 X25.102 Y30.740 F1000
G1 X25.102 Y30.946 F1000
G1 X24.999 Y31.049 F1000
G1 X24.999 Y31.255 F1000
G1 X24.793 Y31.461 F1000
G1 X24.793 Y31.770 F1000
G1 X24.690 Y31.873 F1000
G1 X24.690 Y32.079 F1000
G1 X24.587 Y32.182 F1000
G1 X24.587 Y32.388 F1000
G1 X24.278 Y32.697 F1000
G1 X24.072 Y32.491 F1000
G1 X23.660 Y32.491 F1000
G1 X23.454 Y32.697 F1000
G1 X23.454 Y33.006 F1000
G1 X23.557 Y33.109 F1000
G1 X24.175 Y33.109 F1000
G1 X24.278 Y33.212 F1000
G1 X24.278 Y33.315 F1000
G1 X24.175 Y33.418 F1000
G1 X23.454 Y33.418 F1000
G1 X23.454 Y33.830 F1000
G1 X23.557 Y33.933 F1000
G1 X23.763 Y33.933 F1000
G1 X23.866 Y33.830 F1000
G1 X24.072 Y34.036 F1000
G1 X24.072 Y34.242 F1000
G1 X23.969 Y34.345 F1000
G1 X23.454 Y34.345 F1000
G1 X23.454 Y34.757 F1000
G1 X23.557 Y34.860 F1000
G1 X23.763 Y34.860 F1000
G1 X23.866 Y34.963 F1000
G1 X23.866 Y35.066 F1000
G1 X23.763 Y35.169 F1000
G1 X23.454 Y35.169 F1000
G1 X23.763 Y35.169 F1000
G1 X23.866 Y35.272 F1000
G1 X23.866 Y35.375 F1000
G1 X23.763 Y35.478 F1000
G1 X23.763 Y35.787 F1000
G1 X23.866 Y35.890 F1000
G1 X23.866 Y35.993 F1000
G1 X23.763 Y36.096 F1000
G1 X23.454 Y36.096 F1000
G1 X23.660 Y36.096 F1000
G1 X23.763 Y36.199 F1000
G1 X23.763 Y36.302 F1000
G1 X23.454 Y36.611 F1000
G1 X23.454 Y36.920 F1000
G1 X23.557 Y37.023 F1000
G1 X23.660 Y37.023 F1000
G1 X23.763 Y37.126 F1000
G1 X23.763 Y37.229 F1000
G1 X23.660 Y37.332 F1000
G1 X23.660 Y38.053 F1000
G1 X23.763 Y38.156 F1000
G1 X23.763 Y38.259 F1000
G1 X23.660 Y38.362 F1000
G1 X23.660 Y39.186 F1000
G1 X23.763 Y39.289 F1000
G1 X23.763 Y39.392 F1000
G1 X23.866 Y39.495 F1000
G1 X23.866 Y39.598 F1000
G1 X23.763 Y39.701 F1000
G1 X23.660 Y39.701 F1000
G1 X23.454 Y39.907 F1000
G1 X23.454 Y40.216 F1000
G1 X23.557 Y40.319 F1000
G1 X23.454 Y40.216 F1000
G1 X23.454 Y39.907 F1000
G1 X23.660 Y39.701 F1000
G1 X23.763 Y39.804 F1000
G1 X23.763 Y40.216 F1000
G1 X23.866 Y40.319 F1000
G1 X23.866 Y40.422 F1000
G1 X23.763 Y40.525 F1000
G1 X23.454 Y40.525 F1000
G1 X23.763 Y40.525 F1000
G1 X23.866 Y40.628 F1000
G1 X23.866 Y40.834 F1000
G1 X23.969 Y40.937 F1000
G1 X23.969 Y41.040 F1000
G1 X23.866 Y41.143 F1000
G1 X23.454 Y41.143 F1000
G1 X23.866 Y41.143 F1000
G1 X23.969 Y41.246 F1000
G1 X23.969 Y41.349 F1000
G1 X23.866 Y41.452 F1000
G1 X23.454 Y41.452 F1000
G1 X23.969 Y41.452 F1000
G1 X24.072 Y41.555 F1000
G1 X24.072 Y41.761 F1000
G1 X23.969 Y41.864 F1000
G1 X23.660 Y41.864 F1000
G1 X23.660 Y42.070 F1000
G1 X23.763 Y42.173 F1000
G1 X23.866 Y42.173 F1000
G1 X24.072 Y42.379 F1000
G1 X23.969 Y42.482 F1000
G1 X23.454 Y42.482 F1000
G1 X24.072 Y42.482 F1000
G1 X24.175 Y42.379 F1000
G1 X24.278 Y42.482 F1000
G1 X24.278 Y42.688 F1000
G1 X24.175 Y42.791 F1000
G1 X23.454 Y42.791 F1000
G1 X23.454 Y43.306 F1000
G1 X23.454 Y42.894 F1000
G1 X23.557 Y42.791 F1000
G1 X23.763 Y42.791 F1000
G1 X23.866 Y42.894 F1000
G1 X23.866 Y43.306 F1000
G1 X23.866 Y42.894 F1000
G1 X23.969 Y42.791 F1000
G1 X24.175 Y42.791 F1000
G1 X24.381 Y42.997 F1000
G1 X24.381 Y43.203 F1000
G1 X24.484 Y43.306 F1000
G1 X24.484 Y43.409 F1000
G1 X24.587 Y43.512 F1000
G1 X24.587 Y43.718 F1000
G1 X24.690 Y43.821 F1000
G1 X24.690 Y44.027 F1000
G1 X24.793 Y44.130 F1000
G1 X24.793 Y44.233 F1000
G1 X24.896 Y44.336 F1000
G1 X24.896 Y44.542 F1000
G1 X24.999 Y44.645 F1000
G1 X24.999 Y44.851 F1000
G1 X25.102 Y44.954 F1000
G1 X25.102 Y45.057 F1000
G1 X25.205 Y45.160 F1000
G1 X25.205 Y45.366 F1000
G1 X25.308 Y45.469 F1000
G1 X25.308 Y45.572 F1000
G1 X25.411 Y45.675 F1000
G1 X25.411 Y45.778 F1000
G1 X25.514 Y45.881 F1000
G1 X25.514 Y45.984 F1000
G1 X25.617 Y46.087 F1000
G1 X25.617 Y46.190 F1000
G1 X25.720 Y46.293 F1000
G1 X25.720 Y46.396 F1000
G1 X25.823 Y46.499 F1000
G1 X25.823 Y46.602 F1000
G1 X25.926 Y46.705 F1000
G1 X25.926 Y46.808 F1000
G1 X26.132 Y47.014 F1000
G1 X26.132 Y47.117 F1000
G1 X26.235 Y47.220 F1000
G1 X26.235 Y47.323 F1000
G1 X26.338 Y47.426 F1000
G1 X26.338 Y47.529 F1000
G1 X26.441 Y47.529 F1000
G1 X26.544 Y47.632 F1000
G1 X26.544 Y47.838 F1000
G1 X26.750 Y48.044 F1000
G1 X26.750 Y48.147 F1000
G1 X26.956 Y48.353 F1000
G1 X26.956 Y48.456 F1000
G1 X27.059 Y48.456 F1000
G1 X27.162 Y48.559 F1000
G1 X27.162 Y48.765 F1000
G1 X27.265 Y48.868 F1000
G1 X27.265 Y48.971 F1000
G1 X27.471 Y49.177 F1000
G1 X27.471 Y49.280 F1000
G1 X28.295 Y50.104 F1000
G1 X28.295 Y50.207 F1000
G1 X28.501 Y50.413 F1000
G1 X28.604 Y50.413 F1000
G1 X28.707 Y50.516 F1000
G1 X28.707 Y50.722 F1000
G1 X29.222 Y51.237 F1000
G1 X29.325 Y51.237 F1000
G1 X29.943 Y51.855 F1000
G1 X30.046 Y51.855 F1000
G1 X30.252 Y52.061 F1000
G1 X30.355 Y52.061 F1000
G1 X30.458 Y52.164 F1000
G1 X30.458 Y52.370 F1000
G1 X30.561 Y52.370 F1000
G1 X30.767 Y52.576 F1000
G1 X30.870 Y52.576 F1000
G1 X31.179 Y52.885 F1000
G1 X31.385 Y52.885 F1000
G1 X31.694 Y53.194 F1000
G1 X31.797 Y53.194 F1000
G1 X32.003 Y53.400 F1000
G1 X32.106 Y53.400 F1000
G1 X32.209 Y53.503 F1000
G1 X32.312 Y53.503 F1000
G1 X32.415 Y53.606 F1000
G1 X32.415 Y53.709 F1000
G1 X32.518 Y53.709 F1000
G1 X32.621 Y53.812 F1000
G1 X32.724 Y53.812 F1000
G1 X32.827 Y53.915 F1000
G1 X32.930 Y53.915 F1000
G1 X33.033 Y54.018 F1000
G1 X33.136 Y54.018 F1000
G1 X33.342 Y54.224 F1000
G1 X33.445 Y54.224 F1000
G1 X33.548 Y54.327 F1000
G1 X33.651 Y54.327 F1000
G1 X33.754 Y54.430 F1000
G1 X33.857 Y54.430 F1000
G1 X33.960 Y54.533 F1000
G1 X34.063 Y54.533 F1000
G1 X34.166 Y54.636 F1000
G1 X34.269 Y54.636 F1000
G1 X34.372 Y54.739 F1000
G1 X34.578 Y54.739 F1000
G1 X34.681 Y54.842 F1000
G1 X34.784 Y54.842 F1000
G1 X34.990 Y55.048 F1000
G1 X34.990 Y55.151 F1000
G1 X34.887 Y55.254 F1000
G1 X34.887 Y55.357 F1000
G1 X34.784 Y55.460 F1000
G1 X34.681 Y55.460 F1000
G1 X34.372 Y55.769 F1000
G1 X34.269 Y55.769 F1000
G1 X33.857 Y56.181 F1000
G1 X33.754 Y56.181 F1000
G1 X33.136 Y56.799 F1000
G1 X33.136 Y56.902 F1000
G1 X32.724 Y57.314 F1000
G1 X32.724 Y57.417 F1000
G1 X32.415 Y57.726 F1000
G1 X32.415 Y57.829 F1000
G1 X32.312 Y57.932 F1000
G1 X32.209 Y57.932 F1000
G1 X32.003 Y58.138 F1000
G1 X32.003 Y58.241 F1000
G1 X31.900 Y58.344 F1000
G1 X31.900 Y58.447 F1000
G1 X31.694 Y58.653 F1000
G1 X31.694 Y58.859 F1000
G1 X31.591 Y58.962 F1000
G1 X31.591 Y59.065 F1000
G1 X31.488 Y59.168 F1000
G1 X31.488 Y59.271 F1000
G1 X31.282 Y59.477 F1000
G1 X31.282 Y59.580 F1000
G1 X31.076 Y59.786 F1000
G1 X31.076 Y59.889 F1000
G1 X30.973 Y59.992 F1000
G1 X30.973 Y60.198 F1000
G1 X30.870 Y60.301 F1000
G1 X30.870 Y60.507 F1000
G1 X30.767 Y60.610 F1000
G1 X30.767 Y60.713 F1000
G1 X30.664 Y60.816 F1000
G1 X30.664 Y61.022 F1000
G1 X30.561 Y61.125 F1000
G1 X30.561 Y61.331 F1000
G1 X30.458 Y61.434 F1000
G1 X30.458 Y61.537 F1000
G1 X30.355 Y61.640 F1000
G1 X28.913 Y61.640 F1000
G1 X28.810 Y61.743 F1000
G1 X27.986 Y61.743 F1000
G1 X27.883 Y61.846 F1000
G1 X27.265 Y61.846 F1000
G1 X27.162 Y61.949 F1000
G1 X26.853 Y61.949 F1000
G1 X26.750 Y62.052 F1000
G1 X26.647 Y62.052 F1000
G1 X26.544 Y62.155 F1000
G1 X26.338 Y62.155 F1000
G1 X26.235 Y62.258 F1000
G1 X26.029 Y62.258 F1000
G1 X25.926 Y62.361 F1000
G1 X25.617 Y62.361 F1000
G1 X25.514 Y62.464 F1000
G1 X25.205 Y62.464 F1000
G1 X25.102 Y62.567 F1000
G1 X24.999 Y62.567 F1000
G1 X24.896 Y62.670 F1000
G1 X24.793 Y62.670 F1000
G1 X24.690 Y62.773 F1000
G1 X24.587 Y62.773 F1000
G1 X24.484 Y62.876 F1000
G1 X24.381 Y62.876 F1000
G1 X24.175 Y63.082 F1000
G1 X24.072 Y63.082 F1000
G1 X23.866 Y63.288 F1000
G1 X23.763 Y63.288 F1000
G1 X23.660 Y63.391 F1000
G1 X23.557 Y63.391 F1000
G1 X23.454 Y63.494 F1000
G1 X23.248 Y63.494 F1000
G1 X23.145 Y63.597 F1000
G1 X23.042 Y63.597 F1000
G1 X22.836 Y63.803 F1000
G1 X22.733 Y63.803 F1000
G1 X22.527 Y64.009 F1000
G1 X22.527 Y64.112 F1000
G1 X22.424 Y64.215 F1000
G1 X22.321 Y64.215 F1000
G1 X22.012 Y64.524 F1000
G1 X21.909 Y64.524 F1000
G1 X21.497 Y64.936 F1000
G1 X21.394 Y64.936 F1000
G1 X20.776 Y65.554 F1000
G1 X20.776 Y65.657 F1000
G1 X20.364 Y66.069 F1000
G1 X20.364 Y66.172 F1000
G1 X20.055 Y66.481 F1000
G1 X20.055 Y66.584 F1000
G1 X19.952 Y66.687 F1000
G1 X19.643 Y66.687 F1000
G1 X19.540 Y66.584 F1000
G1 X19.540 Y7.153 F1000
G1 X19.540 Y66.584 F1000
G1 X19.643 Y66.687 F1000
G1 X19.643 Y66.996 F1000
G1 X19.540 Y67.099 F1000
G1 X19.540 Y67.408 F1000
G1 X19.437 Y67.511 F1000
G1 X19.437 Y67.614 F1000
G1 X19.334 Y67.717 F1000
G1 X19.231 Y67.717 F1000
G1 X19.231 Y67.820 F1000
G1 X19.128 Y67.923 F1000
G1 X19.128 Y68.026 F1000
G1 X18.922 Y68.232 F1000
G1 X18.922 Y68.335 F1000
G1 X18.716 Y68.541 F1000
G1 X18.716 Y68.644 F1000
G1 X18.613 Y68.747 F1000
G1 X18.613 Y68.953 F1000
G1 X18.510 Y69.056 F1000
G1 X18.510 Y69.262 F1000
G1 X18.407 Y69.365 F1000
G1 X18.407 Y69.468 F1000
G1 X18.304 Y69.571 F1000
G1 X18.304 Y69.777 F1000
G1 X18.201 Y69.880 F1000
G1 X18.201 Y70.086 F1000
G1 X18.098 Y70.189 F1000
G1 X18.098 Y70.395 F1000
G1 X17.995 Y70.498 F1000
G1 X17.995 Y70.704 F1000
G1 X17.892 Y70.807 F1000
G1 X17.892 Y71.116 F1000
G1 X17.789 Y71.219 F1000
G1 X17.789 Y71.528 F1000
G1 X17.686 Y71.631 F1000
G1 X17.686 Y72.043 F1000
G1 X17.583 Y72.146 F1000
G1 X17.583 Y72.970 F1000
G1 X17.480 Y73.073 F1000
G1 X17.480 Y73.073 F1000
G1 X17.480 Y73.176 F1000
G1 X17.583 Y73.279 F1000
G1 X17.789 Y73.279 F1000
G1 X17.892 Y73.176 F1000
G1 X17.789 Y73.073 F1000
G1 X17.789 Y72.970 F1000
G1 X17.686 Y72.867 F1000
G0 Z3.0 ; Pen up

G0 X17.583 Y73.279 F3000 ; Travel to line 17
G0 Z0.0 ; Pen down
G1 X17.480 Y73.382 F1000
G1 X17.480 Y74.309 F1000
G1 X17.583 Y74.412 F1000
G1 X18.922 Y74.412 F1000
G1 X19.025 Y74.309 F1000
G1 X19.025 Y73.382 F1000
G1 X18.922 Y73.279 F1000
G0 Z3.0 ; Pen up

G0 X19.128 Y72.970 F3000 ; Travel to line 18
G0 Z0.0 ; Pen down
G1 X19.025 Y73.073 F1000
G1 X19.025 Y74.927 F1000
G1 X19.128 Y75.030 F1000
G1 X19.128 Y75.648 F1000
G1 X19.231 Y75.751 F1000
G1 X19.231 Y76.163 F1000
G1 X19.437 Y76.369 F1000
G1 X19.540 Y76.266 F1000
G1 X19.540 Y71.734 F1000
G1 X19.437 Y71.631 F1000
G1 X19.231 Y71.837 F1000
G1 X19.231 Y72.249 F1000
G1 X19.128 Y72.352 F1000
G0 Z3.0 ; Pen up

G0 X18.304 Y73.176 F3000 ; Travel to line 19
G0 Z0.0 ; Pen down
G1 X18.201 Y73.279 F1000
G1 X18.098 Y73.176 F1000
G1 X18.201 Y73.073 F1000
G0 Z3.0 ; Pen up

G0 X17.789 Y73.691 F3000 ; Travel to line 20
G0 Z0.0 ; Pen down
G1 X17.892 Y73.588 F1000
G1 X17.789 Y73.691 F1000
G1 X17.789 Y73.897 F1000
G1 X17.892 Y74.000 F1000
G1 X18.098 Y74.000 F1000
G1 X18.407 Y73.691 F1000
G1 X18.613 Y73.691 F1000
G1 X18.613 Y74.000 F1000
G1 X18.613 Y73.794 F1000
G1 X18.510 Y73.691 F1000
G1 X18.201 Y74.000 F1000
G1 X17.892 Y74.000 F1000
G1 X17.789 Y73.897 F1000
G0 Z3.0 ; Pen up

G0 X17.583 Y74.412 F3000 ; Travel to line 21
G0 Z0.0 ; Pen down
G1 X17.480 Y74.515 F1000
G1 X17.480 Y74.927 F1000
G1 X17.583 Y75.030 F1000
G1 X17.583 Y75.545 F1000
G1 X17.686 Y75.648 F1000
G1 X17.995 Y75.648 F1000
G1 X18.098 Y75.545 F1000
G1 X18.819 Y75.545 F1000
G1 X18.922 Y75.442 F1000
G1 X19.025 Y75.442 F1000
G1 X19.128 Y75.339 F1000
G1 X19.128 Y75.030 F1000
G1 X19.025 Y74.927 F1000
G1 X19.025 Y74.515 F1000
G1 X18.922 Y74.412 F1000
G0 Z3.0 ; Pen up

G0 X17.583 Y72.249 F3000 ; Travel to line 22
G0 Z0.0 ; Pen down
G1 X17.583 Y72.764 F1000
G1 X17.686 Y72.867 F1000
G1 X17.789 Y72.867 F1000
G1 X17.892 Y72.764 F1000
G1 X17.789 Y72.867 F1000
G1 X17.789 Y73.073 F1000
G1 X17.995 Y73.279 F1000
G1 X18.201 Y73.073 F1000
G1 X18.201 Y72.867 F1000
G1 X18.201 Y73.073 F1000
G1 X18.407 Y73.279 F1000
G1 X18.613 Y73.073 F1000
G1 X18.613 Y72.867 F1000
G1 X18.510 Y72.764 F1000
G1 X18.613 Y72.867 F1000
G1 X18.613 Y73.073 F1000
G1 X18.510 Y73.176 F1000
G1 X18.613 Y73.279 F1000
G1 X18.922 Y73.279 F1000
G1 X19.025 Y73.176 F1000
G1 X19.025 Y73.073 F1000
G1 X19.128 Y72.970 F1000
G1 X19.128 Y72.352 F1000
G1 X19.025 Y72.249 F1000
G1 X18.716 Y72.249 F1000
G1 X18.613 Y72.146 F1000
G1 X18.510 Y72.146 F1000
G1 X18.407 Y72.249 F1000
G1 X18.407 Y72.455 F1000
G1 X18.407 Y72.352 F1000
G1 X18.304 Y72.249 F1000
G1 X18.201 Y72.352 F1000
G1 X18.201 Y72.455 F1000
G1 X18.201 Y72.249 F1000
G1 X18.098 Y72.146 F1000
G1 X17.892 Y72.146 F1000
G1 X17.789 Y72.043 F1000
G0 Z3.0 ; Pen up

G0 X17.789 Y71.528 F3000 ; Travel to line 23
G0 Z0.0 ; Pen down
G1 X17.686 Y71.631 F1000
G1 X17.686 Y71.940 F1000
G1 X17.892 Y72.146 F1000
G1 X18.098 Y72.146 F1000
G1 X18.201 Y72.043 F1000
G1 X18.201 Y71.734 F1000
G1 X18.201 Y72.043 F1000
G1 X18.304 Y72.146 F1000
G1 X18.407 Y72.043 F1000
G1 X18.407 Y71.734 F1000
G1 X18.407 Y72.043 F1000
G1 X18.510 Y72.146 F1000
G1 X18.613 Y72.146 F1000
G1 X18.716 Y72.249 F1000
G1 X19.128 Y72.249 F1000
G1 X19.231 Y72.146 F1000
G1 X19.231 Y71.837 F1000
G1 X19.334 Y71.734 F1000
G1 X19.334 Y71.631 F1000
G1 X19.437 Y71.528 F1000
G1 X19.437 Y71.322 F1000
G1 X19.334 Y71.219 F1000
G1 X19.128 Y71.219 F1000
G1 X19.025 Y71.116 F1000
G1 X18.510 Y71.116 F1000
G1 X18.407 Y71.219 F1000
G1 X17.892 Y71.219 F1000
G1 X17.789 Y71.322 F1000
G0 Z3.0 ; Pen up

G0 X17.995 Y70.910 F3000 ; Travel to line 24
G0 Z0.0 ; Pen down
G1 X17.892 Y71.013 F1000
G1 X17.892 Y71.116 F1000
G1 X17.995 Y71.219 F1000
G1 X18.304 Y71.219 F1000
G1 X18.407 Y71.116 F1000
G1 X18.201 Y70.910 F1000
G0 Z3.0 ; Pen up

G0 X17.995 Y70.704 F3000 ; Travel to line 25
G0 Z0.0 ; Pen down
G1 X17.892 Y70.807 F1000
G1 X17.995 Y70.910 F1000
G1 X18.201 Y70.910 F1000
G1 X18.304 Y71.013 F1000
G1 X18.407 Y71.013 F1000
G1 X18.510 Y71.116 F1000
G1 X19.025 Y71.116 F1000
G1 X19.128 Y71.219 F1000
G1 X19.437 Y71.219 F1000
G1 X19.540 Y71.116 F1000
G1 X19.540 Y70.498 F1000
G1 X19.643 Y70.395 F1000
G1 X19.643 Y70.189 F1000
G1 X19.540 Y70.086 F1000
G1 X19.128 Y70.086 F1000
G1 X19.025 Y69.983 F1000
G1 X18.819 Y69.983 F1000
G1 X18.716 Y69.880 F1000
G1 X18.613 Y69.880 F1000
G1 X18.510 Y69.777 F1000
G1 X18.304 Y69.777 F1000
G1 X18.201 Y69.880 F1000
G1 X18.201 Y70.086 F1000
G1 X18.098 Y70.189 F1000
G1 X18.098 Y70.395 F1000
G1 X17.995 Y70.498 F1000
G0 Z3.0 ; Pen up

G0 X18.407 Y69.468 F3000 ; Travel to line 26
G0 Z0.0 ; Pen down
G1 X18.304 Y69.571 F1000
G1 X18.304 Y69.674 F1000
G1 X18.407 Y69.777 F1000
G1 X18.510 Y69.777 F1000
G1 X18.613 Y69.880 F1000
G1 X18.716 Y69.880 F1000
G1 X18.819 Y69.983 F1000
G1 X19.025 Y69.983 F1000
G1 X19.128 Y70.086 F1000
G1 X19.437 Y70.086 F1000
G1 X19.540 Y69.983 F1000
G1 X19.540 Y69.056 F1000
G1 X19.437 Y68.953 F1000
G1 X19.231 Y68.953 F1000
G1 X19.128 Y68.850 F1000
G1 X19.025 Y68.850 F1000
G1 X18.922 Y68.747 F1000
G1 X18.716 Y68.747 F1000
G1 X18.613 Y68.850 F1000
G1 X18.613 Y68.953 F1000
G1 X18.510 Y69.056 F1000
G1 X18.510 Y69.262 F1000
G1 X18.407 Y69.365 F1000
G0 Z3.0 ; Pen up

G0 X18.819 Y68.541 F3000 ; Travel to line 27
G0 Z0.0 ; Pen down
G1 X18.716 Y68.644 F1000
G1 X18.819 Y68.747 F1000
G1 X19.025 Y68.747 F1000
G1 X19.128 Y68.850 F1000
G1 X19.231 Y68.850 F1000
G1 X19.334 Y68.953 F1000
G1 X19.437 Y68.953 F1000
G1 X19.540 Y68.850 F1000
G1 X19.540 Y68.026 F1000
G1 X19.643 Y67.923 F1000
G1 X19.540 Y67.820 F1000
G1 X19.540 Y67.717 F1000
G1 X19.437 Y67.614 F1000
G1 X19.128 Y67.923 F1000
G1 X19.128 Y68.026 F1000
G1 X18.922 Y68.232 F1000
G1 X18.922 Y68.335 F1000
G1 X18.819 Y68.438 F1000
G0 Z3.0 ; Pen up

G0 X19.643 Y68.026 F3000 ; Travel to line 28
G0 Z0.0 ; Pen down
G1 X19.540 Y68.129 F1000
G1 X19.540 Y69.056 F1000
G1 X19.643 Y69.159 F1000
G1 X19.849 Y69.159 F1000
G1 X19.952 Y69.262 F1000
G1 X20.158 Y69.262 F1000
G1 X20.261 Y69.159 F1000
G1 X20.261 Y69.056 F1000
G1 X20.364 Y68.953 F1000
G1 X20.364 Y68.850 F1000
G1 X20.467 Y68.747 F1000
G1 X20.467 Y68.541 F1000
G1 X20.364 Y68.438 F1000
G1 X20.364 Y68.335 F1000
G1 X20.261 Y68.232 F1000
G1 X20.158 Y68.232 F1000
G1 X19.952 Y68.026 F1000
G0 Z3.0 ; Pen up

G0 X20.467 Y68.335 F3000 ; Travel to line 29
G0 Z0.0 ; Pen down
G1 X20.364 Y68.438 F1000
G1 X20.467 Y68.541 F1000
G1 X20.570 Y68.438 F1000
G0 Z3.0 ; Pen up

G0 X19.746 Y69.159 F3000 ; Travel to line 30
G0 Z0.0 ; Pen down
G1 X19.849 Y69.262 F1000
G1 X19.952 Y69.262 F1000
G1 X20.055 Y69.365 F1000
G1 X20.055 Y69.571 F1000
G1 X19.952 Y69.674 F1000
G1 X19.952 Y69.777 F1000
G1 X19.849 Y69.880 F1000
G1 X19.849 Y69.983 F1000
G1 X19.643 Y70.189 F1000
G1 X19.540 Y70.086 F1000
G1 X19.540 Y69.262 F1000
G1 X19.643 Y69.159 F1000
G0 Z3.0 ; Pen up

G0 X19.540 Y70.498 F3000 ; Travel to line 31
G0 Z0.0 ; Pen down
G1 X19.643 Y70.395 F1000
G1 X19.643 Y70.189 F1000
G1 X19.746 Y70.086 F1000
G1 X19.849 Y70.086 F1000
G1 X19.849 Y69.880 F1000
G1 X19.952 Y69.777 F1000
G1 X19.952 Y69.674 F1000
G1 X20.055 Y69.571 F1000
G1 X20.055 Y69.365 F1000
G1 X20.261 Y69.159 F1000
G1 X20.261 Y69.056 F1000
G1 X20.364 Y68.953 F1000
G1 X20.364 Y68.850 F1000
G1 X20.467 Y68.747 F1000
G1 X20.467 Y68.644 F1000
G1 X20.673 Y68.438 F1000
G1 X20.673 Y68.335 F1000
G1 X20.776 Y68.232 F1000
G1 X20.776 Y68.129 F1000
G1 X21.085 Y67.820 F1000
G1 X21.085 Y67.717 F1000
G1 X21.394 Y67.408 F1000
G1 X21.394 Y67.305 F1000
G1 X23.145 Y65.554 F1000
G1 X23.248 Y65.554 F1000
G1 X23.557 Y65.245 F1000
G1 X23.660 Y65.245 F1000
G1 X23.969 Y64.936 F1000
G1 X24.072 Y64.936 F1000
G1 X24.175 Y64.833 F1000
G1 X24.278 Y64.833 F1000
G1 X24.484 Y64.627 F1000
G1 X24.587 Y64.627 F1000
G1 X24.690 Y64.524 F1000
G1 X24.793 Y64.524 F1000
G1 X24.896 Y64.421 F1000
G1 X24.999 Y64.421 F1000
G1 X25.205 Y64.215 F1000
G1 X25.411 Y64.215 F1000
G1 X25.514 Y64.112 F1000
G1 X25.617 Y64.112 F1000
G1 X25.720 Y64.009 F1000
G1 X25.926 Y64.009 F1000
G1 X26.132 Y63.803 F1000
G1 X26.441 Y63.803 F1000
G1 X26.544 Y63.700 F1000
G1 X26.750 Y63.700 F1000
G1 X26.853 Y63.597 F1000
G1 X27.059 Y63.597 F1000
G1 X27.162 Y63.494 F1000
G1 X27.574 Y63.494 F1000
G1 X27.677 Y63.391 F1000
G1 X28.089 Y63.391 F1000
G1 X28.192 Y63.288 F1000
G1 X28.810 Y63.288 F1000
G1 X28.913 Y63.185 F1000
G1 X29.943 Y63.185 F1000
G1 X30.046 Y63.288 F1000
G1 X29.943 Y63.391 F1000
G1 X29.943 Y64.215 F1000
G1 X29.840 Y64.318 F1000
G1 X29.840 Y66.172 F1000
G1 X29.943 Y66.275 F1000
G1 X29.943 Y66.893 F1000
G1 X30.046 Y66.996 F1000
G1 X30.046 Y67.614 F1000
G1 X30.149 Y67.717 F1000
G1 X30.149 Y68.026 F1000
G1 X30.252 Y68.129 F1000
G1 X30.252 Y68.438 F1000
G1 X30.355 Y68.541 F1000
G1 X30.355 Y68.747 F1000
G1 X30.458 Y68.850 F1000
G1 X30.458 Y69.056 F1000
G1 X30.561 Y69.159 F1000
G1 X30.561 Y69.365 F1000
G1 X30.664 Y69.468 F1000
G1 X30.664 Y69.674 F1000
G1 X30.767 Y69.777 F1000
G1 X30.767 Y69.880 F1000
G1 X30.870 Y69.983 F1000
G1 X30.870 Y70.189 F1000
G1 X31.076 Y70.395 F1000
G1 X31.076 Y70.601 F1000
G1 X31.179 Y70.704 F1000
G1 X31.179 Y70.807 F1000
G1 X31.282 Y70.910 F1000
G1 X31.282 Y71.013 F1000
G1 X31.488 Y71.219 F1000
G1 X31.488 Y71.322 F1000
G1 X31.591 Y71.425 F1000
G1 X31.591 Y71.528 F1000
G1 X31.694 Y71.631 F1000
G1 X31.694 Y71.734 F1000
G1 X31.900 Y71.940 F1000
G1 X31.900 Y72.043 F1000
G1 X32.003 Y72.146 F1000
G1 X32.003 Y72.249 F1000
G1 X32.106 Y72.352 F1000
G1 X32.209 Y72.352 F1000
G1 X32.312 Y72.455 F1000
G1 X32.312 Y72.558 F1000
G1 X32.415 Y72.661 F1000
G1 X32.415 Y72.764 F1000
G1 X32.724 Y73.073 F1000
G1 X32.724 Y73.176 F1000
G1 X32.930 Y73.382 F1000
G1 X33.033 Y73.382 F1000
G1 X33.136 Y73.485 F1000
G1 X33.136 Y73.588 F1000
G1 X33.754 Y74.206 F1000
G1 X33.857 Y74.206 F1000
G1 X33.960 Y74.309 F1000
G1 X33.960 Y74.412 F1000
G1 X34.269 Y74.721 F1000
G1 X34.372 Y74.721 F1000
G1 X34.681 Y75.030 F1000
G1 X34.784 Y75.030 F1000
G1 X34.887 Y75.133 F1000
G1 X34.887 Y75.236 F1000
G1 X34.990 Y75.236 F1000
G1 X35.093 Y75.339 F1000
G1 X35.196 Y75.339 F1000
G1 X35.402 Y75.545 F1000
G1 X35.505 Y75.545 F1000
G1 X35.608 Y75.648 F1000
G1 X35.711 Y75.648 F1000
G1 X35.917 Y75.854 F1000
G1 X36.020 Y75.854 F1000
G1 X36.123 Y75.957 F1000
G1 X36.226 Y75.957 F1000
G1 X36.432 Y76.163 F1000
G1 X36.535 Y76.163 F1000
G1 X36.638 Y76.266 F1000
G1 X36.844 Y76.266 F1000
G1 X37.050 Y76.472 F1000
G1 X37.050 Y76.678 F1000
G1 X36.844 Y76.884 F1000
G1 X36.638 Y76.884 F1000
G1 X36.020 Y77.502 F1000
G1 X36.020 Y77.708 F1000
G1 X35.711 Y78.017 F1000
G1 X35.711 Y78.120 F1000
G1 X35.505 Y78.326 F1000
G1 X35.505 Y78.429 F1000
G1 X35.402 Y78.532 F1000
G1 X35.299 Y78.532 F1000
G1 X35.299 Y78.635 F1000
G1 X35.196 Y78.738 F1000
G1 X35.196 Y78.841 F1000
G1 X34.990 Y79.047 F1000
G1 X34.990 Y79.253 F1000
G1 X34.784 Y79.459 F1000
G1 X34.784 Y79.665 F1000
G1 X34.681 Y79.768 F1000
G1 X34.681 Y79.871 F1000
G1 X34.578 Y79.974 F1000
G1 X34.578 Y80.077 F1000
G1 X34.475 Y80.180 F1000
G1 X34.475 Y80.386 F1000
G1 X34.372 Y80.489 F1000
G1 X34.372 Y80.695 F1000
G1 X34.269 Y80.798 F1000
G1 X34.269 Y81.107 F1000
G1 X34.166 Y81.210 F1000
G1 X34.166 Y81.313 F1000
G1 X34.063 Y81.416 F1000
G1 X34.063 Y82.343 F1000
G1 X33.960 Y82.446 F1000
G1 X33.960 Y83.476 F1000
G1 X34.063 Y83.579 F1000
G1 X34.063 Y83.785 F1000
G1 X33.857 Y83.991 F1000
G1 X33.754 Y83.991 F1000
G1 X33.651 Y84.094 F1000
G1 X33.445 Y84.094 F1000
G1 X33.342 Y84.197 F1000
G1 X33.136 Y84.197 F1000
G1 X33.033 Y84.300 F1000
G1 X32.724 Y84.300 F1000
G1 X32.621 Y84.403 F1000
G1 X32.312 Y84.403 F1000
G1 X32.209 Y84.506 F1000
G1 X31.797 Y84.506 F1000
G1 X31.694 Y84.609 F1000
G1 X31.076 Y84.609 F1000
G1 X30.973 Y84.712 F1000
G1 X28.707 Y84.712 F1000
G1 X28.604 Y84.609 F1000
G1 X27.986 Y84.609 F1000
G1 X27.883 Y84.506 F1000
G1 X27.471 Y84.506 F1000
G1 X27.368 Y84.403 F1000
G1 X27.059 Y84.403 F1000
G1 X26.956 Y84.300 F1000
G1 X26.647 Y84.300 F1000
G1 X26.544 Y84.197 F1000
G1 X26.338 Y84.197 F1000
G1 X26.235 Y84.094 F1000
G1 X26.029 Y84.094 F1000
G1 X25.926 Y83.991 F1000
G1 X25.823 Y83.991 F1000
G1 X25.720 Y83.888 F1000
G1 X25.514 Y83.888 F1000
G1 X25.411 Y83.785 F1000
G1 X25.308 Y83.785 F1000
G1 X25.205 Y83.682 F1000
G1 X25.102 Y83.682 F1000
G1 X24.999 Y83.579 F1000
G1 X24.896 Y83.579 F1000
G1 X24.793 Y83.476 F1000
G1 X24.690 Y83.476 F1000
G1 X24.587 Y83.373 F1000
G1 X24.484 Y83.373 F1000
G1 X24.278 Y83.167 F1000
G1 X24.175 Y83.167 F1000
G1 X24.072 Y83.064 F1000
G1 X23.969 Y83.064 F1000
G1 X23.660 Y82.755 F1000
G1 X23.557 Y82.755 F1000
G1 X23.454 Y82.652 F1000
G1 X23.351 Y82.652 F1000
G1 X23.248 Y82.549 F1000
G1 X23.248 Y82.446 F1000
G1 X23.145 Y82.446 F1000
G1 X22.733 Y82.034 F1000
G1 X22.630 Y82.034 F1000
G1 X22.424 Y81.828 F1000
G1 X22.424 Y81.725 F1000
G1 X22.012 Y81.313 F1000
G1 X21.909 Y81.313 F1000
G1 X21.703 Y81.107 F1000
G1 X21.703 Y81.004 F1000
G1 X21.394 Y80.695 F1000
G1 X21.394 Y80.592 F1000
G1 X21.085 Y80.283 F1000
G1 X21.085 Y80.180 F1000
G1 X20.776 Y79.871 F1000
G1 X20.776 Y79.768 F1000
G1 X20.673 Y79.665 F1000
G1 X20.673 Y79.562 F1000
G1 X20.467 Y79.356 F1000
G1 X20.467 Y79.253 F1000
G1 X20.364 Y79.150 F1000
G1 X20.364 Y79.047 F1000
G1 X20.261 Y78.944 F1000
G1 X20.261 Y78.841 F1000
G1 X20.158 Y78.738 F1000
G1 X20.158 Y78.635 F1000
G1 X19.952 Y78.429 F1000
G1 X19.952 Y78.223 F1000
G1 X19.849 Y78.120 F1000
G1 X19.849 Y77.914 F1000
G1 X19.746 Y77.914 F1000
G1 X19.643 Y77.811 F1000
G1 X19.643 Y77.605 F1000
G1 X19.540 Y77.502 F1000
G1 X19.540 Y76.575 F1000
G1 X19.437 Y76.472 F1000
G1 X19.540 Y76.369 F1000
G1 X19.540 Y71.631 F1000
G1 X19.437 Y71.528 F1000
G1 X19.437 Y71.322 F1000
G1 X19.540 Y71.219 F1000
G0 Z3.0 ; Pen up

G0 X15.729 Y71.219 F3000 ; Travel to line 32
G0 Z0.0 ; Pen down
G1 X15.935 Y71.013 F1000
G1 X16.450 Y71.013 F1000
G1 X16.656 Y71.219 F1000
G1 X16.656 Y71.734 F1000
G1 X16.244 Y71.734 F1000
G1 X16.244 Y71.528 F1000
G1 X16.244 Y71.631 F1000
G1 X16.347 Y71.734 F1000
G1 X16.553 Y71.734 F1000
G1 X16.656 Y71.631 F1000
G1 X16.656 Y71.322 F1000
G1 X16.347 Y71.013 F1000
G1 X16.038 Y71.013 F1000
G1 X15.729 Y71.322 F1000
G1 X15.729 Y71.631 F1000
G1 X15.832 Y71.734 F1000
G1 X15.729 Y71.631 F1000
G0 Z3.0 ; Pen up

G0 X15.729 Y72.249 F3000 ; Travel to line 33
G0 Z0.0 ; Pen down
G1 X15.832 Y72.146 F1000
G1 X16.553 Y72.146 F1000
G1 X16.656 Y72.249 F1000
G1 X16.656 Y72.764 F1000
G1 X16.656 Y72.249 F1000
G1 X16.553 Y72.146 F1000
G1 X16.244 Y72.146 F1000
G1 X16.141 Y72.249 F1000
G1 X16.141 Y72.764 F1000
G1 X16.141 Y72.249 F1000
G1 X16.038 Y72.146 F1000
G1 X15.832 Y72.146 F1000
G1 X15.729 Y72.249 F1000
G1 X15.729 Y72.764 F1000
G0 Z3.0 ; Pen up

G0 X15.832 Y73.279 F3000 ; Travel to line 34
G0 Z0.0 ; Pen down
G1 X16.038 Y73.279 F1000
G1 X16.141 Y73.176 F1000
G1 X16.244 Y73.176 F1000
G1 X16.347 Y73.073 F1000
G1 X16.656 Y73.073 F1000
G1 X16.450 Y73.073 F1000
G1 X16.347 Y73.176 F1000
G1 X16.347 Y73.588 F1000
G1 X16.553 Y73.794 F1000
G1 X16.656 Y73.794 F1000
G1 X16.450 Y73.794 F1000
G1 X16.244 Y73.588 F1000
G1 X15.935 Y73.588 F1000
G1 X15.832 Y73.485 F1000
G0 Z3.0 ; Pen up

G0 X15.935 Y73.279 F3000 ; Travel to line 35
G0 Z0.0 ; Pen down
G1 X15.832 Y73.382 F1000
G1 X16.038 Y73.588 F1000
G1 X16.244 Y73.588 F1000
G1 X16.347 Y73.485 F1000
G1 X16.347 Y73.279 F1000
G1 X16.244 Y73.176 F1000
G1 X16.141 Y73.279 F1000
G0 Z3.0 ; Pen up

G0 X16.141 Y74.000 F3000 ; Travel to line 36
G0 Z0.0 ; Pen down
G1 X16.244 Y74.103 F1000
G1 X16.244 Y74.412 F1000
G1 X16.141 Y74.515 F1000
G1 X15.832 Y74.515 F1000
G1 X15.729 Y74.412 F1000
G1 X15.729 Y74.103 F1000
G1 X15.832 Y74.000 F1000
G0 Z3.0 ; Pen up

G0 X15.729 Y74.103 F3000 ; Travel to line 37
G0 Z0.0 ; Pen down
G1 X15.832 Y74.000 F1000
G1 X16.553 Y74.000 F1000
G1 X16.347 Y74.000 F1000
G1 X16.244 Y74.103 F1000
G1 X16.244 Y74.412 F1000
G1 X16.347 Y74.515 F1000
G1 X16.450 Y74.515 F1000
G1 X15.729 Y74.515 F1000
G0 Z3.0 ; Pen up

G0 X15.832 Y75.442 F3000 ; Travel to line 38
G0 Z0.0 ; Pen down
G1 X15.729 Y75.545 F1000
G1 X15.729 Y75.854 F1000
G1 X15.935 Y76.060 F1000
G1 X16.141 Y75.854 F1000
G1 X16.141 Y75.545 F1000
G1 X16.038 Y75.442 F1000
G0 Z3.0 ; Pen up

G0 X16.244 Y75.442 F3000 ; Travel to line 39
G0 Z0.0 ; Pen down
G1 X16.141 Y75.545 F1000
G1 X16.141 Y75.854 F1000
G1 X16.347 Y76.060 F1000
G1 X16.450 Y76.060 F1000
G1 X16.656 Y75.854 F1000
G1 X16.656 Y75.545 F1000
G1 X16.553 Y75.442 F1000
G0 Z3.0 ; Pen up

G0 X15.729 Y75.545 F3000 ; Travel to line 40
G0 Z0.0 ; Pen down
G1 X15.832 Y75.442 F1000
G1 X16.553 Y75.442 F1000
G1 X16.656 Y75.545 F1000
G1 X16.656 Y75.957 F1000
G1 X16.553 Y76.060 F1000
G1 X16.244 Y76.060 F1000
G1 X16.141 Y75.957 F1000
G1 X16.038 Y76.060 F1000
G1 X15.832 Y76.060 F1000
G1 X15.729 Y75.957 F1000
G0 Z3.0 ; Pen up

G0 X8.725 Y72.043 F3000 ; Travel to line 41
G0 Z0.0 ; Pen down
G1 X8.828 Y72.146 F1000
G1 X8.828 Y72.867 F1000
G1 X8.828 Y72.146 F1000
G1 X8.725 Y72.043 F1000
G1 X7.386 Y72.043 F1000
G0 Z3.0 ; Pen up

G0 X7.283 Y70.910 F3000 ; Travel to line 42
G0 Z0.0 ; Pen down
G1 X7.386 Y71.013 F1000
G1 X8.004 Y71.013 F1000
G1 X8.107 Y71.116 F1000
G1 X8.725 Y71.116 F1000
G1 X8.725 Y71.013 F1000
G1 X8.828 Y70.910 F1000
G1 X8.828 Y70.292 F1000
G1 X8.725 Y70.189 F1000
G1 X7.283 Y70.189 F1000
G0 Z3.0 ; Pen up

G0 X7.386 Y70.189 F3000 ; Travel to line 43
G0 Z0.0 ; Pen down
G1 X7.283 Y70.292 F1000
G1 X7.283 Y70.910 F1000
G1 X7.386 Y71.013 F1000
G1 X7.901 Y71.013 F1000
G1 X8.004 Y70.910 F1000
G1 X8.004 Y70.292 F1000
G1 X7.901 Y70.189 F1000
G0 Z3.0 ; Pen up

G0 X8.107 Y70.189 F3000 ; Travel to line 44
G0 Z0.0 ; Pen down
G1 X8.004 Y70.292 F1000
G1 X8.004 Y71.013 F1000
G1 X8.107 Y71.116 F1000
G1 X8.622 Y71.116 F1000
G1 X8.828 Y70.910 F1000
G1 X8.828 Y70.292 F1000
G1 X8.725 Y70.189 F1000
G0 Z3.0 ; Pen up

G0 X7.592 Y69.159 F3000 ; Travel to line 45
G0 Z0.0 ; Pen down
G1 X7.695 Y69.262 F1000
G1 X8.622 Y69.262 F1000
G1 X7.695 Y69.262 F1000
G1 X7.592 Y69.159 F1000
G1 X7.695 Y69.056 F1000
G1 X7.695 Y68.953 F1000
G1 X7.901 Y68.747 F1000
G1 X8.004 Y68.747 F1000
G1 X8.107 Y68.644 F1000
G1 X8.210 Y68.644 F1000
G1 X8.210 Y68.541 F1000
G1 X8.313 Y68.438 F1000
G1 X8.416 Y68.438 F1000
G1 X8.313 Y68.438 F1000
G1 X8.107 Y68.232 F1000
G1 X8.004 Y68.232 F1000
G1 X7.798 Y68.026 F1000
G1 X7.798 Y67.923 F1000
G1 X7.695 Y67.820 F1000
G1 X7.798 Y67.717 F1000
G1 X8.622 Y67.717 F1000
G1 X7.695 Y67.717 F1000
G1 X7.695 Y67.820 F1000
G1 X7.798 Y67.923 F1000
G1 X7.798 Y68.026 F1000
G1 X7.901 Y68.129 F1000
G1 X7.901 Y68.232 F1000
G1 X8.107 Y68.232 F1000
G1 X8.210 Y68.335 F1000
G1 X8.210 Y68.541 F1000
G1 X8.004 Y68.747 F1000
G1 X7.798 Y68.747 F1000
G1 X7.798 Y68.850 F1000
G1 X7.592 Y69.056 F1000
G0 Z3.0 ; Pen up

G0 X7.283 Y66.790 F3000 ; Travel to line 46
G0 Z0.0 ; Pen down
G1 X7.283 Y66.172 F1000
G1 X7.386 Y66.069 F1000
G1 X7.901 Y66.069 F1000
G1 X8.004 Y66.172 F1000
G1 X8.004 Y66.790 F1000
G1 X8.004 Y66.172 F1000
G1 X8.107 Y66.069 F1000
G1 X8.725 Y66.069 F1000
G1 X8.828 Y66.172 F1000
G1 X8.828 Y66.893 F1000
G1 X8.828 Y66.172 F1000
G1 X8.725 Y66.069 F1000
G1 X7.283 Y66.069 F1000
G0 Z3.0 ; Pen up

G0 X7.283 Y65.039 F3000 ; Travel to line 47
G0 Z0.0 ; Pen down
G1 X7.283 Y64.524 F1000
G1 X7.592 Y64.215 F1000
G1 X7.695 Y64.215 F1000
G1 X8.004 Y64.524 F1000
G1 X8.004 Y64.627 F1000
G1 X8.107 Y64.730 F1000
G1 X8.107 Y65.039 F1000
G1 X8.210 Y65.142 F1000
G1 X8.725 Y65.142 F1000
G1 X8.725 Y65.039 F1000
G1 X8.828 Y64.936 F1000
G1 X8.828 Y64.421 F1000
G1 X8.725 Y64.318 F1000
G1 X8.725 Y64.215 F1000
G1 X8.725 Y64.318 F1000
G1 X8.828 Y64.421 F1000
G1 X8.828 Y64.936 F1000
G1 X8.622 Y65.142 F1000
G1 X8.313 Y65.142 F1000
G1 X8.107 Y64.936 F1000
G1 X8.107 Y64.730 F1000
G1 X8.004 Y64.627 F1000
G1 X8.004 Y64.421 F1000
G1 X7.901 Y64.318 F1000
G1 X7.798 Y64.318 F1000
G1 X7.695 Y64.215 F1000
G1 X7.592 Y64.215 F1000
G1 X7.489 Y64.318 F1000
G1 X7.386 Y64.318 F1000
G1 X7.386 Y64.421 F1000
G1 X7.283 Y64.524 F1000
G0 Z3.0 ; Pen up

G0 X7.283 Y63.288 F3000 ; Travel to line 48
G0 Z0.0 ; Pen down
G1 X7.283 Y62.773 F1000
G1 X7.592 Y62.464 F1000
G1 X7.695 Y62.464 F1000
G1 X8.004 Y62.773 F1000
G1 X8.004 Y62.876 F1000
G1 X8.107 Y62.979 F1000
G1 X8.107 Y63.288 F1000
G1 X8.210 Y63.391 F1000
G1 X8.725 Y63.391 F1000
G1 X8.725 Y63.288 F1000
G1 X8.828 Y63.185 F1000
G1 X8.828 Y62.670 F1000
G1 X8.725 Y62.567 F1000
G1 X8.725 Y62.464 F1000
G1 X8.725 Y62.567 F1000
G1 X8.828 Y62.670 F1000
G1 X8.828 Y63.185 F1000
G1 X8.622 Y63.391 F1000
G1 X8.313 Y63.391 F1000
G1 X8.107 Y63.185 F1000
G1 X8.107 Y62.979 F1000
G1 X8.004 Y62.876 F1000
G1 X8.004 Y62.670 F1000
G1 X7.901 Y62.567 F1000
G1 X7.798 Y62.567 F1000
G1 X7.695 Y62.464 F1000
G1 X7.592 Y62.464 F1000
G1 X7.489 Y62.567 F1000
G1 X7.386 Y62.567 F1000
G1 X7.386 Y62.670 F1000
G1 X7.283 Y62.773 F1000
G0 Z3.0 ; Pen up

G0 X7.489 Y61.331 F3000 ; Travel to line 49
G0 Z0.0 ; Pen down
G1 X7.592 Y61.434 F1000
G1 X7.695 Y61.434 F1000
G1 X7.798 Y61.537 F1000
G1 X8.004 Y61.537 F1000
G1 X8.107 Y61.640 F1000
G1 X8.416 Y61.640 F1000
G1 X8.519 Y61.743 F1000
G1 X8.622 Y61.743 F1000
G1 X8.725 Y61.846 F1000
G1 X8.622 Y61.743 F1000
G1 X8.519 Y61.743 F1000
G1 X8.416 Y61.640 F1000
G1 X8.519 Y61.537 F1000
G1 X8.519 Y60.713 F1000
G1 X8.622 Y60.610 F1000
G1 X8.725 Y60.610 F1000
G1 X8.519 Y60.610 F1000
G1 X8.416 Y60.713 F1000
G1 X8.313 Y60.713 F1000
G1 X8.210 Y60.816 F1000
G1 X8.004 Y60.816 F1000
G1 X7.901 Y60.919 F1000
G1 X7.695 Y60.919 F1000
G1 X7.592 Y61.022 F1000
G1 X7.489 Y61.022 F1000
G0 Z3.0 ; Pen up

G0 X7.489 Y61.125 F3000 ; Travel to line 50
G0 Z0.0 ; Pen down
G1 X7.489 Y61.331 F1000
G1 X7.592 Y61.434 F1000
G1 X7.695 Y61.434 F1000
G1 X7.798 Y61.537 F1000
G1 X8.004 Y61.537 F1000
G1 X8.107 Y61.640 F1000
G1 X8.416 Y61.640 F1000
G1 X8.519 Y61.537 F1000
G1 X8.519 Y60.816 F1000
G1 X8.416 Y60.713 F1000
G1 X8.313 Y60.713 F1000
G1 X8.210 Y60.816 F1000
G1 X8.004 Y60.816 F1000
G1 X7.901 Y60.919 F1000
G1 X7.695 Y60.919 F1000
G0 Z3.0 ; Pen up

G0 X7.386 Y58.859 F3000 ; Travel to line 51
G0 Z0.0 ; Pen down
G1 X8.416 Y58.859 F1000
G1 X8.519 Y58.756 F1000
G1 X8.416 Y58.653 F1000
G1 X8.416 Y58.550 F1000
G1 X8.210 Y58.344 F1000
G1 X8.107 Y58.344 F1000
G1 X8.004 Y58.241 F1000
G1 X7.901 Y58.241 F1000
G1 X7.901 Y58.138 F1000
G1 X7.798 Y58.035 F1000
G1 X7.798 Y57.932 F1000
G1 X7.695 Y57.829 F1000
G1 X7.695 Y57.726 F1000
G1 X8.622 Y57.726 F1000
G1 X7.798 Y57.726 F1000
G1 X7.695 Y57.829 F1000
G1 X7.798 Y57.932 F1000
G1 X7.798 Y58.035 F1000
G1 X8.107 Y58.344 F1000
G1 X8.210 Y58.344 F1000
G1 X8.416 Y58.550 F1000
G1 X8.416 Y58.653 F1000
G1 X8.519 Y58.756 F1000
G1 X8.519 Y58.859 F1000
G0 Z3.0 ; Pen up

G0 X8.622 Y56.799 F3000 ; Travel to line 52
G0 Z0.0 ; Pen down
G1 X7.386 Y56.799 F1000
G0 Z3.0 ; Pen up

G0 X7.489 Y55.563 F3000 ; Travel to line 53
G0 Z0.0 ; Pen down
G1 X7.592 Y55.666 F1000
G1 X7.695 Y55.666 F1000
G1 X7.798 Y55.769 F1000
G1 X8.004 Y55.769 F1000
G1 X8.107 Y55.872 F1000
G1 X8.416 Y55.872 F1000
G1 X8.519 Y55.975 F1000
G1 X8.622 Y55.975 F1000
G1 X8.725 Y56.078 F1000
G1 X8.622 Y55.975 F1000
G1 X8.519 Y55.975 F1000
G1 X8.416 Y55.872 F1000
G1 X8.519 Y55.769 F1000
G1 X8.519 Y54.945 F1000
G1 X8.622 Y54.842 F1000
G1 X8.725 Y54.842 F1000
G1 X8.519 Y54.842 F1000
G1 X8.416 Y54.945 F1000
G1 X8.313 Y54.945 F1000
G1 X8.210 Y55.048 F1000
G1 X8.004 Y55.048 F1000
G1 X7.901 Y55.151 F1000
G1 X7.695 Y55.151 F1000
G1 X7.592 Y55.254 F1000
G1 X7.489 Y55.254 F1000
G0 Z3.0 ; Pen up

G0 X7.489 Y55.357 F3000 ; Travel to line 54
G0 Z0.0 ; Pen down
G1 X7.489 Y55.563 F1000
G1 X7.592 Y55.666 F1000
G1 X7.695 Y55.666 F1000
G1 X7.798 Y55.769 F1000
G1 X8.004 Y55.769 F1000
G1 X8.107 Y55.872 F1000
G1 X8.416 Y55.872 F1000
G1 X8.519 Y55.769 F1000
G1 X8.519 Y55.048 F1000
G1 X8.416 Y54.945 F1000
G1 X8.313 Y54.945 F1000
G1 X8.210 Y55.048 F1000
G1 X8.004 Y55.048 F1000
G1 X7.901 Y55.151 F1000
G1 X7.695 Y55.151 F1000
G0 Z3.0 ; Pen up

G0 X7.283 Y53.709 F3000 ; Travel to line 55
G0 Z0.0 ; Pen down
G1 X7.386 Y53.812 F1000
G1 X8.004 Y53.812 F1000
G1 X8.107 Y53.709 F1000
G1 X8.210 Y53.812 F1000
G1 X8.313 Y53.812 F1000
G1 X8.416 Y53.915 F1000
G1 X8.622 Y53.915 F1000
G1 X8.931 Y54.224 F1000
G1 X8.828 Y54.121 F1000
G1 X8.828 Y54.018 F1000
G1 X8.725 Y54.018 F1000
G1 X8.622 Y53.915 F1000
G1 X8.519 Y53.915 F1000
G1 X8.416 Y53.812 F1000
G1 X8.210 Y53.812 F1000
G1 X8.107 Y53.709 F1000
G1 X8.107 Y53.091 F1000
G1 X8.210 Y52.988 F1000
G1 X8.622 Y52.988 F1000
G1 X7.283 Y52.988 F1000
G0 Z3.0 ; Pen up

G0 X7.386 Y52.988 F3000 ; Travel to line 56
G0 Z0.0 ; Pen down
G1 X7.283 Y53.091 F1000
G1 X7.283 Y53.606 F1000
G1 X7.489 Y53.812 F1000
G1 X8.004 Y53.812 F1000
G1 X8.107 Y53.709 F1000
G1 X8.107 Y53.091 F1000
G1 X8.004 Y52.988 F1000
G0 Z3.0 ; Pen up

G0 X7.283 Y52.267 F3000 ; Travel to line 57
G0 Z0.0 ; Pen down
G1 X7.283 Y51.752 F1000
G1 X7.386 Y51.649 F1000
G1 X8.725 Y51.649 F1000
G1 X7.386 Y51.649 F1000
G1 X7.283 Y51.546 F1000
G1 X7.283 Y51.031 F1000
G0 Z3.0 ; Pen up

G0 X7.283 Y49.280 F3000 ; Travel to line 58
G0 Z0.0 ; Pen down
G1 X7.386 Y49.383 F1000
G1 X8.004 Y49.383 F1000
G1 X8.107 Y49.280 F1000
G1 X8.210 Y49.383 F1000
G1 X8.313 Y49.383 F1000
G1 X8.416 Y49.486 F1000
G1 X8.622 Y49.486 F1000
G1 X8.931 Y49.795 F1000
G1 X8.828 Y49.692 F1000
G1 X8.828 Y49.589 F1000
G1 X8.725 Y49.589 F1000
G1 X8.622 Y49.486 F1000
G1 X8.519 Y49.486 F1000
G1 X8.416 Y49.383 F1000
G1 X8.210 Y49.383 F1000
G1 X8.107 Y49.280 F1000
G1 X8.107 Y48.662 F1000
G1 X8.210 Y48.559 F1000
G1 X8.622 Y48.559 F1000
G1 X7.283 Y48.559 F1000
G0 Z3.0 ; Pen up

G0 X7.386 Y48.559 F3000 ; Travel to line 59
G0 Z0.0 ; Pen down
G1 X7.283 Y48.662 F1000
G1 X7.283 Y49.177 F1000
G1 X7.489 Y49.383 F1000
G1 X8.004 Y49.383 F1000
G1 X8.107 Y49.280 F1000
G1 X8.107 Y48.662 F1000
G1 X8.004 Y48.559 F1000
G0 Z3.0 ; Pen up

G0 X7.489 Y47.323 F3000 ; Travel to line 60
G0 Z0.0 ; Pen down
G1 X7.592 Y47.426 F1000
G1 X7.695 Y47.426 F1000
G1 X7.798 Y47.529 F1000
G1 X8.004 Y47.529 F1000
G1 X8.107 Y47.632 F1000
G1 X8.416 Y47.632 F1000
G1 X8.519 Y47.735 F1000
G1 X8.622 Y47.735 F1000
G1 X8.725 Y47.838 F1000
G1 X8.622 Y47.735 F1000
G1 X8.519 Y47.735 F1000
G1 X8.416 Y47.632 F1000
G1 X8.519 Y47.529 F1000
G1 X8.519 Y46.705 F1000
G1 X8.622 Y46.602 F1000
G1 X8.725 Y46.602 F1000
G1 X8.519 Y46.602 F1000
G1 X8.416 Y46.705 F1000
G1 X8.313 Y46.705 F1000
G1 X8.210 Y46.808 F1000
G1 X8.004 Y46.808 F1000
G1 X7.901 Y46.911 F1000
G1 X7.695 Y46.911 F1000
G1 X7.592 Y47.014 F1000
G1 X7.489 Y47.014 F1000
G0 Z3.0 ; Pen up

G0 X7.489 Y47.117 F3000 ; Travel to line 61
G0 Z0.0 ; Pen down
G1 X7.489 Y47.323 F1000
G1 X7.592 Y47.426 F1000
G1 X7.695 Y47.426 F1000
G1 X7.798 Y47.529 F1000
G1 X8.004 Y47.529 F1000
G1 X8.107 Y47.632 F1000
G1 X8.416 Y47.632 F1000
G1 X8.519 Y47.529 F1000
G1 X8.519 Y46.808 F1000
G1 X8.416 Y46.705 F1000
G1 X8.313 Y46.705 F1000
G1 X8.210 Y46.808 F1000
G1 X8.004 Y46.808 F1000
G1 X7.901 Y46.911 F1000
G1 X7.695 Y46.911 F1000
G0 Z3.0 ; Pen up

G0 X7.283 Y45.675 F3000 ; Travel to line 62
G0 Z0.0 ; Pen down
G1 X7.283 Y45.057 F1000
G1 X7.386 Y44.954 F1000
G1 X7.901 Y44.954 F1000
G1 X8.004 Y45.057 F1000
G1 X8.004 Y45.675 F1000
G1 X8.004 Y45.057 F1000
G1 X8.107 Y44.954 F1000
G1 X8.725 Y44.954 F1000
G1 X8.828 Y45.057 F1000
G1 X8.828 Y45.778 F1000
G1 X8.828 Y45.057 F1000
G1 X8.725 Y44.954 F1000
G1 X7.283 Y44.954 F1000
G0 Z3.0 ; Pen up

G0 X7.283 Y44.027 F3000 ; Travel to line 63
G0 Z0.0 ; Pen down
G1 X7.489 Y44.233 F1000
G1 X7.283 Y44.027 F1000
G1 X7.283 Y43.409 F1000
G1 X7.386 Y43.306 F1000
G1 X7.386 Y43.203 F1000
G1 X7.489 Y43.100 F1000
G1 X7.592 Y43.100 F1000
G1 X7.798 Y42.894 F1000
G1 X8.313 Y42.894 F1000
G1 X8.519 Y43.100 F1000
G1 X8.622 Y43.100 F1000
G1 X8.725 Y43.203 F1000
G1 X8.725 Y43.306 F1000
G1 X8.828 Y43.409 F1000
G1 X8.828 Y43.924 F1000
G1 X8.622 Y44.130 F1000
G1 X8.210 Y44.130 F1000
G1 X8.107 Y44.027 F1000
G1 X8.107 Y43.821 F1000
G1 X8.107 Y44.130 F1000
G1 X8.725 Y44.130 F1000
G1 X8.725 Y44.027 F1000
G1 X8.828 Y43.924 F1000
G1 X8.828 Y43.409 F1000
G1 X8.725 Y43.306 F1000
G1 X8.725 Y43.203 F1000
G1 X8.519 Y42.997 F1000
G1 X8.416 Y42.997 F1000
G1 X8.313 Y42.894 F1000
G1 X7.798 Y42.894 F1000
G1 X7.695 Y42.997 F1000
G1 X7.592 Y42.997 F1000
G1 X7.386 Y43.203 F1000
G1 X7.386 Y43.306 F1000
G1 X7.283 Y43.409 F1000
G0 Z3.0 ; Pen up

G0 X7.283 Y40.113 F3000 ; Travel to line 64
G0 Z0.0 ; Pen down
G1 X7.489 Y40.319 F1000
G1 X7.283 Y40.113 F1000
G1 X7.283 Y39.495 F1000
G1 X7.386 Y39.392 F1000
G1 X7.386 Y39.289 F1000
G1 X7.489 Y39.186 F1000
G1 X7.592 Y39.186 F1000
G1 X7.798 Y38.980 F1000
G1 X8.313 Y38.980 F1000
G1 X8.519 Y39.186 F1000
G1 X8.622 Y39.186 F1000
G1 X8.725 Y39.289 F1000
G1 X8.725 Y39.392 F1000
G1 X8.828 Y39.495 F1000
G1 X8.828 Y40.010 F1000
G1 X8.622 Y40.216 F1000
G1 X8.210 Y40.216 F1000
G1 X8.107 Y40.113 F1000
G1 X8.107 Y39.907 F1000
G1 X8.107 Y40.216 F1000
G1 X8.725 Y40.216 F1000
G1 X8.725 Y40.113 F1000
G1 X8.828 Y40.010 F1000
G1 X8.828 Y39.495 F1000
G1 X8.725 Y39.392 F1000
G1 X8.725 Y39.289 F1000
G1 X8.519 Y39.083 F1000
G1 X8.416 Y39.083 F1000
G1 X8.313 Y38.980 F1000
G1 X7.798 Y38.980 F1000
G1 X7.695 Y39.083 F1000
G1 X7.592 Y39.083 F1000
G1 X7.386 Y39.289 F1000
G1 X7.386 Y39.392 F1000
G1 X7.283 Y39.495 F1000
G0 Z3.0 ; Pen up

G0 X7.386 Y38.156 F3000 ; Travel to line 65
G0 Z0.0 ; Pen down
G1 X8.416 Y38.156 F1000
G1 X8.519 Y38.053 F1000
G1 X8.416 Y37.950 F1000
G1 X8.416 Y37.847 F1000
G1 X8.210 Y37.641 F1000
G1 X8.107 Y37.641 F1000
G1 X8.004 Y37.538 F1000
G1 X7.901 Y37.538 F1000
G1 X7.901 Y37.435 F1000
G1 X7.798 Y37.332 F1000
G1 X7.798 Y37.229 F1000
G1 X7.695 Y37.126 F1000
G1 X7.695 Y37.023 F1000
G1 X8.622 Y37.023 F1000
G1 X7.798 Y37.023 F1000
G1 X7.695 Y37.126 F1000
G1 X7.798 Y37.229 F1000
G1 X7.798 Y37.332 F1000
G1 X8.107 Y37.641 F1000
G1 X8.210 Y37.641 F1000
G1 X8.416 Y37.847 F1000
G1 X8.416 Y37.950 F1000
G1 X8.519 Y38.053 F1000
G1 X8.519 Y38.156 F1000
G0 Z3.0 ; Pen up

G0 X8.622 Y36.096 F3000 ; Travel to line 66
G0 Z0.0 ; Pen down
G1 X7.386 Y36.096 F1000
G0 Z3.0 ; Pen up

G0 X7.283 Y33.212 F3000 ; Travel to line 67
G0 Z0.0 ; Pen down
G1 X7.695 Y33.212 F1000
G1 X7.798 Y33.315 F1000
G1 X8.107 Y33.315 F1000
G1 X8.210 Y33.418 F1000
G1 X8.416 Y33.418 F1000
G1 X8.519 Y33.521 F1000
G1 X8.519 Y33.727 F1000
G1 X8.416 Y33.830 F1000
G1 X8.313 Y33.830 F1000
G1 X8.210 Y33.933 F1000
G1 X7.901 Y33.933 F1000
G1 X7.798 Y34.036 F1000
G1 X7.695 Y34.036 F1000
G1 X7.592 Y34.139 F1000
G1 X7.592 Y34.242 F1000
G1 X7.798 Y34.448 F1000
G1 X8.107 Y34.448 F1000
G1 X8.210 Y34.551 F1000
G1 X8.416 Y34.551 F1000
G1 X8.622 Y34.757 F1000
G1 X8.622 Y34.860 F1000
G1 X8.519 Y34.860 F1000
G1 X8.416 Y34.963 F1000
G1 X8.210 Y34.963 F1000
G1 X8.107 Y35.066 F1000
G1 X7.798 Y35.066 F1000
G1 X7.695 Y35.169 F1000
G1 X7.386 Y35.169 F1000
G1 X7.283 Y35.272 F1000
G1 X7.386 Y35.169 F1000
G1 X7.695 Y35.169 F1000
G1 X7.798 Y35.066 F1000
G1 X8.107 Y35.066 F1000
G1 X8.210 Y34.963 F1000
G1 X8.416 Y34.963 F1000
G1 X8.622 Y34.757 F1000
G1 X8.416 Y34.551 F1000
G1 X8.210 Y34.551 F1000
G1 X8.107 Y34.448 F1000
G1 X7.798 Y34.448 F1000
G1 X7.592 Y34.242 F1000
G1 X7.386 Y34.242 F1000
G1 X7.489 Y34.242 F1000
G1 X7.592 Y34.139 F1000
G1 X7.592 Y34.036 F1000
G1 X7.798 Y34.036 F1000
G1 X7.901 Y33.933 F1000
G1 X8.210 Y33.933 F1000
G1 X8.519 Y33.624 F1000
G1 X8.519 Y33.521 F1000
G1 X8.416 Y33.418 F1000
G1 X8.210 Y33.418 F1000
G1 X8.107 Y33.315 F1000
G1 X7.798 Y33.315 F1000
G1 X7.695 Y33.212 F1000
G0 Z3.0 ; Pen up

G0 X7.489 Y32.182 F3000 ; Travel to line 68
G0 Z0.0 ; Pen down
G1 X7.592 Y32.285 F1000
G1 X7.695 Y32.285 F1000
G1 X7.798 Y32.388 F1000
G1 X8.004 Y32.388 F1000
G1 X8.107 Y32.491 F1000
G1 X8.416 Y32.491 F1000
G1 X8.519 Y32.594 F1000
G1 X8.622 Y32.594 F1000
G1 X8.725 Y32.697 F1000
G1 X8.622 Y32.594 F1000
G1 X8.519 Y32.594 F1000
G1 X8.416 Y32.491 F1000
G1 X8.519 Y32.388 F1000
G1 X8.519 Y31.564 F1000
G1 X8.622 Y31.461 F1000
G1 X8.725 Y31.461 F1000
G1 X8.519 Y31.461 F1000
G1 X8.416 Y31.564 F1000
G1 X8.313 Y31.564 F1000
G1 X8.210 Y31.667 F1000
G1 X8.004 Y31.667 F1000
G1 X7.901 Y31.770 F1000
G1 X7.695 Y31.770 F1000
G1 X7.592 Y31.873 F1000
G1 X7.489 Y31.873 F1000
G0 Z3.0 ; Pen up

G0 X7.489 Y31.976 F3000 ; Travel to line 69
G0 Z0.0 ; Pen down
G1 X7.489 Y32.182 F1000
G1 X7.592 Y32.285 F1000
G1 X7.695 Y32.285 F1000
G1 X7.798 Y32.388 F1000
G1 X8.004 Y32.388 F1000
G1 X8.107 Y32.491 F1000
G1 X8.416 Y32.491 F1000
G1 X8.519 Y32.388 F1000
G1 X8.519 Y31.667 F1000
G1 X8.416 Y31.564 F1000
G1 X8.313 Y31.564 F1000
G1 X8.210 Y31.667 F1000
G1 X8.004 Y31.667 F1000
G1 X7.901 Y31.770 F1000
G1 X7.695 Y31.770 F1000
G0 Z3.0 ; Pen up

G0 X7.283 Y30.328 F3000 ; Travel to line 70
G0 Z0.0 ; Pen down
G1 X7.386 Y30.431 F1000
G1 X8.004 Y30.431 F1000
G1 X8.107 Y30.328 F1000
G1 X8.210 Y30.431 F1000
G1 X8.313 Y30.431 F1000
G1 X8.416 Y30.534 F1000
G1 X8.622 Y30.534 F1000
G1 X8.931 Y30.843 F1000
G1 X8.828 Y30.740 F1000
G1 X8.828 Y30.637 F1000
G1 X8.725 Y30.637 F1000
G1 X8.622 Y30.534 F1000
G1 X8.519 Y30.534 F1000
G1 X8.416 Y30.431 F1000
G1 X8.210 Y30.431 F1000
G1 X8.107 Y30.328 F1000
G1 X8.107 Y29.710 F1000
G1 X8.210 Y29.607 F1000
G1 X8.622 Y29.607 F1000
G1 X7.283 Y29.607 F1000
G0 Z3.0 ; Pen up

G0 X7.386 Y29.607 F3000 ; Travel to line 71
G0 Z0.0 ; Pen down
G1 X7.283 Y29.710 F1000
G1 X7.283 Y30.225 F1000
G1 X7.489 Y30.431 F1000
G1 X8.004 Y30.431 F1000
G1 X8.107 Y30.328 F1000
G1 X8.107 Y29.710 F1000
G1 X8.004 Y29.607 F1000
G0 Z3.0 ; Pen up

G0 X7.283 Y28.268 F3000 ; Travel to line 72
G0 Z0.0 ; Pen down
G1 X7.386 Y28.371 F1000
G1 X7.386 Y28.474 F1000
G1 X7.592 Y28.680 F1000
G1 X8.519 Y28.680 F1000
G1 X8.725 Y28.474 F1000
G1 X8.725 Y28.371 F1000
G1 X8.828 Y28.268 F1000
G1 X8.828 Y27.650 F1000
G1 X8.725 Y27.547 F1000
G1 X7.283 Y27.547 F1000
G0 Z3.0 ; Pen up

G0 X7.386 Y27.547 F3000 ; Travel to line 73
G0 Z0.0 ; Pen down
G1 X7.283 Y27.650 F1000
G1 X7.283 Y28.268 F1000
G1 X7.695 Y28.680 F1000
G1 X8.416 Y28.680 F1000
G1 X8.828 Y28.268 F1000
G1 X8.828 Y27.650 F1000
G1 X8.725 Y27.547 F1000
G0 Z3.0 ; Pen up

G0 X8.725 Y25.178 F3000 ; Travel to line 74
G0 Z0.0 ; Pen down
G1 X8.828 Y25.281 F1000
G1 X8.828 Y26.002 F1000
G1 X8.828 Y25.281 F1000
G1 X8.725 Y25.178 F1000
G1 X7.386 Y25.178 F1000
G0 Z3.0 ; Pen up

G0 X7.489 Y23.839 F3000 ; Travel to line 75
G0 Z0.0 ; Pen down
G1 X7.592 Y23.942 F1000
G1 X7.695 Y23.942 F1000
G1 X7.798 Y24.045 F1000
G1 X8.004 Y24.045 F1000
G1 X8.107 Y24.148 F1000
G1 X8.416 Y24.148 F1000
G1 X8.519 Y24.251 F1000
G1 X8.622 Y24.251 F1000
G1 X8.725 Y24.354 F1000
G1 X8.622 Y24.251 F1000
G1 X8.519 Y24.251 F1000
G1 X8.416 Y24.148 F1000
G1 X8.519 Y24.045 F1000
G1 X8.519 Y23.221 F1000
G1 X8.622 Y23.118 F1000
G1 X8.725 Y23.118 F1000
G1 X8.519 Y23.118 F1000
G1 X8.416 Y23.221 F1000
G1 X8.313 Y23.221 F1000
G1 X8.210 Y23.324 F1000
G1 X8.004 Y23.324 F1000
G1 X7.901 Y23.427 F1000
G1 X7.695 Y23.427 F1000
G1 X7.592 Y23.530 F1000
G1 X7.489 Y23.530 F1000
G0 Z3.0 ; Pen up

G0 X7.489 Y23.633 F3000 ; Travel to line 76
G0 Z0.0 ; Pen down
G1 X7.489 Y23.839 F1000
G1 X7.592 Y23.942 F1000
G1 X7.695 Y23.942 F1000
G1 X7.798 Y24.045 F1000
G1 X8.004 Y24.045 F1000
G1 X8.107 Y24.148 F1000
G1 X8.416 Y24.148 F1000
G1 X8.519 Y24.045 F1000
G1 X8.519 Y23.324 F1000
G1 X8.416 Y23.221 F1000
G1 X8.313 Y23.221 F1000
G1 X8.210 Y23.324 F1000
G1 X8.004 Y23.324 F1000
G1 X7.901 Y23.427 F1000
G1 X7.695 Y23.427 F1000
G0 Z3.0 ; Pen up

G0 X7.283 Y22.500 F3000 ; Travel to line 77
G0 Z0.0 ; Pen down
G1 X7.386 Y22.500 F1000
G1 X7.489 Y22.603 F1000
G1 X7.283 Y22.397 F1000
G1 X7.283 Y21.882 F1000
G1 X7.386 Y21.779 F1000
G1 X7.386 Y21.676 F1000
G1 X7.489 Y21.573 F1000
G1 X7.592 Y21.573 F1000
G1 X7.798 Y21.367 F1000
G1 X8.313 Y21.367 F1000
G1 X8.519 Y21.573 F1000
G1 X8.622 Y21.573 F1000
G1 X8.725 Y21.676 F1000
G1 X8.725 Y21.779 F1000
G1 X8.828 Y21.882 F1000
G1 X8.828 Y22.294 F1000
G1 X8.725 Y22.397 F1000
G1 X8.725 Y22.500 F1000
G1 X8.622 Y22.603 F1000
G1 X8.725 Y22.500 F1000
G1 X8.725 Y22.397 F1000
G1 X8.828 Y22.294 F1000
G1 X8.828 Y21.882 F1000
G1 X8.725 Y21.779 F1000
G1 X8.725 Y21.676 F1000
G1 X8.519 Y21.470 F1000
G1 X8.416 Y21.470 F1000
G1 X8.313 Y21.367 F1000
G1 X7.798 Y21.367 F1000
G1 X7.695 Y21.470 F1000
G1 X7.592 Y21.470 F1000
G1 X7.386 Y21.676 F1000
G1 X7.386 Y21.779 F1000
G1 X7.283 Y21.882 F1000
G0 Z3.0 ; Pen up

G0 X7.386 Y20.543 F3000 ; Travel to line 78
G0 Z0.0 ; Pen down
G1 X8.622 Y20.543 F1000
G0 Z3.0 ; Pen up

G0 X8.519 Y19.616 F3000 ; Travel to line 79
G0 Z0.0 ; Pen down
G1 X8.519 Y19.513 F1000
G1 X8.416 Y19.410 F1000
G1 X8.416 Y19.307 F1000
G1 X8.210 Y19.101 F1000
G1 X8.107 Y19.101 F1000
G1 X7.798 Y18.792 F1000
G1 X7.798 Y18.689 F1000
G1 X7.695 Y18.586 F1000
G1 X7.798 Y18.483 F1000
G1 X8.622 Y18.483 F1000
G1 X7.695 Y18.483 F1000
G1 X7.695 Y18.586 F1000
G1 X7.798 Y18.689 F1000
G1 X7.798 Y18.792 F1000
G1 X7.901 Y18.895 F1000
G1 X7.901 Y18.998 F1000
G1 X8.004 Y18.998 F1000
G1 X8.107 Y19.101 F1000
G1 X8.210 Y19.101 F1000
G1 X8.416 Y19.307 F1000
G1 X8.416 Y19.410 F1000
G1 X8.519 Y19.513 F1000
G1 X8.416 Y19.616 F1000
G1 X7.386 Y19.616 F1000
G0 Z3.0 ; Pen up

G0 X7.489 Y17.144 F3000 ; Travel to line 80
G0 Z0.0 ; Pen down
G1 X7.592 Y17.247 F1000
G1 X7.695 Y17.247 F1000
G1 X7.798 Y17.350 F1000
G1 X8.004 Y17.350 F1000
G1 X8.107 Y17.453 F1000
G1 X8.416 Y17.453 F1000
G1 X8.519 Y17.556 F1000
G1 X8.622 Y17.556 F1000
G1 X8.725 Y17.659 F1000
G1 X8.622 Y17.556 F1000
G1 X8.519 Y17.556 F1000
G1 X8.416 Y17.453 F1000
G1 X8.519 Y17.350 F1000
G1 X8.519 Y16.526 F1000
G1 X8.622 Y16.423 F1000
G1 X8.725 Y16.423 F1000
G1 X8.519 Y16.423 F1000
G1 X8.416 Y16.526 F1000
G1 X8.313 Y16.526 F1000
G1 X8.210 Y16.629 F1000
G1 X8.004 Y16.629 F1000
G1 X7.901 Y16.732 F1000
G1 X7.695 Y16.732 F1000
G1 X7.592 Y16.835 F1000
G1 X7.489 Y16.835 F1000
G0 Z3.0 ; Pen up

G0 X7.489 Y16.938 F3000 ; Travel to line 81
G0 Z0.0 ; Pen down
G1 X7.489 Y17.144 F1000
G1 X7.592 Y17.247 F1000
G1 X7.695 Y17.247 F1000
G1 X7.798 Y17.350 F1000
G1 X8.004 Y17.350 F1000
G1 X8.107 Y17.453 F1000
G1 X8.416 Y17.453 F1000
G1 X8.519 Y17.350 F1000
G1 X8.519 Y16.629 F1000
G1 X8.416 Y16.526 F1000
G1 X8.313 Y16.526 F1000
G1 X8.210 Y16.629 F1000
G1 X8.004 Y16.629 F1000
G1 X7.901 Y16.732 F1000
G1 X7.695 Y16.732 F1000
G0 Z3.0 ; Pen up

G0 X7.901 Y14.466 F3000 ; Travel to line 82
G0 Z0.0 ; Pen down
G1 X8.004 Y14.569 F1000
G1 X8.004 Y15.496 F1000
G1 X7.901 Y15.599 F1000
G1 X7.386 Y15.599 F1000
G1 X8.107 Y15.599 F1000
G1 X8.004 Y15.496 F1000
G1 X8.004 Y14.569 F1000
G1 X8.107 Y14.466 F1000
G1 X8.622 Y14.466 F1000
G1 X7.386 Y14.466 F1000
G0 Z3.0 ; Pen up

G0 X7.283 Y13.642 F3000 ; Travel to line 83
G0 Z0.0 ; Pen down
G1 X7.386 Y13.642 F1000
G1 X7.489 Y13.745 F1000
G1 X7.283 Y13.539 F1000
G1 X7.283 Y13.024 F1000
G1 X7.386 Y12.921 F1000
G1 X7.386 Y12.818 F1000
G1 X7.489 Y12.715 F1000
G1 X7.592 Y12.715 F1000
G1 X7.798 Y12.509 F1000
G1 X8.313 Y12.509 F1000
G1 X8.519 Y12.715 F1000
G1 X8.622 Y12.715 F1000
G1 X8.725 Y12.818 F1000
G1 X8.725 Y12.921 F1000
G1 X8.828 Y13.024 F1000
G1 X8.828 Y13.436 F1000
G1 X8.725 Y13.539 F1000
G1 X8.725 Y13.642 F1000
G1 X8.622 Y13.745 F1000
G1 X8.725 Y13.642 F1000
G1 X8.725 Y13.539 F1000
G1 X8.828 Y13.436 F1000
G1 X8.828 Y13.024 F1000
G1 X8.725 Y12.921 F1000
G1 X8.725 Y12.818 F1000
G1 X8.519 Y12.612 F1000
G1 X8.416 Y12.612 F1000
G1 X8.313 Y12.509 F1000
G1 X7.798 Y12.509 F1000
G1 X7.695 Y12.612 F1000
G1 X7.592 Y12.612 F1000
G1 X7.386 Y12.818 F1000
G1 X7.386 Y12.921 F1000
G1 X7.283 Y13.024 F1000
G0 Z3.0 ; Pen up

G0 X7.283 Y11.685 F3000 ; Travel to line 84
G0 Z0.0 ; Pen down
G1 X7.283 Y11.067 F1000
G1 X7.386 Y10.964 F1000
G1 X7.901 Y10.964 F1000
G1 X8.004 Y11.067 F1000
G1 X8.004 Y11.685 F1000
G1 X8.004 Y11.067 F1000
G1 X8.107 Y10.964 F1000
G1 X8.725 Y10.964 F1000
G1 X8.828 Y11.067 F1000
G1 X8.828 Y11.788 F1000
G1 X8.828 Y11.067 F1000
G1 X8.725 Y10.964 F1000
G1 X7.283 Y10.964 F1000
G0 Z3.0 ; Pen up

G0 X7.592 Y9.934 F3000 ; Travel to line 85
G0 Z0.0 ; Pen down
G1 X7.695 Y10.037 F1000
G1 X8.622 Y10.037 F1000
G1 X7.695 Y10.037 F1000
G1 X7.592 Y9.934 F1000
G1 X7.695 Y9.831 F1000
G1 X7.695 Y9.728 F1000
G1 X7.901 Y9.522 F1000
G1 X8.004 Y9.522 F1000
G1 X8.107 Y9.419 F1000
G1 X8.210 Y9.419 F1000
G1 X8.210 Y9.316 F1000
G1 X8.313 Y9.213 F1000
G1 X8.416 Y9.213 F1000
G1 X8.313 Y9.213 F1000
G1 X8.107 Y9.007 F1000
G1 X8.004 Y9.007 F1000
G1 X7.798 Y8.801 F1000
G1 X7.798 Y8.698 F1000
G1 X7.695 Y8.595 F1000
G1 X7.798 Y8.492 F1000
G1 X8.622 Y8.492 F1000
G1 X7.695 Y8.492 F1000
G1 X7.695 Y8.595 F1000
G1 X7.798 Y8.698 F1000
G1 X7.798 Y8.801 F1000
G1 X7.901 Y8.904 F1000
G1 X7.901 Y9.007 F1000
G1 X8.107 Y9.007 F1000
G1 X8.210 Y9.110 F1000
G1 X8.210 Y9.316 F1000
G1 X8.004 Y9.522 F1000
G1 X7.798 Y9.522 F1000
G1 X7.798 Y9.625 F1000
G1 X7.592 Y9.831 F1000
G0 Z3.0 ; Pen up

G0 X6.356 Y7.153 F3000 ; Travel to line 86
G0 Z0.0 ; Pen down
G1 X6.253 Y7.256 F1000
G1 X6.253 Y140.744 F1000
G1 X6.356 Y140.847 F1000
G1 X9.652 Y140.847 F1000
G1 X9.755 Y140.744 F1000
G1 X9.755 Y7.256 F1000
G1 X9.652 Y7.153 F1000
G0 Z3.0 ; Pen up

G0 X9.858 Y7.153 F3000 ; Travel to line 87
G0 Z0.0 ; Pen down
G1 X9.755 Y7.256 F1000
G1 X9.755 Y140.744 F1000
G1 X9.858 Y140.847 F1000
G1 X13.051 Y140.847 F1000
G1 X13.257 Y140.641 F1000
G1 X13.257 Y7.256 F1000
G1 X13.154 Y7.153 F1000
G0 Z3.0 ; Pen up

G0 X11.094 Y8.286 F3000 ; Travel to line 88
G0 Z0.0 ; Pen down
G1 X11.197 Y8.183 F1000
G1 X11.403 Y8.183 F1000
G1 X11.506 Y8.286 F1000
G1 X11.506 Y8.492 F1000
G1 X11.712 Y8.698 F1000
G1 X11.918 Y8.492 F1000
G1 X11.918 Y8.286 F1000
G1 X11.815 Y8.183 F1000
G1 X11.918 Y8.286 F1000
G1 X11.918 Y8.595 F1000
G1 X11.815 Y8.698 F1000
G1 X11.609 Y8.698 F1000
G1 X11.506 Y8.595 F1000
G1 X11.506 Y8.389 F1000
G1 X11.300 Y8.183 F1000
G1 X11.094 Y8.389 F1000
G1 X11.094 Y8.595 F1000
G0 Z3.0 ; Pen up

G0 X11.094 Y9.213 F3000 ; Travel to line 89
G0 Z0.0 ; Pen down
G1 X11.300 Y9.007 F1000
G1 X11.712 Y9.007 F1000
G1 X11.918 Y9.213 F1000
G1 X11.918 Y9.522 F1000
G1 X11.815 Y9.625 F1000
G1 X11.918 Y9.728 F1000
G1 X11.918 Y9.831 F1000
G1 X11.815 Y9.831 F1000
G1 X11.712 Y9.934 F1000
G1 X11.712 Y10.346 F1000
G1 X11.609 Y10.346 F1000
G1 X11.506 Y10.243 F1000
G1 X11.300 Y10.243 F1000
G1 X11.197 Y10.140 F1000
G1 X11.197 Y10.037 F1000
G1 X11.300 Y9.934 F1000
G1 X11.609 Y9.934 F1000
G1 X11.712 Y9.831 F1000
G1 X11.815 Y9.831 F1000
G1 X11.918 Y9.728 F1000
G1 X11.815 Y9.625 F1000
G1 X11.918 Y9.522 F1000
G1 X11.918 Y9.213 F1000
G1 X11.712 Y9.007 F1000
G1 X11.300 Y9.007 F1000
G1 X11.094 Y9.213 F1000
G1 X11.094 Y9.522 F1000
G1 X11.197 Y9.625 F1000
G1 X11.094 Y9.522 F1000
G0 Z3.0 ; Pen up

G0 X11.403 Y9.934 F3000 ; Travel to line 90
G0 Z0.0 ; Pen down
G1 X11.609 Y9.934 F1000
G1 X11.712 Y10.037 F1000
G1 X11.712 Y10.243 F1000
G1 X11.609 Y10.346 F1000
G1 X11.506 Y10.243 F1000
G1 X11.300 Y10.243 F1000
G1 X11.197 Y10.140 F1000
G0 Z3.0 ; Pen up

G0 X11.094 Y10.655 F3000 ; Travel to line 91
G0 Z0.0 ; Pen down
G1 X11.918 Y10.655 F1000
G1 X11.918 Y11.170 F1000
G1 X11.918 Y10.758 F1000
G1 X11.815 Y10.655 F1000
G0 Z3.0 ; Pen up

G0 X11.094 Y11.376 F3000 ; Travel to line 92
G0 Z0.0 ; Pen down
G1 X11.918 Y11.376 F1000
G1 X11.918 Y11.891 F1000
G1 X11.918 Y11.479 F1000
G1 X11.815 Y11.376 F1000
G1 X11.609 Y11.376 F1000
G1 X11.506 Y11.479 F1000
G1 X11.506 Y11.891 F1000
G1 X11.506 Y11.479 F1000
G1 X11.403 Y11.376 F1000
G1 X11.197 Y11.376 F1000
G1 X11.094 Y11.479 F1000
G1 X11.094 Y11.891 F1000
G0 Z3.0 ; Pen up

G0 X11.094 Y12.921 F3000 ; Travel to line 93
G0 Z0.0 ; Pen down
G1 X11.094 Y13.024 F1000
G1 X11.197 Y13.127 F1000
G1 X11.815 Y13.127 F1000
G1 X11.918 Y13.024 F1000
G1 X11.918 Y13.436 F1000
G1 X11.918 Y13.230 F1000
G1 X11.815 Y13.127 F1000
G1 X11.094 Y13.127 F1000
G0 Z3.0 ; Pen up

G0 X11.094 Y14.157 F3000 ; Travel to line 94
G0 Z0.0 ; Pen down
G1 X11.403 Y14.157 F1000
G1 X11.403 Y14.466 F1000
G1 X11.506 Y14.569 F1000
G1 X11.815 Y14.569 F1000
G1 X11.918 Y14.466 F1000
G1 X11.918 Y14.260 F1000
G1 X11.815 Y14.157 F1000
G1 X11.918 Y14.260 F1000
G1 X11.918 Y14.466 F1000
G1 X11.815 Y14.569 F1000
G1 X11.506 Y14.569 F1000
G1 X11.403 Y14.466 F1000
G1 X11.403 Y14.260 F1000
G1 X11.300 Y14.157 F1000
G1 X11.197 Y14.157 F1000
G1 X11.094 Y14.260 F1000
G1 X11.094 Y14.569 F1000
G0 Z3.0 ; Pen up

G0 X11.094 Y15.805 F3000 ; Travel to line 95
G0 Z0.0 ; Pen down
G1 X12.227 Y15.805 F1000
G0 Z3.0 ; Pen up

G0 X11.197 Y16.938 F3000 ; Travel to line 96
G0 Z0.0 ; Pen down
G1 X11.918 Y16.938 F1000
G1 X11.300 Y16.938 F1000
G1 X11.197 Y17.041 F1000
G1 X11.300 Y17.144 F1000
G1 X11.403 Y17.144 F1000
G1 X11.506 Y17.247 F1000
G1 X11.609 Y17.247 F1000
G1 X11.609 Y17.350 F1000
G1 X11.506 Y17.453 F1000
G1 X11.403 Y17.453 F1000
G1 X11.300 Y17.556 F1000
G1 X11.403 Y17.659 F1000
G1 X11.918 Y17.659 F1000
G1 X11.300 Y17.659 F1000
G1 X11.300 Y17.453 F1000
G1 X11.506 Y17.453 F1000
G1 X11.609 Y17.350 F1000
G1 X11.403 Y17.144 F1000
G1 X11.197 Y17.144 F1000
G0 Z3.0 ; Pen up

G0 X11.403 Y18.071 F3000 ; Travel to line 97
G0 Z0.0 ; Pen down
G1 X11.609 Y18.071 F1000
G1 X11.712 Y18.174 F1000
G1 X11.712 Y18.380 F1000
G1 X11.609 Y18.483 F1000
G1 X11.506 Y18.380 F1000
G1 X11.300 Y18.380 F1000
G1 X11.197 Y18.277 F1000
G1 X11.197 Y18.277 F1000
G1 X11.300 Y18.380 F1000
G1 X11.506 Y18.380 F1000
G1 X11.609 Y18.483 F1000
G1 X11.712 Y18.483 F1000
G1 X11.712 Y18.071 F1000
G1 X11.815 Y17.968 F1000
G1 X11.918 Y17.968 F1000
G1 X11.712 Y17.968 F1000
G1 X11.609 Y18.071 F1000
G1 X11.300 Y18.071 F1000
G1 X11.197 Y18.174 F1000
G0 Z3.0 ; Pen up

G0 X11.094 Y18.689 F3000 ; Travel to line 98
G0 Z0.0 ; Pen down
G1 X11.094 Y18.895 F1000
G1 X11.197 Y18.998 F1000
G1 X11.918 Y18.998 F1000
G1 X11.197 Y18.998 F1000
G1 X11.094 Y19.101 F1000
G1 X11.094 Y19.307 F1000
G0 Z3.0 ; Pen up

G0 X11.094 Y19.513 F3000 ; Travel to line 99
G0 Z0.0 ; Pen down
G1 X11.918 Y19.513 F1000
G1 X11.918 Y20.028 F1000
G1 X11.918 Y19.616 F1000
G1 X11.815 Y19.513 F1000
G1 X11.609 Y19.513 F1000
G1 X11.506 Y19.616 F1000
G1 X11.506 Y20.028 F1000
G1 X11.506 Y19.616 F1000
G1 X11.403 Y19.513 F1000
G1 X11.197 Y19.513 F1000
G1 X11.094 Y19.616 F1000
G1 X11.094 Y20.028 F1000
G0 Z3.0 ; Pen up

G0 X11.094 Y20.234 F3000 ; Travel to line 100
G0 Z0.0 ; Pen down
G1 X11.918 Y20.234 F1000
G1 X11.609 Y20.234 F1000
G1 X11.506 Y20.337 F1000
G1 X11.506 Y20.543 F1000
G1 X11.712 Y20.749 F1000
G1 X11.918 Y20.749 F1000
G1 X11.712 Y20.749 F1000
G1 X11.609 Y20.646 F1000
G1 X11.506 Y20.646 F1000
G1 X11.403 Y20.749 F1000
G1 X11.197 Y20.749 F1000
G1 X11.094 Y20.646 F1000
G0 Z3.0 ; Pen up

G0 X11.197 Y20.234 F3000 ; Travel to line 101
G0 Z0.0 ; Pen down
G1 X11.094 Y20.337 F1000
G1 X11.094 Y20.543 F1000
G1 X11.300 Y20.749 F1000
G1 X11.506 Y20.543 F1000
G1 X11.506 Y20.337 F1000
G1 X11.403 Y20.234 F1000
G0 Z3.0 ; Pen up

G0 X11.094 Y21.161 F3000 ; Travel to line 102
G0 Z0.0 ; Pen down
G1 X11.918 Y21.161 F1000
G0 Z3.0 ; Pen up

G0 X11.403 Y21.573 F3000 ; Travel to line 103
G0 Z0.0 ; Pen down
G1 X11.609 Y21.573 F1000
G1 X11.712 Y21.676 F1000
G1 X11.712 Y21.882 F1000
G1 X11.609 Y21.985 F1000
G1 X11.506 Y21.882 F1000
G1 X11.300 Y21.882 F1000
G1 X11.197 Y21.779 F1000
G1 X11.197 Y21.779 F1000
G1 X11.300 Y21.882 F1000
G1 X11.506 Y21.882 F1000
G1 X11.609 Y21.985 F1000
G1 X11.712 Y21.985 F1000
G1 X11.712 Y21.573 F1000
G1 X11.815 Y21.470 F1000
G1 X11.918 Y21.470 F1000
G1 X11.712 Y21.470 F1000
G1 X11.609 Y21.573 F1000
G1 X11.300 Y21.573 F1000
G1 X11.197 Y21.676 F1000
G0 Z3.0 ; Pen up

G0 X11.094 Y22.397 F3000 ; Travel to line 104
G0 Z0.0 ; Pen down
G1 X11.918 Y22.397 F1000
G1 X11.918 Y23.015 F1000
G1 X11.918 Y22.500 F1000
G1 X11.815 Y22.397 F1000
G0 Z3.0 ; Pen up

G0 X11.094 Y23.942 F3000 ; Travel to line 105
G0 Z0.0 ; Pen down
G1 X11.197 Y23.839 F1000
G1 X11.403 Y23.839 F1000
G1 X11.506 Y23.942 F1000
G1 X11.506 Y24.148 F1000
G1 X11.712 Y24.354 F1000
G1 X11.918 Y24.148 F1000
G1 X11.918 Y23.942 F1000
G1 X11.815 Y23.839 F1000
G1 X11.918 Y23.942 F1000
G1 X11.918 Y24.251 F1000
G1 X11.815 Y24.354 F1000
G1 X11.609 Y24.354 F1000
G1 X11.506 Y24.251 F1000
G1 X11.506 Y24.045 F1000
G1 X11.300 Y23.839 F1000
G1 X11.094 Y24.045 F1000
G1 X11.094 Y24.251 F1000
G0 Z3.0 ; Pen up

G0 X11.094 Y24.560 F3000 ; Travel to line 106
G0 Z0.0 ; Pen down
G1 X11.094 Y24.766 F1000
G1 X11.197 Y24.869 F1000
G1 X11.918 Y24.869 F1000
G1 X11.197 Y24.869 F1000
G1 X11.094 Y24.972 F1000
G1 X11.094 Y25.178 F1000
G0 Z3.0 ; Pen up

G0 X11.094 Y25.384 F3000 ; Travel to line 107
G0 Z0.0 ; Pen down
G1 X11.918 Y25.384 F1000
G1 X11.918 Y25.899 F1000
G1 X11.918 Y25.487 F1000
G1 X11.815 Y25.384 F1000
G1 X11.609 Y25.384 F1000
G1 X11.506 Y25.487 F1000
G1 X11.506 Y25.899 F1000
G1 X11.506 Y25.487 F1000
G1 X11.403 Y25.384 F1000
G1 X11.197 Y25.384 F1000
G1 X11.094 Y25.487 F1000
G1 X11.094 Y25.899 F1000
G0 Z3.0 ; Pen up

G0 X11.094 Y26.208 F3000 ; Travel to line 108
G0 Z0.0 ; Pen down
G1 X11.918 Y26.208 F1000
G1 X11.918 Y26.723 F1000
G1 X11.918 Y26.311 F1000
G1 X11.815 Y26.208 F1000
G1 X11.609 Y26.208 F1000
G1 X11.506 Y26.311 F1000
G1 X11.506 Y26.723 F1000
G1 X11.506 Y26.311 F1000
G1 X11.403 Y26.208 F1000
G1 X11.197 Y26.208 F1000
G1 X11.094 Y26.311 F1000
G1 X11.094 Y26.723 F1000
G0 Z3.0 ; Pen up

G0 X11.094 Y26.929 F3000 ; Travel to line 109
G0 Z0.0 ; Pen down
G1 X11.918 Y26.929 F1000
G1 X11.918 Y27.444 F1000
G1 X11.918 Y27.032 F1000
G1 X11.815 Y26.929 F1000
G0 Z3.0 ; Pen up

G0 X12.227 Y28.577 F3000 ; Travel to line 110
G0 Z0.0 ; Pen down
G1 X11.094 Y28.577 F1000
G0 Z3.0 ; Pen up

G0 X11.094 Y29.607 F3000 ; Travel to line 111
G0 Z0.0 ; Pen down
G1 X11.918 Y29.607 F1000
G1 X11.918 Y30.019 F1000
G1 X11.815 Y30.122 F1000
G1 X11.815 Y30.225 F1000
G1 X11.197 Y30.225 F1000
G1 X11.197 Y30.122 F1000
G1 X11.094 Y30.019 F1000
G0 Z3.0 ; Pen up

G0 X11.197 Y29.607 F3000 ; Travel to line 112
G0 Z0.0 ; Pen down
G1 X11.094 Y29.710 F1000
G1 X11.094 Y30.019 F1000
G1 X11.300 Y30.225 F1000
G1 X11.712 Y30.225 F1000
G1 X11.918 Y30.019 F1000
G1 X11.918 Y29.710 F1000
G1 X11.815 Y29.607 F1000
G0 Z3.0 ; Pen up

G0 X11.403 Y30.534 F3000 ; Travel to line 113
G0 Z0.0 ; Pen down
G1 X11.506 Y30.637 F1000
G1 X11.712 Y30.637 F1000
G1 X11.815 Y30.740 F1000
G1 X11.712 Y30.843 F1000
G1 X11.403 Y30.843 F1000
G1 X11.300 Y30.946 F1000
G1 X11.300 Y31.049 F1000
G1 X11.403 Y31.049 F1000
G1 X11.506 Y31.152 F1000
G1 X11.712 Y31.152 F1000
G1 X11.815 Y31.255 F1000
G1 X11.712 Y31.358 F1000
G1 X11.403 Y31.358 F1000
G1 X11.300 Y31.461 F1000
G1 X11.094 Y31.461 F1000
G1 X11.403 Y31.461 F1000
G1 X11.506 Y31.358 F1000
G1 X11.815 Y31.358 F1000
G1 X11.815 Y31.152 F1000
G1 X11.506 Y31.152 F1000
G1 X11.300 Y30.946 F1000
G1 X11.403 Y30.843 F1000
G1 X11.712 Y30.843 F1000
G1 X11.815 Y30.740 F1000
G1 X11.815 Y30.637 F1000
G1 X11.609 Y30.637 F1000
G1 X11.506 Y30.534 F1000
G1 X11.094 Y30.534 F1000
G0 Z3.0 ; Pen up

G0 X11.094 Y31.976 F3000 ; Travel to line 114
G0 Z0.0 ; Pen down
G1 X11.300 Y31.770 F1000
G1 X11.712 Y31.770 F1000
G1 X11.918 Y31.976 F1000
G1 X11.918 Y32.285 F1000
G1 X11.815 Y32.388 F1000
G1 X11.506 Y32.388 F1000
G1 X11.506 Y32.182 F1000
G1 X11.506 Y32.285 F1000
G1 X11.609 Y32.388 F1000
G1 X11.815 Y32.388 F1000
G1 X11.918 Y32.285 F1000
G1 X11.918 Y31.976 F1000
G1 X11.712 Y31.770 F1000
G1 X11.300 Y31.770 F1000
G1 X11.094 Y31.976 F1000
G1 X11.094 Y32.285 F1000
G1 X11.197 Y32.388 F1000
G1 X11.094 Y32.285 F1000
G0 Z3.0 ; Pen up

G0 X11.094 Y33.727 F3000 ; Travel to line 115
G0 Z0.0 ; Pen down
G1 X11.609 Y33.727 F1000
G1 X11.712 Y33.624 F1000
G1 X11.506 Y33.418 F1000
G1 X11.403 Y33.418 F1000
G1 X11.300 Y33.315 F1000
G1 X11.300 Y33.109 F1000
G1 X11.918 Y33.109 F1000
G1 X11.403 Y33.109 F1000
G1 X11.300 Y33.212 F1000
G1 X11.506 Y33.418 F1000
G1 X11.609 Y33.418 F1000
G1 X11.712 Y33.521 F1000
G1 X11.712 Y33.727 F1000
G0 Z3.0 ; Pen up

G0 X11.300 Y34.036 F3000 ; Travel to line 116
G0 Z0.0 ; Pen down
G1 X11.712 Y34.036 F1000
G1 X11.918 Y34.242 F1000
G1 X11.918 Y34.448 F1000
G1 X11.712 Y34.654 F1000
G1 X11.300 Y34.654 F1000
G1 X11.094 Y34.448 F1000
G1 X11.094 Y34.242 F1000
G1 X11.094 Y34.242 F1000
G1 X11.300 Y34.036 F1000
G1 X11.712 Y34.036 F1000
G1 X11.918 Y34.242 F1000
G1 X11.918 Y34.551 F1000
G1 X11.815 Y34.654 F1000
G1 X11.197 Y34.654 F1000
G1 X11.094 Y34.551 F1000
G0 Z3.0 ; Pen up

G0 X11.094 Y36.096 F3000 ; Travel to line 117
G0 Z0.0 ; Pen down
G1 X11.300 Y35.890 F1000
G1 X11.712 Y35.890 F1000
G1 X11.918 Y36.096 F1000
G1 X11.918 Y36.405 F1000
G1 X11.815 Y36.508 F1000
G1 X11.506 Y36.508 F1000
G1 X11.506 Y36.302 F1000
G1 X11.506 Y36.405 F1000
G1 X11.609 Y36.508 F1000
G1 X11.815 Y36.508 F1000
G1 X11.918 Y36.405 F1000
G1 X11.918 Y36.096 F1000
G1 X11.712 Y35.890 F1000
G1 X11.300 Y35.890 F1000
G1 X11.094 Y36.096 F1000
G1 X11.094 Y36.405 F1000
G1 X11.197 Y36.508 F1000
G1 X11.094 Y36.611 F1000
G1 X11.094 Y36.817 F1000
G1 X11.197 Y36.920 F1000
G1 X11.918 Y36.920 F1000
G1 X11.197 Y36.920 F1000
G1 X11.094 Y37.023 F1000
G1 X11.094 Y37.229 F1000
G1 X11.094 Y36.611 F1000
G1 X11.197 Y36.508 F1000
G1 X11.094 Y36.405 F1000
G0 Z3.0 ; Pen up

G0 X11.609 Y37.435 F3000 ; Travel to line 118
G0 Z0.0 ; Pen down
G1 X11.609 Y37.641 F1000
G0 Z3.0 ; Pen up

G0 X11.094 Y37.950 F3000 ; Travel to line 119
G0 Z0.0 ; Pen down
G1 X11.197 Y37.847 F1000
G1 X11.094 Y37.950 F1000
G1 X11.094 Y38.156 F1000
G1 X11.197 Y38.259 F1000
G1 X11.403 Y38.259 F1000
G1 X11.712 Y37.950 F1000
G1 X11.918 Y37.950 F1000
G1 X11.918 Y38.259 F1000
G1 X11.918 Y38.053 F1000
G1 X11.815 Y37.950 F1000
G1 X11.506 Y38.259 F1000
G1 X11.197 Y38.259 F1000
G1 X11.094 Y38.156 F1000
G0 Z3.0 ; Pen up

G0 X11.300 Y38.671 F3000 ; Travel to line 120
G0 Z0.0 ; Pen down
G1 X11.712 Y38.671 F1000
G1 X11.918 Y38.877 F1000
G1 X11.918 Y38.980 F1000
G1 X11.815 Y39.083 F1000
G1 X11.712 Y39.083 F1000
G1 X11.609 Y39.186 F1000
G1 X11.403 Y39.186 F1000
G1 X11.300 Y39.083 F1000
G1 X11.197 Y39.083 F1000
G1 X11.094 Y38.980 F1000
G1 X11.094 Y38.877 F1000
G0 Z3.0 ; Pen up

G0 X11.094 Y38.774 F3000 ; Travel to line 121
G0 Z0.0 ; Pen down
G1 X11.197 Y38.671 F1000
G1 X11.815 Y38.671 F1000
G1 X11.918 Y38.774 F1000
G1 X11.918 Y38.980 F1000
G1 X11.712 Y39.186 F1000
G1 X11.300 Y39.186 F1000
G1 X11.094 Y38.980 F1000
G0 Z3.0 ; Pen up

G0 X11.094 Y39.495 F3000 ; Travel to line 122
G0 Z0.0 ; Pen down
G1 X11.197 Y39.392 F1000
G1 X11.094 Y39.495 F1000
G1 X11.094 Y39.701 F1000
G1 X11.197 Y39.804 F1000
G1 X11.403 Y39.804 F1000
G1 X11.712 Y39.495 F1000
G1 X11.918 Y39.495 F1000
G1 X11.918 Y39.804 F1000
G1 X11.918 Y39.598 F1000
G1 X11.815 Y39.495 F1000
G1 X11.506 Y39.804 F1000
G1 X11.197 Y39.804 F1000
G1 X11.094 Y39.701 F1000
G0 Z3.0 ; Pen up

G0 X11.094 Y40.216 F3000 ; Travel to line 123
G0 Z0.0 ; Pen down
G1 X11.403 Y40.216 F1000
G1 X11.403 Y40.525 F1000
G1 X11.506 Y40.628 F1000
G1 X11.815 Y40.628 F1000
G1 X11.918 Y40.525 F1000
G1 X11.918 Y40.319 F1000
G1 X11.815 Y40.216 F1000
G1 X11.918 Y40.319 F1000
G1 X11.918 Y40.525 F1000
G1 X11.815 Y40.628 F1000
G1 X11.506 Y40.628 F1000
G1 X11.403 Y40.525 F1000
G1 X11.403 Y40.319 F1000
G1 X11.300 Y40.216 F1000
G1 X11.197 Y40.216 F1000
G1 X11.094 Y40.319 F1000
G1 X11.094 Y40.628 F1000
G0 Z3.0 ; Pen up

G0 X11.609 Y40.937 F3000 ; Travel to line 124
G0 Z0.0 ; Pen down
G1 X11.609 Y41.143 F1000
G0 Z3.0 ; Pen up

G0 X11.300 Y41.452 F3000 ; Travel to line 125
G0 Z0.0 ; Pen down
G1 X11.712 Y41.452 F1000
G1 X11.918 Y41.658 F1000
G1 X11.918 Y41.761 F1000
G1 X11.815 Y41.864 F1000
G1 X11.712 Y41.864 F1000
G1 X11.609 Y41.967 F1000
G1 X11.403 Y41.967 F1000
G1 X11.300 Y41.864 F1000
G1 X11.197 Y41.864 F1000
G1 X11.094 Y41.761 F1000
G1 X11.094 Y41.658 F1000
G0 Z3.0 ; Pen up

G0 X11.094 Y41.555 F3000 ; Travel to line 126
G0 Z0.0 ; Pen down
G1 X11.197 Y41.452 F1000
G1 X11.815 Y41.452 F1000
G1 X11.918 Y41.555 F1000
G1 X11.918 Y41.761 F1000
G1 X11.712 Y41.967 F1000
G1 X11.300 Y41.967 F1000
G1 X11.094 Y41.761 F1000
G0 Z3.0 ; Pen up

G0 X11.300 Y42.173 F3000 ; Travel to line 127
G0 Z0.0 ; Pen down
G1 X11.712 Y42.173 F1000
G1 X11.918 Y42.379 F1000
G1 X11.918 Y42.482 F1000
G1 X11.815 Y42.585 F1000
G1 X11.712 Y42.585 F1000
G1 X11.609 Y42.688 F1000
G1 X11.403 Y42.688 F1000
G1 X11.300 Y42.585 F1000
G1 X11.197 Y42.585 F1000
G1 X11.094 Y42.482 F1000
G1 X11.094 Y42.379 F1000
G0 Z3.0 ; Pen up

G0 X11.094 Y42.276 F3000 ; Travel to line 128
G0 Z0.0 ; Pen down
G1 X11.197 Y42.173 F1000
G1 X11.815 Y42.173 F1000
G1 X11.918 Y42.276 F1000
G1 X11.918 Y42.482 F1000
G1 X11.712 Y42.688 F1000
G1 X11.300 Y42.688 F1000
G1 X11.094 Y42.482 F1000
G0 Z3.0 ; Pen up

G0 X11.094 Y42.997 F3000 ; Travel to line 129
G0 Z0.0 ; Pen down
G1 X11.094 Y43.100 F1000
G1 X11.197 Y43.203 F1000
G1 X11.815 Y43.203 F1000
G1 X11.918 Y43.100 F1000
G1 X11.918 Y43.512 F1000
G1 X11.918 Y43.306 F1000
G1 X11.815 Y43.203 F1000
G1 X11.094 Y43.203 F1000
G0 Z3.0 ; Pen up

G0 X23.763 Y41.864 F3000 ; Travel to line 130
G0 Z0.0 ; Pen down
G1 X23.660 Y41.967 F1000
G1 X23.866 Y42.173 F1000
G1 X23.969 Y42.173 F1000
G1 X24.175 Y41.967 F1000
G1 X24.072 Y41.864 F1000
G0 Z3.0 ; Pen up

G0 X24.072 Y42.070 F3000 ; Travel to line 131
G0 Z0.0 ; Pen down
G1 X23.969 Y42.173 F1000
G1 X24.072 Y42.276 F1000
G1 X24.175 Y42.173 F1000
G0 Z3.0 ; Pen up

G0 X24.278 Y41.864 F3000 ; Travel to line 132
G0 Z0.0 ; Pen down
G1 X24.175 Y41.967 F1000
G1 X24.175 Y42.379 F1000
G1 X24.278 Y42.482 F1000
G1 X24.278 Y42.894 F1000
G1 X24.381 Y42.997 F1000
G1 X24.381 Y43.100 F1000
G1 X24.484 Y43.203 F1000
G1 X24.587 Y43.100 F1000
G1 X24.896 Y43.100 F1000
G1 X24.999 Y42.997 F1000
G1 X25.205 Y42.997 F1000
G1 X25.308 Y42.894 F1000
G1 X25.411 Y42.894 F1000
G1 X25.514 Y42.791 F1000
G1 X25.514 Y42.585 F1000
G1 X25.926 Y42.585 F1000
G1 X26.029 Y42.688 F1000
G1 X26.235 Y42.688 F1000
G1 X26.338 Y42.585 F1000
G1 X26.338 Y42.276 F1000
G1 X26.235 Y42.173 F1000
G1 X25.617 Y42.173 F1000
G1 X25.617 Y42.070 F1000
G1 X25.514 Y41.967 F1000
G1 X25.514 Y41.864 F1000
G1 X25.411 Y41.761 F1000
G1 X24.999 Y41.761 F1000
G1 X24.896 Y41.864 F1000
G0 Z3.0 ; Pen up

G0 X25.617 Y41.658 F3000 ; Travel to line 133
G0 Z0.0 ; Pen down
G1 X25.514 Y41.761 F1000
G1 X25.514 Y41.967 F1000
G1 X25.720 Y42.173 F1000
G1 X26.132 Y42.173 F1000
G1 X26.235 Y42.070 F1000
G1 X26.235 Y41.658 F1000
G1 X26.132 Y41.555 F1000
G1 X25.823 Y41.555 F1000
G1 X25.720 Y41.658 F1000
G0 Z3.0 ; Pen up

G0 X26.235 Y41.246 F3000 ; Travel to line 134
G0 Z0.0 ; Pen down
G1 X26.132 Y41.349 F1000
G1 X26.235 Y41.452 F1000
G1 X26.338 Y41.349 F1000
G0 Z3.0 ; Pen up

G0 X25.823 Y40.628 F3000 ; Travel to line 135
G0 Z0.0 ; Pen down
G1 X26.029 Y40.834 F1000
G1 X26.029 Y41.040 F1000
G1 X25.926 Y41.143 F1000
G1 X25.823 Y41.143 F1000
G1 X25.720 Y41.246 F1000
G1 X25.514 Y41.040 F1000
G1 X25.514 Y40.731 F1000
G1 X25.617 Y40.628 F1000
G0 Z3.0 ; Pen up

G0 X25.617 Y40.216 F3000 ; Travel to line 136
G0 Z0.0 ; Pen down
G1 X25.720 Y40.319 F1000
G1 X25.823 Y40.319 F1000
G1 X25.926 Y40.216 F1000
G1 X25.926 Y40.113 F1000
G1 X25.823 Y40.010 F1000
G0 Z3.0 ; Pen up

G0 X26.029 Y40.010 F3000 ; Travel to line 137
G0 Z0.0 ; Pen down
G1 X25.926 Y40.113 F1000
G1 X26.029 Y40.216 F1000
G1 X26.132 Y40.113 F1000
G0 Z3.0 ; Pen up

G0 X25.617 Y38.362 F3000 ; Travel to line 138
G0 Z0.0 ; Pen down
G1 X25.720 Y38.465 F1000
G1 X25.720 Y38.877 F1000
G1 X25.617 Y38.980 F1000
G1 X25.514 Y38.980 F1000
G1 X25.720 Y38.980 F1000
G1 X25.823 Y39.083 F1000
G1 X25.823 Y39.392 F1000
G1 X25.720 Y39.495 F1000
G1 X25.617 Y39.495 F1000
G1 X25.514 Y39.392 F1000
G1 X25.411 Y39.392 F1000
G1 X25.308 Y39.495 F1000
G1 X24.278 Y39.495 F1000
G1 X24.072 Y39.289 F1000
G1 X24.072 Y38.980 F1000
G1 X24.175 Y38.877 F1000
G1 X24.278 Y38.877 F1000
G1 X24.072 Y38.877 F1000
G1 X23.969 Y38.980 F1000
G1 X23.763 Y38.980 F1000
G1 X23.660 Y38.877 F1000
G1 X23.660 Y38.465 F1000
G1 X23.763 Y38.362 F1000
G0 Z3.0 ; Pen up

G0 X23.969 Y38.156 F3000 ; Travel to line 139
G0 Z0.0 ; Pen down
G1 X23.866 Y38.259 F1000
G1 X23.763 Y38.156 F1000
G1 X23.866 Y38.053 F1000
G0 Z3.0 ; Pen up

G0 X23.763 Y37.229 F3000 ; Travel to line 140
G0 Z0.0 ; Pen down
G1 X23.660 Y37.332 F1000
G1 X23.660 Y37.641 F1000
G1 X23.763 Y37.744 F1000
G1 X24.278 Y37.744 F1000
G1 X23.763 Y37.744 F1000
G1 X23.660 Y37.847 F1000
G1 X23.660 Y37.950 F1000
G1 X23.763 Y38.053 F1000
G1 X23.969 Y38.053 F1000
G1 X23.969 Y38.156 F1000
G1 X23.866 Y38.259 F1000
G1 X23.969 Y38.362 F1000
G1 X25.617 Y38.362 F1000
G1 X25.720 Y38.259 F1000
G1 X25.514 Y38.053 F1000
G1 X25.514 Y37.641 F1000
G1 X25.617 Y37.641 F1000
G1 X25.720 Y37.538 F1000
G1 X25.720 Y37.332 F1000
G1 X25.617 Y37.229 F1000
G0 Z3.0 ; Pen up

G0 X25.823 Y37.023 F3000 ; Travel to line 141
G0 Z0.0 ; Pen down
G1 X25.720 Y37.126 F1000
G1 X25.720 Y37.229 F1000
G1 X25.823 Y37.332 F1000
G1 X26.029 Y37.332 F1000
G1 X26.132 Y37.229 F1000
G1 X25.926 Y37.023 F1000
G0 Z3.0 ; Pen up

G0 X25.823 Y36.714 F3000 ; Travel to line 142
G0 Z0.0 ; Pen down
G1 X25.720 Y36.817 F1000
G1 X25.720 Y36.920 F1000
G1 X25.823 Y37.023 F1000
G1 X26.029 Y37.023 F1000
G1 X26.132 Y37.126 F1000
G1 X26.132 Y37.332 F1000
G1 X25.823 Y37.332 F1000
G1 X25.720 Y37.435 F1000
G1 X25.720 Y37.538 F1000
G1 X25.823 Y37.641 F1000
G1 X26.338 Y37.641 F1000
G1 X26.338 Y38.053 F1000
G1 X26.235 Y38.156 F1000
G1 X26.235 Y38.259 F1000
G1 X25.823 Y38.259 F1000
G1 X25.720 Y38.362 F1000
G1 X25.720 Y38.877 F1000
G1 X25.823 Y38.980 F1000
G1 X26.338 Y38.980 F1000
G1 X25.926 Y38.980 F1000
G1 X25.823 Y39.083 F1000
G1 X25.823 Y39.495 F1000
G1 X25.926 Y39.598 F1000
G1 X26.338 Y39.598 F1000
G1 X25.926 Y39.598 F1000
G1 X25.823 Y39.701 F1000
G1 X25.823 Y39.907 F1000
G1 X25.926 Y40.010 F1000
G1 X26.029 Y40.010 F1000
G1 X26.132 Y39.907 F1000
G1 X26.338 Y39.907 F1000
G1 X26.235 Y39.907 F1000
G1 X26.132 Y40.010 F1000
G1 X26.132 Y40.216 F1000
G1 X26.029 Y40.319 F1000
G1 X26.132 Y40.422 F1000
G1 X26.235 Y40.422 F1000
G1 X26.029 Y40.422 F1000
G1 X25.926 Y40.525 F1000
G1 X25.926 Y40.628 F1000
G1 X26.029 Y40.731 F1000
G1 X26.338 Y40.731 F1000
G1 X26.132 Y40.731 F1000
G1 X26.029 Y40.834 F1000
G1 X26.029 Y41.143 F1000
G1 X26.132 Y41.246 F1000
G1 X26.338 Y41.246 F1000
G1 X26.338 Y41.349 F1000
G1 X26.235 Y41.452 F1000
G1 X26.235 Y42.070 F1000
G1 X26.338 Y42.173 F1000
G1 X26.338 Y42.585 F1000
G1 X26.441 Y42.688 F1000
G1 X26.441 Y42.791 F1000
G1 X26.544 Y42.894 F1000
G1 X26.544 Y43.100 F1000
G1 X26.647 Y43.203 F1000
G1 X26.647 Y43.615 F1000
G1 X26.853 Y43.821 F1000
G1 X26.853 Y43.924 F1000
G1 X26.956 Y44.027 F1000
G1 X26.956 Y44.130 F1000
G1 X27.059 Y44.233 F1000
G1 X27.059 Y44.542 F1000
G1 X27.265 Y44.748 F1000
G1 X27.265 Y44.851 F1000
G1 X27.368 Y44.954 F1000
G1 X27.368 Y45.057 F1000
G1 X27.471 Y45.160 F1000
G1 X27.471 Y45.263 F1000
G1 X27.574 Y45.366 F1000
G1 X27.574 Y45.572 F1000
G1 X27.780 Y45.778 F1000
G1 X27.780 Y45.881 F1000
G1 X27.883 Y45.984 F1000
G1 X27.883 Y46.087 F1000
G1 X28.089 Y46.293 F1000
G1 X28.089 Y46.499 F1000
G1 X28.398 Y46.808 F1000
G1 X28.398 Y46.911 F1000
G1 X28.604 Y47.117 F1000
G1 X28.604 Y47.220 F1000
G1 X28.707 Y47.323 F1000
G1 X28.707 Y47.426 F1000
G1 X28.810 Y47.529 F1000
G1 X28.913 Y47.529 F1000
G1 X28.913 Y47.632 F1000
G1 X29.222 Y47.941 F1000
G1 X29.222 Y48.044 F1000
G1 X29.325 Y48.147 F1000
G1 X29.325 Y48.250 F1000
G1 X29.531 Y48.456 F1000
G1 X29.634 Y48.456 F1000
G1 X29.634 Y48.559 F1000
G1 X30.046 Y48.971 F1000
G1 X30.046 Y49.074 F1000
G1 X30.252 Y49.280 F1000
G1 X30.355 Y49.280 F1000
G1 X30.767 Y49.692 F1000
G1 X30.767 Y49.795 F1000
G1 X30.973 Y50.001 F1000
G1 X31.076 Y50.001 F1000
G1 X31.797 Y50.722 F1000
G1 X31.900 Y50.722 F1000
G1 X32.106 Y50.928 F1000
G1 X32.209 Y50.928 F1000
G1 X32.415 Y51.134 F1000
G1 X32.415 Y51.237 F1000
G1 X32.518 Y51.340 F1000
G1 X32.724 Y51.340 F1000
G1 X32.930 Y51.546 F1000
G1 X33.033 Y51.546 F1000
G1 X33.239 Y51.752 F1000
G1 X33.342 Y51.752 F1000
G1 X33.342 Y51.855 F1000
G1 X33.445 Y51.958 F1000
G1 X33.651 Y51.958 F1000
G1 X33.754 Y52.061 F1000
G1 X33.857 Y52.061 F1000
G1 X34.063 Y52.267 F1000
G1 X34.166 Y52.267 F1000
G1 X34.269 Y52.370 F1000
G1 X34.372 Y52.370 F1000
G1 X34.475 Y52.473 F1000
G1 X34.578 Y52.473 F1000
G1 X34.681 Y52.576 F1000
G1 X34.784 Y52.576 F1000
G1 X34.887 Y52.679 F1000
G1 X34.990 Y52.679 F1000
G1 X35.093 Y52.782 F1000
G1 X35.196 Y52.782 F1000
G1 X35.299 Y52.885 F1000
G1 X35.402 Y52.885 F1000
G1 X35.505 Y52.988 F1000
G1 X35.711 Y52.988 F1000
G1 X35.814 Y53.091 F1000
G1 X35.917 Y53.091 F1000
G1 X36.020 Y53.194 F1000
G1 X36.226 Y53.194 F1000
G1 X36.329 Y53.297 F1000
G1 X36.432 Y53.297 F1000
G1 X36.535 Y53.400 F1000
G1 X36.741 Y53.400 F1000
G1 X36.844 Y53.503 F1000
G1 X37.050 Y53.503 F1000
G1 X37.153 Y53.606 F1000
G1 X37.256 Y53.606 F1000
G1 X37.256 Y53.709 F1000
G1 X37.359 Y53.812 F1000
G1 X37.565 Y53.606 F1000
G1 X37.565 Y53.400 F1000
G1 X37.668 Y53.297 F1000
G1 X37.565 Y53.194 F1000
G1 X37.565 Y52.885 F1000
G1 X37.668 Y52.782 F1000
G1 X38.183 Y52.782 F1000
G1 X37.668 Y52.782 F1000
G1 X37.565 Y52.885 F1000
G1 X37.565 Y53.091 F1000
G1 X37.668 Y53.194 F1000
G1 X38.183 Y53.194 F1000
