; Blueprint to G-code
; Input: test_images/test7_geodesic_dome.png
; Generated with blueprint2gcode.py

G21 ; Set units to millimeters
G90 ; Absolute positioning
G0 Z3.0 ; Pen up
G0 X0 Y0 ; Move to origin

G0 X6.253 Y17.453 F3000 ; Travel to line 1
G0 Z0.0 ; Pen down
G1 X13.257 Y17.453 F1000
G1 X13.257 Y74.103 F1000
G1 X13.360 Y74.206 F1000
G1 X13.463 Y74.103 F1000
G1 X13.566 Y74.103 F1000
G1 X13.669 Y74.000 F1000
G1 X14.390 Y74.000 F1000
G1 X13.772 Y74.000 F1000
G1 X13.669 Y74.103 F1000
G1 X13.566 Y74.103 F1000
G1 X13.360 Y74.309 F1000
G1 X13.360 Y74.412 F1000
G1 X13.257 Y74.515 F1000
G1 X13.257 Y104.797 F1000
G1 X13.360 Y104.900 F1000
G1 X13.360 Y105.003 F1000
G1 X13.566 Y105.209 F1000
G1 X13.669 Y105.209 F1000
G1 X13.772 Y105.312 F1000
G1 X14.390 Y105.312 F1000
G1 X13.772 Y105.312 F1000
G1 X13.669 Y105.209 F1000
G1 X13.566 Y105.209 F1000
G1 X13.463 Y105.106 F1000
G1 X13.360 Y105.106 F1000
G1 X13.257 Y105.209 F1000
G1 X13.257 Y130.444 F1000
G1 X13.154 Y130.547 F1000
G1 X6.253 Y130.547 F1000
G0 Z3.0 ; Pen up

G0 X23.866 Y125.912 F3000 ; Travel to line 2
G0 Z0.0 ; Pen down
G1 X23.969 Y126.015 F1000
G1 X24.793 Y126.015 F1000
G1 X24.896 Y125.912 F1000
G1 X24.793 Y126.015 F1000
G1 X23.969 Y126.015 F1000
G0 Z3.0 ; Pen up

G0 X24.175 Y125.191 F3000 ; Travel to line 3
G0 Z0.0 ; Pen down
G1 X24.278 Y125.294 F1000
G1 X24.175 Y125.397 F1000
G1 X24.175 Y125.603 F1000
G1 X24.278 Y125.603 F1000
G1 X24.381 Y125.706 F1000
G1 X24.793 Y125.706 F1000
G1 X24.381 Y125.706 F1000
G1 X24.175 Y125.500 F1000
G1 X24.175 Y125.397 F1000
G1 X24.381 Y125.191 F1000
G1 X24.793 Y125.191 F1000
G1 X24.278 Y125.191 F1000
G1 X24.175 Y125.088 F1000
G1 X24.175 Y124.882 F1000
G1 X24.278 Y124.779 F1000
G1 X24.793 Y124.779 F1000
G1 X24.278 Y124.779 F1000
G1 X24.175 Y124.882 F1000
G0 Z3.0 ; Pen up

G0 X23.969 Y124.264 F3000 ; Travel to line 4
G0 Z0.0 ; Pen down
G1 X24.072 Y124.367 F1000
G1 X24.278 Y124.367 F1000
G1 X24.381 Y124.264 F1000
G1 X24.484 Y124.367 F1000
G1 X24.690 Y124.367 F1000
G1 X24.793 Y124.264 F1000
G1 X24.793 Y124.058 F1000
G1 X24.690 Y123.955 F1000
G1 X24.793 Y124.058 F1000
G1 X24.793 Y124.264 F1000
G1 X24.690 Y124.367 F1000
G1 X24.484 Y124.367 F1000
G1 X24.381 Y124.264 F1000
G1 X24.381 Y124.058 F1000
G1 X24.381 Y124.264 F1000
G1 X24.278 Y124.367 F1000
G1 X24.072 Y124.367 F1000
G1 X23.969 Y124.264 F1000
G1 X23.969 Y124.058 F1000
G1 X24.072 Y123.955 F1000
G1 X23.969 Y124.058 F1000
G0 Z3.0 ; Pen up

G0 X23.969 Y123.440 F3000 ; Travel to line 5
G0 Z0.0 ; Pen down
G1 X24.072 Y123.543 F1000
G1 X24.381 Y123.543 F1000
G1 X24.690 Y123.234 F1000
G1 X24.793 Y123.337 F1000
G1 X24.793 Y123.543 F1000
G1 X24.793 Y123.234 F1000
G1 X24.587 Y123.234 F1000
G1 X24.278 Y123.543 F1000
G1 X24.072 Y123.543 F1000
G1 X23.969 Y123.440 F1000
G1 X23.969 Y123.234 F1000
G1 X24.072 Y123.131 F1000
G1 X23.969 Y123.234 F1000
G0 Z3.0 ; Pen up

G0 X23.969 Y122.204 F3000 ; Travel to line 6
G0 Z0.0 ; Pen down
G1 X24.690 Y122.204 F1000
G1 X24.793 Y122.307 F1000
G1 X24.793 Y122.513 F1000
G1 X24.793 Y122.101 F1000
G1 X24.690 Y122.204 F1000
G1 X24.072 Y122.204 F1000
G1 X23.969 Y122.101 F1000
G1 X23.969 Y121.998 F1000
G0 Z3.0 ; Pen up

G0 X23.866 Y121.586 F3000 ; Travel to line 7
G0 Z0.0 ; Pen down
G1 X24.072 Y121.586 F1000
G1 X24.175 Y121.483 F1000
G1 X24.587 Y121.483 F1000
G1 X24.690 Y121.586 F1000
G1 X24.793 Y121.586 F1000
G1 X24.690 Y121.586 F1000
G1 X24.587 Y121.483 F1000
G1 X24.175 Y121.483 F1000
G1 X24.072 Y121.586 F1000
G0 Z3.0 ; Pen up

G0 X24.175 Y120.762 F3000 ; Travel to line 8
G0 Z0.0 ; Pen down
G1 X24.175 Y120.556 F1000
G1 X24.278 Y120.453 F1000
G1 X24.381 Y120.453 F1000
G1 X24.484 Y120.556 F1000
G1 X24.484 Y120.659 F1000
G1 X24.587 Y120.762 F1000
G1 X24.793 Y120.762 F1000
G1 X24.793 Y120.453 F1000
G1 X24.793 Y120.659 F1000
G1 X24.690 Y120.762 F1000
G1 X24.587 Y120.762 F1000
G1 X24.484 Y120.659 F1000
G1 X24.484 Y120.556 F1000
G1 X24.381 Y120.453 F1000
G1 X24.175 Y120.453 F1000
G0 Z3.0 ; Pen up

G0 X24.175 Y120.041 F3000 ; Travel to line 9
G0 Z0.0 ; Pen down
G1 X24.278 Y120.144 F1000
G1 X24.175 Y120.041 F1000
G1 X24.175 Y119.938 F1000
G1 X24.381 Y119.732 F1000
G1 X24.587 Y119.732 F1000
G1 X24.793 Y119.938 F1000
G1 X24.793 Y120.041 F1000
G1 X24.690 Y120.144 F1000
G1 X24.793 Y120.041 F1000
G1 X24.793 Y119.835 F1000
G1 X24.690 Y119.732 F1000
G1 X24.278 Y119.732 F1000
G1 X24.175 Y119.835 F1000
G0 Z3.0 ; Pen up

G0 X24.175 Y119.423 F3000 ; Travel to line 10
G0 Z0.0 ; Pen down
G1 X24.278 Y119.423 F1000
G1 X24.381 Y119.526 F1000
G1 X24.587 Y119.526 F1000
G1 X24.690 Y119.423 F1000
G1 X24.793 Y119.423 F1000
G1 X24.793 Y119.217 F1000
G1 X24.690 Y119.114 F1000
G1 X24.793 Y119.011 F1000
G1 X25.102 Y119.011 F1000
G1 X24.278 Y119.011 F1000
G1 X24.278 Y119.114 F1000
G1 X24.175 Y119.217 F1000
G1 X24.175 Y119.217 F1000
G1 X24.175 Y119.320 F1000
G1 X24.381 Y119.526 F1000
G1 X24.587 Y119.526 F1000
G1 X24.793 Y119.320 F1000
G1 X24.793 Y119.217 F1000
G1 X24.587 Y119.011 F1000
G1 X24.381 Y119.011 F1000
G0 Z3.0 ; Pen up

G0 X23.969 Y118.187 F3000 ; Travel to line 11
G0 Z0.0 ; Pen down
G1 X23.969 Y117.981 F1000
G1 X24.175 Y117.775 F1000
G1 X24.278 Y117.775 F1000
G1 X24.381 Y117.878 F1000
G1 X24.278 Y117.981 F1000
G1 X24.278 Y118.187 F1000
G1 X24.381 Y118.290 F1000
G1 X24.587 Y118.290 F1000
G1 X24.690 Y118.187 F1000
G1 X24.793 Y118.187 F1000
G1 X24.793 Y117.878 F1000
G1 X24.690 Y117.775 F1000
G1 X24.175 Y117.775 F1000
G1 X23.969 Y117.981 F1000
G0 Z3.0 ; Pen up

G0 X24.278 Y117.981 F3000 ; Travel to line 12
G0 Z0.0 ; Pen down
G1 X24.278 Y118.084 F1000
G1 X24.484 Y118.290 F1000
G1 X24.587 Y118.290 F1000
G1 X24.793 Y118.084 F1000
G1 X24.793 Y117.981 F1000
G1 X24.587 Y117.775 F1000
G1 X24.484 Y117.775 F1000
G0 Z3.0 ; Pen up

G0 X23.969 Y117.466 F3000 ; Travel to line 13
G0 Z0.0 ; Pen down
G1 X23.969 Y117.157 F1000
G1 X24.072 Y117.054 F1000
G1 X24.175 Y117.054 F1000
G1 X24.278 Y117.157 F1000
G1 X24.278 Y117.363 F1000
G1 X24.381 Y117.466 F1000
G1 X24.690 Y117.466 F1000
G1 X24.793 Y117.363 F1000
G1 X24.793 Y117.157 F1000
G1 X24.690 Y117.054 F1000
G1 X24.793 Y117.157 F1000
G1 X24.793 Y117.363 F1000
G1 X24.690 Y117.466 F1000
G1 X24.381 Y117.466 F1000
G1 X24.278 Y117.363 F1000
G1 X24.278 Y117.054 F1000
G1 X23.969 Y117.054 F1000
G0 Z3.0 ; Pen up

G0 X23.969 Y116.539 F3000 ; Travel to line 14
G0 Z0.0 ; Pen down
G1 X24.072 Y116.642 F1000
G1 X24.278 Y116.642 F1000
G1 X24.381 Y116.539 F1000
G1 X24.484 Y116.642 F1000
G1 X24.690 Y116.642 F1000
G1 X24.793 Y116.539 F1000
G1 X24.793 Y116.333 F1000
G1 X24.690 Y116.230 F1000
G1 X24.793 Y116.333 F1000
G1 X24.793 Y116.539 F1000
G1 X24.690 Y116.642 F1000
G1 X24.484 Y116.642 F1000
G1 X24.381 Y116.539 F1000
G1 X24.381 Y116.333 F1000
G1 X24.381 Y116.539 F1000
G1 X24.278 Y116.642 F1000
G1 X24.072 Y116.642 F1000
G1 X23.969 Y116.539 F1000
G1 X23.969 Y116.333 F1000
G1 X24.072 Y116.230 F1000
G1 X23.969 Y116.333 F1000
G0 Z3.0 ; Pen up

G0 X22.939 Y115.509 F3000 ; Travel to line 15
G0 Z0.0 ; Pen down
G1 X23.042 Y115.612 F1000
G1 X23.042 Y116.024 F1000
G1 X22.733 Y116.333 F1000
G1 X22.218 Y116.333 F1000
G1 X21.909 Y116.024 F1000
G1 X21.909 Y115.612 F1000
G1 X22.012 Y115.509 F1000
G0 Z3.0 ; Pen up

G0 X21.909 Y115.509 F3000 ; Travel to line 16
G0 Z0.0 ; Pen down
G1 X23.042 Y115.509 F1000
G1 X23.042 Y116.024 F1000
G1 X22.939 Y116.127 F1000
G1 X22.939 Y116.230 F1000
G1 X22.836 Y116.230 F1000
G1 X22.733 Y116.333 F1000
G1 X22.218 Y116.333 F1000
G1 X22.115 Y116.230 F1000
G1 X22.012 Y116.230 F1000
G1 X22.012 Y116.127 F1000
G1 X21.909 Y116.024 F1000
G0 Z3.0 ; Pen up

G0 X21.909 Y115.097 F3000 ; Travel to line 17
G0 Z0.0 ; Pen down
G1 X21.909 Y114.582 F1000
G1 X22.012 Y114.479 F1000
G1 X22.321 Y114.479 F1000
G1 X22.424 Y114.582 F1000
G1 X22.424 Y115.097 F1000
G1 X22.424 Y114.582 F1000
G1 X22.527 Y114.479 F1000
G1 X22.939 Y114.479 F1000
G1 X23.042 Y114.582 F1000
G1 X23.042 Y115.097 F1000
G1 X23.042 Y114.479 F1000
G1 X21.909 Y114.479 F1000
G0 Z3.0 ; Pen up

G0 X21.909 Y113.243 F3000 ; Travel to line 18
G0 Z0.0 ; Pen down
G1 X23.042 Y113.243 F1000
G1 X22.527 Y113.243 F1000
G1 X22.424 Y113.346 F1000
G1 X22.424 Y113.861 F1000
G1 X22.527 Y113.964 F1000
G1 X21.909 Y113.964 F1000
G1 X22.321 Y113.964 F1000
G1 X22.424 Y113.861 F1000
G1 X22.424 Y113.346 F1000
G1 X22.321 Y113.243 F1000
G0 Z3.0 ; Pen up

G0 X21.909 Y112.728 F3000 ; Travel to line 19
G0 Z0.0 ; Pen down
G1 X22.012 Y112.831 F1000
G1 X21.909 Y112.728 F1000
G1 X21.909 Y112.419 F1000
G1 X22.321 Y112.007 F1000
G1 X22.630 Y112.007 F1000
G1 X23.042 Y112.419 F1000
G1 X23.042 Y112.728 F1000
G1 X22.939 Y112.831 F1000
G1 X23.042 Y112.728 F1000
G1 X23.042 Y112.316 F1000
G1 X22.836 Y112.110 F1000
G1 X22.733 Y112.110 F1000
G1 X22.630 Y112.007 F1000
G1 X22.321 Y112.007 F1000
G1 X22.218 Y112.110 F1000
G1 X22.115 Y112.110 F1000
G1 X21.909 Y112.316 F1000
G0 Z3.0 ; Pen up

G0 X21.909 Y111.492 F3000 ; Travel to line 20
G0 Z0.0 ; Pen down
G1 X22.012 Y111.595 F1000
G1 X22.012 Y111.698 F1000
G1 X22.012 Y111.595 F1000
G1 X21.909 Y111.492 F1000
G1 X21.909 Y111.286 F1000
G1 X22.218 Y110.977 F1000
G1 X22.424 Y111.183 F1000
G1 X22.424 Y111.389 F1000
G1 X22.527 Y111.492 F1000
G1 X22.527 Y111.595 F1000
G1 X22.630 Y111.698 F1000
G1 X22.836 Y111.698 F1000
G1 X22.939 Y111.595 F1000
G1 X23.042 Y111.595 F1000
G1 X23.042 Y111.080 F1000
G1 X23.042 Y111.492 F1000
G1 X22.836 Y111.698 F1000
G1 X22.733 Y111.698 F1000
G1 X22.527 Y111.492 F1000
G1 X22.527 Y111.389 F1000
G1 X22.424 Y111.286 F1000
G1 X22.424 Y111.080 F1000
G1 X22.321 Y111.080 F1000
G1 X22.218 Y110.977 F1000
G1 X22.115 Y111.080 F1000
G1 X22.012 Y111.080 F1000
G1 X21.909 Y111.183 F1000
G0 Z3.0 ; Pen up

G0 X21.909 Y110.256 F3000 ; Travel to line 21
G0 Z0.0 ; Pen down
G1 X21.909 Y109.844 F1000
G1 X22.012 Y109.741 F1000
G1 X22.939 Y109.741 F1000
G1 X22.012 Y109.741 F1000
G1 X21.909 Y109.638 F1000
G1 X21.909 Y109.329 F1000
G0 Z3.0 ; Pen up

G0 X21.909 Y109.020 F3000 ; Travel to line 22
G0 Z0.0 ; Pen down
G1 X22.733 Y109.020 F1000
G1 X22.836 Y108.917 F1000
G1 X22.939 Y108.917 F1000
G1 X23.042 Y108.814 F1000
G1 X23.042 Y108.505 F1000
G1 X22.836 Y108.299 F1000
G1 X22.733 Y108.299 F1000
G1 X22.630 Y108.196 F1000
G1 X22.012 Y108.196 F1000
G1 X22.630 Y108.196 F1000
G1 X22.733 Y108.299 F1000
G1 X22.939 Y108.299 F1000
G1 X23.042 Y108.402 F1000
G1 X23.042 Y108.814 F1000
G1 X22.836 Y109.020 F1000
G0 Z3.0 ; Pen up

G0 X21.909 Y107.681 F3000 ; Travel to line 23
G0 Z0.0 ; Pen down
G1 X22.630 Y107.681 F1000
G1 X22.733 Y107.784 F1000
G1 X22.939 Y107.784 F1000
G1 X22.836 Y107.784 F1000
G1 X22.733 Y107.681 F1000
G1 X22.630 Y107.681 F1000
G1 X22.527 Y107.578 F1000
G1 X22.527 Y107.269 F1000
G1 X22.630 Y107.166 F1000
G1 X23.042 Y107.166 F1000
G1 X21.909 Y107.166 F1000
G0 Z3.0 ; Pen up

G0 X22.012 Y107.166 F3000 ; Travel to line 24
G0 Z0.0 ; Pen down
G1 X21.909 Y107.269 F1000
G1 X21.909 Y107.578 F1000
G1 X22.012 Y107.681 F1000
G1 X22.424 Y107.681 F1000
G1 X22.527 Y107.578 F1000
G1 X22.527 Y107.269 F1000
G1 X22.424 Y107.166 F1000
G0 Z3.0 ; Pen up

G0 X21.909 Y106.857 F3000 ; Travel to line 25
G0 Z0.0 ; Pen down
G1 X21.909 Y106.445 F1000
G1 X22.012 Y106.342 F1000
G1 X22.939 Y106.342 F1000
G1 X22.012 Y106.342 F1000
G1 X21.909 Y106.239 F1000
G1 X21.909 Y105.930 F1000
G0 Z3.0 ; Pen up

G0 X21.909 Y105.518 F3000 ; Travel to line 26
G0 Z0.0 ; Pen down
G1 X22.012 Y105.621 F1000
G1 X22.012 Y105.724 F1000
G1 X22.012 Y105.621 F1000
G1 X21.909 Y105.518 F1000
G1 X21.909 Y105.312 F1000
G1 X22.218 Y105.003 F1000
G1 X22.424 Y105.209 F1000
G1 X22.424 Y105.415 F1000
G1 X22.527 Y105.518 F1000
G1 X22.527 Y105.621 F1000
G1 X22.630 Y105.724 F1000
G1 X22.836 Y105.724 F1000
G1 X22.939 Y105.621 F1000
G1 X23.042 Y105.621 F1000
G1 X23.042 Y105.106 F1000
G1 X23.042 Y105.518 F1000
G1 X22.836 Y105.724 F1000
G1 X22.733 Y105.724 F1000
G1 X22.527 Y105.518 F1000
G1 X22.527 Y105.415 F1000
G1 X22.424 Y105.312 F1000
G1 X22.424 Y105.106 F1000
G1 X22.321 Y105.106 F1000
G1 X22.218 Y105.003 F1000
G1 X22.115 Y105.106 F1000
G1 X22.012 Y105.106 F1000
G1 X21.909 Y105.209 F1000
G0 Z3.0 ; Pen up

G0 X20.776 Y103.870 F3000 ; Travel to line 27
G0 Z0.0 ; Pen down
G1 X32.724 Y103.870 F1000
G1 X32.827 Y103.973 F1000
G1 X32.827 Y127.354 F1000
G1 X32.724 Y127.457 F1000
G1 X20.673 Y127.457 F1000
G1 X20.570 Y127.354 F1000
G1 X20.570 Y104.076 F1000
G0 Z3.0 ; Pen up

G0 X24.175 Y105.003 F3000 ; Travel to line 28
G0 Z0.0 ; Pen down
G1 X24.175 Y109.947 F1000
G0 Z3.0 ; Pen up

G0 X23.969 Y111.080 F3000 ; Travel to line 29
G0 Z0.0 ; Pen down
G1 X23.969 Y111.286 F1000
G1 X24.072 Y111.389 F1000
G1 X24.793 Y111.389 F1000
G1 X24.072 Y111.389 F1000
G1 X23.969 Y111.492 F1000
G1 X23.969 Y111.801 F1000
G1 X24.175 Y112.007 F1000
G1 X24.278 Y112.007 F1000
G1 X24.381 Y112.110 F1000
G1 X24.793 Y112.110 F1000
G1 X24.381 Y112.110 F1000
G1 X24.175 Y112.316 F1000
G1 X24.072 Y112.316 F1000
G1 X23.969 Y112.419 F1000
G1 X24.278 Y112.110 F1000
G1 X24.072 Y111.904 F1000
G1 X23.969 Y111.904 F1000
G0 Z3.0 ; Pen up

G0 X23.969 Y112.728 F3000 ; Travel to line 30
G0 Z0.0 ; Pen down
G1 X24.793 Y112.728 F1000
G1 X24.484 Y112.728 F1000
G1 X24.381 Y112.831 F1000
G1 X24.381 Y113.140 F1000
G1 X24.278 Y113.243 F1000
G1 X24.072 Y113.243 F1000
G1 X23.969 Y113.140 F1000
G0 Z3.0 ; Pen up

G0 X23.969 Y113.449 F3000 ; Travel to line 31
G0 Z0.0 ; Pen down
G1 X24.793 Y113.449 F1000
G1 X24.793 Y113.964 F1000
G1 X24.793 Y113.552 F1000
G1 X24.690 Y113.449 F1000
G1 X24.484 Y113.449 F1000
G1 X24.381 Y113.552 F1000
G1 X24.381 Y113.964 F1000
G1 X24.381 Y113.552 F1000
G1 X24.278 Y113.449 F1000
G1 X24.072 Y113.449 F1000
G1 X23.969 Y113.552 F1000
G1 X23.969 Y113.964 F1000
G0 Z3.0 ; Pen up

G0 X24.278 Y114.685 F3000 ; Travel to line 32
G0 Z0.0 ; Pen down
G1 X24.484 Y114.685 F1000
G1 X24.587 Y114.788 F1000
G1 X24.587 Y114.994 F1000
G1 X24.484 Y115.097 F1000
G1 X24.381 Y114.994 F1000
G1 X24.175 Y114.994 F1000
G1 X24.072 Y114.891 F1000
G1 X24.072 Y114.891 F1000
G1 X24.175 Y114.994 F1000
G1 X24.381 Y114.994 F1000
G1 X24.484 Y115.097 F1000
G1 X24.587 Y115.097 F1000
G1 X24.587 Y114.685 F1000
G1 X24.690 Y114.582 F1000
G1 X24.793 Y114.582 F1000
G1 X24.587 Y114.582 F1000
G1 X24.484 Y114.685 F1000
G1 X24.278 Y114.685 F1000
G1 X24.175 Y114.788 F1000
G1 X24.072 Y114.788 F1000
G0 Z3.0 ; Pen up

G0 X24.072 Y112.728 F3000 ; Travel to line 33
G0 Z0.0 ; Pen down
G1 X23.969 Y112.831 F1000
G1 X23.969 Y113.037 F1000
G1 X24.175 Y113.243 F1000
G1 X24.381 Y113.037 F1000
G1 X24.381 Y112.831 F1000
G1 X24.278 Y112.728 F1000
G0 Z3.0 ; Pen up

G0 X26.544 Y112.728 F3000 ; Travel to line 34
G0 Z0.0 ; Pen down
G1 X27.368 Y112.728 F1000
G1 X27.059 Y112.728 F1000
G1 X26.956 Y112.831 F1000
G1 X26.956 Y113.140 F1000
G1 X26.853 Y113.243 F1000
G1 X26.647 Y113.243 F1000
G1 X26.544 Y113.140 F1000
G0 Z3.0 ; Pen up

G0 X26.544 Y113.449 F3000 ; Travel to line 35
G0 Z0.0 ; Pen down
G1 X27.368 Y113.449 F1000
G1 X27.368 Y113.964 F1000
G1 X27.368 Y113.552 F1000
G1 X27.265 Y113.449 F1000
G1 X27.059 Y113.449 F1000
G1 X26.956 Y113.552 F1000
G1 X26.956 Y113.964 F1000
G1 X26.956 Y113.552 F1000
G1 X26.853 Y113.449 F1000
G1 X26.647 Y113.449 F1000
G1 X26.544 Y113.552 F1000
G1 X26.544 Y113.964 F1000
G0 Z3.0 ; Pen up

G0 X26.544 Y114.582 F3000 ; Travel to line 36
G0 Z0.0 ; Pen down
G1 X27.368 Y114.582 F1000
G1 X27.368 Y114.994 F1000
G1 X27.265 Y115.097 F1000
G1 X27.059 Y115.097 F1000
G1 X26.956 Y114.994 F1000
G1 X26.853 Y115.097 F1000
G1 X26.647 Y115.097 F1000
G1 X26.544 Y114.994 F1000
G0 Z3.0 ; Pen up

G0 X26.647 Y114.582 F3000 ; Travel to line 37
G0 Z0.0 ; Pen down
G1 X26.544 Y114.685 F1000
G1 X26.544 Y114.891 F1000
G1 X26.750 Y115.097 F1000
G1 X26.956 Y114.891 F1000
G1 X26.956 Y114.685 F1000
G1 X26.853 Y114.582 F1000
G0 Z3.0 ; Pen up

G0 X27.059 Y114.582 F3000 ; Travel to line 38
G0 Z0.0 ; Pen down
G1 X26.956 Y114.685 F1000
G1 X26.956 Y114.994 F1000
G1 X27.059 Y115.097 F1000
G1 X27.265 Y115.097 F1000
G1 X27.368 Y114.994 F1000
G1 X27.368 Y114.685 F1000
G1 X27.265 Y114.582 F1000
G0 Z3.0 ; Pen up

G0 X26.750 Y116.230 F3000 ; Travel to line 39
G0 Z0.0 ; Pen down
G1 X27.162 Y116.230 F1000
G1 X27.368 Y116.436 F1000
G1 X27.368 Y116.539 F1000
G1 X27.265 Y116.642 F1000
G1 X27.162 Y116.642 F1000
G1 X27.059 Y116.745 F1000
G1 X26.853 Y116.745 F1000
G1 X26.750 Y116.642 F1000
G1 X26.647 Y116.642 F1000
G1 X26.544 Y116.539 F1000
G1 X26.544 Y116.436 F1000
G0 Z3.0 ; Pen up

G0 X26.544 Y116.333 F3000 ; Travel to line 40
G0 Z0.0 ; Pen down
G1 X26.647 Y116.230 F1000
G1 X27.265 Y116.230 F1000
G1 X27.368 Y116.333 F1000
G1 X27.368 Y116.539 F1000
G1 X27.162 Y116.745 F1000
G1 X26.750 Y116.745 F1000
G1 X26.544 Y116.539 F1000
G0 Z3.0 ; Pen up

G0 X26.956 Y117.466 F3000 ; Travel to line 41
G0 Z0.0 ; Pen down
G1 X27.162 Y117.466 F1000
G1 X27.368 Y117.672 F1000
G1 X27.368 Y117.775 F1000
G1 X27.162 Y117.981 F1000
G1 X26.956 Y117.981 F1000
G1 X26.750 Y117.775 F1000
G1 X26.750 Y117.672 F1000
G1 X26.750 Y117.672 F1000
G1 X26.853 Y117.569 F1000
G1 X26.853 Y117.466 F1000
G1 X27.677 Y117.466 F1000
G1 X27.368 Y117.466 F1000
G1 X27.265 Y117.569 F1000
G1 X27.368 Y117.672 F1000
G1 X27.368 Y117.878 F1000
G1 X27.265 Y117.878 F1000
G1 X27.162 Y117.981 F1000
G1 X26.956 Y117.981 F1000
G1 X26.853 Y117.878 F1000
G1 X26.750 Y117.878 F1000
G0 Z3.0 ; Pen up

G0 X26.750 Y118.290 F3000 ; Travel to line 42
G0 Z0.0 ; Pen down
G1 X26.853 Y118.187 F1000
G1 X27.265 Y118.187 F1000
G1 X27.368 Y118.290 F1000
G1 X27.368 Y118.496 F1000
G1 X27.265 Y118.599 F1000
G1 X27.368 Y118.496 F1000
G1 X27.368 Y118.393 F1000
G1 X27.162 Y118.187 F1000
G1 X26.956 Y118.187 F1000
G1 X26.750 Y118.393 F1000
G1 X26.750 Y118.496 F1000
G1 X26.853 Y118.599 F1000
G1 X26.750 Y118.496 F1000
G0 Z3.0 ; Pen up

G0 X26.750 Y118.908 F3000 ; Travel to line 43
G0 Z0.0 ; Pen down
G1 X26.956 Y118.908 F1000
G1 X27.059 Y119.011 F1000
G1 X27.059 Y119.114 F1000
G1 X27.162 Y119.217 F1000
G1 X27.265 Y119.217 F1000
G1 X27.368 Y119.114 F1000
G1 X27.368 Y118.908 F1000
G1 X27.368 Y119.217 F1000
G1 X27.162 Y119.217 F1000
G1 X27.059 Y119.114 F1000
G1 X27.059 Y119.011 F1000
G1 X26.956 Y118.908 F1000
G1 X26.853 Y118.908 F1000
G1 X26.750 Y119.011 F1000
G1 X26.750 Y119.217 F1000
G0 Z3.0 ; Pen up

G0 X26.647 Y120.041 F3000 ; Travel to line 44
G0 Z0.0 ; Pen down
G1 X26.750 Y119.938 F1000
G1 X27.162 Y119.938 F1000
G1 X27.265 Y120.041 F1000
G1 X27.368 Y120.041 F1000
G1 X27.265 Y120.041 F1000
G1 X27.162 Y119.938 F1000
G1 X26.750 Y119.938 F1000
G1 X26.647 Y120.041 F1000
G1 X26.441 Y120.041 F1000
G0 Z3.0 ; Pen up

G0 X26.544 Y120.453 F3000 ; Travel to line 45
G0 Z0.0 ; Pen down
G1 X26.544 Y120.556 F1000
G1 X26.647 Y120.659 F1000
G1 X27.265 Y120.659 F1000
G1 X27.368 Y120.556 F1000
G1 X27.368 Y120.968 F1000
G1 X27.368 Y120.762 F1000
G1 X27.265 Y120.659 F1000
G1 X26.544 Y120.659 F1000
G0 Z3.0 ; Pen up

G0 X26.544 Y121.689 F3000 ; Travel to line 46
G0 Z0.0 ; Pen down
G1 X26.647 Y121.586 F1000
G1 X26.544 Y121.689 F1000
G1 X26.544 Y121.895 F1000
G1 X26.647 Y121.998 F1000
G1 X26.853 Y121.998 F1000
G1 X27.162 Y121.689 F1000
G1 X27.368 Y121.689 F1000
G1 X27.368 Y121.998 F1000
G1 X27.368 Y121.792 F1000
G1 X27.265 Y121.689 F1000
G1 X26.956 Y121.998 F1000
G1 X26.647 Y121.998 F1000
G1 X26.544 Y121.895 F1000
G0 Z3.0 ; Pen up

G0 X26.750 Y122.410 F3000 ; Travel to line 47
G0 Z0.0 ; Pen down
G1 X26.956 Y122.616 F1000
G1 X26.956 Y122.719 F1000
G1 X26.853 Y122.822 F1000
G1 X26.647 Y122.822 F1000
G1 X26.544 Y122.719 F1000
G1 X26.544 Y122.616 F1000
G0 Z3.0 ; Pen up

G0 X26.544 Y122.513 F3000 ; Travel to line 48
G0 Z0.0 ; Pen down
G1 X26.647 Y122.410 F1000
G1 X26.853 Y122.410 F1000
G1 X26.956 Y122.513 F1000
G1 X27.059 Y122.410 F1000
G1 X27.265 Y122.410 F1000
G1 X27.368 Y122.513 F1000
G1 X27.368 Y122.822 F1000
G1 X27.265 Y122.925 F1000
G1 X27.162 Y122.925 F1000
G1 X27.059 Y122.822 F1000
G1 X26.544 Y122.822 F1000
G0 Z3.0 ; Pen up

G0 X26.750 Y123.337 F3000 ; Travel to line 49
G0 Z0.0 ; Pen down
G1 X26.853 Y123.234 F1000
G1 X27.368 Y123.234 F1000
G1 X26.853 Y123.234 F1000
G1 X26.750 Y123.337 F1000
G1 X26.750 Y123.543 F1000
G1 X26.853 Y123.646 F1000
G1 X27.368 Y123.646 F1000
G1 X26.956 Y123.646 F1000
G1 X26.750 Y123.852 F1000
G1 X26.750 Y123.955 F1000
G1 X26.956 Y124.161 F1000
G1 X27.368 Y124.161 F1000
G1 X26.956 Y124.161 F1000
G1 X26.853 Y124.058 F1000
G1 X26.750 Y124.058 F1000
G1 X26.750 Y123.852 F1000
G1 X26.853 Y123.749 F1000
G1 X26.750 Y123.646 F1000
G0 Z3.0 ; Pen up

G0 X26.441 Y124.367 F3000 ; Travel to line 50
G0 Z0.0 ; Pen down
G1 X26.544 Y124.470 F1000
G1 X27.368 Y124.470 F1000
G1 X27.471 Y124.367 F1000
G1 X27.368 Y124.470 F1000
G1 X26.544 Y124.470 F1000
G0 Z3.0 ; Pen up

G0 X27.059 Y122.410 F3000 ; Travel to line 51
G0 Z0.0 ; Pen down
G1 X26.956 Y122.513 F1000
G1 X26.956 Y122.719 F1000
G1 X27.162 Y122.925 F1000
G1 X27.368 Y122.719 F1000
G1 X27.368 Y122.513 F1000
G1 X27.265 Y122.410 F1000
G0 Z3.0 ; Pen up

G0 X29.119 Y122.204 F3000 ; Travel to line 52
G0 Z0.0 ; Pen down
G1 X29.840 Y122.204 F1000
G1 X29.943 Y122.307 F1000
G1 X29.943 Y122.513 F1000
G1 X29.943 Y122.101 F1000
G1 X29.840 Y122.204 F1000
G1 X29.222 Y122.204 F1000
G1 X29.119 Y122.101 F1000
G1 X29.119 Y121.998 F1000
G0 Z3.0 ; Pen up

G0 X29.222 Y121.689 F3000 ; Travel to line 53
G0 Z0.0 ; Pen down
G1 X29.325 Y121.586 F1000
G1 X29.737 Y121.586 F1000
G1 X29.840 Y121.689 F1000
G1 X29.943 Y121.689 F1000
G1 X29.840 Y121.689 F1000
G1 X29.737 Y121.586 F1000
G1 X29.325 Y121.586 F1000
G1 X29.222 Y121.689 F1000
G1 X29.016 Y121.689 F1000
G0 Z3.0 ; Pen up

G0 X29.325 Y120.762 F3000 ; Travel to line 54
G0 Z0.0 ; Pen down
G1 X29.325 Y120.556 F1000
G1 X29.428 Y120.453 F1000
G1 X29.531 Y120.453 F1000
G1 X29.634 Y120.556 F1000
G1 X29.634 Y120.659 F1000
G1 X29.737 Y120.762 F1000
G1 X29.943 Y120.762 F1000
G1 X29.943 Y120.453 F1000
G1 X29.943 Y120.659 F1000
G1 X29.840 Y120.762 F1000
G1 X29.737 Y120.762 F1000
G1 X29.634 Y120.659 F1000
G1 X29.634 Y120.556 F1000
G1 X29.531 Y120.453 F1000
G1 X29.325 Y120.453 F1000
G0 Z3.0 ; Pen up

G0 X29.325 Y120.144 F3000 ; Travel to line 55
G0 Z0.0 ; Pen down
G1 X29.428 Y120.247 F1000
G1 X29.325 Y120.144 F1000
G1 X29.325 Y120.041 F1000
G1 X29.531 Y119.835 F1000
G1 X29.737 Y119.835 F1000
G1 X29.943 Y120.041 F1000
G1 X29.943 Y120.144 F1000
G1 X29.840 Y120.247 F1000
G1 X29.943 Y120.144 F1000
G1 X29.943 Y119.938 F1000
G1 X29.840 Y119.835 F1000
G1 X29.428 Y119.835 F1000
G1 X29.325 Y119.938 F1000
G0 Z3.0 ; Pen up

G0 X29.325 Y119.423 F3000 ; Travel to line 56
G0 Z0.0 ; Pen down
G1 X29.428 Y119.423 F1000
G1 X29.531 Y119.526 F1000
G1 X29.737 Y119.526 F1000
G1 X29.840 Y119.423 F1000
G1 X29.943 Y119.423 F1000
G1 X29.943 Y119.217 F1000
G1 X29.840 Y119.114 F1000
G1 X29.943 Y119.011 F1000
G1 X30.252 Y119.011 F1000
G1 X29.428 Y119.011 F1000
G1 X29.428 Y119.114 F1000
G1 X29.325 Y119.217 F1000
G1 X29.325 Y119.217 F1000
G1 X29.325 Y119.320 F1000
G1 X29.531 Y119.526 F1000
G1 X29.737 Y119.526 F1000
G1 X29.943 Y119.320 F1000
G1 X29.943 Y119.217 F1000
G1 X29.737 Y119.011 F1000
G1 X29.531 Y119.011 F1000
G0 Z3.0 ; Pen up

G0 X29.222 Y118.290 F3000 ; Travel to line 57
G0 Z0.0 ; Pen down
G1 X29.943 Y118.290 F1000
G1 X29.840 Y118.290 F1000
G1 X29.737 Y118.187 F1000
G1 X29.737 Y117.878 F1000
G1 X29.531 Y117.878 F1000
G1 X29.325 Y118.084 F1000
G1 X29.222 Y118.084 F1000
G0 Z3.0 ; Pen up

G0 X29.222 Y118.187 F3000 ; Travel to line 58
G0 Z0.0 ; Pen down
G1 X29.325 Y118.290 F1000
G1 X29.634 Y118.290 F1000
G1 X29.737 Y118.187 F1000
G1 X29.737 Y117.981 F1000
G1 X29.634 Y117.878 F1000
G1 X29.531 Y117.878 F1000
G0 Z3.0 ; Pen up

G0 X29.119 Y117.363 F3000 ; Travel to line 59
G0 Z0.0 ; Pen down
G1 X29.325 Y117.569 F1000
G1 X29.737 Y117.569 F1000
G1 X29.943 Y117.363 F1000
G1 X29.943 Y117.157 F1000
G1 X29.840 Y117.054 F1000
G1 X29.222 Y117.054 F1000
G1 X29.119 Y117.157 F1000
G0 Z3.0 ; Pen up

G0 X29.119 Y117.260 F3000 ; Travel to line 60
G0 Z0.0 ; Pen down
G1 X29.119 Y117.363 F1000
G1 X29.222 Y117.466 F1000
G1 X29.325 Y117.466 F1000
G1 X29.428 Y117.569 F1000
G1 X29.634 Y117.569 F1000
G1 X29.737 Y117.466 F1000
G1 X29.840 Y117.466 F1000
G1 X29.943 Y117.363 F1000
G1 X29.943 Y117.260 F1000
G1 X29.737 Y117.054 F1000
G1 X29.325 Y117.054 F1000
G0 Z3.0 ; Pen up

G0 X29.119 Y116.539 F3000 ; Travel to line 61
G0 Z0.0 ; Pen down
G1 X29.840 Y116.539 F1000
G1 X29.943 Y116.642 F1000
G1 X29.943 Y116.848 F1000
G1 X29.943 Y116.436 F1000
G1 X29.840 Y116.539 F1000
G1 X29.222 Y116.539 F1000
G1 X29.119 Y116.436 F1000
G1 X29.119 Y116.333 F1000
G0 Z3.0 ; Pen up

G0 X29.119 Y115.097 F3000 ; Travel to line 62
G0 Z0.0 ; Pen down
G1 X29.222 Y115.200 F1000
G1 X29.119 Y115.097 F1000
G1 X29.119 Y114.788 F1000
G1 X29.325 Y114.582 F1000
G1 X29.737 Y114.582 F1000
G1 X29.943 Y114.788 F1000
G1 X29.943 Y115.097 F1000
G1 X29.840 Y115.200 F1000
G1 X29.943 Y115.097 F1000
G1 X29.943 Y114.788 F1000
G1 X29.737 Y114.582 F1000
G1 X29.325 Y114.582 F1000
G1 X29.119 Y114.788 F1000
G0 Z3.0 ; Pen up

G0 X29.119 Y113.964 F3000 ; Travel to line 63
G0 Z0.0 ; Pen down
G1 X29.119 Y113.552 F1000
G1 X29.222 Y113.449 F1000
G1 X29.428 Y113.449 F1000
G1 X29.531 Y113.552 F1000
G1 X29.531 Y113.964 F1000
G1 X29.531 Y113.552 F1000
G1 X29.634 Y113.449 F1000
G1 X29.840 Y113.449 F1000
G1 X29.943 Y113.552 F1000
G1 X29.943 Y113.964 F1000
G1 X29.943 Y113.449 F1000
G1 X29.119 Y113.449 F1000
G0 Z3.0 ; Pen up

G0 X29.119 Y113.140 F3000 ; Travel to line 64
G0 Z0.0 ; Pen down
G1 X29.222 Y113.243 F1000
G1 X29.428 Y113.243 F1000
G1 X29.531 Y113.140 F1000
G1 X29.531 Y112.831 F1000
G1 X29.634 Y112.728 F1000
G1 X29.943 Y112.728 F1000
G1 X29.119 Y112.728 F1000
G0 Z3.0 ; Pen up

G0 X29.222 Y112.728 F3000 ; Travel to line 65
G0 Z0.0 ; Pen down
G1 X29.119 Y112.831 F1000
G1 X29.119 Y113.037 F1000
G1 X29.325 Y113.243 F1000
G1 X29.531 Y113.037 F1000
G1 X29.531 Y112.831 F1000
G1 X29.428 Y112.728 F1000
G0 Z3.0 ; Pen up

G0 X29.119 Y111.904 F3000 ; Travel to line 66
G0 Z0.0 ; Pen down
G1 X29.222 Y111.904 F1000
G1 X29.428 Y112.110 F1000
G1 X29.119 Y112.419 F1000
G1 X29.222 Y112.316 F1000
G1 X29.325 Y112.316 F1000
G1 X29.531 Y112.110 F1000
G1 X29.943 Y112.110 F1000
G1 X29.531 Y112.110 F1000
G1 X29.428 Y112.007 F1000
G1 X29.325 Y112.007 F1000
G1 X29.119 Y111.801 F1000
G1 X29.119 Y111.492 F1000
G1 X29.222 Y111.389 F1000
G1 X29.943 Y111.389 F1000
G1 X29.222 Y111.389 F1000
G1 X29.119 Y111.286 F1000
G1 X29.119 Y111.080 F1000
G0 Z3.0 ; Pen up

G0 X29.325 Y109.947 F3000 ; Travel to line 67
G0 Z0.0 ; Pen down
G1 X29.325 Y105.003 F1000
G0 Z3.0 ; Pen up

G0 X26.750 Y105.003 F3000 ; Travel to line 68
G0 Z0.0 ; Pen down
G1 X26.750 Y109.947 F1000
G0 Z3.0 ; Pen up

G0 X26.544 Y111.080 F3000 ; Travel to line 69
G0 Z0.0 ; Pen down
G1 X26.544 Y111.286 F1000
G1 X26.647 Y111.389 F1000
G1 X27.368 Y111.389 F1000
G1 X26.647 Y111.389 F1000
G1 X26.544 Y111.492 F1000
G1 X26.544 Y111.801 F1000
G1 X26.750 Y112.007 F1000
G1 X26.853 Y112.007 F1000
G1 X26.956 Y112.110 F1000
G1 X27.368 Y112.110 F1000
G1 X26.956 Y112.110 F1000
G1 X26.750 Y112.316 F1000
G1 X26.647 Y112.316 F1000
G1 X26.544 Y112.419 F1000
G1 X26.853 Y112.110 F1000
G1 X26.647 Y111.904 F1000
G1 X26.544 Y111.904 F1000
G0 Z3.0 ; Pen up

G0 X26.647 Y112.728 F3000 ; Travel to line 70
G0 Z0.0 ; Pen down
G1 X26.544 Y112.831 F1000
G1 X26.544 Y113.037 F1000
G1 X26.750 Y113.243 F1000
G1 X26.956 Y113.037 F1000
G1 X26.956 Y112.831 F1000
G1 X26.853 Y112.728 F1000
G0 Z3.0 ; Pen up

G0 X22.836 Y117.466 F3000 ; Travel to line 71
G0 Z0.0 ; Pen down
G1 X23.042 Y117.260 F1000
G1 X23.042 Y116.848 F1000
G1 X22.939 Y116.745 F1000
G1 X22.733 Y116.745 F1000
G1 X22.630 Y116.642 F1000
G1 X22.012 Y116.642 F1000
G1 X22.630 Y116.642 F1000
G1 X22.733 Y116.745 F1000
G1 X22.836 Y116.745 F1000
G1 X23.042 Y116.951 F1000
G1 X23.042 Y117.260 F1000
G1 X22.939 Y117.363 F1000
G1 X22.836 Y117.363 F1000
G1 X22.733 Y117.466 F1000
G1 X21.909 Y117.466 F1000
G0 Z3.0 ; Pen up

G0 X21.909 Y117.981 F3000 ; Travel to line 72
G0 Z0.0 ; Pen down
G1 X23.042 Y117.981 F1000
G1 X23.042 Y118.599 F1000
G1 X23.042 Y118.084 F1000
G1 X22.939 Y117.981 F1000
G0 Z3.0 ; Pen up

G0 X21.909 Y118.908 F3000 ; Travel to line 73
G0 Z0.0 ; Pen down
G1 X23.042 Y118.908 F1000
G1 X23.042 Y119.526 F1000
G1 X23.042 Y119.011 F1000
G1 X22.939 Y118.908 F1000
G1 X22.527 Y118.908 F1000
G1 X22.424 Y119.011 F1000
G1 X22.424 Y119.526 F1000
G1 X22.424 Y119.011 F1000
G1 X22.321 Y118.908 F1000
G1 X22.012 Y118.908 F1000
G1 X21.909 Y119.011 F1000
G1 X21.909 Y119.526 F1000
G0 Z3.0 ; Pen up

G0 X29.119 Y123.337 F3000 ; Travel to line 74
G0 Z0.0 ; Pen down
G1 X29.222 Y123.234 F1000
G1 X29.119 Y123.337 F1000
G1 X29.119 Y123.543 F1000
G1 X29.222 Y123.646 F1000
G1 X29.428 Y123.646 F1000
G1 X29.531 Y123.543 F1000
G1 X29.531 Y123.337 F1000
G1 X29.531 Y123.543 F1000
G1 X29.634 Y123.646 F1000
G1 X29.840 Y123.646 F1000
G1 X29.943 Y123.543 F1000
G1 X29.943 Y123.337 F1000
G1 X29.840 Y123.234 F1000
G1 X29.943 Y123.337 F1000
G1 X29.943 Y123.543 F1000
G1 X29.840 Y123.646 F1000
G1 X29.634 Y123.646 F1000
G1 X29.531 Y123.543 F1000
G1 X29.428 Y123.646 F1000
G1 X29.222 Y123.646 F1000
G1 X29.119 Y123.543 F1000
G0 Z3.0 ; Pen up

G0 X29.119 Y123.955 F3000 ; Travel to line 75
G0 Z0.0 ; Pen down
G1 X29.119 Y124.058 F1000
G1 X29.222 Y124.161 F1000
G1 X29.840 Y124.161 F1000
G1 X29.943 Y124.058 F1000
G1 X29.943 Y124.470 F1000
G1 X29.943 Y124.264 F1000
G1 X29.840 Y124.161 F1000
G1 X29.119 Y124.161 F1000
G0 Z3.0 ; Pen up

G0 X29.325 Y124.882 F3000 ; Travel to line 76
G0 Z0.0 ; Pen down
G1 X29.428 Y124.779 F1000
G1 X29.943 Y124.779 F1000
G1 X29.428 Y124.779 F1000
G1 X29.325 Y124.882 F1000
G1 X29.325 Y125.088 F1000
G1 X29.428 Y125.191 F1000
G1 X29.943 Y125.191 F1000
G1 X29.531 Y125.191 F1000
G1 X29.325 Y125.397 F1000
G1 X29.325 Y125.500 F1000
G1 X29.531 Y125.706 F1000
G1 X29.943 Y125.706 F1000
G1 X29.531 Y125.706 F1000
G1 X29.428 Y125.603 F1000
G1 X29.325 Y125.603 F1000
G1 X29.325 Y125.397 F1000
G1 X29.428 Y125.294 F1000
G1 X29.325 Y125.191 F1000
G0 Z3.0 ; Pen up

G0 X29.016 Y126.015 F3000 ; Travel to line 77
G0 Z0.0 ; Pen down
G1 X29.119 Y126.118 F1000
G1 X29.943 Y126.118 F1000
G1 X30.046 Y126.015 F1000
G1 X29.943 Y126.118 F1000
G1 X29.119 Y126.118 F1000
G0 Z3.0 ; Pen up

G0 X38.286 Y108.299 F3000 ; Travel to line 78
G0 Z0.0 ; Pen down
G1 X38.389 Y108.402 F1000
G1 X38.698 Y108.402 F1000
G1 X38.801 Y108.505 F1000
G1 X39.007 Y108.505 F1000
G1 X39.110 Y108.608 F1000
G1 X39.213 Y108.608 F1000
G1 X39.316 Y108.711 F1000
G1 X39.625 Y108.711 F1000
G1 X39.728 Y108.814 F1000
G1 X39.934 Y108.814 F1000
G1 X40.037 Y108.917 F1000
G1 X40.243 Y108.917 F1000
G1 X40.346 Y109.020 F1000
G1 X40.552 Y109.020 F1000
G1 X40.655 Y109.123 F1000
G1 X40.861 Y109.123 F1000
G1 X40.964 Y109.226 F1000
G1 X41.067 Y109.226 F1000
G1 X41.170 Y109.329 F1000
G1 X41.376 Y109.329 F1000
G1 X41.479 Y109.432 F1000
G1 X41.685 Y109.432 F1000
G1 X41.788 Y109.535 F1000
G1 X42.406 Y109.535 F1000
G1 X42.509 Y109.638 F1000
G1 X42.818 Y109.638 F1000
G1 X42.921 Y109.741 F1000
G1 X43.127 Y109.741 F1000
G1 X43.230 Y109.844 F1000
G1 X43.539 Y109.844 F1000
G1 X43.642 Y109.741 F1000
G1 X43.642 Y109.638 F1000
G1 X43.333 Y109.329 F1000
G1 X43.230 Y109.329 F1000
G1 X42.921 Y109.020 F1000
G1 X42.818 Y109.020 F1000
G1 X42.612 Y108.814 F1000
G1 X42.509 Y108.814 F1000
G1 X42.200 Y108.505 F1000
G1 X42.097 Y108.505 F1000
G1 X41.891 Y108.299 F1000
G1 X41.788 Y108.299 F1000
G1 X41.479 Y107.990 F1000
G1 X41.376 Y107.990 F1000
G1 X41.067 Y107.681 F1000
G1 X40.964 Y107.681 F1000
G1 X40.758 Y107.475 F1000
G1 X40.655 Y107.475 F1000
G1 X40.346 Y107.166 F1000
G1 X40.037 Y107.166 F1000
G1 X39.831 Y107.372 F1000
G1 X39.728 Y107.372 F1000
G1 X39.625 Y107.475 F1000
G1 X39.522 Y107.475 F1000
G1 X39.419 Y107.578 F1000
G1 X39.316 Y107.578 F1000
G1 X39.213 Y107.681 F1000
G1 X39.110 Y107.681 F1000
G1 X38.904 Y107.887 F1000
G1 X38.801 Y107.887 F1000
G1 X38.698 Y107.990 F1000
G1 X38.595 Y107.990 F1000
G0 Z3.0 ; Pen up

G0 X40.449 Y106.960 F3000 ; Travel to line 79
G0 Z0.0 ; Pen down
G1 X40.346 Y107.063 F1000
G1 X40.346 Y107.166 F1000
G1 X40.655 Y107.475 F1000
G1 X40.758 Y107.475 F1000
G1 X40.964 Y107.681 F1000
G1 X41.067 Y107.681 F1000
G1 X41.376 Y107.990 F1000
G1 X41.479 Y107.990 F1000
G1 X41.788 Y108.299 F1000
G1 X41.891 Y108.299 F1000
G1 X42.097 Y108.505 F1000
G1 X42.200 Y108.505 F1000
G1 X42.509 Y108.814 F1000
G1 X42.612 Y108.814 F1000
G1 X42.818 Y109.020 F1000
G1 X42.921 Y109.020 F1000
G1 X43.230 Y109.329 F1000
G1 X43.333 Y109.329 F1000
G1 X43.642 Y109.638 F1000
G1 X43.745 Y109.638 F1000
G1 X43.848 Y109.741 F1000
G1 X43.848 Y109.844 F1000
G1 X43.951 Y109.947 F1000
G1 X44.054 Y109.947 F1000
G1 X44.157 Y110.050 F1000
G1 X44.260 Y110.050 F1000
G1 X44.363 Y110.153 F1000
G1 X44.569 Y110.153 F1000
G1 X44.775 Y110.359 F1000
G1 X44.878 Y110.359 F1000
G1 X44.981 Y110.462 F1000
G1 X45.084 Y110.359 F1000
G1 X45.187 Y110.359 F1000
G1 X45.290 Y110.462 F1000
G1 X45.599 Y110.462 F1000
G1 X45.702 Y110.359 F1000
G1 X45.702 Y109.535 F1000
G1 X45.393 Y109.226 F1000
G1 X45.290 Y109.226 F1000
G1 X45.084 Y109.020 F1000
G1 X44.981 Y109.020 F1000
G1 X44.775 Y108.814 F1000
G1 X44.672 Y108.814 F1000
G1 X44.466 Y108.608 F1000
G1 X44.363 Y108.608 F1000
G1 X44.157 Y108.402 F1000
G1 X44.054 Y108.402 F1000
G1 X43.848 Y108.196 F1000
G1 X43.745 Y108.196 F1000
G1 X43.539 Y107.990 F1000
G1 X43.436 Y107.990 F1000
G1 X43.230 Y107.784 F1000
G1 X43.127 Y107.784 F1000
G1 X42.921 Y107.578 F1000
G1 X42.818 Y107.578 F1000
G1 X42.612 Y107.372 F1000
G1 X42.509 Y107.372 F1000
G1 X42.303 Y107.166 F1000
G1 X42.200 Y107.166 F1000
G1 X41.994 Y106.960 F1000
G1 X41.891 Y106.960 F1000
G1 X41.788 Y106.857 F1000
G1 X41.788 Y106.754 F1000
G1 X41.685 Y106.651 F1000
G1 X41.582 Y106.651 F1000
G1 X41.479 Y106.548 F1000
G1 X41.170 Y106.548 F1000
G1 X41.067 Y106.651 F1000
G1 X40.964 Y106.651 F1000
G1 X40.861 Y106.754 F1000
G1 X40.758 Y106.754 F1000
G1 X40.552 Y106.960 F1000
G0 Z3.0 ; Pen up

G0 X40.758 Y106.136 F3000 ; Travel to line 80
G0 Z0.0 ; Pen down
G1 X40.655 Y106.239 F1000
G1 X40.552 Y106.136 F1000
G1 X40.655 Y106.033 F1000
G0 Z3.0 ; Pen up

G0 X41.376 Y106.033 F3000 ; Travel to line 81
G0 Z0.0 ; Pen down
G1 X41.479 Y105.930 F1000
G1 X41.479 Y105.724 F1000
G1 X41.582 Y105.621 F1000
G1 X41.582 Y105.415 F1000
G1 X41.685 Y105.312 F1000
G1 X41.685 Y105.003 F1000
G1 X41.788 Y104.900 F1000
G1 X41.788 Y104.694 F1000
G1 X41.891 Y104.591 F1000
G1 X41.891 Y104.385 F1000
G1 X41.994 Y104.282 F1000
G1 X41.994 Y104.076 F1000
G1 X42.097 Y103.973 F1000
G1 X42.097 Y103.767 F1000
G1 X42.200 Y103.664 F1000
G1 X42.200 Y103.458 F1000
G1 X42.303 Y103.355 F1000
G1 X42.303 Y103.149 F1000
G1 X42.406 Y103.046 F1000
G1 X42.406 Y102.840 F1000
G1 X42.509 Y102.737 F1000
G1 X42.509 Y102.428 F1000
G1 X42.612 Y102.325 F1000
G1 X42.612 Y102.119 F1000
G1 X42.715 Y102.016 F1000
G1 X42.715 Y101.810 F1000
G1 X42.818 Y101.707 F1000
G1 X42.818 Y101.501 F1000
G1 X42.921 Y101.398 F1000
G1 X42.921 Y101.295 F1000
G1 X43.024 Y101.192 F1000
G1 X43.333 Y101.192 F1000
G1 X43.436 Y101.295 F1000
G1 X43.436 Y101.398 F1000
G1 X43.642 Y101.604 F1000
G1 X43.745 Y101.604 F1000
G1 X44.157 Y102.016 F1000
G1 X44.260 Y102.016 F1000
G1 X44.569 Y102.325 F1000
G1 X44.672 Y102.325 F1000
G1 X44.775 Y102.428 F1000
G1 X44.775 Y102.531 F1000
G1 X44.878 Y102.634 F1000
G1 X44.878 Y103.664 F1000
G1 X44.981 Y103.767 F1000
G1 X44.981 Y104.488 F1000
G1 X45.084 Y104.591 F1000
G1 X45.084 Y105.312 F1000
G1 X45.187 Y105.415 F1000
G1 X45.187 Y106.136 F1000
G1 X45.290 Y106.239 F1000
G1 X45.290 Y106.857 F1000
G1 X45.187 Y106.960 F1000
G1 X44.878 Y106.960 F1000
G1 X44.775 Y106.857 F1000
G1 X44.054 Y106.857 F1000
G1 X43.951 Y106.754 F1000
G1 X43.230 Y106.754 F1000
G1 X43.127 Y106.651 F1000
G1 X42.406 Y106.651 F1000
G1 X42.303 Y106.548 F1000
G1 X41.788 Y106.548 F1000
G1 X41.685 Y106.651 F1000
G1 X41.582 Y106.651 F1000
G1 X41.479 Y106.548 F1000
G1 X41.376 Y106.548 F1000
G1 X41.273 Y106.445 F1000
G1 X41.273 Y106.342 F1000
G1 X41.376 Y106.239 F1000
G0 Z3.0 ; Pen up

G0 X41.891 Y106.548 F3000 ; Travel to line 82
G0 Z0.0 ; Pen down
G1 X41.788 Y106.651 F1000
G1 X41.788 Y106.857 F1000
G1 X41.891 Y106.960 F1000
G1 X41.994 Y106.960 F1000
G1 X42.200 Y107.166 F1000
G1 X42.303 Y107.166 F1000
G1 X42.509 Y107.372 F1000
G1 X42.612 Y107.372 F1000
G1 X42.818 Y107.578 F1000
G1 X42.921 Y107.578 F1000
G1 X43.127 Y107.784 F1000
G1 X43.230 Y107.784 F1000
G1 X43.436 Y107.990 F1000
G1 X43.539 Y107.990 F1000
G1 X43.745 Y108.196 F1000
G1 X43.848 Y108.196 F1000
G1 X44.054 Y108.402 F1000
G1 X44.157 Y108.402 F1000
G1 X44.363 Y108.608 F1000
G1 X44.466 Y108.608 F1000
G1 X44.672 Y108.814 F1000
G1 X44.775 Y108.814 F1000
G1 X44.981 Y109.020 F1000
G1 X45.084 Y109.020 F1000
G1 X45.290 Y109.226 F1000
G1 X45.496 Y109.226 F1000
G1 X45.599 Y109.123 F1000
G1 X45.599 Y108.814 F1000
G1 X45.496 Y108.711 F1000
G1 X45.496 Y107.887 F1000
G1 X45.393 Y107.784 F1000
G1 X45.393 Y107.063 F1000
G1 X45.290 Y106.960 F1000
G1 X44.878 Y106.960 F1000
G1 X44.775 Y106.857 F1000
G1 X44.054 Y106.857 F1000
G1 X43.951 Y106.754 F1000
G1 X43.230 Y106.754 F1000
G1 X43.127 Y106.651 F1000
G1 X42.406 Y106.651 F1000
G1 X42.303 Y106.548 F1000
G0 Z3.0 ; Pen up

G0 X42.406 Y109.535 F3000 ; Travel to line 83
G0 Z0.0 ; Pen down
G1 X42.303 Y109.638 F1000
G1 X42.303 Y109.741 F1000
G1 X42.406 Y109.844 F1000
G1 X42.509 Y109.844 F1000
G1 X42.612 Y109.741 F1000
G0 Z3.0 ; Pen up

G0 X42.715 Y109.638 F3000 ; Travel to line 84
G0 Z0.0 ; Pen down
G1 X42.612 Y109.741 F1000
G1 X42.612 Y109.844 F1000
G1 X42.715 Y109.947 F1000
G1 X42.921 Y109.947 F1000
G1 X43.024 Y109.844 F1000
G1 X42.818 Y109.638 F1000
G0 Z3.0 ; Pen up

G0 X43.127 Y109.741 F3000 ; Travel to line 85
G0 Z0.0 ; Pen down
G1 X43.230 Y109.844 F1000
G1 X43.436 Y109.844 F1000
G1 X43.539 Y109.947 F1000
G1 X44.054 Y109.947 F1000
G1 X44.157 Y110.050 F1000
G1 X44.260 Y110.050 F1000
G1 X44.363 Y110.153 F1000
G1 X44.466 Y110.153 F1000
G1 X44.672 Y110.359 F1000
G1 X44.672 Y110.462 F1000
G1 X44.569 Y110.565 F1000
G1 X44.260 Y110.565 F1000
G1 X44.157 Y110.462 F1000
G1 X43.951 Y110.462 F1000
G1 X43.848 Y110.359 F1000
G1 X43.745 Y110.359 F1000
G1 X43.642 Y110.256 F1000
G1 X43.436 Y110.256 F1000
G1 X43.333 Y110.153 F1000
G1 X43.127 Y110.153 F1000
G1 X42.921 Y109.947 F1000
G0 Z3.0 ; Pen up

G0 X43.539 Y109.844 F3000 ; Travel to line 86
G0 Z0.0 ; Pen down
G1 X43.642 Y109.947 F1000
G1 X43.745 Y109.947 F1000
G1 X43.848 Y109.844 F1000
G1 X43.848 Y109.741 F1000
G1 X43.745 Y109.638 F1000
G0 Z3.0 ; Pen up

G0 X44.569 Y110.565 F3000 ; Travel to line 87
G0 Z0.0 ; Pen down
G1 X44.672 Y110.668 F1000
G1 X44.775 Y110.668 F1000
G1 X44.981 Y110.462 F1000
G1 X44.878 Y110.359 F1000
G1 X44.775 Y110.359 F1000
G0 Z3.0 ; Pen up

G0 X44.878 Y110.565 F3000 ; Travel to line 88
G0 Z0.0 ; Pen down
G1 X44.775 Y110.668 F1000
G1 X44.878 Y110.771 F1000
G1 X44.981 Y110.668 F1000
G0 Z3.0 ; Pen up

G0 X44.981 Y110.565 F3000 ; Travel to line 89
G0 Z0.0 ; Pen down
G1 X44.981 Y110.668 F1000
G1 X45.084 Y110.771 F1000
G1 X45.187 Y110.771 F1000
G1 X45.393 Y110.565 F1000
G1 X45.187 Y110.359 F1000
G0 Z3.0 ; Pen up

G0 X45.290 Y110.668 F3000 ; Travel to line 90
G0 Z0.0 ; Pen down
G1 X45.290 Y110.771 F1000
G1 X45.496 Y110.977 F1000
G1 X45.702 Y110.977 F1000
G1 X45.805 Y110.874 F1000
G1 X45.805 Y110.565 F1000
G1 X45.702 Y110.462 F1000
G1 X45.496 Y110.462 F1000
G0 Z3.0 ; Pen up

G0 X45.908 Y110.565 F3000 ; Travel to line 91
G0 Z0.0 ; Pen down
G1 X45.805 Y110.668 F1000
G1 X45.805 Y111.080 F1000
G1 X45.908 Y111.183 F1000
G1 X46.629 Y111.183 F1000
G1 X46.835 Y110.977 F1000
G1 X46.629 Y110.771 F1000
G1 X46.423 Y110.771 F1000
G1 X46.320 Y110.668 F1000
G1 X46.011 Y110.668 F1000
G0 Z3.0 ; Pen up

G0 X46.732 Y111.183 F3000 ; Travel to line 92
G0 Z0.0 ; Pen down
G1 X46.732 Y111.286 F1000
G1 X46.835 Y111.389 F1000
G1 X47.144 Y111.389 F1000
G1 X47.247 Y111.286 F1000
G1 X47.247 Y111.183 F1000
G1 X47.144 Y111.080 F1000
G1 X47.041 Y111.080 F1000
G1 X46.938 Y110.977 F1000
G0 Z3.0 ; Pen up

G0 X47.453 Y111.183 F3000 ; Travel to line 93
G0 Z0.0 ; Pen down
G1 X47.350 Y111.286 F1000
G1 X47.556 Y111.492 F1000
G1 X48.174 Y111.492 F1000
G1 X48.277 Y111.389 F1000
G1 X48.277 Y111.286 F1000
G1 X48.174 Y111.183 F1000
G1 X47.968 Y111.183 F1000
G1 X47.865 Y111.080 F1000
G1 X47.762 Y111.183 F1000
G0 Z3.0 ; Pen up

G0 X48.689 Y111.286 F3000 ; Travel to line 94
G0 Z0.0 ; Pen down
G1 X48.586 Y111.389 F1000
G1 X48.895 Y111.698 F1000
G1 X49.204 Y111.698 F1000
G1 X49.307 Y111.595 F1000
G1 X49.204 Y111.492 F1000
G1 X49.204 Y111.389 F1000
G1 X49.101 Y111.286 F1000
G0 Z3.0 ; Pen up

G0 X49.204 Y111.183 F3000 ; Travel to line 95
G0 Z0.0 ; Pen down
G1 X49.101 Y111.286 F1000
G1 X49.410 Y111.595 F1000
G1 X49.513 Y111.492 F1000
G1 X49.616 Y111.492 F1000
G1 X49.719 Y111.595 F1000
G1 X49.822 Y111.595 F1000
G1 X49.925 Y111.698 F1000
G1 X50.028 Y111.698 F1000
G1 X50.131 Y111.595 F1000
G1 X50.234 Y111.595 F1000
G1 X50.337 Y111.698 F1000
G1 X50.440 Y111.698 F1000
G1 X50.543 Y111.801 F1000
G1 X50.646 Y111.801 F1000
G1 X50.749 Y111.904 F1000
G1 X51.264 Y111.904 F1000
G1 X51.367 Y112.007 F1000
G1 X51.779 Y112.007 F1000
G1 X51.882 Y112.110 F1000
G1 X52.397 Y112.110 F1000
G1 X52.500 Y112.213 F1000
G1 X53.015 Y112.213 F1000
G1 X53.118 Y112.316 F1000
G1 X53.633 Y112.316 F1000
G1 X53.736 Y112.419 F1000
G1 X54.251 Y112.419 F1000
G1 X54.354 Y112.522 F1000
G1 X54.972 Y112.522 F1000
G1 X55.075 Y112.625 F1000
G1 X55.693 Y112.625 F1000
G1 X55.796 Y112.728 F1000
G1 X56.311 Y112.728 F1000
G1 X56.414 Y112.831 F1000
G1 X56.929 Y112.831 F1000
G1 X57.032 Y112.934 F1000
G1 X57.444 Y112.934 F1000
G1 X57.547 Y112.831 F1000
G1 X57.341 Y112.625 F1000
G1 X57.238 Y112.625 F1000
G1 X57.135 Y112.522 F1000
G1 X57.032 Y112.522 F1000
G1 X56.929 Y112.419 F1000
G1 X56.826 Y112.419 F1000
G1 X56.723 Y112.316 F1000
G1 X56.620 Y112.316 F1000
G1 X56.517 Y112.213 F1000
G1 X56.414 Y112.213 F1000
G1 X56.311 Y112.110 F1000
G1 X56.208 Y112.110 F1000
G1 X56.105 Y112.007 F1000
G1 X56.002 Y112.007 F1000
G1 X55.899 Y111.904 F1000
G1 X55.796 Y111.904 F1000
G1 X55.693 Y111.801 F1000
G1 X55.590 Y111.801 F1000
G1 X55.487 Y111.698 F1000
G1 X55.384 Y111.698 F1000
G1 X55.281 Y111.595 F1000
G1 X55.178 Y111.595 F1000
G1 X55.075 Y111.492 F1000
G1 X54.972 Y111.492 F1000
G1 X54.972 Y111.389 F1000
G1 X54.869 Y111.286 F1000
G1 X54.766 Y111.286 F1000
G1 X54.766 Y111.183 F1000
G1 X54.663 Y111.080 F1000
G1 X54.560 Y111.080 F1000
G1 X54.457 Y111.183 F1000
G0 Z3.0 ; Pen up

G0 X54.766 Y111.080 F3000 ; Travel to line 96
G0 Z0.0 ; Pen down
G1 X54.766 Y111.183 F1000
G1 X54.869 Y111.286 F1000
G1 X54.972 Y111.183 F1000
G1 X60.328 Y111.183 F1000
G1 X60.431 Y111.080 F1000
G1 X60.225 Y110.874 F1000
G1 X60.019 Y110.874 F1000
G1 X59.916 Y110.771 F1000
G1 X59.710 Y110.771 F1000
G1 X59.607 Y110.668 F1000
G1 X59.401 Y110.668 F1000
G1 X59.298 Y110.565 F1000
G1 X59.195 Y110.565 F1000
G1 X59.092 Y110.462 F1000
G1 X58.886 Y110.462 F1000
G1 X58.783 Y110.359 F1000
G1 X58.577 Y110.359 F1000
G1 X58.474 Y110.256 F1000
G1 X58.371 Y110.256 F1000
G1 X58.268 Y110.153 F1000
G1 X58.062 Y110.153 F1000
G1 X57.959 Y110.050 F1000
G1 X57.650 Y110.050 F1000
G1 X57.547 Y110.153 F1000
G1 X57.341 Y110.153 F1000
G1 X57.238 Y110.256 F1000
G1 X56.929 Y110.256 F1000
G1 X56.826 Y110.359 F1000
G1 X56.620 Y110.359 F1000
G1 X56.517 Y110.462 F1000
G1 X56.311 Y110.462 F1000
G1 X56.208 Y110.565 F1000
G1 X56.002 Y110.565 F1000
G1 X55.899 Y110.668 F1000
G1 X55.693 Y110.668 F1000
G1 X55.590 Y110.771 F1000
G1 X55.281 Y110.771 F1000
G1 X55.178 Y110.874 F1000
G1 X54.972 Y110.874 F1000
G0 Z3.0 ; Pen up

G0 X55.075 Y111.183 F3000 ; Travel to line 97
G0 Z0.0 ; Pen down
G1 X54.972 Y111.286 F1000
G1 X54.972 Y111.389 F1000
G1 X55.178 Y111.595 F1000
G1 X55.281 Y111.595 F1000
G1 X55.384 Y111.698 F1000
G1 X55.487 Y111.698 F1000
G1 X55.590 Y111.801 F1000
G1 X55.693 Y111.801 F1000
G1 X55.796 Y111.904 F1000
G1 X55.899 Y111.904 F1000
G1 X56.002 Y112.007 F1000
G1 X56.105 Y112.007 F1000
G1 X56.208 Y112.110 F1000
G1 X56.311 Y112.110 F1000
G1 X56.414 Y112.213 F1000
G1 X56.517 Y112.213 F1000
G1 X56.620 Y112.316 F1000
G1 X56.723 Y112.316 F1000
G1 X56.826 Y112.419 F1000
G1 X56.929 Y112.419 F1000
G1 X57.032 Y112.522 F1000
G1 X57.135 Y112.522 F1000
G1 X57.238 Y112.625 F1000
G1 X57.341 Y112.625 F1000
G1 X57.444 Y112.728 F1000
G1 X57.547 Y112.728 F1000
G1 X57.547 Y112.831 F1000
G1 X57.650 Y112.934 F1000
G1 X57.753 Y112.934 F1000
G1 X57.856 Y113.037 F1000
G1 X58.165 Y113.037 F1000
G1 X58.268 Y112.934 F1000
G1 X58.577 Y112.934 F1000
G1 X58.680 Y112.831 F1000
G1 X58.783 Y112.831 F1000
G1 X58.886 Y112.728 F1000
G1 X58.886 Y112.522 F1000
G1 X58.989 Y112.522 F1000
G1 X59.092 Y112.419 F1000
G1 X59.195 Y112.419 F1000
G1 X59.401 Y112.213 F1000
G1 X59.504 Y112.213 F1000
G1 X59.607 Y112.110 F1000
G1 X59.710 Y112.110 F1000
G1 X59.813 Y112.007 F1000
G1 X59.916 Y112.007 F1000
G1 X60.019 Y111.904 F1000
G1 X60.122 Y111.904 F1000
G1 X60.328 Y111.698 F1000
G1 X60.431 Y111.698 F1000
G1 X60.534 Y111.595 F1000
G1 X60.637 Y111.595 F1000
G1 X60.946 Y111.286 F1000
G1 X60.843 Y111.183 F1000
G0 Z3.0 ; Pen up

G0 X61.255 Y110.977 F3000 ; Travel to line 98
G0 Z0.0 ; Pen down
G1 X61.152 Y111.080 F1000
G1 X61.255 Y111.183 F1000
G1 X62.182 Y111.183 F1000
G1 X62.388 Y110.977 F1000
G1 X62.491 Y110.977 F1000
G1 X62.594 Y110.874 F1000
G1 X62.800 Y110.874 F1000
G1 X62.903 Y110.771 F1000
G1 X63.212 Y110.771 F1000
G1 X63.315 Y110.668 F1000
G1 X63.624 Y110.668 F1000
G1 X63.727 Y110.565 F1000
G1 X63.933 Y110.565 F1000
G1 X64.036 Y110.462 F1000
G1 X64.345 Y110.462 F1000
G1 X64.448 Y110.359 F1000
G1 X64.757 Y110.359 F1000
G1 X64.860 Y110.256 F1000
G1 X65.169 Y110.256 F1000
G1 X65.272 Y110.153 F1000
G1 X65.272 Y109.947 F1000
G1 X65.066 Y109.741 F1000
G1 X64.963 Y109.741 F1000
G1 X64.654 Y109.432 F1000
G1 X64.551 Y109.432 F1000
G1 X64.242 Y109.123 F1000
G1 X64.139 Y109.123 F1000
G1 X63.830 Y108.814 F1000
G1 X63.727 Y108.814 F1000
G1 X63.418 Y108.505 F1000
G1 X63.315 Y108.505 F1000
G1 X63.212 Y108.402 F1000
G1 X62.903 Y108.402 F1000
G1 X62.800 Y108.505 F1000
G1 X62.594 Y108.505 F1000
G1 X62.491 Y108.608 F1000
G1 X62.079 Y108.608 F1000
G1 X61.873 Y108.814 F1000
G1 X61.873 Y109.226 F1000
G1 X61.770 Y109.329 F1000
G1 X61.770 Y109.535 F1000
G1 X61.667 Y109.638 F1000
G1 X61.667 Y109.844 F1000
G1 X61.564 Y109.947 F1000
G1 X61.564 Y110.050 F1000
G1 X61.461 Y110.153 F1000
G1 X61.461 Y110.359 F1000
G1 X61.358 Y110.462 F1000
G1 X61.358 Y110.668 F1000
G1 X61.255 Y110.771 F1000
G0 Z3.0 ; Pen up

G0 X62.388 Y111.080 F3000 ; Travel to line 99
G0 Z0.0 ; Pen down
G1 X62.491 Y111.183 F1000
G1 X65.272 Y111.183 F1000
G1 X65.375 Y111.286 F1000
G1 X65.684 Y111.286 F1000
G1 X65.787 Y111.183 F1000
G1 X66.405 Y111.183 F1000
G1 X66.508 Y111.080 F1000
G1 X66.508 Y110.874 F1000
G1 X66.302 Y110.668 F1000
G1 X66.199 Y110.668 F1000
G1 X65.890 Y110.359 F1000
G1 X65.787 Y110.359 F1000
G1 X65.581 Y110.153 F1000
G1 X65.272 Y110.153 F1000
G1 X65.169 Y110.256 F1000
G1 X64.860 Y110.256 F1000
G1 X64.757 Y110.359 F1000
G1 X64.448 Y110.359 F1000
G1 X64.345 Y110.462 F1000
G1 X64.036 Y110.462 F1000
G1 X63.933 Y110.565 F1000
G1 X63.727 Y110.565 F1000
G1 X63.624 Y110.668 F1000
G1 X63.315 Y110.668 F1000
G1 X63.212 Y110.771 F1000
G1 X62.903 Y110.771 F1000
G1 X62.800 Y110.874 F1000
G1 X62.594 Y110.874 F1000
G0 Z3.0 ; Pen up

G0 X61.873 Y112.110 F3000 ; Travel to line 100
G0 Z0.0 ; Pen down
G1 X62.285 Y112.110 F1000
G1 X62.388 Y112.007 F1000
G1 X62.697 Y112.007 F1000
G1 X62.800 Y111.904 F1000
G1 X63.212 Y111.904 F1000
G1 X63.315 Y111.801 F1000
G1 X63.727 Y111.801 F1000
G1 X63.830 Y111.698 F1000
G1 X64.242 Y111.698 F1000
G1 X64.345 Y111.595 F1000
G1 X64.757 Y111.595 F1000
G1 X64.860 Y111.492 F1000
G1 X65.272 Y111.492 F1000
G1 X65.478 Y111.286 F1000
G1 X65.684 Y111.286 F1000
G1 X65.787 Y111.183 F1000
G1 X66.508 Y111.183 F1000
G1 X66.611 Y111.080 F1000
G1 X66.714 Y111.183 F1000
G1 X66.817 Y111.183 F1000
G1 X66.920 Y111.080 F1000
G1 X67.332 Y111.080 F1000
G1 X67.435 Y110.977 F1000
G1 X67.538 Y110.977 F1000
G1 X67.641 Y111.080 F1000
G1 X69.083 Y111.080 F1000
G1 X69.186 Y111.183 F1000
G1 X68.980 Y111.389 F1000
G1 X68.465 Y111.389 F1000
G1 X68.362 Y111.492 F1000
G1 X67.847 Y111.492 F1000
G1 X67.744 Y111.595 F1000
G1 X67.126 Y111.595 F1000
G1 X67.023 Y111.698 F1000
G1 X66.508 Y111.698 F1000
G1 X66.405 Y111.801 F1000
G1 X65.787 Y111.801 F1000
G1 X65.684 Y111.904 F1000
G1 X65.169 Y111.904 F1000
G1 X65.066 Y112.007 F1000
G1 X64.448 Y112.007 F1000
G1 X64.345 Y112.110 F1000
G1 X63.830 Y112.110 F1000
G1 X63.727 Y112.213 F1000
G1 X63.109 Y112.213 F1000
G1 X63.006 Y112.316 F1000
G1 X62.491 Y112.316 F1000
G1 X62.388 Y112.419 F1000
G1 X61.770 Y112.419 F1000
G1 X61.667 Y112.316 F1000
G0 Z3.0 ; Pen up

G0 X61.358 Y112.213 F3000 ; Travel to line 101
G0 Z0.0 ; Pen down
G1 X61.564 Y112.213 F1000
G1 X61.667 Y112.316 F1000
G1 X61.667 Y112.419 F1000
G1 X61.564 Y112.522 F1000
G1 X61.255 Y112.522 F1000
G1 X61.152 Y112.419 F1000
G0 Z3.0 ; Pen up

G0 X60.843 Y112.316 F3000 ; Travel to line 102
G0 Z0.0 ; Pen down
G1 X61.049 Y112.316 F1000
G1 X61.152 Y112.419 F1000
G1 X60.946 Y112.625 F1000
G1 X60.740 Y112.625 F1000
G1 X60.637 Y112.522 F1000
G0 Z3.0 ; Pen up

G0 X60.328 Y112.625 F3000 ; Travel to line 103
G0 Z0.0 ; Pen down
G1 X60.225 Y112.728 F1000
G1 X60.122 Y112.625 F1000
G1 X60.225 Y112.522 F1000
G0 Z3.0 ; Pen up

G0 X59.092 Y112.419 F3000 ; Travel to line 104
G0 Z0.0 ; Pen down
G1 X59.195 Y112.419 F1000
G1 X59.298 Y112.316 F1000
G1 X59.401 Y112.316 F1000
G1 X59.504 Y112.213 F1000
G1 X59.607 Y112.213 F1000
G1 X59.813 Y112.007 F1000
G1 X59.916 Y112.007 F1000
G1 X60.019 Y111.904 F1000
G1 X60.122 Y111.904 F1000
G1 X60.225 Y111.801 F1000
G1 X60.328 Y111.801 F1000
G1 X60.534 Y111.595 F1000
G1 X60.637 Y111.595 F1000
G1 X60.740 Y111.492 F1000
G1 X60.843 Y111.492 F1000
G1 X60.843 Y111.389 F1000
G1 X60.946 Y111.286 F1000
G1 X61.049 Y111.286 F1000
G1 X61.152 Y111.183 F1000
G1 X62.182 Y111.183 F1000
G1 X62.285 Y111.080 F1000
G1 X62.388 Y111.183 F1000
G1 X65.272 Y111.183 F1000
G1 X65.375 Y111.286 F1000
G1 X65.169 Y111.492 F1000
G1 X64.860 Y111.492 F1000
G1 X64.757 Y111.595 F1000
G1 X64.345 Y111.595 F1000
G1 X64.242 Y111.698 F1000
G1 X63.830 Y111.698 F1000
G1 X63.727 Y111.801 F1000
G1 X63.315 Y111.801 F1000
G1 X63.212 Y111.904 F1000
G1 X62.800 Y111.904 F1000
G1 X62.697 Y112.007 F1000
G1 X62.388 Y112.007 F1000
G1 X62.285 Y112.110 F1000
G1 X61.873 Y112.110 F1000
G1 X61.770 Y112.213 F1000
G1 X61.358 Y112.213 F1000
G1 X61.255 Y112.316 F1000
G1 X60.843 Y112.316 F1000
G1 X60.740 Y112.419 F1000
G1 X60.637 Y112.419 F1000
G1 X60.534 Y112.522 F1000
G1 X60.122 Y112.522 F1000
G1 X60.019 Y112.625 F1000
G1 X59.916 Y112.625 F1000
G1 X59.813 Y112.728 F1000
G1 X59.504 Y112.728 F1000
G1 X59.401 Y112.831 F1000
G1 X58.989 Y112.831 F1000
G1 X58.886 Y112.728 F1000
G1 X58.886 Y112.625 F1000
G0 Z3.0 ; Pen up

G0 X58.062 Y110.050 F3000 ; Travel to line 105
G0 Z0.0 ; Pen down
G1 X58.165 Y110.153 F1000
G1 X58.268 Y110.153 F1000
G1 X58.371 Y110.256 F1000
G1 X58.474 Y110.256 F1000
G1 X58.577 Y110.359 F1000
G1 X58.783 Y110.359 F1000
G1 X58.886 Y110.462 F1000
G1 X59.092 Y110.462 F1000
G1 X59.195 Y110.565 F1000
G1 X59.298 Y110.565 F1000
G1 X59.401 Y110.668 F1000
G1 X59.607 Y110.668 F1000
G1 X59.710 Y110.771 F1000
G1 X59.916 Y110.771 F1000
G1 X60.019 Y110.874 F1000
G1 X60.225 Y110.874 F1000
G1 X60.328 Y110.977 F1000
G1 X60.431 Y110.977 F1000
G1 X60.431 Y111.080 F1000
G1 X60.534 Y111.183 F1000
G1 X60.843 Y111.183 F1000
G1 X60.946 Y111.286 F1000
G1 X61.049 Y111.286 F1000
G1 X61.152 Y111.183 F1000
G1 X61.152 Y110.977 F1000
G1 X61.255 Y110.874 F1000
G1 X61.255 Y110.668 F1000
G1 X61.358 Y110.565 F1000
G1 X61.358 Y110.359 F1000
G1 X61.461 Y110.256 F1000
G1 X61.461 Y110.153 F1000
G1 X61.564 Y110.050 F1000
G1 X61.564 Y109.844 F1000
G1 X61.667 Y109.741 F1000
G1 X61.667 Y109.535 F1000
G1 X61.770 Y109.432 F1000
G1 X61.770 Y109.226 F1000
G1 X61.873 Y109.123 F1000
G1 X61.873 Y108.917 F1000
G1 X61.770 Y108.814 F1000
G1 X61.564 Y108.814 F1000
G1 X61.461 Y108.917 F1000
G1 X61.255 Y108.917 F1000
G1 X61.152 Y109.020 F1000
G1 X60.946 Y109.020 F1000
G1 X60.843 Y109.123 F1000
G1 X60.534 Y109.123 F1000
G1 X60.431 Y109.226 F1000
G1 X60.225 Y109.226 F1000
G1 X60.122 Y109.329 F1000
G1 X59.916 Y109.329 F1000
G1 X59.813 Y109.432 F1000
G1 X59.607 Y109.432 F1000
G1 X59.504 Y109.535 F1000
G1 X59.298 Y109.535 F1000
G1 X59.195 Y109.638 F1000
G1 X58.989 Y109.638 F1000
G1 X58.886 Y109.741 F1000
G1 X58.577 Y109.741 F1000
G1 X58.474 Y109.844 F1000
G1 X58.268 Y109.844 F1000
G0 Z3.0 ; Pen up

G0 X54.560 Y109.535 F3000 ; Travel to line 106
G0 Z0.0 ; Pen down
G1 X54.457 Y109.638 F1000
G1 X54.457 Y110.977 F1000
G1 X54.560 Y111.080 F1000
G1 X54.663 Y111.080 F1000
G1 X54.766 Y110.977 F1000
G1 X54.869 Y110.977 F1000
G1 X54.972 Y110.874 F1000
G1 X55.178 Y110.874 F1000
G1 X55.281 Y110.771 F1000
G1 X55.590 Y110.771 F1000
G1 X55.693 Y110.668 F1000
G1 X55.899 Y110.668 F1000
G1 X56.002 Y110.565 F1000
G1 X56.208 Y110.565 F1000
G1 X56.311 Y110.462 F1000
G1 X56.517 Y110.462 F1000
G1 X56.620 Y110.359 F1000
G1 X56.826 Y110.359 F1000
G1 X56.929 Y110.256 F1000
G1 X57.238 Y110.256 F1000
G1 X57.341 Y110.153 F1000
G1 X57.444 Y110.153 F1000
G1 X57.547 Y110.050 F1000
G1 X57.341 Y109.844 F1000
G1 X57.238 Y109.844 F1000
G1 X57.135 Y109.741 F1000
G1 X56.929 Y109.741 F1000
G1 X56.826 Y109.638 F1000
G1 X56.620 Y109.638 F1000
G1 X56.517 Y109.535 F1000
G1 X56.311 Y109.535 F1000
G1 X56.208 Y109.432 F1000
G1 X56.105 Y109.432 F1000
G1 X56.002 Y109.329 F1000
G1 X55.796 Y109.329 F1000
G1 X55.693 Y109.226 F1000
G1 X55.487 Y109.226 F1000
G1 X55.384 Y109.123 F1000
G1 X55.281 Y109.123 F1000
G1 X55.178 Y109.020 F1000
G1 X54.972 Y109.020 F1000
G1 X54.869 Y108.917 F1000
G1 X54.663 Y108.917 F1000
G1 X54.560 Y109.020 F1000
G0 Z3.0 ; Pen up

G0 X54.663 Y107.990 F3000 ; Travel to line 107
G0 Z0.0 ; Pen down
G1 X54.560 Y108.093 F1000
G1 X54.560 Y108.814 F1000
G1 X54.663 Y108.917 F1000
G1 X54.869 Y108.917 F1000
G1 X54.972 Y109.020 F1000
G1 X55.178 Y109.020 F1000
G1 X55.281 Y109.123 F1000
G1 X55.384 Y109.123 F1000
G1 X55.487 Y109.226 F1000
G1 X55.693 Y109.226 F1000
G1 X55.796 Y109.329 F1000
G1 X56.002 Y109.329 F1000
G1 X56.105 Y109.432 F1000
G1 X56.208 Y109.432 F1000
G1 X56.311 Y109.535 F1000
G1 X56.517 Y109.535 F1000
G1 X56.620 Y109.638 F1000
G1 X56.826 Y109.638 F1000
G1 X56.929 Y109.741 F1000
G1 X57.135 Y109.741 F1000
G1 X57.238 Y109.844 F1000
G1 X57.341 Y109.844 F1000
G1 X57.444 Y109.947 F1000
G1 X57.547 Y109.947 F1000
G1 X57.650 Y110.050 F1000
G1 X57.959 Y110.050 F1000
G1 X58.062 Y109.947 F1000
G1 X58.165 Y109.947 F1000
G1 X58.268 Y109.844 F1000
G1 X58.474 Y109.844 F1000
G1 X58.577 Y109.741 F1000
G1 X58.886 Y109.741 F1000
G1 X58.989 Y109.638 F1000
G1 X59.195 Y109.638 F1000
G1 X59.298 Y109.535 F1000
G1 X59.504 Y109.535 F1000
G1 X59.607 Y109.432 F1000
G1 X59.813 Y109.432 F1000
G1 X59.916 Y109.329 F1000
G1 X60.122 Y109.329 F1000
G1 X60.225 Y109.226 F1000
G1 X60.431 Y109.226 F1000
G1 X60.534 Y109.123 F1000
G1 X60.843 Y109.123 F1000
G1 X60.946 Y109.020 F1000
G1 X61.152 Y109.020 F1000
G1 X61.255 Y108.917 F1000
G1 X61.461 Y108.917 F1000
G1 X61.564 Y108.814 F1000
G1 X61.770 Y108.814 F1000
G1 X61.873 Y108.711 F1000
G1 X61.976 Y108.711 F1000
G1 X62.079 Y108.608 F1000
G1 X62.079 Y108.299 F1000
G1 X62.182 Y108.196 F1000
G1 X62.182 Y107.990 F1000
G1 X62.285 Y107.887 F1000
G1 X62.285 Y107.784 F1000
G1 X62.388 Y107.681 F1000
G1 X62.388 Y107.475 F1000
G1 X62.491 Y107.372 F1000
G1 X62.491 Y107.269 F1000
G1 X62.182 Y106.960 F1000
G1 X62.182 Y106.857 F1000
G1 X62.079 Y106.754 F1000
G1 X62.079 Y106.651 F1000
G1 X61.976 Y106.548 F1000
G1 X61.564 Y106.548 F1000
G1 X61.461 Y106.651 F1000
G1 X60.740 Y106.651 F1000
G1 X60.637 Y106.754 F1000
G1 X59.916 Y106.754 F1000
G1 X59.813 Y106.857 F1000
G1 X59.092 Y106.857 F1000
G1 X58.989 Y106.960 F1000
G1 X58.268 Y106.960 F1000
G1 X58.165 Y107.063 F1000
G1 X57.444 Y107.063 F1000
G1 X57.341 Y107.166 F1000
G1 X56.517 Y107.166 F1000
G1 X56.414 Y107.269 F1000
G1 X55.693 Y107.269 F1000
G1 X55.590 Y107.372 F1000
G1 X54.766 Y107.372 F1000
G1 X54.663 Y107.475 F1000
G0 Z3.0 ; Pen up

G0 X54.766 Y106.342 F3000 ; Travel to line 108
G0 Z0.0 ; Pen down
G1 X54.663 Y106.445 F1000
G1 X54.663 Y107.269 F1000
G1 X54.766 Y107.372 F1000
G1 X55.590 Y107.372 F1000
G1 X55.693 Y107.269 F1000
G1 X56.414 Y107.269 F1000
G1 X56.517 Y107.166 F1000
G1 X57.341 Y107.166 F1000
G1 X57.444 Y107.063 F1000
G1 X58.165 Y107.063 F1000
G1 X58.268 Y106.960 F1000
G1 X58.989 Y106.960 F1000
G1 X59.092 Y106.857 F1000
G1 X59.813 Y106.857 F1000
G1 X59.916 Y106.754 F1000
G1 X60.637 Y106.754 F1000
G1 X60.740 Y106.651 F1000
G1 X61.461 Y106.651 F1000
G1 X61.564 Y106.548 F1000
G1 X61.667 Y106.548 F1000
G1 X61.770 Y106.445 F1000
G1 X61.770 Y106.239 F1000
G1 X61.461 Y105.930 F1000
G1 X61.461 Y105.724 F1000
G1 X60.534 Y104.797 F1000
G1 X60.431 Y104.797 F1000
G1 X60.225 Y104.591 F1000
G1 X60.122 Y104.591 F1000
G1 X59.710 Y104.179 F1000
G1 X59.607 Y104.179 F1000
G1 X59.298 Y103.870 F1000
G1 X59.195 Y103.870 F1000
G1 X58.783 Y103.458 F1000
G1 X58.680 Y103.458 F1000
G1 X58.268 Y103.046 F1000
G1 X58.165 Y103.046 F1000
G1 X57.856 Y102.737 F1000
G1 X57.753 Y102.737 F1000
G1 X57.341 Y102.325 F1000
G1 X57.238 Y102.325 F1000
G1 X56.929 Y102.016 F1000
G1 X56.826 Y102.016 F1000
G1 X56.414 Y101.604 F1000
G1 X56.311 Y101.604 F1000
G1 X56.002 Y101.295 F1000
G1 X55.899 Y101.295 F1000
G1 X55.693 Y101.089 F1000
G1 X55.590 Y101.089 F1000
G1 X55.487 Y101.192 F1000
G1 X55.487 Y101.398 F1000
G1 X55.384 Y101.501 F1000
G1 X55.384 Y101.604 F1000
G1 X55.281 Y101.707 F1000
G1 X55.281 Y101.810 F1000
G1 X55.178 Y101.913 F1000
G1 X55.178 Y102.016 F1000
G1 X55.075 Y102.016 F1000
G1 X54.972 Y102.119 F1000
G1 X54.972 Y102.325 F1000
G1 X54.869 Y102.428 F1000
G1 X54.972 Y102.531 F1000
G1 X54.972 Y103.149 F1000
G1 X54.869 Y103.252 F1000
G1 X54.869 Y104.797 F1000
G1 X54.766 Y104.900 F1000
G0 Z3.0 ; Pen up

G0 X55.075 Y101.604 F3000 ; Travel to line 109
G0 Z0.0 ; Pen down
G1 X54.972 Y101.707 F1000
G1 X54.972 Y101.913 F1000
G1 X55.075 Y102.016 F1000
G1 X55.178 Y101.913 F1000
G1 X55.178 Y101.810 F1000
G1 X55.281 Y101.707 F1000
G1 X55.281 Y101.604 F1000
G1 X55.384 Y101.501 F1000
G1 X55.384 Y101.398 F1000
G1 X55.487 Y101.295 F1000
G1 X55.487 Y101.192 F1000
G1 X55.384 Y101.089 F1000
G1 X55.178 Y101.089 F1000
G1 X55.075 Y101.192 F1000
G0 Z3.0 ; Pen up

G0 X54.972 Y101.089 F3000 ; Travel to line 110
G0 Z0.0 ; Pen down
G1 X55.075 Y101.192 F1000
G1 X55.075 Y101.501 F1000
G1 X54.972 Y101.604 F1000
G1 X54.972 Y102.325 F1000
G1 X54.766 Y102.531 F1000
G1 X54.766 Y102.634 F1000
G1 X54.560 Y102.840 F1000
G1 X54.560 Y102.943 F1000
G1 X54.457 Y103.046 F1000
G1 X54.457 Y103.149 F1000
G1 X54.354 Y103.252 F1000
G1 X54.354 Y103.355 F1000
G1 X54.148 Y103.561 F1000
G1 X54.148 Y103.664 F1000
G1 X54.045 Y103.767 F1000
G1 X54.045 Y103.870 F1000
G1 X53.942 Y103.973 F1000
G1 X53.942 Y104.076 F1000
G1 X53.736 Y104.282 F1000
G1 X53.736 Y104.385 F1000
G1 X53.633 Y104.488 F1000
G1 X53.633 Y104.591 F1000
G1 X53.427 Y104.797 F1000
G1 X53.427 Y104.900 F1000
G1 X53.324 Y105.003 F1000
G1 X53.324 Y105.106 F1000
G1 X53.221 Y105.209 F1000
G1 X53.221 Y105.312 F1000
G1 X53.015 Y105.518 F1000
G1 X53.015 Y105.621 F1000
G1 X52.912 Y105.724 F1000
G1 X52.912 Y105.827 F1000
G1 X52.809 Y105.930 F1000
G1 X52.809 Y106.033 F1000
G1 X52.603 Y106.239 F1000
G1 X52.603 Y106.342 F1000
G1 X52.500 Y106.445 F1000
G1 X52.500 Y106.548 F1000
G1 X52.397 Y106.651 F1000
G1 X52.397 Y106.754 F1000
G1 X52.191 Y106.960 F1000
G1 X52.191 Y107.063 F1000
G1 X52.088 Y107.166 F1000
G1 X52.088 Y107.269 F1000
G1 X51.985 Y107.372 F1000
G1 X51.985 Y107.475 F1000
G1 X51.882 Y107.578 F1000
G1 X51.882 Y107.681 F1000
G1 X51.779 Y107.784 F1000
G1 X51.470 Y107.784 F1000
G1 X51.367 Y107.681 F1000
G1 X51.264 Y107.681 F1000
G1 X50.852 Y107.269 F1000
G1 X50.852 Y107.166 F1000
G1 X50.646 Y106.960 F1000
G1 X50.543 Y106.960 F1000
G1 X49.410 Y105.827 F1000
G1 X49.410 Y105.724 F1000
G1 X48.895 Y105.209 F1000
G1 X48.895 Y105.106 F1000
G1 X47.865 Y104.076 F1000
G1 X47.865 Y103.973 F1000
G1 X46.938 Y103.046 F1000
G1 X46.938 Y102.943 F1000
G1 X45.908 Y101.913 F1000
G1 X45.908 Y101.810 F1000
G1 X45.496 Y101.398 F1000
G1 X45.496 Y101.192 F1000
G1 X45.599 Y101.089 F1000
G0 Z3.0 ; Pen up

G0 X45.290 Y101.089 F3000 ; Travel to line 111
G0 Z0.0 ; Pen down
G1 X45.496 Y101.295 F1000
G1 X45.496 Y101.398 F1000
G1 X45.908 Y101.810 F1000
G1 X45.908 Y101.913 F1000
G1 X46.835 Y102.840 F1000
G1 X46.835 Y102.943 F1000
G1 X47.865 Y103.973 F1000
G1 X47.865 Y104.076 F1000
G1 X48.895 Y105.106 F1000
G1 X48.895 Y105.209 F1000
G1 X48.998 Y105.312 F1000
G1 X48.998 Y105.415 F1000
G1 X48.895 Y105.518 F1000
G1 X48.689 Y105.518 F1000
G1 X48.380 Y105.209 F1000
G1 X48.277 Y105.209 F1000
G1 X47.865 Y104.797 F1000
G1 X47.762 Y104.797 F1000
G1 X47.453 Y104.488 F1000
G1 X47.350 Y104.488 F1000
G1 X47.041 Y104.179 F1000
G1 X46.938 Y104.179 F1000
G1 X46.526 Y103.767 F1000
G1 X46.423 Y103.767 F1000
G1 X46.114 Y103.458 F1000
G1 X46.011 Y103.458 F1000
G1 X45.599 Y103.046 F1000
G1 X45.496 Y103.046 F1000
G1 X45.187 Y102.737 F1000
G1 X44.981 Y102.737 F1000
G1 X44.775 Y102.531 F1000
G1 X44.775 Y101.913 F1000
G1 X44.672 Y101.810 F1000
G1 X44.672 Y101.192 F1000
G1 X44.775 Y101.089 F1000
G0 Z3.0 ; Pen up

G0 X44.569 Y101.089 F3000 ; Travel to line 112
G0 Z0.0 ; Pen down
G1 X44.672 Y101.192 F1000
G1 X44.672 Y101.913 F1000
G1 X44.775 Y102.016 F1000
G1 X44.775 Y102.222 F1000
G1 X44.672 Y102.325 F1000
G1 X44.569 Y102.325 F1000
G1 X44.260 Y102.016 F1000
G1 X44.157 Y102.016 F1000
G1 X43.745 Y101.604 F1000
G1 X43.642 Y101.604 F1000
G1 X43.436 Y101.398 F1000
G1 X43.436 Y101.192 F1000
G1 X43.539 Y101.089 F1000
G0 Z3.0 ; Pen up

G0 X43.230 Y100.883 F3000 ; Travel to line 113
G0 Z0.0 ; Pen down
G1 X43.127 Y100.986 F1000
G1 X43.127 Y101.089 F1000
G1 X43.230 Y101.192 F1000
G1 X43.333 Y101.192 F1000
G1 X43.436 Y101.089 F1000
G1 X44.466 Y101.089 F1000
G1 X44.569 Y100.986 F1000
G1 X44.569 Y100.574 F1000
G1 X44.672 Y100.471 F1000
G1 X44.672 Y100.265 F1000
G1 X44.569 Y100.162 F1000
G1 X44.363 Y100.162 F1000
G1 X44.260 Y100.059 F1000
G1 X43.642 Y100.059 F1000
G1 X43.539 Y100.162 F1000
G1 X43.539 Y100.265 F1000
G1 X43.436 Y100.368 F1000
G1 X43.436 Y100.471 F1000
G1 X43.333 Y100.574 F1000
G1 X43.333 Y100.677 F1000
G1 X43.230 Y100.780 F1000
G0 Z3.0 ; Pen up

G0 X43.745 Y99.853 F3000 ; Travel to line 114
G0 Z0.0 ; Pen down
G1 X43.642 Y99.956 F1000
G1 X43.745 Y100.059 F1000
G1 X44.157 Y100.059 F1000
G1 X44.260 Y99.956 F1000
G1 X44.260 Y99.853 F1000
G1 X43.951 Y99.544 F1000
G1 X43.745 Y99.750 F1000
G0 Z3.0 ; Pen up

G0 X44.054 Y99.235 F3000 ; Travel to line 115
G0 Z0.0 ; Pen down
G1 X43.951 Y99.338 F1000
G1 X43.951 Y99.441 F1000
G1 X44.054 Y99.544 F1000
G1 X44.054 Y99.647 F1000
G1 X44.260 Y99.853 F1000
G1 X44.260 Y100.059 F1000
G1 X44.363 Y100.162 F1000
G1 X44.466 Y100.162 F1000
G1 X44.569 Y100.059 F1000
G1 X44.569 Y99.647 F1000
G1 X44.672 Y99.544 F1000
G1 X44.672 Y99.029 F1000
G1 X44.775 Y98.926 F1000
G1 X44.775 Y98.514 F1000
G1 X44.878 Y98.411 F1000
G1 X44.878 Y97.896 F1000
G1 X44.775 Y97.793 F1000
G1 X44.672 Y97.896 F1000
G1 X44.672 Y97.999 F1000
G1 X44.569 Y98.102 F1000
G1 X44.569 Y98.205 F1000
G1 X44.466 Y98.308 F1000
G1 X44.466 Y98.411 F1000
G1 X44.363 Y98.514 F1000
G1 X44.363 Y98.617 F1000
G1 X44.260 Y98.720 F1000
G1 X44.260 Y98.823 F1000
G1 X44.157 Y98.926 F1000
G1 X44.157 Y99.029 F1000
G1 X44.054 Y99.132 F1000
G0 Z3.0 ; Pen up

G0 X44.672 Y99.132 F3000 ; Travel to line 116
G0 Z0.0 ; Pen down
G1 X44.775 Y99.029 F1000
G1 X44.775 Y98.617 F1000
G1 X44.878 Y98.514 F1000
G1 X44.878 Y97.999 F1000
G1 X44.981 Y97.896 F1000
G1 X44.981 Y97.587 F1000
G1 X44.878 Y97.484 F1000
G1 X44.981 Y97.381 F1000
G1 X44.981 Y97.278 F1000
G1 X45.084 Y97.175 F1000
G1 X45.084 Y96.763 F1000
G1 X45.187 Y96.660 F1000
G1 X45.187 Y96.557 F1000
G1 X45.290 Y96.454 F1000
G1 X45.393 Y96.454 F1000
G1 X45.393 Y96.351 F1000
G1 X45.496 Y96.248 F1000
G1 X45.496 Y96.145 F1000
G1 X45.599 Y96.042 F1000
G1 X45.599 Y95.939 F1000
G1 X45.702 Y95.836 F1000
G1 X45.702 Y95.733 F1000
G1 X45.805 Y95.630 F1000
G1 X45.805 Y95.527 F1000
G1 X45.908 Y95.424 F1000
G1 X45.908 Y95.321 F1000
G1 X46.011 Y95.218 F1000
G1 X46.011 Y95.115 F1000
G1 X46.114 Y95.012 F1000
G1 X46.114 Y94.909 F1000
G1 X46.217 Y94.806 F1000
G1 X46.217 Y94.703 F1000
G1 X46.320 Y94.600 F1000
G1 X46.320 Y94.497 F1000
G1 X46.423 Y94.394 F1000
G1 X46.423 Y94.291 F1000
G1 X46.526 Y94.188 F1000
G1 X46.526 Y94.085 F1000
G1 X46.629 Y93.982 F1000
G1 X46.629 Y93.879 F1000
G1 X46.732 Y93.776 F1000
G1 X46.732 Y93.673 F1000
G1 X46.835 Y93.570 F1000
G1 X46.835 Y93.467 F1000
G1 X46.938 Y93.364 F1000
G1 X46.938 Y93.261 F1000
G1 X47.041 Y93.158 F1000
G1 X47.041 Y93.055 F1000
G1 X47.144 Y92.952 F1000
G1 X47.144 Y92.849 F1000
G1 X47.350 Y92.643 F1000
G1 X51.367 Y96.660 F1000
G1 X51.367 Y96.763 F1000
G1 X52.191 Y97.587 F1000
G1 X52.191 Y97.690 F1000
G1 X51.985 Y97.896 F1000
G1 X51.779 Y97.896 F1000
G1 X51.676 Y97.999 F1000
G1 X51.470 Y97.999 F1000
G1 X51.367 Y98.102 F1000
G1 X51.161 Y98.102 F1000
G1 X51.058 Y98.205 F1000
G1 X50.852 Y98.205 F1000
G1 X50.749 Y98.308 F1000
G1 X50.543 Y98.308 F1000
G1 X50.440 Y98.411 F1000
G1 X50.234 Y98.411 F1000
G1 X50.131 Y98.514 F1000
G1 X49.822 Y98.514 F1000
G1 X49.719 Y98.617 F1000
G1 X49.513 Y98.617 F1000
G1 X49.410 Y98.720 F1000
G1 X49.204 Y98.720 F1000
G1 X49.101 Y98.823 F1000
G1 X48.895 Y98.823 F1000
G1 X48.792 Y98.926 F1000
G1 X48.586 Y98.926 F1000
G1 X48.483 Y99.029 F1000
G1 X48.277 Y99.029 F1000
G1 X48.174 Y99.132 F1000
G1 X47.968 Y99.132 F1000
G1 X47.865 Y99.235 F1000
G1 X47.659 Y99.235 F1000
G1 X47.556 Y99.338 F1000
G1 X47.350 Y99.338 F1000
G1 X47.247 Y99.441 F1000
G1 X47.041 Y99.441 F1000
G1 X46.938 Y99.544 F1000
G1 X46.732 Y99.544 F1000
G1 X46.629 Y99.647 F1000
G1 X46.320 Y99.647 F1000
G1 X46.217 Y99.750 F1000
G1 X46.011 Y99.750 F1000
G1 X45.908 Y99.853 F1000
G1 X45.702 Y99.853 F1000
G1 X45.599 Y99.956 F1000
G1 X45.393 Y99.956 F1000
G1 X45.290 Y100.059 F1000
G1 X45.084 Y100.059 F1000
G1 X44.981 Y100.162 F1000
G1 X44.672 Y100.162 F1000
G1 X44.569 Y100.059 F1000
G1 X44.569 Y99.750 F1000
G1 X44.672 Y99.647 F1000
G0 Z3.0 ; Pen up

G0 X44.775 Y100.162 F3000 ; Travel to line 117
G0 Z0.0 ; Pen down
G1 X44.672 Y100.265 F1000
G1 X44.672 Y100.471 F1000
G1 X44.878 Y100.677 F1000
G1 X44.878 Y100.780 F1000
G1 X44.981 Y100.883 F1000
G1 X44.981 Y100.986 F1000
G1 X45.084 Y101.089 F1000
G1 X45.290 Y101.089 F1000
G1 X45.393 Y101.192 F1000
G1 X45.496 Y101.089 F1000
G1 X54.972 Y101.089 F1000
G1 X55.075 Y100.986 F1000
G1 X55.075 Y100.471 F1000
G1 X52.397 Y97.793 F1000
G1 X52.088 Y97.793 F1000
G1 X51.985 Y97.896 F1000
G1 X51.779 Y97.896 F1000
G1 X51.676 Y97.999 F1000
G1 X51.470 Y97.999 F1000
G1 X51.367 Y98.102 F1000
G1 X51.161 Y98.102 F1000
G1 X51.058 Y98.205 F1000
G1 X50.852 Y98.205 F1000
G1 X50.749 Y98.308 F1000
G1 X50.543 Y98.308 F1000
G1 X50.440 Y98.411 F1000
G1 X50.234 Y98.411 F1000
G1 X50.131 Y98.514 F1000
G1 X49.822 Y98.514 F1000
G1 X49.719 Y98.617 F1000
G1 X49.513 Y98.617 F1000
G1 X49.410 Y98.720 F1000
G1 X49.204 Y98.720 F1000
G1 X49.101 Y98.823 F1000
G1 X48.895 Y98.823 F1000
G1 X48.792 Y98.926 F1000
G1 X48.586 Y98.926 F1000
G1 X48.483 Y99.029 F1000
G1 X48.277 Y99.029 F1000
G1 X48.174 Y99.132 F1000
G1 X47.968 Y99.132 F1000
G1 X47.865 Y99.235 F1000
G1 X47.659 Y99.235 F1000
G1 X47.556 Y99.338 F1000
G1 X47.350 Y99.338 F1000
G1 X47.247 Y99.441 F1000
G1 X47.041 Y99.441 F1000
G1 X46.938 Y99.544 F1000
G1 X46.732 Y99.544 F1000
G1 X46.629 Y99.647 F1000
G1 X46.320 Y99.647 F1000
G1 X46.217 Y99.750 F1000
G1 X46.011 Y99.750 F1000
G1 X45.908 Y99.853 F1000
G1 X45.702 Y99.853 F1000
G1 X45.599 Y99.956 F1000
G1 X45.393 Y99.956 F1000
G1 X45.290 Y100.059 F1000
G1 X45.084 Y100.059 F1000
G1 X44.981 Y100.162 F1000
G0 Z3.0 ; Pen up

G0 X44.775 Y100.574 F3000 ; Travel to line 118
G0 Z0.0 ; Pen down
G1 X44.878 Y100.677 F1000
G1 X44.878 Y100.780 F1000
G1 X44.981 Y100.883 F1000
G1 X44.981 Y100.986 F1000
G1 X44.878 Y101.089 F1000
G1 X44.672 Y101.089 F1000
G1 X44.569 Y100.986 F1000
G1 X44.569 Y100.677 F1000
G1 X44.672 Y100.574 F1000
G0 Z3.0 ; Pen up

G0 X44.981 Y102.737 F3000 ; Travel to line 119
G0 Z0.0 ; Pen down
G1 X44.878 Y102.840 F1000
G1 X44.878 Y103.561 F1000
G1 X44.981 Y103.664 F1000
G1 X44.981 Y104.385 F1000
G1 X45.084 Y104.488 F1000
G1 X45.084 Y105.209 F1000
G1 X45.187 Y105.312 F1000
G1 X45.187 Y106.033 F1000
G1 X45.290 Y106.136 F1000
G1 X45.290 Y106.857 F1000
G1 X45.393 Y106.960 F1000
G1 X45.599 Y106.960 F1000
G1 X45.702 Y107.063 F1000
G1 X46.320 Y107.063 F1000
G1 X46.423 Y107.166 F1000
G1 X47.144 Y107.166 F1000
G1 X47.247 Y107.269 F1000
G1 X47.968 Y107.269 F1000
G1 X48.071 Y107.372 F1000
G1 X48.792 Y107.372 F1000
G1 X48.895 Y107.475 F1000
G1 X49.616 Y107.475 F1000
G1 X49.719 Y107.578 F1000
G1 X50.440 Y107.578 F1000
G1 X50.543 Y107.681 F1000
G1 X50.955 Y107.681 F1000
G1 X51.058 Y107.578 F1000
G1 X51.058 Y107.475 F1000
G1 X50.234 Y106.651 F1000
G1 X50.131 Y106.651 F1000
G1 X49.410 Y105.930 F1000
G1 X49.204 Y105.930 F1000
G1 X48.792 Y105.518 F1000
G1 X48.689 Y105.518 F1000
G1 X48.380 Y105.209 F1000
G1 X48.277 Y105.209 F1000
G1 X47.865 Y104.797 F1000
G1 X47.762 Y104.797 F1000
G1 X47.453 Y104.488 F1000
G1 X47.350 Y104.488 F1000
G1 X47.041 Y104.179 F1000
G1 X46.938 Y104.179 F1000
G1 X46.526 Y103.767 F1000
G1 X46.423 Y103.767 F1000
G1 X46.114 Y103.458 F1000
G1 X46.011 Y103.458 F1000
G1 X45.599 Y103.046 F1000
G1 X45.496 Y103.046 F1000
G1 X45.187 Y102.737 F1000
G0 Z3.0 ; Pen up

G0 X42.406 Y99.853 F3000 ; Travel to line 120
G0 Z0.0 ; Pen down
G1 X42.921 Y99.853 F1000
G1 X43.024 Y99.956 F1000
G1 X43.436 Y99.956 F1000
G1 X43.539 Y100.059 F1000
G1 X43.539 Y100.162 F1000
G1 X43.436 Y100.265 F1000
G1 X43.436 Y100.368 F1000
G1 X43.333 Y100.471 F1000
G1 X43.333 Y100.574 F1000
G1 X43.230 Y100.677 F1000
G1 X43.230 Y100.780 F1000
G1 X43.127 Y100.883 F1000
G1 X43.127 Y100.986 F1000
G1 X43.024 Y101.089 F1000
G1 X42.715 Y100.780 F1000
G1 X42.715 Y100.677 F1000
G1 X42.509 Y100.471 F1000
G1 X42.509 Y100.368 F1000
G1 X42.200 Y100.059 F1000
G1 X42.200 Y99.853 F1000
G1 X42.303 Y99.750 F1000
G0 Z3.0 ; Pen up

G0 X44.878 Y97.587 F3000 ; Travel to line 121
G0 Z0.0 ; Pen down
G1 X44.775 Y97.690 F1000
G1 X44.775 Y97.793 F1000
G1 X44.878 Y97.896 F1000
G1 X44.981 Y97.793 F1000
G1 X44.981 Y97.690 F1000
G0 Z3.0 ; Pen up

G0 X45.290 Y96.042 F3000 ; Travel to line 122
G0 Z0.0 ; Pen down
G1 X45.187 Y96.145 F1000
G1 X45.187 Y96.351 F1000
G1 X45.290 Y96.454 F1000
G1 X45.393 Y96.351 F1000
G1 X45.393 Y96.248 F1000
G1 X45.496 Y96.145 F1000
G1 X45.496 Y96.042 F1000
G1 X45.599 Y95.939 F1000
G1 X45.599 Y95.836 F1000
G1 X45.702 Y95.733 F1000
G1 X45.702 Y95.630 F1000
G1 X45.805 Y95.527 F1000
G1 X45.805 Y95.424 F1000
G1 X45.908 Y95.321 F1000
G1 X45.908 Y95.218 F1000
G1 X46.011 Y95.115 F1000
G1 X46.011 Y95.012 F1000
G1 X46.114 Y94.909 F1000
G1 X46.114 Y94.806 F1000
G1 X46.217 Y94.703 F1000
G1 X46.217 Y94.600 F1000
G1 X46.320 Y94.497 F1000
G1 X46.320 Y94.394 F1000
G1 X46.423 Y94.291 F1000
G1 X46.423 Y94.188 F1000
G1 X46.526 Y94.085 F1000
G1 X46.526 Y93.982 F1000
G1 X46.629 Y93.879 F1000
G1 X46.629 Y93.776 F1000
G1 X46.732 Y93.673 F1000
G1 X46.732 Y93.570 F1000
G1 X46.835 Y93.467 F1000
G1 X46.835 Y93.364 F1000
G1 X46.938 Y93.261 F1000
G1 X46.938 Y93.158 F1000
G1 X47.041 Y93.055 F1000
G1 X47.041 Y92.952 F1000
G1 X47.144 Y92.849 F1000
G1 X47.144 Y92.746 F1000
G1 X47.350 Y92.540 F1000
G1 X47.247 Y92.437 F1000
G1 X46.526 Y92.437 F1000
G1 X46.423 Y92.334 F1000
G1 X45.908 Y92.334 F1000
G1 X45.805 Y92.437 F1000
G1 X45.805 Y93.055 F1000
G1 X45.702 Y93.158 F1000
G1 X45.702 Y93.673 F1000
G1 X45.599 Y93.776 F1000
G1 X45.599 Y94.291 F1000
G1 X45.496 Y94.394 F1000
G1 X45.496 Y94.909 F1000
G1 X45.393 Y95.012 F1000
G1 X45.393 Y95.527 F1000
G1 X45.290 Y95.630 F1000
G0 Z3.0 ; Pen up

G0 X46.011 Y91.922 F3000 ; Travel to line 123
G0 Z0.0 ; Pen down
G1 X45.908 Y92.025 F1000
G1 X45.908 Y92.231 F1000
G1 X46.011 Y92.334 F1000
G1 X46.423 Y92.334 F1000
G1 X46.526 Y92.437 F1000
G1 X46.938 Y92.437 F1000
G1 X47.041 Y92.334 F1000
G1 X47.041 Y92.231 F1000
G1 X46.629 Y91.819 F1000
G1 X46.629 Y91.716 F1000
G1 X46.217 Y91.304 F1000
G1 X46.114 Y91.304 F1000
G1 X46.011 Y91.407 F1000
G0 Z3.0 ; Pen up

G0 X46.114 Y90.892 F3000 ; Travel to line 124
G0 Z0.0 ; Pen down
G1 X46.011 Y90.995 F1000
G1 X46.114 Y91.098 F1000
G1 X46.114 Y91.201 F1000
G1 X46.629 Y91.716 F1000
G1 X46.629 Y91.819 F1000
G1 X47.041 Y92.231 F1000
G1 X47.041 Y92.334 F1000
G1 X47.144 Y92.437 F1000
G1 X47.247 Y92.437 F1000
G1 X47.453 Y92.231 F1000
G1 X47.453 Y92.128 F1000
G1 X47.659 Y91.922 F1000
G1 X47.659 Y91.819 F1000
G1 X47.762 Y91.716 F1000
G1 X47.762 Y91.613 F1000
G1 X47.968 Y91.407 F1000
G1 X47.968 Y91.304 F1000
G1 X48.071 Y91.201 F1000
G1 X48.071 Y91.098 F1000
G1 X48.277 Y90.892 F1000
G1 X48.277 Y90.789 F1000
G1 X48.483 Y90.583 F1000
G1 X48.483 Y90.480 F1000
G1 X48.586 Y90.377 F1000
G1 X48.586 Y90.274 F1000
G1 X48.792 Y90.068 F1000
G1 X48.792 Y89.965 F1000
G1 X48.895 Y89.862 F1000
G1 X48.895 Y89.759 F1000
G1 X49.101 Y89.553 F1000
G1 X49.101 Y89.450 F1000
G1 X49.307 Y89.244 F1000
G1 X49.307 Y89.141 F1000
G1 X49.410 Y89.038 F1000
G1 X49.410 Y88.935 F1000
G1 X49.616 Y88.729 F1000
G1 X49.616 Y88.626 F1000
G1 X49.719 Y88.523 F1000
G1 X49.719 Y88.420 F1000
G1 X49.925 Y88.214 F1000
G1 X49.925 Y88.111 F1000
G1 X50.131 Y87.905 F1000
G1 X50.131 Y87.802 F1000
G1 X50.234 Y87.699 F1000
G1 X50.234 Y87.596 F1000
G1 X50.440 Y87.390 F1000
G1 X50.440 Y87.287 F1000
G1 X50.543 Y87.184 F1000
G1 X50.543 Y87.081 F1000
G1 X50.749 Y86.875 F1000
G1 X50.749 Y86.772 F1000
G1 X50.955 Y86.566 F1000
G1 X50.955 Y86.463 F1000
G1 X50.852 Y86.360 F1000
G1 X50.852 Y86.154 F1000
G1 X50.749 Y86.051 F1000
G1 X50.749 Y85.948 F1000
G1 X50.646 Y85.845 F1000
G1 X50.646 Y85.639 F1000
G1 X50.543 Y85.536 F1000
G1 X50.543 Y85.433 F1000
G1 X50.440 Y85.330 F1000
G1 X50.440 Y85.227 F1000
G1 X50.337 Y85.124 F1000
G1 X50.337 Y84.918 F1000
G1 X50.234 Y84.815 F1000
G1 X50.234 Y84.712 F1000
G1 X50.131 Y84.609 F1000
G1 X50.131 Y84.403 F1000
G1 X50.028 Y84.300 F1000
G1 X50.028 Y84.197 F1000
G1 X49.925 Y84.094 F1000
G1 X49.925 Y83.682 F1000
G1 X49.822 Y83.579 F1000
G1 X47.453 Y83.579 F1000
G1 X47.350 Y83.682 F1000
G1 X47.350 Y84.094 F1000
G1 X47.247 Y84.197 F1000
G1 X47.247 Y84.712 F1000
G1 X47.144 Y84.815 F1000
G1 X47.144 Y85.330 F1000
G1 X47.041 Y85.433 F1000
G1 X47.041 Y85.948 F1000
G1 X46.938 Y86.051 F1000
G1 X46.938 Y86.566 F1000
G1 X46.835 Y86.669 F1000
G1 X46.835 Y87.081 F1000
G1 X46.732 Y87.184 F1000
G1 X46.732 Y87.699 F1000
G1 X46.629 Y87.802 F1000
G1 X46.629 Y88.317 F1000
G1 X46.526 Y88.420 F1000
G1 X46.526 Y88.935 F1000
G1 X46.423 Y89.038 F1000
G1 X46.423 Y89.553 F1000
G1 X46.320 Y89.656 F1000
G1 X46.320 Y90.068 F1000
G1 X46.217 Y90.171 F1000
G1 X46.217 Y90.686 F1000
G1 X46.114 Y90.789 F1000
G0 Z3.0 ; Pen up

G0 X47.453 Y92.128 F3000 ; Travel to line 125
G0 Z0.0 ; Pen down
G1 X47.659 Y91.922 F1000
G1 X47.659 Y91.819 F1000
G1 X47.762 Y91.716 F1000
G1 X47.762 Y91.613 F1000
G1 X47.968 Y91.407 F1000
G1 X47.968 Y91.304 F1000
G1 X48.071 Y91.201 F1000
G1 X48.071 Y91.098 F1000
G1 X48.277 Y90.892 F1000
G1 X48.277 Y90.789 F1000
G1 X48.483 Y90.583 F1000
G1 X48.483 Y90.480 F1000
G1 X48.586 Y90.377 F1000
G1 X48.586 Y90.274 F1000
G1 X48.792 Y90.068 F1000
G1 X48.792 Y89.965 F1000
G1 X48.895 Y89.862 F1000
G1 X48.895 Y89.759 F1000
G1 X49.101 Y89.553 F1000
G1 X49.101 Y89.450 F1000
G1 X49.307 Y89.244 F1000
G1 X49.307 Y89.141 F1000
G1 X49.410 Y89.038 F1000
G1 X49.410 Y88.935 F1000
G1 X49.616 Y88.729 F1000
G1 X49.616 Y88.626 F1000
G1 X49.719 Y88.523 F1000
G1 X49.719 Y88.420 F1000
G1 X49.925 Y88.214 F1000
G1 X49.925 Y88.111 F1000
G1 X50.131 Y87.905 F1000
G1 X50.131 Y87.802 F1000
G1 X50.234 Y87.699 F1000
G1 X50.234 Y87.596 F1000
G1 X50.440 Y87.390 F1000
G1 X50.440 Y87.287 F1000
G1 X50.543 Y87.184 F1000
G1 X50.543 Y87.081 F1000
G1 X50.749 Y86.875 F1000
G1 X50.749 Y86.772 F1000
G1 X50.852 Y86.669 F1000
G1 X50.955 Y86.669 F1000
G1 X51.161 Y86.875 F1000
G1 X51.161 Y87.081 F1000
G1 X51.264 Y87.184 F1000
G1 X51.264 Y87.287 F1000
G1 X51.367 Y87.390 F1000
G1 X51.367 Y87.596 F1000
G1 X51.470 Y87.699 F1000
G1 X51.470 Y87.802 F1000
G1 X51.573 Y87.905 F1000
G1 X51.573 Y88.008 F1000
G1 X51.676 Y88.111 F1000
G1 X51.676 Y88.317 F1000
G1 X51.779 Y88.420 F1000
G1 X51.779 Y88.523 F1000
G1 X51.882 Y88.626 F1000
G1 X51.882 Y88.832 F1000
G1 X51.985 Y88.935 F1000
G1 X51.985 Y89.038 F1000
G1 X52.088 Y89.141 F1000
G1 X52.088 Y89.347 F1000
G1 X52.191 Y89.450 F1000
G1 X52.191 Y89.553 F1000
G1 X52.294 Y89.656 F1000
G1 X52.294 Y89.759 F1000
G1 X52.397 Y89.862 F1000
G1 X52.397 Y90.068 F1000
G1 X52.500 Y90.171 F1000
G1 X52.500 Y90.274 F1000
G1 X52.603 Y90.377 F1000
G1 X52.603 Y90.583 F1000
G1 X52.706 Y90.686 F1000
G1 X52.706 Y90.789 F1000
G1 X52.809 Y90.892 F1000
G1 X52.809 Y90.995 F1000
G1 X52.912 Y91.098 F1000
G1 X52.912 Y91.304 F1000
G1 X53.015 Y91.407 F1000
G1 X53.015 Y91.510 F1000
G1 X53.118 Y91.613 F1000
G1 X53.118 Y91.819 F1000
G1 X53.221 Y91.922 F1000
G1 X53.118 Y92.025 F1000
G1 X52.294 Y92.025 F1000
G1 X52.191 Y92.128 F1000
G1 X50.852 Y92.128 F1000
G1 X50.749 Y92.231 F1000
G1 X49.513 Y92.231 F1000
G1 X49.410 Y92.334 F1000
G1 X48.071 Y92.334 F1000
G1 X47.968 Y92.437 F1000
G1 X47.453 Y92.437 F1000
G1 X47.350 Y92.334 F1000
G1 X47.453 Y92.231 F1000
G0 Z3.0 ; Pen up

G0 X47.453 Y92.437 F3000 ; Travel to line 126
G0 Z0.0 ; Pen down
G1 X47.350 Y92.540 F1000
G1 X47.453 Y92.643 F1000
G1 X47.453 Y92.746 F1000
G1 X51.470 Y96.763 F1000
G1 X51.470 Y96.866 F1000
G1 X52.191 Y97.587 F1000
G1 X52.191 Y97.690 F1000
G1 X52.294 Y97.793 F1000
G1 X52.397 Y97.793 F1000
G1 X52.500 Y97.690 F1000
G1 X52.603 Y97.690 F1000
G1 X52.706 Y97.587 F1000
G1 X52.912 Y97.587 F1000
G1 X53.015 Y97.484 F1000
G1 X53.221 Y97.484 F1000
G1 X53.324 Y97.381 F1000
G1 X53.633 Y97.381 F1000
G1 X53.736 Y97.278 F1000
G1 X53.942 Y97.278 F1000
G1 X54.045 Y97.175 F1000
G1 X54.251 Y97.175 F1000
G1 X54.354 Y97.072 F1000
G1 X54.560 Y97.072 F1000
G1 X54.663 Y96.969 F1000
G1 X54.869 Y96.969 F1000
G1 X54.972 Y96.866 F1000
G1 X55.075 Y96.866 F1000
G1 X55.281 Y96.660 F1000
G1 X55.075 Y96.454 F1000
G1 X55.075 Y96.351 F1000
G1 X54.972 Y96.248 F1000
G1 X54.972 Y96.145 F1000
G1 X54.869 Y96.042 F1000
G1 X54.869 Y95.836 F1000
G1 X54.766 Y95.733 F1000
G1 X54.766 Y95.630 F1000
G1 X54.663 Y95.527 F1000
G1 X54.663 Y95.424 F1000
G1 X54.560 Y95.321 F1000
G1 X54.560 Y95.115 F1000
G1 X54.457 Y95.012 F1000
G1 X54.457 Y94.909 F1000
G1 X54.354 Y94.806 F1000
G1 X54.354 Y94.600 F1000
G1 X54.251 Y94.497 F1000
G1 X54.251 Y94.394 F1000
G1 X54.148 Y94.291 F1000
G1 X54.148 Y94.085 F1000
G1 X54.045 Y93.982 F1000
G1 X54.045 Y93.879 F1000
G1 X53.942 Y93.776 F1000
G1 X53.942 Y93.673 F1000
G1 X53.839 Y93.570 F1000
G1 X53.839 Y93.364 F1000
G1 X53.736 Y93.261 F1000
G1 X53.736 Y93.158 F1000
G1 X53.633 Y93.055 F1000
G1 X53.633 Y92.849 F1000
G1 X53.530 Y92.746 F1000
G1 X53.530 Y92.643 F1000
G1 X53.427 Y92.540 F1000
G1 X53.427 Y92.437 F1000
G1 X53.324 Y92.334 F1000
G1 X53.324 Y92.128 F1000
G1 X53.221 Y92.025 F1000
G1 X52.294 Y92.025 F1000
G1 X52.191 Y92.128 F1000
G1 X50.852 Y92.128 F1000
G1 X50.749 Y92.231 F1000
G1 X49.513 Y92.231 F1000
G1 X49.410 Y92.334 F1000
G1 X48.071 Y92.334 F1000
G1 X47.968 Y92.437 F1000
G0 Z3.0 ; Pen up

G0 X53.427 Y92.025 F3000 ; Travel to line 127
G0 Z0.0 ; Pen down
G1 X53.324 Y92.128 F1000
G1 X53.324 Y92.231 F1000
G1 X53.427 Y92.334 F1000
G1 X53.427 Y92.437 F1000
G1 X53.530 Y92.540 F1000
G1 X53.530 Y92.643 F1000
G1 X53.633 Y92.746 F1000
G1 X53.633 Y92.952 F1000
G1 X53.736 Y93.055 F1000
G1 X53.736 Y93.158 F1000
G1 X53.839 Y93.261 F1000
G1 X53.839 Y93.467 F1000
G1 X53.942 Y93.570 F1000
G1 X53.942 Y93.673 F1000
G1 X54.045 Y93.776 F1000
G1 X54.045 Y93.879 F1000
G1 X54.148 Y93.982 F1000
G1 X54.148 Y94.188 F1000
G1 X54.251 Y94.291 F1000
G1 X54.251 Y94.394 F1000
G1 X54.354 Y94.497 F1000
G1 X54.354 Y94.703 F1000
G1 X54.457 Y94.806 F1000
G1 X54.457 Y94.909 F1000
G1 X54.560 Y95.012 F1000
G1 X54.560 Y95.218 F1000
G1 X54.663 Y95.321 F1000
G1 X54.663 Y95.424 F1000
G1 X54.766 Y95.527 F1000
G1 X54.766 Y95.630 F1000
G1 X54.869 Y95.733 F1000
G1 X54.869 Y95.939 F1000
G1 X54.972 Y96.042 F1000
G1 X54.972 Y96.145 F1000
G1 X55.075 Y96.248 F1000
G1 X55.075 Y96.454 F1000
G1 X55.281 Y96.660 F1000
G1 X55.384 Y96.660 F1000
G1 X55.487 Y96.557 F1000
G1 X55.487 Y96.454 F1000
G1 X56.002 Y95.939 F1000
G1 X56.002 Y95.836 F1000
G1 X56.517 Y95.321 F1000
G1 X56.517 Y95.218 F1000
G1 X57.135 Y94.600 F1000
G1 X57.135 Y94.497 F1000
G1 X57.650 Y93.982 F1000
G1 X57.650 Y93.879 F1000
G1 X58.165 Y93.364 F1000
G1 X58.165 Y93.261 F1000
G1 X58.680 Y92.746 F1000
G1 X58.680 Y92.643 F1000
G1 X59.195 Y92.128 F1000
G1 X59.195 Y92.025 F1000
G1 X59.401 Y91.819 F1000
G1 X59.504 Y91.819 F1000
G1 X59.607 Y91.716 F1000
G1 X59.607 Y91.613 F1000
G1 X59.504 Y91.510 F1000
G1 X59.298 Y91.510 F1000
G1 X59.195 Y91.613 F1000
G1 X57.856 Y91.613 F1000
G1 X57.753 Y91.716 F1000
G1 X56.517 Y91.716 F1000
G1 X56.414 Y91.819 F1000
G1 X55.075 Y91.819 F1000
G1 X54.972 Y91.922 F1000
G1 X53.736 Y91.922 F1000
G1 X53.633 Y92.025 F1000
G0 Z3.0 ; Pen up

G0 X56.002 Y95.939 F3000 ; Travel to line 128
G0 Z0.0 ; Pen down
G1 X56.002 Y95.836 F1000
G1 X56.517 Y95.321 F1000
G1 X56.517 Y95.218 F1000
G1 X57.135 Y94.600 F1000
G1 X57.135 Y94.497 F1000
G1 X57.650 Y93.982 F1000
G1 X57.650 Y93.879 F1000
G1 X58.165 Y93.364 F1000
G1 X58.165 Y93.261 F1000
G1 X58.680 Y92.746 F1000
G1 X58.680 Y92.643 F1000
G1 X59.195 Y92.128 F1000
G1 X59.195 Y92.025 F1000
G1 X59.401 Y91.819 F1000
G1 X59.504 Y91.819 F1000
G1 X59.607 Y91.922 F1000
G1 X59.607 Y92.025 F1000
G1 X59.504 Y92.128 F1000
G1 X59.504 Y92.231 F1000
G1 X59.401 Y92.334 F1000
G1 X59.401 Y92.437 F1000
G1 X59.298 Y92.540 F1000
G1 X59.298 Y92.746 F1000
G1 X59.195 Y92.849 F1000
G1 X59.195 Y92.952 F1000
G1 X59.092 Y93.055 F1000
G1 X59.092 Y93.158 F1000
G1 X58.989 Y93.261 F1000
G1 X58.989 Y93.364 F1000
G1 X58.886 Y93.467 F1000
G1 X58.886 Y93.673 F1000
G1 X58.783 Y93.776 F1000
G1 X58.783 Y93.879 F1000
G1 X58.680 Y93.982 F1000
G1 X58.680 Y94.085 F1000
G1 X58.577 Y94.188 F1000
G1 X58.577 Y94.394 F1000
G1 X58.474 Y94.497 F1000
G1 X58.474 Y94.600 F1000
G1 X58.371 Y94.703 F1000
G1 X58.371 Y94.806 F1000
G1 X58.268 Y94.909 F1000
G1 X58.268 Y95.115 F1000
G1 X58.165 Y95.218 F1000
G1 X58.165 Y95.321 F1000
G1 X58.062 Y95.424 F1000
G1 X58.062 Y95.527 F1000
G1 X57.959 Y95.630 F1000
G1 X57.959 Y95.733 F1000
G1 X57.856 Y95.836 F1000
G1 X57.856 Y96.042 F1000
G1 X57.753 Y96.145 F1000
G1 X57.753 Y96.248 F1000
G1 X57.650 Y96.351 F1000
G1 X57.650 Y96.557 F1000
G1 X57.547 Y96.660 F1000
G1 X55.590 Y96.660 F1000
G1 X55.487 Y96.557 F1000
G1 X55.487 Y96.454 F1000
G0 Z3.0 ; Pen up

G0 X55.487 Y96.660 F3000 ; Travel to line 129
G0 Z0.0 ; Pen down
G1 X55.384 Y96.763 F1000
G1 X55.384 Y96.969 F1000
G1 X55.590 Y97.175 F1000
G1 X55.590 Y97.278 F1000
G1 X55.796 Y97.484 F1000
G1 X55.796 Y97.587 F1000
G1 X56.002 Y97.793 F1000
G1 X56.002 Y97.896 F1000
G1 X56.208 Y98.102 F1000
G1 X56.208 Y98.205 F1000
G1 X56.414 Y98.411 F1000
G1 X56.414 Y98.514 F1000
G1 X56.517 Y98.617 F1000
G1 X56.620 Y98.617 F1000
G1 X56.826 Y98.411 F1000
G1 X56.826 Y98.205 F1000
G1 X56.929 Y98.102 F1000
G1 X56.929 Y97.999 F1000
G1 X57.032 Y97.896 F1000
G1 X57.032 Y97.793 F1000
G1 X57.135 Y97.690 F1000
G1 X57.135 Y97.587 F1000
G1 X57.238 Y97.484 F1000
G1 X57.238 Y97.278 F1000
G1 X57.341 Y97.175 F1000
G1 X57.341 Y97.072 F1000
G1 X57.444 Y96.969 F1000
G1 X57.444 Y96.763 F1000
G1 X57.341 Y96.660 F1000
G0 Z3.0 ; Pen up

G0 X57.753 Y96.351 F3000 ; Travel to line 130
G0 Z0.0 ; Pen down
G1 X57.650 Y96.454 F1000
G1 X57.650 Y96.557 F1000
G1 X57.753 Y96.660 F1000
G1 X65.066 Y96.660 F1000
G1 X65.169 Y96.557 F1000
G1 X65.169 Y96.454 F1000
G1 X65.066 Y96.351 F1000
G1 X64.963 Y96.351 F1000
G1 X63.933 Y95.321 F1000
G1 X63.830 Y95.321 F1000
G1 X62.697 Y94.188 F1000
G1 X62.594 Y94.188 F1000
G1 X61.564 Y93.158 F1000
G1 X61.461 Y93.158 F1000
G1 X60.328 Y92.025 F1000
G1 X60.225 Y92.025 F1000
G1 X59.916 Y91.716 F1000
G1 X59.710 Y91.716 F1000
G1 X59.607 Y91.819 F1000
G1 X59.607 Y92.128 F1000
G1 X59.504 Y92.231 F1000
G1 X59.504 Y92.334 F1000
G1 X59.401 Y92.437 F1000
G1 X59.401 Y92.540 F1000
G1 X59.298 Y92.643 F1000
G1 X59.298 Y92.746 F1000
G1 X59.195 Y92.849 F1000
G1 X59.195 Y93.055 F1000
G1 X59.092 Y93.158 F1000
G1 X59.092 Y93.261 F1000
G1 X58.989 Y93.364 F1000
G1 X58.989 Y93.467 F1000
G1 X58.886 Y93.570 F1000
G1 X58.886 Y93.776 F1000
G1 X58.783 Y93.879 F1000
G1 X58.783 Y93.982 F1000
G1 X58.680 Y94.085 F1000
G1 X58.680 Y94.188 F1000
G1 X58.577 Y94.291 F1000
G1 X58.577 Y94.497 F1000
G1 X58.474 Y94.600 F1000
G1 X58.474 Y94.703 F1000
G1 X58.371 Y94.806 F1000
G1 X58.371 Y94.909 F1000
G1 X58.268 Y95.012 F1000
G1 X58.268 Y95.115 F1000
G1 X58.165 Y95.218 F1000
G1 X58.165 Y95.424 F1000
G1 X58.062 Y95.527 F1000
G1 X58.062 Y95.630 F1000
G1 X57.959 Y95.733 F1000
G1 X57.959 Y95.836 F1000
G1 X57.856 Y95.939 F1000
G1 X57.856 Y96.145 F1000
G1 X57.753 Y96.248 F1000
G0 Z3.0 ; Pen up

G0 X56.826 Y98.514 F3000 ; Travel to line 131
G0 Z0.0 ; Pen down
G1 X56.826 Y98.308 F1000
G1 X56.929 Y98.205 F1000
G1 X56.929 Y98.102 F1000
G1 X57.032 Y97.999 F1000
G1 X57.032 Y97.896 F1000
G1 X57.135 Y97.793 F1000
G1 X57.135 Y97.587 F1000
G1 X57.238 Y97.484 F1000
G1 X57.238 Y97.381 F1000
G1 X57.341 Y97.278 F1000
G1 X57.341 Y97.175 F1000
G1 X57.444 Y97.072 F1000
G1 X57.444 Y96.763 F1000
G1 X57.547 Y96.660 F1000
G1 X65.478 Y96.660 F1000
G1 X65.684 Y96.866 F1000
G1 X65.684 Y96.969 F1000
G1 X66.199 Y97.484 F1000
G1 X66.302 Y97.484 F1000
G1 X66.611 Y97.793 F1000
G1 X66.714 Y97.793 F1000
G1 X66.817 Y97.896 F1000
G1 X66.817 Y97.999 F1000
G1 X66.714 Y98.102 F1000
G1 X66.508 Y98.102 F1000
G1 X66.405 Y98.205 F1000
G1 X66.096 Y98.205 F1000
G1 X65.993 Y98.308 F1000
G1 X65.684 Y98.308 F1000
G1 X65.581 Y98.411 F1000
G1 X65.375 Y98.411 F1000
G1 X65.272 Y98.514 F1000
G1 X64.963 Y98.514 F1000
G1 X64.860 Y98.617 F1000
G1 X64.551 Y98.617 F1000
G1 X64.448 Y98.720 F1000
G1 X64.139 Y98.720 F1000
G1 X64.036 Y98.823 F1000
G1 X63.830 Y98.823 F1000
G1 X63.727 Y98.926 F1000
G1 X63.418 Y98.926 F1000
G1 X63.315 Y99.029 F1000
G1 X63.006 Y99.029 F1000
G1 X62.903 Y99.132 F1000
G1 X62.594 Y99.132 F1000
G1 X62.491 Y99.235 F1000
G1 X62.285 Y99.235 F1000
G1 X62.182 Y99.338 F1000
G1 X61.873 Y99.338 F1000
G1 X61.770 Y99.441 F1000
G1 X61.461 Y99.441 F1000
G1 X61.358 Y99.544 F1000
G1 X61.049 Y99.544 F1000
G1 X60.946 Y99.647 F1000
G1 X60.637 Y99.647 F1000
G1 X60.534 Y99.750 F1000
G1 X60.328 Y99.750 F1000
G1 X60.225 Y99.853 F1000
G1 X59.916 Y99.853 F1000
G1 X59.813 Y99.956 F1000
G1 X59.504 Y99.956 F1000
G1 X59.401 Y100.059 F1000
G1 X59.092 Y100.059 F1000
G1 X58.989 Y100.162 F1000
G1 X58.783 Y100.162 F1000
G1 X58.680 Y100.265 F1000
G1 X58.371 Y100.265 F1000
G1 X58.268 Y100.368 F1000
G1 X57.959 Y100.368 F1000
G1 X57.856 Y100.471 F1000
G1 X57.753 Y100.471 F1000
G1 X57.650 Y100.368 F1000
G1 X57.650 Y100.265 F1000
G1 X57.547 Y100.162 F1000
G1 X57.547 Y100.059 F1000
G1 X57.341 Y99.853 F1000
G1 X57.341 Y99.750 F1000
G1 X57.135 Y99.544 F1000
G1 X57.135 Y99.441 F1000
G1 X56.929 Y99.235 F1000
G1 X56.929 Y99.132 F1000
G1 X56.620 Y98.823 F1000
G1 X56.620 Y98.720 F1000
G0 Z3.0 ; Pen up

G0 X55.899 Y100.471 F3000 ; Travel to line 132
G0 Z0.0 ; Pen down
G1 X56.002 Y100.368 F1000
G1 X56.002 Y100.265 F1000
G1 X56.105 Y100.162 F1000
G1 X56.105 Y99.956 F1000
G1 X56.208 Y99.853 F1000
G1 X56.208 Y99.750 F1000
G1 X56.311 Y99.647 F1000
G1 X56.311 Y99.544 F1000
G1 X56.414 Y99.441 F1000
G1 X56.414 Y99.338 F1000
G1 X56.517 Y99.235 F1000
G1 X56.517 Y99.029 F1000
G1 X56.620 Y98.926 F1000
G1 X56.723 Y98.926 F1000
G1 X56.929 Y99.132 F1000
G1 X56.929 Y99.235 F1000
G1 X57.135 Y99.441 F1000
G1 X57.135 Y99.544 F1000
G1 X57.341 Y99.750 F1000
G1 X57.341 Y99.853 F1000
G1 X57.547 Y100.059 F1000
G1 X57.547 Y100.162 F1000
G1 X57.650 Y100.265 F1000
G1 X57.650 Y100.368 F1000
G1 X57.444 Y100.574 F1000
G1 X57.238 Y100.574 F1000
G1 X57.135 Y100.677 F1000
G1 X56.826 Y100.677 F1000
G1 X56.723 Y100.780 F1000
G1 X56.414 Y100.780 F1000
G1 X56.311 Y100.883 F1000
G1 X55.899 Y100.883 F1000
G1 X55.796 Y100.780 F1000
G1 X55.796 Y100.677 F1000
G1 X55.899 Y100.574 F1000
G0 Z3.0 ; Pen up

G0 X55.899 Y100.883 F3000 ; Travel to line 133
G0 Z0.0 ; Pen down
G1 X56.311 Y100.883 F1000
G1 X56.414 Y100.780 F1000
G1 X56.723 Y100.780 F1000
G1 X56.826 Y100.677 F1000
G1 X57.135 Y100.677 F1000
G1 X57.238 Y100.574 F1000
G1 X57.444 Y100.574 F1000
G1 X57.547 Y100.471 F1000
G1 X57.753 Y100.471 F1000
G1 X57.959 Y100.677 F1000
G1 X57.959 Y100.780 F1000
G1 X58.165 Y100.986 F1000
G1 X58.165 Y101.089 F1000
G1 X58.474 Y101.398 F1000
G1 X58.474 Y101.501 F1000
G1 X58.680 Y101.707 F1000
G1 X58.680 Y101.810 F1000
G1 X58.886 Y102.016 F1000
G1 X58.886 Y102.119 F1000
G1 X59.092 Y102.325 F1000
G1 X59.092 Y102.428 F1000
G1 X59.298 Y102.634 F1000
G1 X59.298 Y102.737 F1000
G1 X59.504 Y102.943 F1000
G1 X59.504 Y103.046 F1000
G1 X59.710 Y103.252 F1000
G1 X59.710 Y103.355 F1000
G1 X59.916 Y103.561 F1000
G1 X59.916 Y103.664 F1000
G1 X60.225 Y103.973 F1000
G1 X60.225 Y104.076 F1000
G1 X60.431 Y104.282 F1000
G1 X60.431 Y104.488 F1000
G1 X60.328 Y104.591 F1000
G1 X60.122 Y104.591 F1000
G1 X59.710 Y104.179 F1000
G1 X59.607 Y104.179 F1000
G1 X59.298 Y103.870 F1000
G1 X59.195 Y103.870 F1000
G1 X58.783 Y103.458 F1000
G1 X58.680 Y103.458 F1000
G1 X58.268 Y103.046 F1000
G1 X58.165 Y103.046 F1000
G1 X57.856 Y102.737 F1000
G1 X57.753 Y102.737 F1000
G1 X57.341 Y102.325 F1000
G1 X57.238 Y102.325 F1000
G1 X56.929 Y102.016 F1000
G1 X56.826 Y102.016 F1000
G1 X56.414 Y101.604 F1000
G1 X56.311 Y101.604 F1000
G1 X56.002 Y101.295 F1000
G1 X55.899 Y101.295 F1000
G1 X55.693 Y101.089 F1000
G0 Z3.0 ; Pen up

G0 X55.281 Y100.677 F3000 ; Travel to line 134
G0 Z0.0 ; Pen down
G1 X55.590 Y100.986 F1000
G1 X55.487 Y101.089 F1000
G1 X55.178 Y101.089 F1000
G1 X55.075 Y100.986 F1000
G1 X55.075 Y100.780 F1000
G1 X55.178 Y100.677 F1000
G0 Z3.0 ; Pen up

G0 X55.075 Y100.265 F3000 ; Travel to line 135
G0 Z0.0 ; Pen down
G1 X54.972 Y100.368 F1000
G1 X55.075 Y100.471 F1000
G1 X55.075 Y100.574 F1000
G1 X55.178 Y100.677 F1000
G1 X55.281 Y100.677 F1000
G1 X55.590 Y100.986 F1000
G1 X55.693 Y100.986 F1000
G1 X55.796 Y100.883 F1000
G1 X55.796 Y100.574 F1000
G1 X55.899 Y100.471 F1000
G1 X55.899 Y100.368 F1000
G1 X56.002 Y100.265 F1000
G1 X56.002 Y100.162 F1000
G1 X56.105 Y100.059 F1000
G1 X56.105 Y99.956 F1000
G1 X56.208 Y99.853 F1000
G1 X56.208 Y99.647 F1000
G1 X56.311 Y99.544 F1000
G1 X56.311 Y99.441 F1000
G1 X56.414 Y99.338 F1000
G1 X56.414 Y99.235 F1000
G1 X56.517 Y99.132 F1000
G1 X56.517 Y98.926 F1000
G1 X56.620 Y98.823 F1000
G1 X56.620 Y98.720 F1000
G1 X56.414 Y98.514 F1000
G1 X56.414 Y98.411 F1000
G1 X56.208 Y98.205 F1000
G1 X56.208 Y98.102 F1000
G1 X56.002 Y97.896 F1000
G1 X56.002 Y97.793 F1000
G1 X55.796 Y97.587 F1000
G1 X55.796 Y97.484 F1000
G1 X55.590 Y97.278 F1000
G1 X55.590 Y97.175 F1000
G1 X55.384 Y96.969 F1000
G1 X55.281 Y97.072 F1000
G1 X55.281 Y98.411 F1000
G1 X55.178 Y98.514 F1000
G1 X55.178 Y99.956 F1000
G1 X55.075 Y100.059 F1000
G0 Z3.0 ; Pen up

G0 X57.959 Y100.368 F3000 ; Travel to line 136
G0 Z0.0 ; Pen down
G1 X57.856 Y100.471 F1000
G1 X57.856 Y100.574 F1000
G1 X57.959 Y100.677 F1000
G1 X57.959 Y100.780 F1000
G1 X58.165 Y100.986 F1000
G1 X58.165 Y101.089 F1000
G1 X58.474 Y101.398 F1000
G1 X58.474 Y101.501 F1000
G1 X58.680 Y101.707 F1000
G1 X58.680 Y101.810 F1000
G1 X58.886 Y102.016 F1000
G1 X58.886 Y102.119 F1000
G1 X59.092 Y102.325 F1000
G1 X59.092 Y102.428 F1000
G1 X59.298 Y102.634 F1000
G1 X59.298 Y102.737 F1000
G1 X59.504 Y102.943 F1000
G1 X59.504 Y103.046 F1000
G1 X59.710 Y103.252 F1000
G1 X59.710 Y103.355 F1000
G1 X59.916 Y103.561 F1000
G1 X59.916 Y103.664 F1000
G1 X60.225 Y103.973 F1000
G1 X60.225 Y104.076 F1000
G1 X60.431 Y104.282 F1000
G1 X60.431 Y104.385 F1000
G1 X60.637 Y104.591 F1000
G1 X60.637 Y104.797 F1000
G1 X60.946 Y105.106 F1000
G1 X60.946 Y105.209 F1000
G1 X61.049 Y105.312 F1000
G1 X61.152 Y105.312 F1000
G1 X61.255 Y105.415 F1000
G1 X61.255 Y105.518 F1000
G1 X61.461 Y105.724 F1000
G1 X61.667 Y105.724 F1000
G1 X61.976 Y106.033 F1000
G1 X62.079 Y106.033 F1000
G1 X62.285 Y106.239 F1000
G1 X62.285 Y106.342 F1000
G1 X62.388 Y106.445 F1000
G1 X62.697 Y106.445 F1000
G1 X62.800 Y106.342 F1000
G1 X62.800 Y106.136 F1000
G1 X62.903 Y106.033 F1000
G1 X62.903 Y105.930 F1000
G1 X63.006 Y105.827 F1000
G1 X63.006 Y105.724 F1000
G1 X63.109 Y105.621 F1000
G1 X63.109 Y105.518 F1000
G1 X63.212 Y105.415 F1000
G1 X63.212 Y105.312 F1000
G1 X63.315 Y105.209 F1000
G1 X63.315 Y105.106 F1000
G1 X63.418 Y105.003 F1000
G1 X63.418 Y104.900 F1000
G1 X63.521 Y104.797 F1000
G1 X63.521 Y104.694 F1000
G1 X63.624 Y104.591 F1000
G1 X63.624 Y104.488 F1000
G1 X63.727 Y104.385 F1000
G1 X63.727 Y104.282 F1000
G1 X63.830 Y104.179 F1000
G1 X63.830 Y104.076 F1000
G1 X63.933 Y103.973 F1000
G1 X63.933 Y103.870 F1000
G1 X64.036 Y103.767 F1000
G1 X64.036 Y103.664 F1000
G1 X64.139 Y103.561 F1000
G1 X64.139 Y103.458 F1000
G1 X64.242 Y103.355 F1000
G1 X64.242 Y103.252 F1000
G1 X64.345 Y103.149 F1000
G1 X64.345 Y103.046 F1000
G1 X64.448 Y102.943 F1000
G1 X64.448 Y102.840 F1000
G1 X64.551 Y102.737 F1000
G1 X64.551 Y102.634 F1000
G1 X64.654 Y102.531 F1000
G1 X64.654 Y102.428 F1000
G1 X64.757 Y102.325 F1000
G1 X64.757 Y102.222 F1000
G1 X64.860 Y102.119 F1000
G1 X64.860 Y102.016 F1000
G1 X64.963 Y101.913 F1000
G1 X64.963 Y101.810 F1000
G1 X65.066 Y101.707 F1000
G1 X65.066 Y101.604 F1000
G1 X65.169 Y101.501 F1000
G1 X65.169 Y101.398 F1000
G1 X65.272 Y101.295 F1000
G1 X65.272 Y101.192 F1000
G1 X65.375 Y101.089 F1000
G1 X65.375 Y100.986 F1000
G1 X65.478 Y100.883 F1000
G1 X65.478 Y100.780 F1000
G1 X65.581 Y100.677 F1000
G1 X65.581 Y100.574 F1000
G1 X65.684 Y100.471 F1000
G1 X65.684 Y100.368 F1000
G1 X65.787 Y100.265 F1000
G1 X65.787 Y100.162 F1000
G1 X65.890 Y100.059 F1000
G1 X65.890 Y99.956 F1000
G1 X65.993 Y99.853 F1000
G1 X65.993 Y99.750 F1000
G1 X66.096 Y99.647 F1000
G1 X66.096 Y99.544 F1000
G1 X66.199 Y99.441 F1000
G1 X66.199 Y99.338 F1000
G1 X66.302 Y99.235 F1000
G1 X66.302 Y99.132 F1000
G1 X66.508 Y98.926 F1000
G1 X66.508 Y98.823 F1000
G1 X66.611 Y98.720 F1000
G1 X66.611 Y98.514 F1000
G1 X66.714 Y98.411 F1000
G1 X66.714 Y98.205 F1000
G1 X66.611 Y98.102 F1000
G1 X66.508 Y98.102 F1000
G1 X66.405 Y98.205 F1000
G1 X66.096 Y98.205 F1000
G1 X65.993 Y98.308 F1000
G1 X65.684 Y98.308 F1000
G1 X65.581 Y98.411 F1000
G1 X65.375 Y98.411 F1000
G1 X65.272 Y98.514 F1000
G1 X64.963 Y98.514 F1000
G1 X64.860 Y98.617 F1000
G1 X64.551 Y98.617 F1000
G1 X64.448 Y98.720 F1000
G1 X64.139 Y98.720 F1000
G1 X64.036 Y98.823 F1000
G1 X63.830 Y98.823 F1000
G1 X63.727 Y98.926 F1000
G1 X63.418 Y98.926 F1000
G1 X63.315 Y99.029 F1000
G1 X63.006 Y99.029 F1000
G1 X62.903 Y99.132 F1000
G1 X62.594 Y99.132 F1000
G1 X62.491 Y99.235 F1000
G1 X62.285 Y99.235 F1000
G1 X62.182 Y99.338 F1000
G1 X61.873 Y99.338 F1000
G1 X61.770 Y99.441 F1000
G1 X61.461 Y99.441 F1000
G1 X61.358 Y99.544 F1000
G1 X61.049 Y99.544 F1000
G1 X60.946 Y99.647 F1000
G1 X60.637 Y99.647 F1000
G1 X60.534 Y99.750 F1000
G1 X60.328 Y99.750 F1000
G1 X60.225 Y99.853 F1000
G1 X59.916 Y99.853 F1000
G1 X59.813 Y99.956 F1000
G1 X59.504 Y99.956 F1000
G1 X59.401 Y100.059 F1000
G1 X59.092 Y100.059 F1000
G1 X58.989 Y100.162 F1000
G1 X58.783 Y100.162 F1000
G1 X58.680 Y100.265 F1000
G1 X58.371 Y100.265 F1000
G1 X58.268 Y100.368 F1000
G0 Z3.0 ; Pen up

G0 X60.431 Y104.488 F3000 ; Travel to line 137
G0 Z0.0 ; Pen down
G1 X60.328 Y104.591 F1000
G1 X60.431 Y104.694 F1000
G1 X60.534 Y104.591 F1000
G1 X60.534 Y104.591 F1000
G1 X60.431 Y104.694 F1000
G1 X60.534 Y104.797 F1000
G1 X60.637 Y104.694 F1000
G0 Z3.0 ; Pen up

G0 X61.564 Y105.724 F3000 ; Travel to line 138
G0 Z0.0 ; Pen down
G1 X61.461 Y105.827 F1000
G1 X61.564 Y105.930 F1000
G1 X61.667 Y105.827 F1000
G1 X61.667 Y105.827 F1000
G1 X61.564 Y105.930 F1000
G1 X61.667 Y106.033 F1000
G1 X61.770 Y105.930 F1000
G1 X61.770 Y105.930 F1000
G1 X61.667 Y106.033 F1000
G1 X61.770 Y106.136 F1000
G1 X61.873 Y106.033 F1000
G1 X61.873 Y106.033 F1000
G1 X61.770 Y106.136 F1000
G1 X61.770 Y106.445 F1000
G1 X61.873 Y106.548 F1000
G1 X62.182 Y106.548 F1000
G1 X62.285 Y106.445 F1000
G1 X62.285 Y106.239 F1000
G1 X62.079 Y106.033 F1000
G0 Z3.0 ; Pen up

G0 X62.182 Y106.548 F3000 ; Travel to line 139
G0 Z0.0 ; Pen down
G1 X62.079 Y106.651 F1000
G1 X62.079 Y106.754 F1000
G1 X62.182 Y106.857 F1000
G1 X62.182 Y106.960 F1000
G1 X62.388 Y107.166 F1000
G1 X62.491 Y107.166 F1000
G1 X62.594 Y107.063 F1000
G1 X62.594 Y106.857 F1000
G1 X62.697 Y106.754 F1000
G1 X62.697 Y106.548 F1000
G1 X62.594 Y106.445 F1000
G1 X62.388 Y106.445 F1000
G1 X62.285 Y106.548 F1000
G0 Z3.0 ; Pen up

G0 X62.594 Y106.960 F3000 ; Travel to line 140
G0 Z0.0 ; Pen down
G1 X62.697 Y106.857 F1000
G1 X62.697 Y106.548 F1000
G1 X62.800 Y106.445 F1000
G1 X63.006 Y106.445 F1000
G1 X63.109 Y106.548 F1000
G1 X63.418 Y106.548 F1000
G1 X63.521 Y106.651 F1000
G1 X63.727 Y106.651 F1000
G1 X63.830 Y106.754 F1000
G1 X63.830 Y107.063 F1000
G1 X63.727 Y107.166 F1000
G1 X63.727 Y107.269 F1000
G1 X63.624 Y107.372 F1000
G1 X63.624 Y107.578 F1000
G1 X63.521 Y107.681 F1000
G1 X63.521 Y107.784 F1000
G1 X63.418 Y107.887 F1000
G1 X63.418 Y108.196 F1000
G1 X63.212 Y108.402 F1000
G1 X63.109 Y108.402 F1000
G1 X63.006 Y108.299 F1000
G1 X63.006 Y108.093 F1000
G1 X62.800 Y107.887 F1000
G1 X62.800 Y107.784 F1000
G1 X62.594 Y107.578 F1000
G1 X62.594 Y107.475 F1000
G1 X62.491 Y107.372 F1000
G1 X62.491 Y107.269 F1000
G1 X62.594 Y107.166 F1000
G0 Z3.0 ; Pen up

G0 X63.109 Y106.445 F3000 ; Travel to line 141
G0 Z0.0 ; Pen down
G1 X63.212 Y106.548 F1000
G1 X63.418 Y106.548 F1000
G1 X63.521 Y106.651 F1000
G1 X63.830 Y106.651 F1000
G1 X63.933 Y106.754 F1000
G1 X64.036 Y106.651 F1000
G1 X64.036 Y106.342 F1000
G1 X64.139 Y106.239 F1000
G1 X64.139 Y106.136 F1000
G1 X64.036 Y106.033 F1000
G1 X63.830 Y106.033 F1000
G1 X63.727 Y106.136 F1000
G1 X63.521 Y106.136 F1000
G1 X63.418 Y106.239 F1000
G1 X63.315 Y106.239 F1000
G0 Z3.0 ; Pen up

G0 X62.903 Y106.136 F3000 ; Travel to line 142
G0 Z0.0 ; Pen down
G1 X62.800 Y106.239 F1000
G1 X62.800 Y106.342 F1000
G1 X62.903 Y106.445 F1000
G1 X63.006 Y106.445 F1000
G1 X63.109 Y106.342 F1000
G1 X63.212 Y106.342 F1000
G1 X63.315 Y106.239 F1000
G1 X63.418 Y106.239 F1000
G1 X63.521 Y106.136 F1000
G1 X63.727 Y106.136 F1000
G1 X63.830 Y106.033 F1000
G1 X64.036 Y106.033 F1000
G1 X64.139 Y105.930 F1000
G1 X64.242 Y105.930 F1000
G1 X64.345 Y105.827 F1000
G1 X64.345 Y105.621 F1000
G1 X64.448 Y105.518 F1000
G1 X64.448 Y105.312 F1000
G1 X64.551 Y105.209 F1000
G1 X64.551 Y105.106 F1000
G1 X64.654 Y105.003 F1000
G1 X64.654 Y104.797 F1000
G1 X64.757 Y104.694 F1000
G1 X64.757 Y104.591 F1000
G1 X64.860 Y104.488 F1000
G1 X64.860 Y104.282 F1000
G1 X64.963 Y104.179 F1000
G1 X64.963 Y104.076 F1000
G1 X65.066 Y103.973 F1000
G1 X65.066 Y103.767 F1000
G1 X65.169 Y103.664 F1000
G1 X65.169 Y103.561 F1000
G1 X65.272 Y103.458 F1000
G1 X65.272 Y103.252 F1000
G1 X65.375 Y103.149 F1000
G1 X65.375 Y103.046 F1000
G1 X65.478 Y102.943 F1000
G1 X65.478 Y102.737 F1000
G1 X65.581 Y102.634 F1000
G1 X65.581 Y102.531 F1000
G1 X65.684 Y102.428 F1000
G1 X65.684 Y102.222 F1000
G1 X65.787 Y102.119 F1000
G1 X65.787 Y102.016 F1000
G1 X65.890 Y102.016 F1000
G1 X66.096 Y101.810 F1000
G1 X66.096 Y101.604 F1000
G1 X65.993 Y101.501 F1000
G1 X65.993 Y101.089 F1000
G1 X66.096 Y100.986 F1000
G1 X66.096 Y100.677 F1000
G1 X66.199 Y100.574 F1000
G1 X66.199 Y100.265 F1000
G1 X66.302 Y100.162 F1000
G1 X66.302 Y99.750 F1000
G1 X66.405 Y99.647 F1000
G1 X66.405 Y99.441 F1000
G1 X66.302 Y99.338 F1000
G1 X66.199 Y99.441 F1000
G1 X66.199 Y99.544 F1000
G1 X66.096 Y99.647 F1000
G1 X66.096 Y99.750 F1000
G1 X65.993 Y99.853 F1000
G1 X65.993 Y99.956 F1000
G1 X65.890 Y100.059 F1000
G1 X65.890 Y100.162 F1000
G1 X65.787 Y100.265 F1000
G1 X65.787 Y100.368 F1000
G1 X65.684 Y100.471 F1000
G1 X65.684 Y100.574 F1000
G1 X65.581 Y100.677 F1000
G1 X65.581 Y100.780 F1000
G1 X65.478 Y100.883 F1000
G1 X65.478 Y100.986 F1000
G1 X65.375 Y101.089 F1000
G1 X65.375 Y101.192 F1000
G1 X65.272 Y101.295 F1000
G1 X65.272 Y101.398 F1000
G1 X65.169 Y101.501 F1000
G1 X65.169 Y101.604 F1000
G1 X65.066 Y101.707 F1000
G1 X65.066 Y101.810 F1000
G1 X64.963 Y101.913 F1000
G1 X64.963 Y102.016 F1000
G1 X64.860 Y102.119 F1000
G1 X64.860 Y102.222 F1000
G1 X64.757 Y102.325 F1000
G1 X64.757 Y102.428 F1000
G1 X64.654 Y102.531 F1000
G1 X64.654 Y102.634 F1000
G1 X64.551 Y102.737 F1000
G1 X64.551 Y102.840 F1000
G1 X64.448 Y102.943 F1000
G1 X64.448 Y103.046 F1000
G1 X64.345 Y103.149 F1000
G1 X64.345 Y103.252 F1000
G1 X64.242 Y103.355 F1000
G1 X64.242 Y103.458 F1000
G1 X64.139 Y103.561 F1000
G1 X64.139 Y103.664 F1000
G1 X64.036 Y103.767 F1000
G1 X64.036 Y103.870 F1000
G1 X63.933 Y103.973 F1000
G1 X63.933 Y104.076 F1000
G1 X63.830 Y104.179 F1000
G1 X63.830 Y104.282 F1000
G1 X63.727 Y104.385 F1000
G1 X63.727 Y104.488 F1000
G1 X63.624 Y104.591 F1000
G1 X63.624 Y104.694 F1000
G1 X63.521 Y104.797 F1000
G1 X63.521 Y104.900 F1000
G1 X63.418 Y105.003 F1000
G1 X63.418 Y105.106 F1000
G1 X63.315 Y105.209 F1000
G1 X63.315 Y105.312 F1000
G1 X63.212 Y105.415 F1000
G1 X63.212 Y105.518 F1000
G1 X63.109 Y105.621 F1000
G1 X63.109 Y105.724 F1000
G1 X63.006 Y105.827 F1000
G1 X63.006 Y105.930 F1000
G1 X62.903 Y106.033 F1000
G0 Z3.0 ; Pen up

G0 X64.139 Y106.033 F3000 ; Travel to line 143
G0 Z0.0 ; Pen down
G1 X64.345 Y105.827 F1000
G1 X64.551 Y105.827 F1000
G1 X64.654 Y105.724 F1000
G1 X64.860 Y105.724 F1000
G1 X64.963 Y105.621 F1000
G1 X65.169 Y105.621 F1000
G1 X65.272 Y105.518 F1000
G1 X65.478 Y105.518 F1000
G1 X65.581 Y105.415 F1000
G1 X65.684 Y105.415 F1000
