; Blueprint to G-code
; Input: test_images/test4_mechanical.png
; Generated with blueprint2gcode.py

G21 ; Set units to millimeters
G90 ; Absolute positioning
G0 Z3.0 ; Pen up
G0 X0 Y0 ; Move to origin

G0 X21.840 Y30.200 F3000 ; Travel to line 1
G0 Z0.0 ; Pen down
G1 X24.760 Y30.200 F1000
G1 X23.446 Y30.200 F1000
G1 X23.300 Y30.346 F1000
G1 X23.300 Y117.654 F1000
G1 X23.446 Y117.800 F1000
G1 X21.840 Y117.800 F1000
G1 X23.154 Y117.800 F1000
G1 X23.300 Y117.654 F1000
G1 X23.300 Y30.346 F1000
G1 X23.154 Y30.200 F1000
G0 Z3.0 ; Pen up

G0 X30.746 Y30.346 F3000 ; Travel to line 2
G0 Z0.0 ; Pen down
G1 X74.254 Y30.346 F1000
G1 X74.254 Y117.508 F1000
G1 X74.108 Y117.654 F1000
G1 X30.746 Y117.654 F1000
G0 Z3.0 ; Pen up

G0 X39.360 Y103.200 F3000 ; Travel to line 3
G0 Z0.0 ; Pen down
G1 X40.674 Y103.200 F1000
G1 X40.820 Y103.054 F1000
G1 X40.820 Y102.616 F1000
G1 X40.966 Y102.470 F1000
G1 X40.966 Y102.032 F1000
G1 X41.112 Y101.886 F1000
G1 X41.112 Y101.740 F1000
G1 X41.258 Y101.594 F1000
G1 X41.258 Y101.302 F1000
G1 X41.550 Y101.010 F1000
G1 X41.550 Y100.864 F1000
G1 X41.842 Y100.572 F1000
G1 X41.842 Y100.426 F1000
G1 X42.426 Y99.842 F1000
G1 X42.572 Y99.842 F1000
G1 X42.864 Y99.550 F1000
G1 X43.010 Y99.550 F1000
G1 X43.302 Y99.258 F1000
G1 X43.594 Y99.258 F1000
G1 X43.740 Y99.112 F1000
G1 X43.886 Y99.112 F1000
G1 X44.032 Y98.966 F1000
G1 X44.470 Y98.966 F1000
G1 X44.616 Y98.820 F1000
G1 X45.054 Y98.820 F1000
G1 X45.200 Y98.674 F1000
G1 X45.200 Y97.360 F1000
G1 X45.200 Y98.674 F1000
G1 X45.346 Y98.820 F1000
G1 X45.784 Y98.820 F1000
G1 X45.930 Y98.966 F1000
G1 X46.368 Y98.966 F1000
G1 X46.514 Y99.112 F1000
G1 X46.660 Y99.112 F1000
G1 X46.806 Y99.258 F1000
G1 X47.098 Y99.258 F1000
G1 X47.390 Y99.550 F1000
G1 X47.536 Y99.550 F1000
G1 X47.828 Y99.842 F1000
G1 X47.974 Y99.842 F1000
G1 X48.558 Y100.426 F1000
G1 X48.558 Y100.572 F1000
G1 X48.850 Y100.864 F1000
G1 X48.850 Y101.010 F1000
G1 X48.996 Y101.156 F1000
G1 X48.996 Y101.302 F1000
G1 X49.142 Y101.448 F1000
G1 X49.142 Y101.594 F1000
G1 X49.288 Y101.740 F1000
G1 X49.288 Y102.178 F1000
G1 X49.434 Y102.324 F1000
G1 X49.434 Y103.054 F1000
G1 X49.580 Y103.200 F1000
G1 X51.040 Y103.200 F1000
G1 X49.580 Y103.200 F1000
G1 X49.434 Y103.346 F1000
G1 X49.434 Y104.076 F1000
G1 X49.288 Y104.222 F1000
G1 X49.288 Y104.660 F1000
G1 X49.142 Y104.806 F1000
G1 X49.142 Y104.952 F1000
G1 X48.996 Y105.098 F1000
G1 X48.996 Y105.244 F1000
G1 X48.850 Y105.390 F1000
G1 X48.850 Y105.536 F1000
G1 X48.558 Y105.828 F1000
G1 X48.558 Y105.974 F1000
G1 X47.974 Y106.558 F1000
G1 X47.828 Y106.558 F1000
G1 X47.536 Y106.850 F1000
G1 X47.390 Y106.850 F1000
G1 X47.244 Y106.996 F1000
G1 X47.098 Y106.996 F1000
G1 X46.952 Y107.142 F1000
G1 X46.806 Y107.142 F1000
G1 X46.660 Y107.288 F1000
G1 X46.222 Y107.288 F1000
G1 X46.076 Y107.434 F1000
G1 X45.346 Y107.434 F1000
G1 X45.200 Y107.580 F1000
G1 X45.200 Y109.040 F1000
G1 X45.200 Y107.580 F1000
G1 X45.054 Y107.434 F1000
G1 X44.324 Y107.434 F1000
G1 X44.178 Y107.288 F1000
G1 X43.740 Y107.288 F1000
G1 X43.594 Y107.142 F1000
G1 X43.448 Y107.142 F1000
G1 X43.302 Y106.996 F1000
G1 X43.156 Y106.996 F1000
G1 X43.010 Y106.850 F1000
G1 X42.864 Y106.850 F1000
G1 X42.572 Y106.558 F1000
G1 X42.426 Y106.558 F1000
G1 X41.842 Y105.974 F1000
G1 X41.842 Y105.828 F1000
G1 X41.550 Y105.536 F1000
G1 X41.550 Y105.390 F1000
G1 X41.258 Y105.098 F1000
G1 X41.258 Y104.806 F1000
G1 X41.112 Y104.660 F1000
G1 X41.112 Y104.514 F1000
G1 X40.966 Y104.368 F1000
G1 X40.966 Y103.930 F1000
G1 X40.820 Y103.784 F1000
G1 X40.820 Y103.346 F1000
G1 X40.674 Y103.200 F1000
G0 Z3.0 ; Pen up

G0 X40.966 Y103.200 F3000 ; Travel to line 4
G0 Z0.0 ; Pen down
G1 X40.820 Y103.346 F1000
G1 X40.820 Y103.784 F1000
G1 X40.966 Y103.930 F1000
G1 X40.966 Y104.368 F1000
G1 X41.112 Y104.514 F1000
G1 X41.112 Y104.660 F1000
G1 X41.258 Y104.806 F1000
G1 X41.258 Y105.098 F1000
G1 X41.550 Y105.390 F1000
G1 X41.550 Y105.536 F1000
G1 X42.864 Y106.850 F1000
G1 X43.010 Y106.850 F1000
G1 X43.156 Y106.996 F1000
G1 X43.302 Y106.996 F1000
G1 X43.448 Y107.142 F1000
G1 X43.594 Y107.142 F1000
G1 X43.740 Y107.288 F1000
G1 X44.178 Y107.288 F1000
G1 X44.324 Y107.434 F1000
G1 X45.054 Y107.434 F1000
G1 X45.200 Y107.288 F1000
G1 X45.200 Y103.346 F1000
G1 X45.054 Y103.200 F1000
G0 Z3.0 ; Pen up

G0 X45.346 Y103.200 F3000 ; Travel to line 5
G0 Z0.0 ; Pen down
G1 X45.200 Y103.346 F1000
G1 X45.200 Y107.288 F1000
G1 X45.346 Y107.434 F1000
G1 X46.076 Y107.434 F1000
G1 X46.222 Y107.288 F1000
G1 X46.660 Y107.288 F1000
G1 X46.806 Y107.142 F1000
G1 X46.952 Y107.142 F1000
G1 X47.098 Y106.996 F1000
G1 X47.244 Y106.996 F1000
G1 X47.390 Y106.850 F1000
G1 X47.536 Y106.850 F1000
G1 X48.850 Y105.536 F1000
G1 X48.850 Y105.390 F1000
G1 X48.996 Y105.244 F1000
G1 X48.996 Y105.098 F1000
G1 X49.142 Y104.952 F1000
G1 X49.142 Y104.806 F1000
G1 X49.288 Y104.660 F1000
G1 X49.288 Y104.222 F1000
G1 X49.434 Y104.076 F1000
G1 X49.434 Y103.346 F1000
G1 X49.288 Y103.200 F1000
G0 Z3.0 ; Pen up

G0 X52.500 Y102.470 F3000 ; Travel to line 6
G0 Z0.0 ; Pen down
G1 X52.500 Y100.280 F1000
G0 Z3.0 ; Pen up

G0 X52.500 Y98.090 F3000 ; Travel to line 7
G0 Z0.0 ; Pen down
G1 X52.500 Y95.900 F1000
G0 Z3.0 ; Pen up

G0 X52.500 Y93.710 F3000 ; Travel to line 8
G0 Z0.0 ; Pen down
G1 X52.500 Y91.520 F1000
G0 Z3.0 ; Pen up

G0 X52.500 Y89.330 F3000 ; Travel to line 9
G0 Z0.0 ; Pen down
G1 X52.500 Y87.140 F1000
G0 Z3.0 ; Pen up

G0 X52.500 Y84.950 F3000 ; Travel to line 10
G0 Z0.0 ; Pen down
G1 X52.500 Y82.760 F1000
G0 Z3.0 ; Pen up

G0 X52.500 Y80.570 F3000 ; Travel to line 11
G0 Z0.0 ; Pen down
G1 X52.500 Y78.380 F1000
G0 Z3.0 ; Pen up

G0 X52.500 Y76.190 F3000 ; Travel to line 12
G0 Z0.0 ; Pen down
G1 X52.500 Y74.000 F1000
G0 Z3.0 ; Pen up

G0 X52.500 Y71.810 F3000 ; Travel to line 13
G0 Z0.0 ; Pen down
G1 X52.500 Y69.620 F1000
G0 Z3.0 ; Pen up

G0 X52.500 Y63.050 F3000 ; Travel to line 14
G0 Z0.0 ; Pen down
G1 X52.500 Y60.860 F1000
G0 Z3.0 ; Pen up

G0 X52.500 Y58.670 F3000 ; Travel to line 15
G0 Z0.0 ; Pen down
G1 X52.500 Y56.480 F1000
G0 Z3.0 ; Pen up

G0 X52.500 Y54.290 F3000 ; Travel to line 16
G0 Z0.0 ; Pen down
G1 X52.500 Y52.100 F1000
G0 Z3.0 ; Pen up

G0 X52.500 Y49.910 F3000 ; Travel to line 17
G0 Z0.0 ; Pen down
G1 X52.500 Y47.720 F1000
G0 Z3.0 ; Pen up

G0 X52.500 Y45.530 F3000 ; Travel to line 18
G0 Z0.0 ; Pen down
G1 X52.500 Y43.340 F1000
G0 Z3.0 ; Pen up

G0 X53.960 Y44.800 F3000 ; Travel to line 19
G0 Z0.0 ; Pen down
G1 X55.274 Y44.800 F1000
G1 X55.420 Y44.654 F1000
G1 X55.420 Y44.216 F1000
G1 X55.566 Y44.070 F1000
G1 X55.566 Y43.632 F1000
G1 X55.712 Y43.486 F1000
G1 X55.712 Y43.340 F1000
G1 X55.858 Y43.194 F1000
G1 X55.858 Y42.902 F1000
G1 X56.150 Y42.610 F1000
G1 X56.150 Y42.464 F1000
G1 X56.442 Y42.172 F1000
G1 X56.442 Y42.026 F1000
G1 X57.026 Y41.442 F1000
G1 X57.172 Y41.442 F1000
G1 X57.464 Y41.150 F1000
G1 X57.610 Y41.150 F1000
G1 X57.902 Y40.858 F1000
G1 X58.194 Y40.858 F1000
G1 X58.340 Y40.712 F1000
G1 X58.486 Y40.712 F1000
G1 X58.632 Y40.566 F1000
G1 X59.070 Y40.566 F1000
G1 X59.216 Y40.420 F1000
G1 X59.654 Y40.420 F1000
G1 X59.800 Y40.274 F1000
G1 X59.800 Y38.960 F1000
G1 X59.800 Y40.274 F1000
G1 X59.946 Y40.420 F1000
G1 X60.384 Y40.420 F1000
G1 X60.530 Y40.566 F1000
G1 X60.968 Y40.566 F1000
G1 X61.114 Y40.712 F1000
G1 X61.260 Y40.712 F1000
G1 X61.406 Y40.858 F1000
G1 X61.698 Y40.858 F1000
G1 X61.990 Y41.150 F1000
G1 X62.136 Y41.150 F1000
G1 X62.428 Y41.442 F1000
G1 X62.574 Y41.442 F1000
G1 X63.158 Y42.026 F1000
G1 X63.158 Y42.172 F1000
G1 X63.450 Y42.464 F1000
G1 X63.450 Y42.610 F1000
G1 X63.596 Y42.756 F1000
G1 X63.596 Y42.902 F1000
G1 X63.742 Y43.048 F1000
G1 X63.742 Y43.194 F1000
G1 X63.888 Y43.340 F1000
G1 X63.888 Y43.778 F1000
G1 X64.034 Y43.924 F1000
G1 X64.034 Y44.654 F1000
G1 X64.180 Y44.800 F1000
G1 X65.640 Y44.800 F1000
G1 X64.180 Y44.800 F1000
G1 X64.034 Y44.946 F1000
G1 X64.034 Y45.676 F1000
G1 X63.888 Y45.822 F1000
G1 X63.888 Y46.260 F1000
G1 X63.742 Y46.406 F1000
G1 X63.742 Y46.552 F1000
G1 X63.596 Y46.698 F1000
G1 X63.596 Y46.844 F1000
G1 X63.450 Y46.990 F1000
G1 X63.450 Y47.136 F1000
G1 X63.158 Y47.428 F1000
G1 X63.158 Y47.574 F1000
G1 X62.574 Y48.158 F1000
G1 X62.428 Y48.158 F1000
G1 X62.136 Y48.450 F1000
G1 X61.990 Y48.450 F1000
G1 X61.844 Y48.596 F1000
G1 X61.698 Y48.596 F1000
G1 X61.552 Y48.742 F1000
G1 X61.406 Y48.742 F1000
G1 X61.260 Y48.888 F1000
G1 X60.822 Y48.888 F1000
G1 X60.676 Y49.034 F1000
G1 X59.946 Y49.034 F1000
G1 X59.800 Y49.180 F1000
G1 X59.800 Y50.640 F1000
G1 X59.800 Y49.180 F1000
G1 X59.654 Y49.034 F1000
G1 X58.924 Y49.034 F1000
G1 X58.778 Y48.888 F1000
G1 X58.340 Y48.888 F1000
G1 X58.194 Y48.742 F1000
G1 X58.048 Y48.742 F1000
G1 X57.902 Y48.596 F1000
G1 X57.756 Y48.596 F1000
G1 X57.610 Y48.450 F1000
G1 X57.464 Y48.450 F1000
G1 X57.172 Y48.158 F1000
G1 X57.026 Y48.158 F1000
G1 X56.442 Y47.574 F1000
G1 X56.442 Y47.428 F1000
G1 X56.150 Y47.136 F1000
G1 X56.150 Y46.990 F1000
G1 X55.858 Y46.698 F1000
G1 X55.858 Y46.406 F1000
G1 X55.712 Y46.260 F1000
G1 X55.712 Y46.114 F1000
G1 X55.566 Y45.968 F1000
G1 X55.566 Y45.530 F1000
G1 X55.420 Y45.384 F1000
G1 X55.420 Y44.946 F1000
G1 X55.274 Y44.800 F1000
G0 Z3.0 ; Pen up

G0 X55.566 Y44.800 F3000 ; Travel to line 20
G0 Z0.0 ; Pen down
G1 X55.420 Y44.946 F1000
G1 X55.420 Y45.384 F1000
G1 X55.566 Y45.530 F1000
G1 X55.566 Y45.968 F1000
G1 X55.712 Y46.114 F1000
G1 X55.712 Y46.260 F1000
G1 X55.858 Y46.406 F1000
G1 X55.858 Y46.698 F1000
G1 X56.150 Y46.990 F1000
G1 X56.150 Y47.136 F1000
G1 X57.464 Y48.450 F1000
G1 X57.610 Y48.450 F1000
G1 X57.756 Y48.596 F1000
G1 X57.902 Y48.596 F1000
G1 X58.048 Y48.742 F1000
G1 X58.194 Y48.742 F1000
G1 X58.340 Y48.888 F1000
G1 X58.778 Y48.888 F1000
G1 X58.924 Y49.034 F1000
G1 X59.654 Y49.034 F1000
G1 X59.800 Y48.888 F1000
G1 X59.800 Y44.946 F1000
G1 X59.654 Y44.800 F1000
G0 Z3.0 ; Pen up

G0 X59.946 Y44.800 F3000 ; Travel to line 21
G0 Z0.0 ; Pen down
G1 X59.800 Y44.946 F1000
G1 X59.800 Y48.888 F1000
G1 X59.946 Y49.034 F1000
G1 X60.676 Y49.034 F1000
G1 X60.822 Y48.888 F1000
G1 X61.260 Y48.888 F1000
G1 X61.406 Y48.742 F1000
G1 X61.552 Y48.742 F1000
G1 X61.698 Y48.596 F1000
G1 X61.844 Y48.596 F1000
G1 X61.990 Y48.450 F1000
G1 X62.136 Y48.450 F1000
G1 X63.450 Y47.136 F1000
G1 X63.450 Y46.990 F1000
G1 X63.596 Y46.844 F1000
G1 X63.596 Y46.698 F1000
G1 X63.742 Y46.552 F1000
G1 X63.742 Y46.406 F1000
G1 X63.888 Y46.260 F1000
G1 X63.888 Y45.822 F1000
G1 X64.034 Y45.676 F1000
G1 X64.034 Y44.946 F1000
G1 X63.888 Y44.800 F1000
G0 Z3.0 ; Pen up

G0 X60.384 Y40.420 F3000 ; Travel to line 22
G0 Z0.0 ; Pen down
G1 X60.530 Y40.566 F1000
G1 X60.968 Y40.566 F1000
G1 X61.114 Y40.712 F1000
G1 X61.260 Y40.712 F1000
G1 X61.406 Y40.858 F1000
G1 X61.698 Y40.858 F1000
G1 X61.990 Y41.150 F1000
G1 X62.136 Y41.150 F1000
G1 X63.450 Y42.464 F1000
G1 X63.450 Y42.610 F1000
G1 X63.596 Y42.756 F1000
G1 X63.596 Y42.902 F1000
G1 X63.742 Y43.048 F1000
G1 X63.742 Y43.194 F1000
G1 X63.888 Y43.340 F1000
G1 X63.888 Y43.778 F1000
G1 X64.034 Y43.924 F1000
G1 X64.034 Y44.654 F1000
G1 X63.888 Y44.800 F1000
G1 X59.946 Y44.800 F1000
G1 X59.800 Y44.654 F1000
G1 X59.800 Y40.566 F1000
G1 X59.946 Y40.420 F1000
G0 Z3.0 ; Pen up

G0 X55.566 Y43.632 F3000 ; Travel to line 23
G0 Z0.0 ; Pen down
G1 X55.712 Y43.486 F1000
G1 X55.712 Y43.340 F1000
G1 X55.858 Y43.194 F1000
G1 X55.858 Y42.902 F1000
G1 X56.150 Y42.610 F1000
G1 X56.150 Y42.464 F1000
G1 X57.464 Y41.150 F1000
G1 X57.610 Y41.150 F1000
G1 X57.902 Y40.858 F1000
G1 X58.194 Y40.858 F1000
G1 X58.340 Y40.712 F1000
G1 X58.486 Y40.712 F1000
G1 X58.632 Y40.566 F1000
G1 X59.070 Y40.566 F1000
G1 X59.216 Y40.420 F1000
G1 X59.654 Y40.420 F1000
G1 X59.800 Y40.566 F1000
G1 X59.800 Y44.654 F1000
G1 X59.654 Y44.800 F1000
G1 X55.566 Y44.800 F1000
G1 X55.420 Y44.654 F1000
G1 X55.420 Y44.216 F1000
G1 X55.566 Y44.070 F1000
G0 Z3.0 ; Pen up

G0 X52.500 Y41.150 F3000 ; Travel to line 24
G0 Z0.0 ; Pen down
G1 X52.500 Y38.960 F1000
G0 Z3.0 ; Pen up

G0 X52.500 Y36.770 F3000 ; Travel to line 25
G0 Z0.0 ; Pen down
G1 X52.500 Y34.580 F1000
G0 Z3.0 ; Pen up

G0 X52.354 Y30.346 F3000 ; Travel to line 26
G0 Z0.0 ; Pen down
G1 X52.500 Y30.492 F1000
G1 X52.500 Y32.390 F1000
G1 X52.500 Y30.492 F1000
G1 X52.646 Y30.346 F1000
G1 X74.108 Y30.346 F1000
G1 X74.254 Y30.492 F1000
G1 X74.254 Y117.362 F1000
G1 X73.962 Y117.654 F1000
G1 X30.892 Y117.654 F1000
G1 X30.746 Y117.508 F1000
G1 X30.746 Y30.492 F1000
G1 X30.892 Y30.346 F1000
G0 Z3.0 ; Pen up

G0 X30.600 Y24.360 F3000 ; Travel to line 27
G0 Z0.0 ; Pen down
G1 X30.600 Y23.046 F1000
G1 X30.746 Y22.900 F1000
G1 X74.254 Y22.900 F1000
G1 X74.400 Y23.046 F1000
G1 X74.400 Y24.360 F1000
G1 X74.400 Y22.754 F1000
G1 X74.254 Y22.900 F1000
G1 X30.746 Y22.900 F1000
G1 X30.600 Y22.754 F1000
G1 X30.600 Y21.440 F1000
G0 Z3.0 ; Pen up

G0 X45.346 Y40.420 F3000 ; Travel to line 28
G0 Z0.0 ; Pen down
G1 X45.200 Y40.566 F1000
G1 X45.200 Y44.654 F1000
G1 X45.346 Y44.800 F1000
G1 X49.288 Y44.800 F1000
G1 X49.434 Y44.654 F1000
G1 X49.434 Y43.924 F1000
G1 X49.288 Y43.778 F1000
G1 X49.288 Y43.340 F1000
G1 X49.142 Y43.194 F1000
G1 X49.142 Y43.048 F1000
G1 X48.996 Y42.902 F1000
G1 X48.996 Y42.756 F1000
G1 X48.850 Y42.610 F1000
G1 X48.850 Y42.464 F1000
G1 X47.536 Y41.150 F1000
G1 X47.390 Y41.150 F1000
G1 X47.098 Y40.858 F1000
G1 X46.806 Y40.858 F1000
G1 X46.660 Y40.712 F1000
G1 X46.514 Y40.712 F1000
G1 X46.368 Y40.566 F1000
G1 X45.930 Y40.566 F1000
G1 X45.784 Y40.420 F1000
G0 Z3.0 ; Pen up

G0 X45.346 Y44.800 F3000 ; Travel to line 29
G0 Z0.0 ; Pen down
G1 X45.200 Y44.946 F1000
G1 X45.200 Y48.888 F1000
G1 X45.346 Y49.034 F1000
G1 X46.076 Y49.034 F1000
G1 X46.222 Y48.888 F1000
G1 X46.660 Y48.888 F1000
G1 X46.806 Y48.742 F1000
G1 X46.952 Y48.742 F1000
G1 X47.098 Y48.596 F1000
G1 X47.244 Y48.596 F1000
G1 X47.390 Y48.450 F1000
G1 X47.536 Y48.450 F1000
G1 X48.850 Y47.136 F1000
G1 X48.850 Y46.990 F1000
G1 X48.996 Y46.844 F1000
G1 X48.996 Y46.698 F1000
G1 X49.142 Y46.552 F1000
G1 X49.142 Y46.406 F1000
G1 X49.288 Y46.260 F1000
G1 X49.288 Y45.822 F1000
G1 X49.434 Y45.676 F1000
G1 X49.434 Y44.946 F1000
G1 X49.288 Y44.800 F1000
G0 Z3.0 ; Pen up

G0 X45.054 Y44.800 F3000 ; Travel to line 30
G0 Z0.0 ; Pen down
G1 X45.200 Y44.946 F1000
G1 X45.200 Y48.888 F1000
G1 X45.054 Y49.034 F1000
G1 X44.324 Y49.034 F1000
G1 X44.178 Y48.888 F1000
G1 X43.740 Y48.888 F1000
G1 X43.594 Y48.742 F1000
G1 X43.448 Y48.742 F1000
G1 X43.302 Y48.596 F1000
G1 X43.156 Y48.596 F1000
G1 X43.010 Y48.450 F1000
G1 X42.864 Y48.450 F1000
G1 X41.550 Y47.136 F1000
G1 X41.550 Y46.990 F1000
G1 X41.258 Y46.698 F1000
G1 X41.258 Y46.406 F1000
G1 X41.112 Y46.260 F1000
G1 X41.112 Y46.114 F1000
G1 X40.966 Y45.968 F1000
G1 X40.966 Y45.530 F1000
G1 X40.820 Y45.384 F1000
G1 X40.820 Y44.946 F1000
G1 X40.966 Y44.800 F1000
G0 Z3.0 ; Pen up

G0 X40.674 Y44.800 F3000 ; Travel to line 31
G0 Z0.0 ; Pen down
G1 X40.820 Y44.946 F1000
G1 X40.820 Y45.384 F1000
G1 X40.966 Y45.530 F1000
G1 X40.966 Y45.968 F1000
G1 X41.112 Y46.114 F1000
G1 X41.112 Y46.260 F1000
G1 X41.258 Y46.406 F1000
G1 X41.258 Y46.698 F1000
G1 X41.550 Y46.990 F1000
G1 X41.550 Y47.136 F1000
G1 X41.842 Y47.428 F1000
G1 X41.842 Y47.574 F1000
G1 X42.426 Y48.158 F1000
G1 X42.572 Y48.158 F1000
G1 X42.864 Y48.450 F1000
G1 X43.010 Y48.450 F1000
G1 X43.156 Y48.596 F1000
G1 X43.302 Y48.596 F1000
G1 X43.448 Y48.742 F1000
G1 X43.594 Y48.742 F1000
G1 X43.740 Y48.888 F1000
G1 X44.178 Y48.888 F1000
G1 X44.324 Y49.034 F1000
G1 X45.054 Y49.034 F1000
G1 X45.200 Y49.180 F1000
G1 X45.200 Y50.640 F1000
G1 X45.200 Y49.180 F1000
G1 X45.346 Y49.034 F1000
G1 X46.076 Y49.034 F1000
G1 X46.222 Y48.888 F1000
G1 X46.660 Y48.888 F1000
G1 X46.806 Y48.742 F1000
G1 X46.952 Y48.742 F1000
G1 X47.098 Y48.596 F1000
G1 X47.244 Y48.596 F1000
G1 X47.390 Y48.450 F1000
G1 X47.536 Y48.450 F1000
G1 X47.828 Y48.158 F1000
G1 X47.974 Y48.158 F1000
G1 X48.558 Y47.574 F1000
G1 X48.558 Y47.428 F1000
G1 X48.850 Y47.136 F1000
G1 X48.850 Y46.990 F1000
G1 X48.996 Y46.844 F1000
G1 X48.996 Y46.698 F1000
G1 X49.142 Y46.552 F1000
G1 X49.142 Y46.406 F1000
G1 X49.288 Y46.260 F1000
G1 X49.288 Y45.822 F1000
G1 X49.434 Y45.676 F1000
G1 X49.434 Y44.946 F1000
G1 X49.580 Y44.800 F1000
G1 X51.040 Y44.800 F1000
G1 X49.580 Y44.800 F1000
G1 X49.434 Y44.654 F1000
G1 X49.434 Y43.924 F1000
G1 X49.288 Y43.778 F1000
G1 X49.288 Y43.340 F1000
G1 X49.142 Y43.194 F1000
G1 X49.142 Y43.048 F1000
G1 X48.996 Y42.902 F1000
G1 X48.996 Y42.756 F1000
G1 X48.850 Y42.610 F1000
G1 X48.850 Y42.464 F1000
G1 X48.558 Y42.172 F1000
G1 X48.558 Y42.026 F1000
G1 X47.974 Y41.442 F1000
G1 X47.828 Y41.442 F1000
G1 X47.536 Y41.150 F1000
G1 X47.390 Y41.150 F1000
G1 X47.098 Y40.858 F1000
G1 X46.806 Y40.858 F1000
G1 X46.660 Y40.712 F1000
G1 X46.514 Y40.712 F1000
G1 X46.368 Y40.566 F1000
G1 X45.930 Y40.566 F1000
G1 X45.784 Y40.420 F1000
G1 X45.346 Y40.420 F1000
G1 X45.200 Y40.274 F1000
G1 X45.200 Y38.960 F1000
G1 X45.200 Y40.274 F1000
G1 X45.054 Y40.420 F1000
G1 X44.616 Y40.420 F1000
G1 X44.470 Y40.566 F1000
G1 X44.032 Y40.566 F1000
G1 X43.886 Y40.712 F1000
G1 X43.740 Y40.712 F1000
G1 X43.594 Y40.858 F1000
G1 X43.302 Y40.858 F1000
G1 X43.010 Y41.150 F1000
G1 X42.864 Y41.150 F1000
G1 X42.572 Y41.442 F1000
G1 X42.426 Y41.442 F1000
G1 X41.842 Y42.026 F1000
G1 X41.842 Y42.172 F1000
G1 X41.550 Y42.464 F1000
G1 X41.550 Y42.610 F1000
G1 X41.258 Y42.902 F1000
G1 X41.258 Y43.194 F1000
G1 X41.112 Y43.340 F1000
G1 X41.112 Y43.486 F1000
G1 X40.966 Y43.632 F1000
G1 X40.966 Y44.070 F1000
G1 X40.820 Y44.216 F1000
G1 X40.820 Y44.654 F1000
G1 X40.674 Y44.800 F1000
G1 X39.360 Y44.800 F1000
G0 Z3.0 ; Pen up

G0 X40.966 Y44.070 F3000 ; Travel to line 32
G0 Z0.0 ; Pen down
G1 X40.820 Y44.216 F1000
G1 X40.820 Y44.654 F1000
G1 X40.966 Y44.800 F1000
G1 X45.054 Y44.800 F1000
G1 X45.200 Y44.654 F1000
G1 X45.200 Y40.566 F1000
G1 X45.054 Y40.420 F1000
G1 X44.616 Y40.420 F1000
G1 X44.470 Y40.566 F1000
G1 X44.032 Y40.566 F1000
G1 X43.886 Y40.712 F1000
G1 X43.740 Y40.712 F1000
G1 X43.594 Y40.858 F1000
G1 X43.302 Y40.858 F1000
G1 X43.010 Y41.150 F1000
G1 X42.864 Y41.150 F1000
G1 X41.550 Y42.464 F1000
G1 X41.550 Y42.610 F1000
G1 X41.258 Y42.902 F1000
G1 X41.258 Y43.194 F1000
G1 X41.112 Y43.340 F1000
G1 X41.112 Y43.486 F1000
G1 X40.966 Y43.632 F1000
G0 Z3.0 ; Pen up

G0 X45.492 Y72.248 F3000 ; Travel to line 33
G0 Z0.0 ; Pen down
G1 X45.638 Y72.102 F1000
G1 X45.638 Y71.664 F1000
G1 X45.784 Y71.518 F1000
G1 X45.784 Y71.372 F1000
G1 X45.930 Y71.226 F1000
G1 X45.930 Y71.080 F1000
G1 X46.076 Y70.934 F1000
G1 X46.076 Y70.788 F1000
G1 X46.222 Y70.642 F1000
G1 X46.222 Y70.496 F1000
G1 X46.514 Y70.204 F1000
G1 X46.514 Y70.058 F1000
G1 X46.952 Y69.620 F1000
G1 X46.952 Y69.474 F1000
G1 X47.974 Y68.452 F1000
G1 X48.120 Y68.452 F1000
G1 X48.558 Y68.014 F1000
G1 X48.704 Y68.014 F1000
G1 X48.996 Y67.722 F1000
G1 X49.142 Y67.722 F1000
G1 X49.288 Y67.576 F1000
G1 X49.434 Y67.576 F1000
G1 X49.580 Y67.430 F1000
G1 X49.726 Y67.430 F1000
G1 X49.872 Y67.284 F1000
G1 X50.018 Y67.284 F1000
G1 X50.164 Y67.138 F1000
G1 X50.602 Y67.138 F1000
G1 X50.748 Y66.992 F1000
G1 X51.332 Y66.992 F1000
G1 X51.478 Y66.846 F1000
G1 X52.354 Y66.846 F1000
G1 X52.500 Y66.992 F1000
G1 X52.500 Y67.430 F1000
G1 X52.500 Y66.992 F1000
G1 X52.646 Y66.846 F1000
G1 X53.522 Y66.846 F1000
G1 X53.668 Y66.992 F1000
G1 X54.252 Y66.992 F1000
G1 X54.398 Y67.138 F1000
G1 X54.836 Y67.138 F1000
G1 X54.982 Y67.284 F1000
G1 X55.128 Y67.284 F1000
G1 X55.274 Y67.430 F1000
G1 X55.420 Y67.430 F1000
G1 X55.566 Y67.576 F1000
G1 X55.712 Y67.576 F1000
G1 X55.858 Y67.722 F1000
G1 X56.004 Y67.722 F1000
G1 X56.296 Y68.014 F1000
G1 X56.442 Y68.014 F1000
G1 X56.880 Y68.452 F1000
G1 X57.026 Y68.452 F1000
G1 X57.902 Y69.328 F1000
G1 X57.902 Y69.474 F1000
G1 X58.340 Y69.912 F1000
G1 X58.340 Y70.058 F1000
G1 X58.632 Y70.350 F1000
G1 X58.632 Y70.496 F1000
G1 X58.778 Y70.642 F1000
G1 X58.778 Y70.788 F1000
G1 X58.924 Y70.934 F1000
G1 X58.924 Y71.080 F1000
G1 X59.070 Y71.226 F1000
G1 X59.070 Y71.372 F1000
G1 X59.216 Y71.518 F1000
G1 X59.216 Y71.810 F1000
G1 X59.362 Y71.956 F1000
G1 X59.362 Y72.248 F1000
G1 X59.508 Y72.394 F1000
G1 X59.508 Y72.978 F1000
G1 X59.654 Y73.124 F1000
G1 X59.654 Y74.876 F1000
G1 X59.508 Y75.022 F1000
G1 X59.508 Y75.606 F1000
G1 X59.362 Y75.752 F1000
G1 X59.362 Y76.044 F1000
G1 X59.216 Y76.190 F1000
G1 X59.216 Y76.482 F1000
G1 X59.070 Y76.628 F1000
G1 X59.070 Y76.774 F1000
G1 X58.924 Y76.920 F1000
G1 X58.924 Y77.066 F1000
G1 X58.778 Y77.212 F1000
G1 X58.778 Y77.358 F1000
G1 X58.632 Y77.504 F1000
G1 X58.632 Y77.650 F1000
G1 X58.340 Y77.942 F1000
G1 X58.340 Y78.088 F1000
G1 X57.902 Y78.526 F1000
G1 X57.902 Y78.672 F1000
G1 X57.172 Y79.402 F1000
G1 X57.026 Y79.402 F1000
G1 X56.588 Y79.840 F1000
G1 X56.442 Y79.840 F1000
G1 X56.150 Y80.132 F1000
G1 X56.004 Y80.132 F1000
G1 X55.858 Y80.278 F1000
G1 X55.712 Y80.278 F1000
G1 X55.566 Y80.424 F1000
G1 X55.420 Y80.424 F1000
G1 X55.274 Y80.570 F1000
G1 X55.128 Y80.570 F1000
G1 X54.982 Y80.716 F1000
G1 X54.690 Y80.716 F1000
G1 X54.544 Y80.862 F1000
G1 X54.252 Y80.862 F1000
G1 X54.106 Y81.008 F1000
G1 X53.522 Y81.008 F1000
G1 X53.376 Y81.154 F1000
G1 X51.624 Y81.154 F1000
G1 X51.478 Y81.008 F1000
G1 X50.894 Y81.008 F1000
G1 X50.748 Y80.862 F1000
G1 X50.456 Y80.862 F1000
G1 X50.310 Y80.716 F1000
G1 X50.018 Y80.716 F1000
G1 X49.872 Y80.570 F1000
G1 X49.726 Y80.570 F1000
G1 X49.580 Y80.424 F1000
G1 X49.434 Y80.424 F1000
G1 X49.288 Y80.278 F1000
G1 X49.142 Y80.278 F1000
G1 X48.996 Y80.132 F1000
G1 X48.850 Y80.132 F1000
G1 X48.558 Y79.840 F1000
G1 X48.412 Y79.840 F1000
G1 X47.974 Y79.402 F1000
G1 X47.828 Y79.402 F1000
G1 X46.952 Y78.526 F1000
G1 X46.952 Y78.380 F1000
G1 X46.514 Y77.942 F1000
G1 X46.514 Y77.796 F1000
G1 X46.222 Y77.504 F1000
G1 X46.222 Y77.358 F1000
G1 X46.076 Y77.212 F1000
G1 X46.076 Y77.066 F1000
G1 X45.930 Y76.920 F1000
G1 X45.930 Y76.774 F1000
G1 X45.784 Y76.628 F1000
G1 X45.784 Y76.482 F1000
G1 X45.638 Y76.336 F1000
G1 X45.638 Y75.898 F1000
G1 X45.492 Y75.752 F1000
G1 X45.492 Y75.168 F1000
G1 X45.346 Y75.022 F1000
G1 X45.346 Y72.978 F1000
G1 X45.492 Y72.832 F1000
G0 Z3.0 ; Pen up

G0 X45.346 Y72.978 F3000 ; Travel to line 34
G0 Z0.0 ; Pen down
G1 X45.492 Y72.832 F1000
G1 X45.492 Y72.248 F1000
G1 X45.638 Y72.102 F1000
G1 X45.638 Y71.664 F1000
G1 X45.784 Y71.518 F1000
G1 X45.784 Y71.372 F1000
G1 X45.930 Y71.226 F1000
G1 X45.930 Y70.934 F1000
G1 X46.076 Y70.788 F1000
G1 X46.076 Y70.642 F1000
G1 X46.222 Y70.496 F1000
G1 X46.222 Y70.350 F1000
G1 X46.514 Y70.058 F1000
G1 X46.514 Y69.912 F1000
G1 X46.952 Y69.474 F1000
G1 X46.952 Y69.328 F1000
G1 X47.828 Y68.452 F1000
G1 X47.974 Y68.452 F1000
G1 X48.412 Y68.014 F1000
G1 X48.558 Y68.014 F1000
G1 X48.850 Y67.722 F1000
G1 X48.996 Y67.722 F1000
G1 X49.142 Y67.576 F1000
G1 X49.288 Y67.576 F1000
G1 X49.434 Y67.430 F1000
G1 X49.726 Y67.430 F1000
G1 X49.872 Y67.284 F1000
G1 X50.018 Y67.284 F1000
G1 X50.164 Y67.138 F1000
G1 X50.602 Y67.138 F1000
G1 X50.748 Y66.992 F1000
G1 X51.332 Y66.992 F1000
G1 X51.478 Y66.846 F1000
G1 X52.354 Y66.846 F1000
G1 X52.500 Y66.700 F1000
G1 X52.500 Y65.240 F1000
G1 X52.500 Y66.700 F1000
G1 X52.646 Y66.846 F1000
G1 X53.522 Y66.846 F1000
G1 X53.668 Y66.992 F1000
G1 X54.252 Y66.992 F1000
G1 X54.398 Y67.138 F1000
G1 X54.836 Y67.138 F1000
G1 X54.982 Y67.284 F1000
G1 X55.128 Y67.284 F1000
G1 X55.274 Y67.430 F1000
G1 X55.566 Y67.430 F1000
G1 X55.712 Y67.576 F1000
G1 X55.858 Y67.576 F1000
G1 X56.004 Y67.722 F1000
G1 X56.150 Y67.722 F1000
G1 X56.442 Y68.014 F1000
G1 X56.588 Y68.014 F1000
G1 X57.026 Y68.452 F1000
G1 X57.172 Y68.452 F1000
G1 X57.902 Y69.182 F1000
G1 X57.902 Y69.328 F1000
G1 X58.340 Y69.766 F1000
G1 X58.340 Y69.912 F1000
G1 X58.632 Y70.204 F1000
G1 X58.632 Y70.350 F1000
G1 X58.778 Y70.496 F1000
G1 X58.778 Y70.642 F1000
G1 X58.924 Y70.788 F1000
G1 X58.924 Y71.080 F1000
G1 X59.070 Y71.226 F1000
G1 X59.070 Y71.372 F1000
G1 X59.216 Y71.518 F1000
G1 X59.216 Y71.810 F1000
G1 X59.362 Y71.956 F1000
G1 X59.362 Y72.248 F1000
G1 X59.508 Y72.394 F1000
G1 X59.508 Y72.978 F1000
G1 X59.654 Y73.124 F1000
G1 X59.654 Y74.876 F1000
G1 X59.508 Y75.022 F1000
G1 X59.508 Y75.606 F1000
G1 X59.362 Y75.752 F1000
G1 X59.362 Y76.044 F1000
G1 X59.216 Y76.190 F1000
G1 X59.216 Y76.482 F1000
G1 X59.070 Y76.628 F1000
G1 X59.070 Y76.774 F1000
G1 X58.924 Y76.920 F1000
G1 X58.924 Y77.212 F1000
G1 X58.778 Y77.358 F1000
G1 X58.778 Y77.504 F1000
G1 X58.632 Y77.650 F1000
G1 X58.632 Y77.796 F1000
G1 X58.340 Y78.088 F1000
G1 X58.340 Y78.234 F1000
G1 X57.902 Y78.672 F1000
G1 X57.902 Y78.818 F1000
G1 X57.318 Y79.402 F1000
G1 X57.172 Y79.402 F1000
G1 X56.734 Y79.840 F1000
G1 X56.588 Y79.840 F1000
G1 X56.296 Y80.132 F1000
G1 X56.150 Y80.132 F1000
G1 X56.004 Y80.278 F1000
G1 X55.858 Y80.278 F1000
G1 X55.712 Y80.424 F1000
G1 X55.420 Y80.424 F1000
G1 X55.274 Y80.570 F1000
G1 X55.128 Y80.570 F1000
G1 X54.982 Y80.716 F1000
G1 X54.690 Y80.716 F1000
G1 X54.544 Y80.862 F1000
G1 X54.252 Y80.862 F1000
G1 X54.106 Y81.008 F1000
G1 X53.522 Y81.008 F1000
G1 X53.376 Y81.154 F1000
G1 X51.624 Y81.154 F1000
G1 X51.478 Y81.008 F1000
G1 X50.894 Y81.008 F1000
G1 X50.748 Y80.862 F1000
G1 X50.456 Y80.862 F1000
G1 X50.310 Y80.716 F1000
G1 X50.018 Y80.716 F1000
G1 X49.872 Y80.570 F1000
G1 X49.726 Y80.570 F1000
G1 X49.580 Y80.424 F1000
G1 X49.288 Y80.424 F1000
G1 X49.142 Y80.278 F1000
G1 X48.996 Y80.278 F1000
G1 X48.850 Y80.132 F1000
G1 X48.704 Y80.132 F1000
G1 X48.412 Y79.840 F1000
G1 X48.266 Y79.840 F1000
G1 X47.828 Y79.402 F1000
G1 X47.682 Y79.402 F1000
G1 X46.952 Y78.672 F1000
G1 X46.952 Y78.526 F1000
G1 X46.514 Y78.088 F1000
G1 X46.514 Y77.942 F1000
G1 X46.222 Y77.650 F1000
G1 X46.222 Y77.504 F1000
G1 X46.076 Y77.358 F1000
G1 X46.076 Y77.212 F1000
G1 X45.930 Y77.066 F1000
G1 X45.930 Y76.774 F1000
G1 X45.784 Y76.628 F1000
G1 X45.784 Y76.482 F1000
G1 X45.638 Y76.336 F1000
G1 X45.638 Y75.898 F1000
G1 X45.492 Y75.752 F1000
G1 X45.492 Y75.168 F1000
G1 X45.346 Y75.022 F1000
G0 Z3.0 ; Pen up

G0 X45.346 Y98.820 F3000 ; Travel to line 35
G0 Z0.0 ; Pen down
G1 X45.200 Y98.966 F1000
G1 X45.200 Y103.054 F1000
G1 X45.346 Y103.200 F1000
G1 X49.288 Y103.200 F1000
G1 X49.434 Y103.054 F1000
G1 X49.434 Y102.324 F1000
G1 X49.288 Y102.178 F1000
G1 X49.288 Y101.740 F1000
G1 X49.142 Y101.594 F1000
G1 X49.142 Y101.448 F1000
G1 X48.996 Y101.302 F1000
G1 X48.996 Y101.156 F1000
G1 X48.850 Y101.010 F1000
G1 X48.850 Y100.864 F1000
G1 X47.536 Y99.550 F1000
G1 X47.390 Y99.550 F1000
G1 X47.098 Y99.258 F1000
G1 X46.806 Y99.258 F1000
G1 X46.660 Y99.112 F1000
G1 X46.514 Y99.112 F1000
G1 X46.368 Y98.966 F1000
G1 X45.930 Y98.966 F1000
G1 X45.784 Y98.820 F1000
G0 Z3.0 ; Pen up

G0 X40.966 Y102.032 F3000 ; Travel to line 36
G0 Z0.0 ; Pen down
G1 X41.112 Y101.886 F1000
G1 X41.112 Y101.740 F1000
G1 X41.258 Y101.594 F1000
G1 X41.258 Y101.302 F1000
G1 X41.550 Y101.010 F1000
G1 X41.550 Y100.864 F1000
G1 X42.864 Y99.550 F1000
G1 X43.010 Y99.550 F1000
G1 X43.302 Y99.258 F1000
G1 X43.594 Y99.258 F1000
G1 X43.740 Y99.112 F1000
G1 X43.886 Y99.112 F1000
G1 X44.032 Y98.966 F1000
G1 X44.470 Y98.966 F1000
G1 X44.616 Y98.820 F1000
G1 X45.054 Y98.820 F1000
G1 X45.200 Y98.966 F1000
G1 X45.200 Y103.054 F1000
G1 X45.054 Y103.200 F1000
G1 X40.966 Y103.200 F1000
G1 X40.820 Y103.054 F1000
G1 X40.820 Y102.616 F1000
G1 X40.966 Y102.470 F1000
G0 Z3.0 ; Pen up

G0 X52.500 Y104.660 F3000 ; Travel to line 37
G0 Z0.0 ; Pen down
G1 X52.500 Y106.850 F1000
G0 Z3.0 ; Pen up

G0 X52.500 Y109.040 F3000 ; Travel to line 38
G0 Z0.0 ; Pen down
G1 X52.500 Y111.230 F1000
G0 Z3.0 ; Pen up

G0 X52.500 Y113.420 F3000 ; Travel to line 39
G0 Z0.0 ; Pen down
G1 X52.500 Y115.610 F1000
G0 Z3.0 ; Pen up

G0 X53.960 Y103.200 F3000 ; Travel to line 40
G0 Z0.0 ; Pen down
G1 X55.274 Y103.200 F1000
G1 X55.420 Y103.054 F1000
G1 X55.420 Y102.616 F1000
G1 X55.566 Y102.470 F1000
G1 X55.566 Y102.032 F1000
G1 X55.712 Y101.886 F1000
G1 X55.712 Y101.740 F1000
G1 X55.858 Y101.594 F1000
G1 X55.858 Y101.302 F1000
G1 X56.150 Y101.010 F1000
G1 X56.150 Y100.864 F1000
G1 X56.442 Y100.572 F1000
G1 X56.442 Y100.426 F1000
G1 X57.026 Y99.842 F1000
G1 X57.172 Y99.842 F1000
G1 X57.464 Y99.550 F1000
G1 X57.610 Y99.550 F1000
G1 X57.902 Y99.258 F1000
G1 X58.194 Y99.258 F1000
G1 X58.340 Y99.112 F1000
G1 X58.486 Y99.112 F1000
G1 X58.632 Y98.966 F1000
G1 X59.070 Y98.966 F1000
G1 X59.216 Y98.820 F1000
G1 X59.654 Y98.820 F1000
G1 X59.800 Y98.674 F1000
G1 X59.800 Y97.360 F1000
G1 X59.800 Y98.674 F1000
G1 X59.946 Y98.820 F1000
G1 X60.384 Y98.820 F1000
G1 X60.530 Y98.966 F1000
G1 X60.968 Y98.966 F1000
G1 X61.114 Y99.112 F1000
G1 X61.260 Y99.112 F1000
G1 X61.406 Y99.258 F1000
G1 X61.698 Y99.258 F1000
G1 X61.990 Y99.550 F1000
G1 X62.136 Y99.550 F1000
G1 X62.428 Y99.842 F1000
G1 X62.574 Y99.842 F1000
G1 X63.158 Y100.426 F1000
G1 X63.158 Y100.572 F1000
G1 X63.450 Y100.864 F1000
G1 X63.450 Y101.010 F1000
G1 X63.596 Y101.156 F1000
G1 X63.596 Y101.302 F1000
G1 X63.742 Y101.448 F1000
G1 X63.742 Y101.594 F1000
G1 X63.888 Y101.740 F1000
G1 X63.888 Y102.178 F1000
G1 X64.034 Y102.324 F1000
G1 X64.034 Y103.054 F1000
G1 X64.180 Y103.200 F1000
G1 X65.640 Y103.200 F1000
G1 X64.180 Y103.200 F1000
G1 X64.034 Y103.346 F1000
G1 X64.034 Y104.076 F1000
G1 X63.888 Y104.222 F1000
G1 X63.888 Y104.660 F1000
G1 X63.742 Y104.806 F1000
G1 X63.742 Y104.952 F1000
G1 X63.596 Y105.098 F1000
G1 X63.596 Y105.244 F1000
G1 X63.450 Y105.390 F1000
G1 X63.450 Y105.536 F1000
G1 X63.158 Y105.828 F1000
G1 X63.158 Y105.974 F1000
G1 X62.574 Y106.558 F1000
G1 X62.428 Y106.558 F1000
G1 X62.136 Y106.850 F1000
G1 X61.990 Y106.850 F1000
G1 X61.844 Y106.996 F1000
G1 X61.698 Y106.996 F1000
G1 X61.552 Y107.142 F1000
G1 X61.406 Y107.142 F1000
G1 X61.260 Y107.288 F1000
G1 X60.822 Y107.288 F1000
G1 X60.676 Y107.434 F1000
G1 X59.946 Y107.434 F1000
G1 X59.800 Y107.580 F1000
G1 X59.800 Y109.040 F1000
G1 X59.800 Y107.580 F1000
G1 X59.654 Y107.434 F1000
G1 X58.924 Y107.434 F1000
G1 X58.778 Y107.288 F1000
G1 X58.340 Y107.288 F1000
G1 X58.194 Y107.142 F1000
G1 X58.048 Y107.142 F1000
G1 X57.902 Y106.996 F1000
G1 X57.756 Y106.996 F1000
G1 X57.610 Y106.850 F1000
G1 X57.464 Y106.850 F1000
G1 X57.172 Y106.558 F1000
G1 X57.026 Y106.558 F1000
G1 X56.442 Y105.974 F1000
G1 X56.442 Y105.828 F1000
G1 X56.150 Y105.536 F1000
G1 X56.150 Y105.390 F1000
G1 X55.858 Y105.098 F1000
G1 X55.858 Y104.806 F1000
G1 X55.712 Y104.660 F1000
G1 X55.712 Y104.514 F1000
G1 X55.566 Y104.368 F1000
G1 X55.566 Y103.930 F1000
G1 X55.420 Y103.784 F1000
G1 X55.420 Y103.346 F1000
G1 X55.274 Y103.200 F1000
G0 Z3.0 ; Pen up

G0 X55.566 Y103.200 F3000 ; Travel to line 41
G0 Z0.0 ; Pen down
G1 X55.420 Y103.346 F1000
G1 X55.420 Y103.784 F1000
G1 X55.566 Y103.930 F1000
G1 X55.566 Y104.368 F1000
G1 X55.712 Y104.514 F1000
G1 X55.712 Y104.660 F1000
G1 X55.858 Y104.806 F1000
G1 X55.858 Y105.098 F1000
G1 X56.150 Y105.390 F1000
G1 X56.150 Y105.536 F1000
G1 X57.464 Y106.850 F1000
G1 X57.610 Y106.850 F1000
G1 X57.756 Y106.996 F1000
G1 X57.902 Y106.996 F1000
G1 X58.048 Y107.142 F1000
G1 X58.194 Y107.142 F1000
G1 X58.340 Y107.288 F1000
G1 X58.778 Y107.288 F1000
G1 X58.924 Y107.434 F1000
G1 X59.654 Y107.434 F1000
G1 X59.800 Y107.288 F1000
G1 X59.800 Y103.346 F1000
G1 X59.654 Y103.200 F1000
G0 Z3.0 ; Pen up

G0 X59.946 Y103.200 F3000 ; Travel to line 42
G0 Z0.0 ; Pen down
G1 X59.800 Y103.346 F1000
G1 X59.800 Y107.288 F1000
G1 X59.946 Y107.434 F1000
G1 X60.676 Y107.434 F1000
G1 X60.822 Y107.288 F1000
G1 X61.260 Y107.288 F1000
G1 X61.406 Y107.142 F1000
G1 X61.552 Y107.142 F1000
G1 X61.698 Y106.996 F1000
G1 X61.844 Y106.996 F1000
G1 X61.990 Y106.850 F1000
G1 X62.136 Y106.850 F1000
G1 X63.450 Y105.536 F1000
G1 X63.450 Y105.390 F1000
G1 X63.596 Y105.244 F1000
G1 X63.596 Y105.098 F1000
G1 X63.742 Y104.952 F1000
G1 X63.742 Y104.806 F1000
G1 X63.888 Y104.660 F1000
G1 X63.888 Y104.222 F1000
G1 X64.034 Y104.076 F1000
G1 X64.034 Y103.346 F1000
G1 X63.888 Y103.200 F1000
G0 Z3.0 ; Pen up

G0 X60.384 Y98.820 F3000 ; Travel to line 43
G0 Z0.0 ; Pen down
G1 X60.530 Y98.966 F1000
G1 X60.968 Y98.966 F1000
G1 X61.114 Y99.112 F1000
G1 X61.260 Y99.112 F1000
G1 X61.406 Y99.258 F1000
G1 X61.698 Y99.258 F1000
G1 X61.990 Y99.550 F1000
G1 X62.136 Y99.550 F1000
G1 X63.450 Y100.864 F1000
G1 X63.450 Y101.010 F1000
G1 X63.596 Y101.156 F1000
G1 X63.596 Y101.302 F1000
G1 X63.742 Y101.448 F1000
G1 X63.742 Y101.594 F1000
G1 X63.888 Y101.740 F1000
G1 X63.888 Y102.178 F1000
G1 X64.034 Y102.324 F1000
G1 X64.034 Y103.054 F1000
G1 X63.888 Y103.200 F1000
G1 X59.946 Y103.200 F1000
G1 X59.800 Y103.054 F1000
G1 X59.800 Y98.966 F1000
G1 X59.946 Y98.820 F1000
G0 Z3.0 ; Pen up

G0 X55.566 Y102.032 F3000 ; Travel to line 44
G0 Z0.0 ; Pen down
G1 X55.712 Y101.886 F1000
G1 X55.712 Y101.740 F1000
G1 X55.858 Y101.594 F1000
G1 X55.858 Y101.302 F1000
G1 X56.150 Y101.010 F1000
G1 X56.150 Y100.864 F1000
G1 X57.464 Y99.550 F1000
G1 X57.610 Y99.550 F1000
G1 X57.902 Y99.258 F1000
G1 X58.194 Y99.258 F1000
G1 X58.340 Y99.112 F1000
G1 X58.486 Y99.112 F1000
G1 X58.632 Y98.966 F1000
G1 X59.070 Y98.966 F1000
G1 X59.216 Y98.820 F1000
G1 X59.654 Y98.820 F1000
G1 X59.800 Y98.966 F1000
G1 X59.800 Y103.054 F1000
G1 X59.654 Y103.200 F1000
G1 X55.566 Y103.200 F1000
G1 X55.420 Y103.054 F1000
G1 X55.420 Y102.616 F1000
G1 X55.566 Y102.470 F1000
G0 Z3.0 ; Pen up

; Return to origin
G0 X0 Y0
G0 Z3.0

; Total drawing distance: 1444.39 mm
; Total travel distance: 260.30 mm
; Total lines: 44
; Estimated time: 91.9 seconds (1.5 minutes)
M2 ; End program