; Blueprint to G-code
; Input: test_images/test5_circuit.png
; Generated with blueprint2gcode.py

G21 ; Set units to millimeters
G90 ; Absolute positioning
G0 Z3.0 ; Pen up
G0 X0 Y0 ; Move to origin

G0 X33.844 Y23.873 F3000 ; Travel to line 1
G0 Z0.0 ; Pen down
G1 X34.007 Y23.711 F1000
G1 X36.116 Y23.711 F1000
G1 X36.278 Y23.549 F1000
G1 X36.278 Y17.384 F1000
G1 X36.278 Y23.549 F1000
G1 X36.440 Y23.711 F1000
G1 X38.549 Y23.711 F1000
G1 X38.549 Y36.527 F1000
G1 X36.440 Y36.527 F1000
G1 X36.278 Y36.689 F1000
G1 X36.278 Y49.504 F1000
G1 X36.440 Y49.667 F1000
G1 X52.500 Y49.667 F1000
G1 X52.662 Y49.504 F1000
G1 X60.449 Y49.504 F1000
G1 X60.611 Y49.342 F1000
G1 X60.611 Y31.984 F1000
G1 X60.449 Y31.822 F1000
G1 X57.529 Y31.822 F1000
G1 X60.449 Y31.822 F1000
G1 X60.611 Y31.660 F1000
G1 X60.611 Y28.740 F1000
G1 X60.449 Y28.578 F1000
G1 X57.529 Y28.578 F1000
G1 X60.449 Y28.578 F1000
G1 X60.611 Y28.416 F1000
G1 X60.611 Y17.384 F1000
G1 X60.611 Y28.416 F1000
G1 X60.773 Y28.578 F1000
G1 X63.531 Y28.578 F1000
G1 X60.773 Y28.578 F1000
G1 X60.611 Y28.740 F1000
G1 X60.611 Y31.660 F1000
G1 X60.773 Y31.822 F1000
G1 X63.531 Y31.822 F1000
G1 X60.773 Y31.822 F1000
G1 X60.611 Y31.984 F1000
G1 X60.611 Y49.504 F1000
G1 X60.773 Y49.667 F1000
G1 X68.560 Y49.667 F1000
G1 X68.722 Y49.504 F1000
G1 X68.722 Y54.209 F1000
G1 X68.722 Y49.829 F1000
G1 X68.560 Y49.667 F1000
G1 X60.611 Y49.667 F1000
G1 X60.449 Y49.504 F1000
G1 X52.662 Y49.504 F1000
G1 X52.500 Y49.667 F1000
G1 X36.278 Y49.667 F1000
G1 X36.278 Y36.689 F1000
G1 X36.116 Y36.527 F1000
G1 X33.844 Y36.527 F1000
G0 Z3.0 ; Pen up

G0 X33.844 Y24.036 F3000 ; Travel to line 2
G0 Z0.0 ; Pen down
G1 X33.844 Y36.364 F1000
G1 X34.007 Y36.527 F1000
G1 X36.116 Y36.527 F1000
G1 X36.278 Y36.364 F1000
G1 X36.278 Y27.118 F1000
G1 X36.278 Y36.364 F1000
G1 X36.440 Y36.527 F1000
G1 X38.387 Y36.527 F1000
G1 X38.549 Y36.364 F1000
G1 X38.549 Y23.873 F1000
G1 X38.387 Y23.711 F1000
G1 X34.169 Y23.711 F1000
G0 Z3.0 ; Pen up

G0 X70.344 Y46.584 F3000 ; Travel to line 3
G0 Z0.0 ; Pen down
G1 X70.344 Y52.749 F1000
G0 Z3.0 ; Pen up

G0 X71.967 Y51.127 F3000 ; Travel to line 4
G0 Z0.0 ; Pen down
G1 X71.967 Y48.207 F1000
G0 Z3.0 ; Pen up

G0 X60.287 Y66.051 F3000 ; Travel to line 5
G0 Z0.0 ; Pen down
G1 X60.449 Y66.213 F1000
G1 X60.449 Y84.869 F1000
G1 X60.124 Y85.193 F1000
G1 X44.713 Y85.193 F1000
G1 X44.551 Y85.031 F1000
G1 X44.551 Y66.213 F1000
G1 X44.713 Y66.051 F1000
G0 Z3.0 ; Pen up

G0 X44.551 Y66.051 F3000 ; Travel to line 6
G0 Z0.0 ; Pen down
G1 X47.309 Y66.051 F1000
G1 X47.471 Y65.889 F1000
G1 X47.471 Y62.807 F1000
G1 X47.471 Y65.889 F1000
G1 X47.633 Y66.051 F1000
G1 X51.364 Y66.051 F1000
G1 X51.527 Y65.889 F1000
G1 X51.527 Y62.807 F1000
G1 X51.527 Y65.889 F1000
G1 X51.689 Y66.051 F1000
G1 X55.420 Y66.051 F1000
G1 X55.582 Y65.889 F1000
G1 X55.582 Y62.807 F1000
G1 X55.582 Y65.889 F1000
G1 X55.744 Y66.051 F1000
G1 X59.476 Y66.051 F1000
G1 X59.638 Y65.889 F1000
G1 X59.638 Y62.807 F1000
G1 X59.638 Y65.889 F1000
G1 X59.800 Y66.051 F1000
G1 X60.449 Y66.051 F1000
G1 X60.449 Y85.031 F1000
G1 X60.287 Y85.193 F1000
G1 X59.962 Y85.193 F1000
G1 X59.800 Y85.356 F1000
G1 X59.800 Y88.438 F1000
G1 X59.800 Y85.356 F1000
G1 X59.638 Y85.193 F1000
G1 X55.907 Y85.193 F1000
G1 X55.744 Y85.356 F1000
G1 X55.744 Y88.438 F1000
G1 X55.744 Y85.356 F1000
G1 X55.582 Y85.193 F1000
G1 X51.851 Y85.193 F1000
G1 X51.689 Y85.356 F1000
G1 X51.689 Y88.438 F1000
G1 X51.689 Y85.356 F1000
G1 X51.527 Y85.193 F1000
G1 X47.796 Y85.193 F1000
G1 X47.633 Y85.356 F1000
G1 X47.633 Y88.438 F1000
G1 X47.633 Y85.356 F1000
G1 X47.471 Y85.193 F1000
G1 X44.551 Y85.193 F1000
G0 Z3.0 ; Pen up

G0 X49.742 Y106.444 F3000 ; Travel to line 7
G0 Z0.0 ; Pen down
G1 X49.580 Y106.607 F1000
G1 X49.580 Y106.769 F1000
G1 X49.904 Y107.093 F1000
G1 X49.904 Y107.256 F1000
G1 X50.229 Y107.580 F1000
G1 X50.229 Y107.742 F1000
G1 X50.553 Y108.067 F1000
G1 X50.553 Y108.229 F1000
G1 X50.878 Y108.553 F1000
G1 X50.878 Y108.716 F1000
G1 X51.202 Y109.040 F1000
G1 X51.202 Y109.202 F1000
G1 X51.527 Y109.527 F1000
G1 X51.527 Y109.689 F1000
G1 X51.851 Y110.013 F1000
G1 X51.851 Y110.176 F1000
G1 X52.176 Y110.500 F1000
G1 X52.176 Y110.662 F1000
G1 X52.500 Y110.987 F1000
G1 X52.824 Y110.662 F1000
G1 X52.824 Y110.500 F1000
G1 X53.149 Y110.176 F1000
G1 X53.149 Y110.013 F1000
G1 X53.473 Y109.689 F1000
G1 X53.473 Y109.527 F1000
G1 X53.798 Y109.202 F1000
G1 X53.798 Y109.040 F1000
G1 X54.122 Y108.716 F1000
G1 X54.122 Y108.553 F1000
G1 X54.447 Y108.229 F1000
G1 X54.447 Y108.067 F1000
G1 X54.771 Y107.742 F1000
G1 X54.771 Y107.580 F1000
G1 X55.096 Y107.256 F1000
G1 X55.096 Y107.093 F1000
G1 X55.258 Y106.931 F1000
G1 X55.258 Y106.607 F1000
G1 X55.096 Y106.444 F1000
G0 Z3.0 ; Pen up

G0 X52.338 Y111.311 F3000 ; Travel to line 8
G0 Z0.0 ; Pen down
G1 X52.500 Y111.473 F1000
G1 X52.500 Y116.016 F1000
G1 X52.500 Y111.473 F1000
G1 X52.662 Y111.311 F1000
G1 X55.582 Y111.311 F1000
G1 X52.662 Y111.311 F1000
G1 X52.500 Y111.149 F1000
G1 X52.662 Y110.987 F1000
G1 X52.662 Y110.824 F1000
G1 X52.987 Y110.500 F1000
G1 X52.987 Y110.338 F1000
G1 X53.311 Y110.013 F1000
G1 X53.311 Y109.851 F1000
G1 X53.636 Y109.527 F1000
G1 X53.636 Y109.364 F1000
G1 X53.960 Y109.040 F1000
G1 X53.960 Y108.878 F1000
G1 X54.284 Y108.553 F1000
G1 X54.284 Y108.391 F1000
G1 X54.609 Y108.067 F1000
G1 X54.609 Y107.904 F1000
G1 X54.933 Y107.580 F1000
G1 X54.933 Y107.418 F1000
G1 X55.258 Y107.093 F1000
G1 X55.258 Y106.444 F1000
G1 X52.662 Y106.444 F1000
G1 X52.500 Y106.282 F1000
G1 X52.500 Y101.740 F1000
G1 X52.500 Y106.282 F1000
G1 X52.338 Y106.444 F1000
G1 X49.580 Y106.444 F1000
G1 X49.580 Y106.769 F1000
G1 X49.742 Y106.931 F1000
G1 X49.742 Y107.093 F1000
G1 X50.067 Y107.418 F1000
G1 X50.067 Y107.580 F1000
G1 X50.391 Y107.904 F1000
G1 X50.391 Y108.067 F1000
G1 X50.716 Y108.391 F1000
G1 X50.716 Y108.553 F1000
G1 X51.040 Y108.878 F1000
G1 X51.040 Y109.040 F1000
G1 X51.364 Y109.364 F1000
G1 X51.364 Y109.527 F1000
G1 X51.689 Y109.851 F1000
G1 X51.689 Y110.013 F1000
G1 X52.013 Y110.338 F1000
G1 X52.013 Y110.500 F1000
G1 X52.338 Y110.824 F1000
G1 X52.338 Y110.987 F1000
G1 X52.500 Y111.149 F1000
G1 X52.338 Y111.311 F1000
G1 X49.418 Y111.311 F1000
G0 Z3.0 ; Pen up

G0 X46.984 Y109.689 F3000 ; Travel to line 9
G0 Z0.0 ; Pen down
G1 X46.984 Y109.527 F1000
G1 X47.147 Y109.364 F1000
G1 X47.309 Y109.364 F1000
G1 X47.309 Y109.202 F1000
G1 X48.444 Y108.067 F1000
G1 X47.471 Y109.040 F1000
G1 X47.309 Y109.040 F1000
G1 X47.309 Y109.202 F1000
G1 X46.984 Y109.527 F1000
G0 Z3.0 ; Pen up

; Return to origin
G0 X0 Y0
G0 Z3.0

; Total drawing distance: 623.30 mm
; Total travel distance: 150.89 mm
; Total lines: 9
; Estimated time: 40.4 seconds (0.7 minutes)
M2 ; End program