; Blueprint to G-code
; Input: test_rotation_arrow.png
; Generated with blueprint2gcode.py

G21 ; Set units to millimeters
G90 ; Absolute positioning
G0 Z3.0 ; Pen up
G0 X0 Y0 ; Move to origin

G0 X99.333 Y17.975 F3000 ; Travel to line 1
G0 Z0.0 ; Pen down
G1 X99.825 Y17.483 F1000
G1 X100.317 Y17.483 F1000
G1 X100.808 Y17.975 F1000
G1 X100.808 Y18.467 F1000
G1 X100.317 Y18.958 F1000
G1 X99.825 Y18.958 F1000
G1 X99.333 Y18.467 F1000
G0 Z3.0 ; Pen up

G0 X99.825 Y19.450 F3000 ; Travel to line 2
G0 Z0.0 ; Pen down
G1 X100.317 Y19.942 F1000
G1 X100.808 Y19.450 F1000
G1 X100.317 Y18.958 F1000
G0 Z3.0 ; Pen up

G0 X100.808 Y19.942 F3000 ; Travel to line 3
G0 Z0.0 ; Pen down
G1 X100.808 Y17.483 F1000
G1 X99.825 Y17.483 F1000
G1 X99.333 Y17.975 F1000
G1 X99.333 Y18.958 F1000
G1 X99.825 Y19.450 F1000
G1 X99.825 Y19.942 F1000
G0 Z3.0 ; Pen up

G0 X102.283 Y18.958 F3000 ; Travel to line 4
G0 Z0.0 ; Pen down
G1 X102.283 Y18.467 F1000
G1 X103.267 Y17.483 F1000
G1 X103.758 Y17.975 F1000
G1 X103.758 Y19.450 F1000
G1 X103.267 Y19.942 F1000
G0 Z3.0 ; Pen up

G0 X103.758 Y19.942 F3000 ; Travel to line 5
G0 Z0.0 ; Pen down
G1 X104.250 Y19.450 F1000
G1 X104.742 Y19.942 F1000
G1 X110.150 Y19.942 F1000
G1 X109.167 Y19.942 F1000
G1 X108.675 Y19.450 F1000
G1 X108.675 Y17.483 F1000
G1 X108.675 Y19.450 F1000
G1 X108.183 Y19.942 F1000
G1 X106.217 Y19.942 F1000
G1 X105.725 Y19.450 F1000
G1 X105.725 Y17.483 F1000
G1 X105.725 Y19.450 F1000
G1 X105.233 Y19.942 F1000
G1 X104.742 Y19.450 F1000
G1 X104.250 Y19.450 F1000
G1 X103.758 Y18.958 F1000
G1 X103.758 Y17.483 F1000
G1 X102.775 Y17.483 F1000
G1 X102.775 Y17.975 F1000
G1 X102.283 Y18.467 F1000
G1 X102.283 Y18.958 F1000
G1 X102.775 Y19.450 F1000
G1 X102.775 Y19.942 F1000
G0 Z3.0 ; Pen up

G0 X111.133 Y18.958 F3000 ; Travel to line 6
G0 Z0.0 ; Pen down
G1 X111.133 Y18.467 F1000
G1 X112.117 Y17.483 F1000
G1 X112.608 Y17.975 F1000
G1 X112.608 Y19.450 F1000
G1 X112.117 Y19.942 F1000
G0 Z3.0 ; Pen up

G0 X111.625 Y19.942 F3000 ; Travel to line 7
G0 Z0.0 ; Pen down
G1 X111.625 Y19.450 F1000
G1 X111.133 Y18.958 F1000
G1 X111.133 Y18.467 F1000
G1 X111.625 Y17.975 F1000
G1 X111.625 Y17.483 F1000
G1 X112.608 Y17.483 F1000
G1 X113.100 Y17.975 F1000
G1 X113.592 Y17.483 F1000
G1 X114.083 Y17.483 F1000
G1 X114.083 Y17.975 F1000
G1 X114.575 Y18.467 F1000
G1 X115.067 Y17.975 F1000
G1 X115.067 Y17.483 F1000
G1 X115.067 Y17.975 F1000
G1 X115.558 Y18.467 F1000
G1 X116.050 Y17.975 F1000
G1 X116.050 Y17.483 F1000
G1 X116.050 Y18.467 F1000
G1 X115.558 Y18.958 F1000
G1 X116.050 Y19.450 F1000
G1 X115.067 Y18.467 F1000
G1 X114.575 Y18.467 F1000
G1 X114.083 Y18.958 F1000
G1 X114.083 Y19.942 F1000
G1 X113.592 Y19.942 F1000
G1 X113.100 Y19.450 F1000
G1 X112.608 Y19.942 F1000
G0 Z3.0 ; Pen up

G0 X113.592 Y19.942 F3000 ; Travel to line 8
G0 Z0.0 ; Pen down
G1 X114.083 Y19.450 F1000
G1 X114.083 Y17.975 F1000
G1 X113.592 Y17.483 F1000
G1 X112.608 Y18.467 F1000
G1 X112.608 Y18.958 F1000
G0 Z3.0 ; Pen up

G0 X136.208 Y31.250 F3000 ; Travel to line 9
G0 Z0.0 ; Pen down
G1 X136.700 Y31.250 F1000
G0 Z3.0 ; Pen up

G0 X136.208 Y31.742 F3000 ; Travel to line 10
G0 Z0.0 ; Pen down
G1 X137.192 Y31.250 F1000
G1 X137.192 Y31.250 F1000
G1 X136.208 Y31.742 F1000
G0 Z3.0 ; Pen up

G0 X136.208 Y32.233 F3000 ; Travel to line 11
G0 Z0.0 ; Pen down
G1 X137.683 Y31.250 F1000
G0 Z3.0 ; Pen up

G0 X138.175 Y31.250 F3000 ; Travel to line 12
G0 Z0.0 ; Pen down
G1 X136.208 Y32.725 F1000
G1 X136.208 Y32.725 F1000
G1 X138.667 Y31.250 F1000
G1 X138.667 Y31.250 F1000
G1 X136.208 Y32.725 F1000
G0 Z3.0 ; Pen up

G0 X136.208 Y33.217 F3000 ; Travel to line 13
G0 Z0.0 ; Pen down
G1 X139.158 Y31.250 F1000
G0 Z3.0 ; Pen up

G0 X140.142 Y31.250 F3000 ; Travel to line 14
G0 Z0.0 ; Pen down
G1 X136.208 Y34.200 F1000
G1 X136.208 Y34.200 F1000
G1 X140.633 Y31.250 F1000
G0 Z3.0 ; Pen up

G0 X141.617 Y31.250 F3000 ; Travel to line 15
G0 Z0.0 ; Pen down
G1 X136.208 Y35.183 F1000
G0 Z3.0 ; Pen up

G0 X136.208 Y35.675 F3000 ; Travel to line 16
G0 Z0.0 ; Pen down
G1 X142.600 Y31.250 F1000
G1 X142.600 Y31.250 F1000
G1 X136.208 Y35.675 F1000
G0 Z3.0 ; Pen up

G0 X136.208 Y36.167 F3000 ; Travel to line 17
G0 Z0.0 ; Pen down
G1 X143.583 Y31.250 F1000
G1 X143.583 Y31.250 F1000
G1 X136.208 Y36.167 F1000
G1 X136.208 Y36.167 F1000
G1 X143.092 Y31.250 F1000
G0 Z3.0 ; Pen up

G0 X144.075 Y31.250 F3000 ; Travel to line 18
G0 Z0.0 ; Pen down
G1 X136.208 Y36.658 F1000
G0 Z3.0 ; Pen up

G0 X136.208 Y37.150 F3000 ; Travel to line 19
G0 Z0.0 ; Pen down
G1 X144.567 Y31.250 F1000
G0 Z3.0 ; Pen up

G0 X145.550 Y31.250 F3000 ; Travel to line 20
G0 Z0.0 ; Pen down
G1 X136.208 Y37.642 F1000
G1 X136.208 Y37.642 F1000
G1 X145.058 Y31.250 F1000
G1 X145.058 Y31.250 F1000
G1 X136.208 Y37.642 F1000
G0 Z3.0 ; Pen up

G0 X136.208 Y38.133 F3000 ; Travel to line 21
G0 Z0.0 ; Pen down
G1 X146.042 Y31.250 F1000
G1 X146.042 Y31.250 F1000
G1 X136.208 Y38.133 F1000
G0 Z3.0 ; Pen up

G0 X136.208 Y38.625 F3000 ; Travel to line 22
G0 Z0.0 ; Pen down
G1 X146.533 Y31.250 F1000
G0 Z3.0 ; Pen up

G0 X147.025 Y31.250 F3000 ; Travel to line 23
G0 Z0.0 ; Pen down
G1 X136.208 Y39.117 F1000
G0 Z3.0 ; Pen up

G0 X136.208 Y39.608 F3000 ; Travel to line 24
G0 Z0.0 ; Pen down
G1 X147.517 Y31.250 F1000
G1 X147.517 Y31.250 F1000
G1 X136.208 Y39.608 F1000
G1 X136.208 Y39.608 F1000
G1 X148.008 Y31.250 F1000
G0 Z3.0 ; Pen up

G0 X148.992 Y31.250 F3000 ; Travel to line 25
G0 Z0.0 ; Pen down
G1 X136.208 Y40.592 F1000
G0 Z3.0 ; Pen up

G0 X136.208 Y41.083 F3000 ; Travel to line 26
G0 Z0.0 ; Pen down
G1 X149.975 Y31.250 F1000
G0 Z3.0 ; Pen up

G0 X150.958 Y31.250 F3000 ; Travel to line 27
G0 Z0.0 ; Pen down
G1 X136.208 Y41.575 F1000
G1 X136.208 Y41.575 F1000
G1 X150.467 Y31.250 F1000
G1 X150.467 Y31.250 F1000
G1 X136.208 Y41.575 F1000
G0 Z3.0 ; Pen up

G0 X136.208 Y42.067 F3000 ; Travel to line 28
G0 Z0.0 ; Pen down
G1 X151.450 Y31.250 F1000
G1 X151.450 Y31.250 F1000
G1 X136.208 Y42.067 F1000
G0 Z3.0 ; Pen up

G0 X136.208 Y42.558 F3000 ; Travel to line 29
G0 Z0.0 ; Pen down
G1 X151.942 Y31.250 F1000
G0 Z3.0 ; Pen up

G0 X152.925 Y31.250 F3000 ; Travel to line 30
G0 Z0.0 ; Pen down
G1 X136.208 Y43.542 F1000
G1 X136.208 Y43.542 F1000
G1 X153.417 Y31.250 F1000
G0 Z3.0 ; Pen up

G0 X154.400 Y31.250 F3000 ; Travel to line 31
G0 Z0.0 ; Pen down
G1 X136.208 Y44.525 F1000
G0 Z3.0 ; Pen up

G0 X136.208 Y45.017 F3000 ; Travel to line 32
G0 Z0.0 ; Pen down
G1 X154.892 Y31.250 F1000
G1 X154.892 Y31.250 F1000
G1 X136.208 Y45.017 F1000
G0 Z3.0 ; Pen up

G0 X136.208 Y46.000 F3000 ; Travel to line 33
G0 Z0.0 ; Pen down
G1 X156.367 Y31.250 F1000
G1 X156.367 Y31.250 F1000
G1 X136.208 Y46.000 F1000
G0 Z3.0 ; Pen up

G0 X136.208 Y46.492 F3000 ; Travel to line 34
G0 Z0.0 ; Pen down
G1 X156.858 Y31.250 F1000
G0 Z3.0 ; Pen up

G0 X155.875 Y31.250 F3000 ; Travel to line 35
G0 Z0.0 ; Pen down
G1 X136.208 Y45.508 F1000
G1 X136.208 Y45.508 F1000
G1 X155.383 Y31.250 F1000
G0 Z3.0 ; Pen up

G0 X158.333 Y31.250 F3000 ; Travel to line 36
G0 Z0.0 ; Pen down
G1 X136.208 Y47.475 F1000
G1 X136.208 Y47.475 F1000
G1 X158.825 Y31.250 F1000
G1 X158.825 Y31.250 F1000
G1 X136.208 Y47.475 F1000
G0 Z3.0 ; Pen up

G0 X136.208 Y47.967 F3000 ; Travel to line 37
G0 Z0.0 ; Pen down
G1 X159.317 Y31.250 F1000
G0 Z3.0 ; Pen up

G0 X159.808 Y31.250 F3000 ; Travel to line 38
G0 Z0.0 ; Pen down
G1 X136.208 Y48.458 F1000
G0 Z3.0 ; Pen up

G0 X136.208 Y48.950 F3000 ; Travel to line 39
G0 Z0.0 ; Pen down
G1 X160.300 Y31.250 F1000
G1 X160.300 Y31.250 F1000
G1 X136.208 Y48.950 F1000
G0 Z3.0 ; Pen up

G0 X136.208 Y49.442 F3000 ; Travel to line 40
G0 Z0.0 ; Pen down
G1 X160.792 Y31.250 F1000
G0 Z3.0 ; Pen up

G0 X160.792 Y31.742 F3000 ; Travel to line 41
G0 Z0.0 ; Pen down
G1 X136.208 Y49.933 F1000
G1 X136.208 Y49.933 F1000
G1 X160.792 Y31.742 F1000
G1 X160.792 Y31.742 F1000
G1 X136.208 Y49.933 F1000
G0 Z3.0 ; Pen up

G0 X136.208 Y50.425 F3000 ; Travel to line 42
G0 Z0.0 ; Pen down
G1 X160.792 Y32.233 F1000
G0 Z3.0 ; Pen up

G0 X160.792 Y33.217 F3000 ; Travel to line 43
G0 Z0.0 ; Pen down
G1 X136.208 Y51.408 F1000
G0 Z3.0 ; Pen up

G0 X136.208 Y51.900 F3000 ; Travel to line 44
G0 Z0.0 ; Pen down
G1 X160.792 Y33.708 F1000
G1 X160.792 Y33.708 F1000
G1 X136.208 Y51.900 F1000
G1 X136.208 Y51.900 F1000
G1 X160.792 Y33.708 F1000
G0 Z3.0 ; Pen up

G0 X160.792 Y34.692 F3000 ; Travel to line 45
G0 Z0.0 ; Pen down
G1 X136.208 Y52.883 F1000
G0 Z3.0 ; Pen up

G0 X136.208 Y53.375 F3000 ; Travel to line 46
G0 Z0.0 ; Pen down
G1 X160.792 Y35.183 F1000
G0 Z3.0 ; Pen up

G0 X160.792 Y35.675 F3000 ; Travel to line 47
G0 Z0.0 ; Pen down
G1 X136.208 Y54.358 F1000
G1 X136.208 Y54.358 F1000
G1 X160.792 Y36.167 F1000
G1 X160.792 Y36.167 F1000
G1 X136.208 Y54.358 F1000
G0 Z3.0 ; Pen up

G0 X136.208 Y54.850 F3000 ; Travel to line 48
G0 Z0.0 ; Pen down
G1 X160.792 Y36.658 F1000
G0 Z3.0 ; Pen up

G0 X160.792 Y37.150 F3000 ; Travel to line 49
G0 Z0.0 ; Pen down
G1 X136.208 Y55.342 F1000
G0 Z3.0 ; Pen up

G0 X136.208 Y55.833 F3000 ; Travel to line 50
G0 Z0.0 ; Pen down
G1 X160.792 Y37.150 F1000
G1 X160.792 Y37.150 F1000
G1 X136.208 Y55.833 F1000
G0 Z3.0 ; Pen up

G0 X136.208 Y56.325 F3000 ; Travel to line 51
G0 Z0.0 ; Pen down
G1 X160.792 Y37.642 F1000
G0 Z3.0 ; Pen up

G0 X160.792 Y38.625 F3000 ; Travel to line 52
G0 Z0.0 ; Pen down
G1 X136.208 Y56.817 F1000
G1 X136.208 Y56.817 F1000
G1 X160.792 Y38.133 F1000
G1 X160.792 Y38.133 F1000
G1 X136.208 Y56.817 F1000
G0 Z3.0 ; Pen up

G0 X136.208 Y57.308 F3000 ; Travel to line 53
G0 Z0.0 ; Pen down
G1 X160.792 Y39.117 F1000
G0 Z3.0 ; Pen up

G0 X160.792 Y39.608 F3000 ; Travel to line 54
G0 Z0.0 ; Pen down
G1 X136.208 Y58.292 F1000
G0 Z3.0 ; Pen up

G0 X136.208 Y58.783 F3000 ; Travel to line 55
G0 Z0.0 ; Pen down
G1 X160.792 Y40.100 F1000
G1 X160.792 Y40.100 F1000
G1 X136.208 Y58.783 F1000
G0 Z3.0 ; Pen up

G0 X136.208 Y59.275 F3000 ; Travel to line 56
G0 Z0.0 ; Pen down
G1 X160.792 Y41.083 F1000
G1 X160.792 Y41.083 F1000
G1 X136.208 Y59.767 F1000
G0 Z3.0 ; Pen up

G0 X136.208 Y60.258 F3000 ; Travel to line 57
G0 Z0.0 ; Pen down
G1 X160.792 Y41.575 F1000
G0 Z3.0 ; Pen up

G0 X160.792 Y41.083 F3000 ; Travel to line 58
G0 Z0.0 ; Pen down
G1 X136.208 Y59.275 F1000
G1 X136.208 Y59.275 F1000
G1 X160.792 Y40.592 F1000
G0 Z3.0 ; Pen up

G0 X160.792 Y42.558 F3000 ; Travel to line 59
G0 Z0.0 ; Pen down
G1 X136.208 Y61.242 F1000
G0 Z3.0 ; Pen up

G0 X136.208 Y61.733 F3000 ; Travel to line 60
G0 Z0.0 ; Pen down
G1 X160.792 Y43.050 F1000
G1 X160.792 Y43.050 F1000
G1 X136.208 Y61.733 F1000
G1 X136.208 Y61.733 F1000
G1 X160.792 Y43.542 F1000
G1 X160.792 Y43.542 F1000
G1 X136.208 Y62.225 F1000
G0 Z3.0 ; Pen up

G0 X136.208 Y62.717 F3000 ; Travel to line 61
G0 Z0.0 ; Pen down
G1 X160.792 Y44.033 F1000
G1 X160.792 Y44.033 F1000
G1 X136.208 Y62.717 F1000
G0 Z3.0 ; Pen up

G0 X136.208 Y63.208 F3000 ; Travel to line 62
G0 Z0.0 ; Pen down
G1 X160.792 Y44.525 F1000
G0 Z3.0 ; Pen up

G0 X160.792 Y45.508 F3000 ; Travel to line 63
G0 Z0.0 ; Pen down
G1 X136.208 Y64.683 F1000
G1 X136.208 Y64.683 F1000
G1 X160.792 Y46.000 F1000
G0 Z3.0 ; Pen up

G0 X160.792 Y46.492 F3000 ; Travel to line 64
G0 Z0.0 ; Pen down
G1 X136.208 Y65.175 F1000
G0 Z3.0 ; Pen up

G0 X136.208 Y65.667 F3000 ; Travel to line 65
G0 Z0.0 ; Pen down
G1 X160.792 Y46.983 F1000
G1 X160.792 Y46.983 F1000
G1 X136.208 Y65.667 F1000
G0 Z3.0 ; Pen up

G0 X136.208 Y66.158 F3000 ; Travel to line 66
G0 Z0.0 ; Pen down
G1 X160.792 Y47.475 F1000
G0 Z3.0 ; Pen up

G0 X160.792 Y47.967 F3000 ; Travel to line 67
G0 Z0.0 ; Pen down
G1 X136.208 Y67.142 F1000
G1 X136.208 Y67.142 F1000
G1 X160.792 Y48.458 F1000
G0 Z3.0 ; Pen up

G0 X160.792 Y49.442 F3000 ; Travel to line 68
G0 Z0.0 ; Pen down
G1 X136.208 Y68.125 F1000
G0 Z3.0 ; Pen up

G0 X136.208 Y68.617 F3000 ; Travel to line 69
G0 Z0.0 ; Pen down
G1 X160.792 Y49.933 F1000
G1 X160.792 Y49.933 F1000
G1 X136.208 Y68.617 F1000
G0 Z3.0 ; Pen up

G0 X136.208 Y69.108 F3000 ; Travel to line 70
G0 Z0.0 ; Pen down
G1 X160.792 Y50.425 F1000
G1 X160.792 Y50.425 F1000
G1 X136.208 Y69.600 F1000
G0 Z3.0 ; Pen up

G0 X136.208 Y70.092 F3000 ; Travel to line 71
G0 Z0.0 ; Pen down
G1 X160.792 Y50.917 F1000
G1 X160.792 Y50.917 F1000
G1 X136.208 Y70.092 F1000
G1 X136.208 Y70.092 F1000
G1 X160.792 Y51.408 F1000
G0 Z3.0 ; Pen up

G0 X160.792 Y52.392 F3000 ; Travel to line 72
G0 Z0.0 ; Pen down
G1 X136.208 Y71.075 F1000
G0 Z3.0 ; Pen up

G0 X136.208 Y71.567 F3000 ; Travel to line 73
G0 Z0.0 ; Pen down
G1 X160.792 Y52.392 F1000
G1 X160.792 Y52.392 F1000
G1 X136.208 Y71.567 F1000
G0 Z3.0 ; Pen up

G0 X136.208 Y72.058 F3000 ; Travel to line 74
G0 Z0.0 ; Pen down
G1 X160.792 Y52.883 F1000
G0 Z3.0 ; Pen up

G0 X160.792 Y53.375 F3000 ; Travel to line 75
G0 Z0.0 ; Pen down
G1 X136.208 Y72.550 F1000
G0 Z3.0 ; Pen up

G0 X136.208 Y73.042 F3000 ; Travel to line 76
G0 Z0.0 ; Pen down
G1 X160.792 Y53.867 F1000
G1 X160.792 Y53.867 F1000
G1 X136.208 Y73.042 F1000
G1 X136.208 Y73.042 F1000
G1 X160.792 Y54.358 F1000
G0 Z3.0 ; Pen up

G0 X160.792 Y56.325 F3000 ; Travel to line 77
G0 Z0.0 ; Pen down
G1 X136.208 Y75.500 F1000
G0 Z3.0 ; Pen up

G0 X136.208 Y75.008 F3000 ; Travel to line 78
G0 Z0.0 ; Pen down
G1 X160.792 Y55.833 F1000
G1 X160.792 Y55.833 F1000
G1 X136.208 Y75.008 F1000
G0 Z3.0 ; Pen up

G0 X136.208 Y74.517 F3000 ; Travel to line 79
G0 Z0.0 ; Pen down
G1 X160.792 Y55.342 F1000
G1 X160.792 Y55.342 F1000
G1 X136.208 Y74.025 F1000
G0 Z3.0 ; Pen up

G0 X136.208 Y73.533 F3000 ; Travel to line 80
G0 Z0.0 ; Pen down
G1 X160.792 Y54.850 F1000
G1 X160.792 Y54.850 F1000
G1 X136.208 Y73.533 F1000
G0 Z3.0 ; Pen up

G0 X136.208 Y75.992 F3000 ; Travel to line 81
G0 Z0.0 ; Pen down
G1 X160.792 Y56.817 F1000
G1 X160.792 Y56.817 F1000
G1 X136.208 Y75.992 F1000
G0 Z3.0 ; Pen up

G0 X136.208 Y76.483 F3000 ; Travel to line 82
G0 Z0.0 ; Pen down
G1 X160.792 Y57.800 F1000
G1 X160.792 Y57.800 F1000
G1 X136.208 Y76.975 F1000
G0 Z3.0 ; Pen up

G0 X136.208 Y77.467 F3000 ; Travel to line 83
G0 Z0.0 ; Pen down
G1 X160.792 Y58.292 F1000
G0 Z3.0 ; Pen up

G0 X160.792 Y57.800 F3000 ; Travel to line 84
G0 Z0.0 ; Pen down
G1 X136.208 Y76.483 F1000
G1 X136.208 Y76.483 F1000
G1 X160.792 Y57.308 F1000
G0 Z3.0 ; Pen up

G0 X160.792 Y59.275 F3000 ; Travel to line 85
G0 Z0.0 ; Pen down
G1 X136.208 Y78.450 F1000
G0 Z3.0 ; Pen up

G0 X136.208 Y78.942 F3000 ; Travel to line 86
G0 Z0.0 ; Pen down
G1 X160.792 Y59.767 F1000
G1 X160.792 Y59.767 F1000
G1 X136.208 Y78.942 F1000
G0 Z3.0 ; Pen up

G0 X136.208 Y79.433 F3000 ; Travel to line 87
G0 Z0.0 ; Pen down
G1 X160.792 Y60.258 F1000
G1 X160.792 Y60.258 F1000
G1 X136.208 Y79.433 F1000
G0 Z3.0 ; Pen up

G0 X136.208 Y79.925 F3000 ; Travel to line 88
G0 Z0.0 ; Pen down
G1 X160.792 Y60.750 F1000
G1 X160.792 Y60.750 F1000
G1 X136.208 Y79.925 F1000
G0 Z3.0 ; Pen up

G0 X136.208 Y80.417 F3000 ; Travel to line 89
G0 Z0.0 ; Pen down
G1 X160.792 Y61.242 F1000
G0 Z3.0 ; Pen up

G0 X160.792 Y62.225 F3000 ; Travel to line 90
G0 Z0.0 ; Pen down
G1 X136.208 Y81.400 F1000
G0 Z3.0 ; Pen up

G0 X136.208 Y81.892 F3000 ; Travel to line 91
G0 Z0.0 ; Pen down
G1 X160.792 Y62.717 F1000
G1 X160.792 Y62.717 F1000
G1 X136.208 Y81.892 F1000
G0 Z3.0 ; Pen up

G0 X136.208 Y82.383 F3000 ; Travel to line 92
G0 Z0.0 ; Pen down
G1 X160.792 Y63.208 F1000
G1 X160.792 Y63.208 F1000
G1 X136.208 Y82.875 F1000
G1 X136.208 Y82.875 F1000
G1 X160.792 Y63.700 F1000
G1 X160.792 Y63.700 F1000
G1 X136.208 Y82.875 F1000
G0 Z3.0 ; Pen up

G0 X136.208 Y83.367 F3000 ; Travel to line 93
G0 Z0.0 ; Pen down
G1 X160.792 Y64.192 F1000
G0 Z3.0 ; Pen up

G0 X160.792 Y65.175 F3000 ; Travel to line 94
G0 Z0.0 ; Pen down
G1 X136.208 Y84.350 F1000
G0 Z3.0 ; Pen up

G0 X136.208 Y83.858 F3000 ; Travel to line 95
G0 Z0.0 ; Pen down
G1 X160.792 Y64.683 F1000
G1 X160.792 Y64.683 F1000
G1 X136.208 Y83.858 F1000
G0 Z3.0 ; Pen up

G0 X136.208 Y84.842 F3000 ; Travel to line 96
G0 Z0.0 ; Pen down
G1 X160.792 Y65.667 F1000
G1 X160.792 Y65.667 F1000
G1 X136.208 Y85.333 F1000
G1 X136.208 Y85.333 F1000
G1 X160.792 Y66.158 F1000
G0 Z3.0 ; Pen up

G0 X160.792 Y66.650 F3000 ; Travel to line 97
G0 Z0.0 ; Pen down
G1 X136.208 Y85.825 F1000
G0 Z3.0 ; Pen up

G0 X136.208 Y86.317 F3000 ; Travel to line 98
G0 Z0.0 ; Pen down
G1 X160.792 Y67.142 F1000
G1 X160.792 Y67.142 F1000
G1 X136.208 Y86.808 F1000
G0 Z3.0 ; Pen up

G0 X136.208 Y87.300 F3000 ; Travel to line 99
G0 Z0.0 ; Pen down
G1 X160.792 Y67.633 F1000
G0 Z3.0 ; Pen up

G0 X160.792 Y68.125 F3000 ; Travel to line 100
G0 Z0.0 ; Pen down
G1 X136.208 Y87.792 F1000
G0 Z3.0 ; Pen up

G0 X136.208 Y88.283 F3000 ; Travel to line 101
G0 Z0.0 ; Pen down
G1 X160.792 Y68.617 F1000
G1 X160.792 Y68.617 F1000
G1 X136.208 Y88.283 F1000
G0 Z3.0 ; Pen up

G0 X136.208 Y88.775 F3000 ; Travel to line 102
G0 Z0.0 ; Pen down
G1 X160.792 Y69.108 F1000
G0 Z3.0 ; Pen up

G0 X160.792 Y69.600 F3000 ; Travel to line 103
G0 Z0.0 ; Pen down
G1 X136.208 Y89.267 F1000
G0 Z3.0 ; Pen up

G0 X136.208 Y89.758 F3000 ; Travel to line 104
G0 Z0.0 ; Pen down
G1 X160.792 Y70.092 F1000
G1 X160.792 Y70.092 F1000
G1 X136.208 Y90.250 F1000
G0 Z3.0 ; Pen up

G0 X136.208 Y90.742 F3000 ; Travel to line 105
G0 Z0.0 ; Pen down
G1 X160.792 Y71.075 F1000
G1 X160.792 Y71.075 F1000
G1 X136.208 Y90.742 F1000
G0 Z3.0 ; Pen up

G0 X136.208 Y91.233 F3000 ; Travel to line 106
G0 Z0.0 ; Pen down
G1 X160.792 Y71.567 F1000
G0 Z3.0 ; Pen up

G0 X160.792 Y72.058 F3000 ; Travel to line 107
G0 Z0.0 ; Pen down
G1 X136.208 Y91.725 F1000
G0 Z3.0 ; Pen up

G0 X136.208 Y92.708 F3000 ; Travel to line 108
G0 Z0.0 ; Pen down
G1 X160.792 Y72.550 F1000
G1 X160.792 Y72.550 F1000
G1 X136.208 Y92.708 F1000
G0 Z3.0 ; Pen up

G0 X136.208 Y93.200 F3000 ; Travel to line 109
G0 Z0.0 ; Pen down
G1 X160.792 Y73.042 F1000
G0 Z3.0 ; Pen up

G0 X160.792 Y73.533 F3000 ; Travel to line 110
G0 Z0.0 ; Pen down
G1 X136.208 Y93.692 F1000
G0 Z3.0 ; Pen up

G0 X136.208 Y94.183 F3000 ; Travel to line 111
G0 Z0.0 ; Pen down
G1 X160.792 Y74.025 F1000
G0 Z3.0 ; Pen up

G0 X160.792 Y74.517 F3000 ; Travel to line 112
G0 Z0.0 ; Pen down
G1 X136.208 Y94.675 F1000
G0 Z3.0 ; Pen up

G0 X136.208 Y95.167 F3000 ; Travel to line 113
G0 Z0.0 ; Pen down
G1 X160.792 Y75.008 F1000
G0 Z3.0 ; Pen up

G0 X160.792 Y75.992 F3000 ; Travel to line 114
G0 Z0.0 ; Pen down
G1 X136.208 Y96.150 F1000
G0 Z3.0 ; Pen up

G0 X136.208 Y95.658 F3000 ; Travel to line 115
G0 Z0.0 ; Pen down
G1 X160.792 Y75.500 F1000
G1 X160.792 Y75.500 F1000
G1 X136.208 Y95.658 F1000
G0 Z3.0 ; Pen up

G0 X136.208 Y97.625 F3000 ; Travel to line 116
G0 Z0.0 ; Pen down
G1 X160.792 Y76.975 F1000
G1 X160.792 Y76.975 F1000
G1 X136.208 Y97.133 F1000
G1 X136.208 Y97.133 F1000
G1 X160.792 Y76.483 F1000
G0 Z3.0 ; Pen up

G0 X160.792 Y78.450 F3000 ; Travel to line 117
G0 Z0.0 ; Pen down
G1 X136.208 Y99.100 F1000
G0 Z3.0 ; Pen up

G0 X136.208 Y98.608 F3000 ; Travel to line 118
G0 Z0.0 ; Pen down
G1 X160.792 Y77.958 F1000
G1 X160.792 Y77.958 F1000
G1 X136.208 Y98.117 F1000
G0 Z3.0 ; Pen up

G0 X136.208 Y99.592 F3000 ; Travel to line 119
G0 Z0.0 ; Pen down
G1 X160.792 Y78.942 F1000
G0 Z3.0 ; Pen up

G0 X160.792 Y79.433 F3000 ; Travel to line 120
G0 Z0.0 ; Pen down
G1 X136.208 Y100.083 F1000
G1 X136.208 Y100.083 F1000
G1 X160.792 Y79.925 F1000
G1 X160.792 Y79.925 F1000
G1 X136.208 Y100.575 F1000
G0 Z3.0 ; Pen up

G0 X136.208 Y101.067 F3000 ; Travel to line 121
G0 Z0.0 ; Pen down
G1 X160.792 Y80.417 F1000
G1 X160.792 Y80.417 F1000
G1 X136.208 Y101.067 F1000
G0 Z3.0 ; Pen up

G0 X136.208 Y102.050 F3000 ; Travel to line 122
G0 Z0.0 ; Pen down
G1 X160.792 Y81.400 F1000
G1 X160.792 Y81.400 F1000
G1 X136.208 Y101.558 F1000
G1 X136.208 Y101.558 F1000
G1 X160.792 Y80.908 F1000
G0 Z3.0 ; Pen up

G0 X160.792 Y82.875 F3000 ; Travel to line 123
G0 Z0.0 ; Pen down
G1 X136.208 Y103.525 F1000
G0 Z3.0 ; Pen up

G0 X136.208 Y103.033 F3000 ; Travel to line 124
G0 Z0.0 ; Pen down
G1 X160.792 Y82.383 F1000
G1 X160.792 Y82.383 F1000
G1 X136.208 Y103.033 F1000
G0 Z3.0 ; Pen up

G0 X136.208 Y102.542 F3000 ; Travel to line 125
G0 Z0.0 ; Pen down
G1 X160.792 Y81.892 F1000
G1 X160.792 Y81.892 F1000
G1 X136.208 Y102.542 F1000
G0 Z3.0 ; Pen up

G0 X136.208 Y104.508 F3000 ; Travel to line 126
G0 Z0.0 ; Pen down
G1 X160.792 Y83.858 F1000
G1 X160.792 Y83.858 F1000
G1 X136.208 Y104.508 F1000
G0 Z3.0 ; Pen up

G0 X136.208 Y105.000 F3000 ; Travel to line 127
G0 Z0.0 ; Pen down
G1 X160.792 Y84.350 F1000
G0 Z3.0 ; Pen up

G0 X160.792 Y83.858 F3000 ; Travel to line 128
G0 Z0.0 ; Pen down
G1 X136.208 Y104.017 F1000
G1 X136.208 Y104.017 F1000
G1 X160.792 Y83.367 F1000
G0 Z3.0 ; Pen up

G0 X160.792 Y85.825 F3000 ; Travel to line 129
G0 Z0.0 ; Pen down
G1 X136.208 Y106.475 F1000
G1 X136.208 Y106.475 F1000
G1 X160.792 Y86.317 F1000
G1 X160.792 Y86.317 F1000
G1 X136.208 Y106.967 F1000
G0 Z3.0 ; Pen up

G0 X136.208 Y107.458 F3000 ; Travel to line 130
G0 Z0.0 ; Pen down
G1 X160.792 Y86.808 F1000
G1 X160.792 Y86.808 F1000
G1 X136.208 Y107.458 F1000
G0 Z3.0 ; Pen up

G0 X136.208 Y107.950 F3000 ; Travel to line 131
G0 Z0.0 ; Pen down
G1 X160.792 Y87.300 F1000
G1 X160.792 Y87.300 F1000
G1 X136.208 Y107.950 F1000
G0 Z3.0 ; Pen up

G0 X136.208 Y108.442 F3000 ; Travel to line 132
G0 Z0.0 ; Pen down
G1 X160.792 Y87.792 F1000
G0 Z3.0 ; Pen up

G0 X160.792 Y88.283 F3000 ; Travel to line 133
G0 Z0.0 ; Pen down
G1 X136.208 Y108.933 F1000
G1 X136.208 Y108.933 F1000
G1 X160.792 Y88.775 F1000
G0 Z3.0 ; Pen up

G0 X160.792 Y89.267 F3000 ; Travel to line 134
G0 Z0.0 ; Pen down
G1 X136.208 Y109.917 F1000
G0 Z3.0 ; Pen up

G0 X136.208 Y110.408 F3000 ; Travel to line 135
G0 Z0.0 ; Pen down
G1 X160.792 Y89.758 F1000
G1 X160.792 Y89.758 F1000
G1 X136.208 Y110.408 F1000
G0 Z3.0 ; Pen up

G0 X136.208 Y110.900 F3000 ; Travel to line 136
G0 Z0.0 ; Pen down
G1 X160.792 Y90.250 F1000
G1 X160.792 Y90.250 F1000
G1 X136.208 Y110.900 F1000
G0 Z3.0 ; Pen up

G0 X136.208 Y111.883 F3000 ; Travel to line 137
G0 Z0.0 ; Pen down
G1 X160.792 Y91.233 F1000
G1 X160.792 Y91.233 F1000
G1 X136.208 Y111.392 F1000
G1 X136.208 Y111.392 F1000
G1 X160.792 Y90.742 F1000
G0 Z3.0 ; Pen up

G0 X160.792 Y92.217 F3000 ; Travel to line 138
G0 Z0.0 ; Pen down
G1 X136.208 Y112.867 F1000
G1 X136.208 Y112.867 F1000
G1 X160.792 Y92.708 F1000
G1 X160.792 Y92.708 F1000
G1 X136.208 Y113.358 F1000
G0 Z3.0 ; Pen up

G0 X136.208 Y114.342 F3000 ; Travel to line 139
G0 Z0.0 ; Pen down
G1 X160.792 Y93.692 F1000
G1 X160.792 Y93.692 F1000
G1 X136.208 Y114.342 F1000
G0 Z3.0 ; Pen up

G0 X136.208 Y114.833 F3000 ; Travel to line 140
G0 Z0.0 ; Pen down
G1 X160.792 Y94.183 F1000
G0 Z3.0 ; Pen up

G0 X160.792 Y93.692 F3000 ; Travel to line 141
G0 Z0.0 ; Pen down
G1 X136.208 Y113.850 F1000
G1 X136.208 Y113.850 F1000
G1 X160.792 Y93.200 F1000
G0 Z3.0 ; Pen up

G0 X160.792 Y95.167 F3000 ; Travel to line 142
G0 Z0.0 ; Pen down
G1 X136.208 Y115.817 F1000
G0 Z3.0 ; Pen up

G0 X136.208 Y115.325 F3000 ; Travel to line 143
G0 Z0.0 ; Pen down
G1 X160.792 Y94.675 F1000
G1 X160.792 Y94.675 F1000
G1 X136.208 Y115.325 F1000
G0 Z3.0 ; Pen up

G0 X136.208 Y116.308 F3000 ; Travel to line 144
G0 Z0.0 ; Pen down
G1 X160.792 Y95.658 F1000
G1 X160.792 Y95.658 F1000
G1 X136.208 Y116.308 F1000
G0 Z3.0 ; Pen up

G0 X136.208 Y117.292 F3000 ; Travel to line 145
G0 Z0.0 ; Pen down
G1 X160.792 Y96.642 F1000
G1 X160.792 Y96.642 F1000
G1 X136.208 Y117.292 F1000
G0 Z3.0 ; Pen up

G0 X136.208 Y118.275 F3000 ; Travel to line 146
G0 Z0.0 ; Pen down
G1 X160.792 Y97.625 F1000
G1 X160.792 Y97.625 F1000
G1 X136.208 Y117.783 F1000
G1 X136.208 Y117.783 F1000
G1 X160.792 Y97.133 F1000
G0 Z3.0 ; Pen up

G0 X160.792 Y96.642 F3000 ; Travel to line 147
G0 Z0.0 ; Pen down
G1 X136.208 Y116.800 F1000
G1 X136.208 Y116.800 F1000
G1 X160.792 Y96.150 F1000
G0 Z3.0 ; Pen up

G0 X160.792 Y98.117 F3000 ; Travel to line 148
G0 Z0.0 ; Pen down
G1 X136.208 Y118.767 F1000
G0 Z3.0 ; Pen up

G0 X136.208 Y119.258 F3000 ; Travel to line 149
G0 Z0.0 ; Pen down
G1 X160.792 Y98.608 F1000
G1 X160.792 Y98.608 F1000
G1 X136.208 Y119.258 F1000
G1 X136.208 Y119.258 F1000
G1 X160.792 Y99.100 F1000
G1 X160.792 Y99.100 F1000
G1 X136.208 Y119.750 F1000
G0 Z3.0 ; Pen up

G0 X136.208 Y120.242 F3000 ; Travel to line 150
G0 Z0.0 ; Pen down
G1 X160.792 Y99.592 F1000
G0 Z3.0 ; Pen up

G0 X160.792 Y101.067 F3000 ; Travel to line 151
G0 Z0.0 ; Pen down
G1 X136.208 Y121.717 F1000
G1 X136.208 Y121.717 F1000
G1 X160.792 Y101.558 F1000
G0 Z3.0 ; Pen up

G0 X160.792 Y102.050 F3000 ; Travel to line 152
G0 Z0.0 ; Pen down
G1 X136.208 Y122.700 F1000
G0 Z3.0 ; Pen up

G0 X136.208 Y123.192 F3000 ; Travel to line 153
G0 Z0.0 ; Pen down
G1 X160.792 Y102.542 F1000
G1 X160.792 Y102.542 F1000
G1 X136.208 Y123.192 F1000
G0 Z3.0 ; Pen up

G0 X136.208 Y123.683 F3000 ; Travel to line 154
G0 Z0.0 ; Pen down
G1 X160.792 Y103.033 F1000
G0 Z3.0 ; Pen up

G0 X160.792 Y104.508 F3000 ; Travel to line 155
G0 Z0.0 ; Pen down
G1 X136.208 Y125.158 F1000
G0 Z3.0 ; Pen up

G0 X136.208 Y125.650 F3000 ; Travel to line 156
G0 Z0.0 ; Pen down
G1 X160.792 Y105.000 F1000
G1 X160.792 Y105.000 F1000
G1 X136.208 Y125.650 F1000
G0 Z3.0 ; Pen up

G0 X136.208 Y126.142 F3000 ; Travel to line 157
G0 Z0.0 ; Pen down
G1 X160.792 Y105.492 F1000
G1 X160.792 Y105.492 F1000
G1 X136.208 Y126.142 F1000
G0 Z3.0 ; Pen up

G0 X136.208 Y127.125 F3000 ; Travel to line 158
G0 Z0.0 ; Pen down
G1 X160.792 Y106.475 F1000
G1 X160.792 Y106.475 F1000
G1 X136.208 Y127.125 F1000
G0 Z3.0 ; Pen up

G0 X136.208 Y127.617 F3000 ; Travel to line 159
G0 Z0.0 ; Pen down
G1 X160.792 Y106.967 F1000
G0 Z3.0 ; Pen up

G0 X160.792 Y107.458 F3000 ; Travel to line 160
G0 Z0.0 ; Pen down
G1 X136.208 Y128.108 F1000
G1 X136.208 Y128.108 F1000
G1 X160.792 Y107.950 F1000
G1 X160.792 Y107.950 F1000
G1 X136.208 Y128.600 F1000
G0 Z3.0 ; Pen up

G0 X134.242 Y129.583 F3000 ; Travel to line 161
G0 Z0.0 ; Pen down
G1 X127.358 Y135.483 F1000
G0 Z3.0 ; Pen up

G0 X126.867 Y135.483 F3000 ; Travel to line 162
G0 Z0.0 ; Pen down
G1 X133.750 Y129.583 F1000
G0 Z3.0 ; Pen up

G0 X132.767 Y129.583 F3000 ; Travel to line 163
G0 Z0.0 ; Pen down
G1 X126.867 Y134.500 F1000
G0 Z3.0 ; Pen up

G0 X126.375 Y134.500 F3000 ; Travel to line 164
G0 Z0.0 ; Pen down
G1 X132.275 Y129.583 F1000
G1 X132.275 Y129.583 F1000
G1 X126.375 Y134.500 F1000
G0 Z3.0 ; Pen up

G0 X126.867 Y134.992 F3000 ; Travel to line 165
G0 Z0.0 ; Pen down
G1 X133.258 Y129.583 F1000
G1 X133.258 Y129.583 F1000
G1 X126.867 Y134.992 F1000
G0 Z3.0 ; Pen up

G0 X127.358 Y135.975 F3000 ; Travel to line 166
G0 Z0.0 ; Pen down
G1 X134.733 Y129.583 F1000
G1 X134.733 Y129.583 F1000
G1 X127.358 Y135.975 F1000
G0 Z3.0 ; Pen up

G0 X127.358 Y136.467 F3000 ; Travel to line 167
G0 Z0.0 ; Pen down
G1 X160.792 Y108.442 F1000
G1 X160.792 Y108.442 F1000
G1 X127.358 Y136.467 F1000
G1 X127.358 Y136.467 F1000
G1 X160.792 Y108.933 F1000
G1 X160.792 Y108.933 F1000
G1 X127.850 Y136.467 F1000
G0 Z3.0 ; Pen up

G0 X127.850 Y136.958 F3000 ; Travel to line 168
G0 Z0.0 ; Pen down
G1 X160.792 Y109.425 F1000
G0 Z3.0 ; Pen up

G0 X160.792 Y110.900 F3000 ; Travel to line 169
G0 Z0.0 ; Pen down
G1 X128.342 Y137.942 F1000
G1 X128.342 Y137.942 F1000
G1 X160.792 Y110.408 F1000
G1 X160.792 Y110.408 F1000
G1 X128.342 Y137.450 F1000
G0 Z3.0 ; Pen up

G0 X127.850 Y137.450 F3000 ; Travel to line 170
G0 Z0.0 ; Pen down
G1 X160.792 Y109.917 F1000
G1 X160.792 Y109.917 F1000
G1 X127.850 Y137.450 F1000
G0 Z3.0 ; Pen up

G0 X128.342 Y138.433 F3000 ; Travel to line 171
G0 Z0.0 ; Pen down
G1 X160.792 Y111.392 F1000
G1 X160.792 Y111.392 F1000
G1 X128.342 Y138.433 F1000
G0 Z3.0 ; Pen up

G0 X128.833 Y139.417 F3000 ; Travel to line 172
G0 Z0.0 ; Pen down
G1 X160.792 Y112.867 F1000
G0 Z3.0 ; Pen up

G0 X160.792 Y112.375 F3000 ; Travel to line 173
G0 Z0.0 ; Pen down
G1 X128.833 Y138.925 F1000
G1 X128.833 Y138.925 F1000
G1 X160.792 Y111.883 F1000
G0 Z3.0 ; Pen up

G0 X160.792 Y114.342 F3000 ; Travel to line 174
G0 Z0.0 ; Pen down
G1 X129.325 Y140.400 F1000
G0 Z3.0 ; Pen up

G0 X129.817 Y140.400 F3000 ; Travel to line 175
G0 Z0.0 ; Pen down
G1 X160.792 Y114.833 F1000
G1 X160.792 Y114.833 F1000
G1 X129.817 Y140.400 F1000
G0 Z3.0 ; Pen up

G0 X129.817 Y140.892 F3000 ; Travel to line 176
G0 Z0.0 ; Pen down
G1 X160.792 Y115.325 F1000
G0 Z3.0 ; Pen up

G0 X160.792 Y115.817 F3000 ; Travel to line 177
G0 Z0.0 ; Pen down
G1 X129.817 Y141.383 F1000
G0 Z3.0 ; Pen up

G0 X130.308 Y141.383 F3000 ; Travel to line 178
G0 Z0.0 ; Pen down
G1 X160.792 Y116.308 F1000
G0 Z3.0 ; Pen up

G0 X160.792 Y116.800 F3000 ; Travel to line 179
G0 Z0.0 ; Pen down
G1 X130.308 Y141.875 F1000
G0 Z3.0 ; Pen up

G0 X130.308 Y142.367 F3000 ; Travel to line 180
G0 Z0.0 ; Pen down
G1 X160.792 Y117.292 F1000
G0 Z3.0 ; Pen up

G0 X160.792 Y120.242 F3000 ; Travel to line 181
G0 Z0.0 ; Pen down
G1 X131.292 Y144.333 F1000
G0 Z3.0 ; Pen up

G0 X131.292 Y143.842 F3000 ; Travel to line 182
G0 Z0.0 ; Pen down
G1 X160.792 Y119.750 F1000
G1 X160.792 Y119.750 F1000
G1 X131.292 Y143.350 F1000
G0 Z3.0 ; Pen up

G0 X130.800 Y143.350 F3000 ; Travel to line 183
G0 Z0.0 ; Pen down
G1 X160.792 Y118.767 F1000
G1 X160.792 Y118.767 F1000
G1 X130.800 Y142.858 F1000
G0 Z3.0 ; Pen up

G0 X130.800 Y142.367 F3000 ; Travel to line 184
G0 Z0.0 ; Pen down
G1 X160.792 Y117.783 F1000
G1 X160.792 Y117.783 F1000
G1 X130.800 Y142.367 F1000
G0 Z3.0 ; Pen up

G0 X131.783 Y144.825 F3000 ; Travel to line 185
G0 Z0.0 ; Pen down
G1 X160.792 Y121.717 F1000
G0 Z3.0 ; Pen up

G0 X160.792 Y121.225 F3000 ; Travel to line 186
G0 Z0.0 ; Pen down
G1 X131.783 Y144.333 F1000
G1 X131.783 Y144.333 F1000
G1 X160.792 Y120.733 F1000
G0 Z3.0 ; Pen up

G0 X160.792 Y122.700 F3000 ; Travel to line 187
G0 Z0.0 ; Pen down
G1 X132.275 Y145.808 F1000
G1 X132.275 Y145.808 F1000
G1 X160.792 Y123.192 F1000
G0 Z3.0 ; Pen up

G0 X160.792 Y123.683 F3000 ; Travel to line 188
G0 Z0.0 ; Pen down
G1 X132.767 Y146.300 F1000
G1 X132.767 Y146.300 F1000
G1 X160.792 Y124.175 F1000
G0 Z3.0 ; Pen up

G0 X160.792 Y124.667 F3000 ; Travel to line 189
G0 Z0.0 ; Pen down
G1 X132.767 Y146.792 F1000
G0 Z3.0 ; Pen up

G0 X132.767 Y147.283 F3000 ; Travel to line 190
G0 Z0.0 ; Pen down
G1 X160.792 Y124.667 F1000
G1 X160.792 Y124.667 F1000
G1 X132.767 Y147.283 F1000
G0 Z3.0 ; Pen up

G0 X133.258 Y147.283 F3000 ; Travel to line 191
G0 Z0.0 ; Pen down
G1 X160.792 Y125.158 F1000
G0 Z3.0 ; Pen up

G0 X160.792 Y125.650 F3000 ; Travel to line 192
G0 Z0.0 ; Pen down
G1 X133.258 Y147.775 F1000
G1 X133.258 Y147.775 F1000
G1 X160.792 Y126.142 F1000
G1 X160.792 Y126.142 F1000
G1 X133.258 Y147.775 F1000
G0 Z3.0 ; Pen up

G0 X133.258 Y148.267 F3000 ; Travel to line 193
G0 Z0.0 ; Pen down
G1 X160.792 Y126.633 F1000
G0 Z3.0 ; Pen up

G0 X160.792 Y127.617 F3000 ; Travel to line 194
G0 Z0.0 ; Pen down
G1 X133.750 Y148.758 F1000
G0 Z3.0 ; Pen up

G0 X133.750 Y149.250 F3000 ; Travel to line 195
G0 Z0.0 ; Pen down
G1 X160.792 Y128.108 F1000
G0 Z3.0 ; Pen up

G0 X160.792 Y128.600 F3000 ; Travel to line 196
G0 Z0.0 ; Pen down
G1 X134.242 Y149.250 F1000
G1 X134.242 Y149.250 F1000
G1 X160.792 Y128.600 F1000
G1 X160.792 Y128.600 F1000
G1 X134.242 Y149.742 F1000
G0 Z3.0 ; Pen up

G0 X134.242 Y150.233 F3000 ; Travel to line 197
G0 Z0.0 ; Pen down
G1 X160.792 Y129.092 F1000
G1 X160.792 Y129.092 F1000
G1 X134.242 Y150.233 F1000
G0 Z3.0 ; Pen up

G0 X134.733 Y150.233 F3000 ; Travel to line 198
G0 Z0.0 ; Pen down
G1 X160.792 Y129.583 F1000
G0 Z3.0 ; Pen up

G0 X162.267 Y129.583 F3000 ; Travel to line 199
G0 Z0.0 ; Pen down
G1 X134.733 Y151.217 F1000
G1 X134.733 Y151.217 F1000
G1 X162.758 Y129.583 F1000
G0 Z3.0 ; Pen up

G0 X163.742 Y129.583 F3000 ; Travel to line 200
G0 Z0.0 ; Pen down
G1 X135.225 Y151.708 F1000
G1 X135.225 Y151.708 F1000
G1 X163.250 Y129.583 F1000
G1 X163.250 Y129.583 F1000
G1 X135.225 Y151.708 F1000
G0 Z3.0 ; Pen up

G0 X135.225 Y152.200 F3000 ; Travel to line 201
G0 Z0.0 ; Pen down
G1 X164.233 Y129.583 F1000
G1 X164.233 Y129.583 F1000
G1 X135.225 Y152.200 F1000
G0 Z3.0 ; Pen up

G0 X135.717 Y152.200 F3000 ; Travel to line 202
G0 Z0.0 ; Pen down
G1 X164.725 Y129.583 F1000
G0 Z3.0 ; Pen up

G0 X165.217 Y129.583 F3000 ; Travel to line 203
G0 Z0.0 ; Pen down
G1 X135.717 Y152.692 F1000
G0 Z3.0 ; Pen up

G0 X135.717 Y153.183 F3000 ; Travel to line 204
G0 Z0.0 ; Pen down
G1 X165.708 Y129.583 F1000
G1 X165.708 Y129.583 F1000
G1 X135.717 Y153.183 F1000
G0 Z3.0 ; Pen up

G0 X136.208 Y153.183 F3000 ; Travel to line 205
G0 Z0.0 ; Pen down
G1 X166.200 Y129.583 F1000
G0 Z3.0 ; Pen up

G0 X167.675 Y129.583 F3000 ; Travel to line 206
G0 Z0.0 ; Pen down
G1 X136.208 Y154.167 F1000
G0 Z3.0 ; Pen up

G0 X136.700 Y154.167 F3000 ; Travel to line 207
G0 Z0.0 ; Pen down
G1 X168.167 Y129.583 F1000
G1 X168.167 Y129.583 F1000
G1 X136.700 Y154.167 F1000
G0 Z3.0 ; Pen up

G0 X136.700 Y154.658 F3000 ; Travel to line 208
G0 Z0.0 ; Pen down
G1 X168.658 Y129.583 F1000
G0 Z3.0 ; Pen up

G0 X169.150 Y129.583 F3000 ; Travel to line 209
G0 Z0.0 ; Pen down
G1 X136.700 Y155.150 F1000
G1 X136.700 Y155.150 F1000
G1 X169.642 Y129.583 F1000
G1 X169.642 Y129.583 F1000
G1 X136.700 Y155.150 F1000
G0 Z3.0 ; Pen up

G0 X137.192 Y155.150 F3000 ; Travel to line 210
G0 Z0.0 ; Pen down
G1 X170.133 Y129.583 F1000
G0 Z3.0 ; Pen up

G0 X171.608 Y129.583 F3000 ; Travel to line 211
G0 Z0.0 ; Pen down
G1 X137.192 Y156.133 F1000
G0 Z3.0 ; Pen up

G0 X137.683 Y156.133 F3000 ; Travel to line 212
G0 Z0.0 ; Pen down
G1 X172.100 Y129.583 F1000
G0 Z3.0 ; Pen up

G0 X173.083 Y129.583 F3000 ; Travel to line 213
G0 Z0.0 ; Pen down
G1 X137.683 Y157.117 F1000
G0 Z3.0 ; Pen up

G0 X138.175 Y157.117 F3000 ; Travel to line 214
G0 Z0.0 ; Pen down
G1 X173.083 Y129.583 F1000
G1 X173.083 Y129.583 F1000
G1 X138.175 Y157.117 F1000
G0 Z3.0 ; Pen up

G0 X138.175 Y157.608 F3000 ; Travel to line 215
G0 Z0.0 ; Pen down
G1 X172.592 Y130.567 F1000
G0 Z3.0 ; Pen up

G0 X170.625 Y134.500 F3000 ; Travel to line 216
G0 Z0.0 ; Pen down
G1 X138.667 Y159.083 F1000
G0 Z3.0 ; Pen up

G0 X139.158 Y159.083 F3000 ; Travel to line 217
G0 Z0.0 ; Pen down
G1 X170.625 Y134.500 F1000
G1 X170.625 Y134.500 F1000
G1 X139.158 Y159.083 F1000
G0 Z3.0 ; Pen up

G0 X139.158 Y159.575 F3000 ; Travel to line 218
G0 Z0.0 ; Pen down
G1 X170.133 Y135.483 F1000
G0 Z3.0 ; Pen up

G0 X169.642 Y136.467 F3000 ; Travel to line 219
G0 Z0.0 ; Pen down
G1 X139.158 Y160.067 F1000
G0 Z3.0 ; Pen up

G0 X139.650 Y160.558 F3000 ; Travel to line 220
G0 Z0.0 ; Pen down
G1 X169.150 Y137.450 F1000
G1 X169.150 Y137.450 F1000
G1 X139.650 Y160.067 F1000
G1 X139.650 Y160.067 F1000
G1 X169.150 Y137.450 F1000
G0 Z3.0 ; Pen up

G0 X167.183 Y141.383 F3000 ; Travel to line 221
G0 Z0.0 ; Pen down
G1 X140.142 Y162.033 F1000
G0 Z3.0 ; Pen up

G0 X140.142 Y161.542 F3000 ; Travel to line 222
G0 Z0.0 ; Pen down
G1 X167.675 Y140.400 F1000
G1 X167.675 Y140.400 F1000
G1 X140.142 Y161.542 F1000
G0 Z3.0 ; Pen up

G0 X140.142 Y161.050 F3000 ; Travel to line 223
G0 Z0.0 ; Pen down
G1 X168.167 Y139.417 F1000
G1 X168.167 Y139.417 F1000
G1 X139.650 Y161.050 F1000
G1 X139.650 Y161.050 F1000
G1 X168.658 Y138.433 F1000
G1 X168.658 Y138.433 F1000
G1 X139.650 Y161.050 F1000
G0 Z3.0 ; Pen up

G0 X140.633 Y162.033 F3000 ; Travel to line 224
G0 Z0.0 ; Pen down
G1 X167.183 Y141.383 F1000
G1 X167.183 Y141.383 F1000
G1 X140.633 Y162.033 F1000
G0 Z3.0 ; Pen up

G0 X140.633 Y162.525 F3000 ; Travel to line 225
G0 Z0.0 ; Pen down
G1 X166.692 Y142.367 F1000
G0 Z3.0 ; Pen up

G0 X164.725 Y146.300 F3000 ; Travel to line 226
G0 Z0.0 ; Pen down
G1 X141.125 Y164.000 F1000
G1 X141.125 Y164.000 F1000
G1 X165.217 Y145.317 F1000
G1 X165.217 Y145.317 F1000
G1 X141.125 Y164.000 F1000
G0 Z3.0 ; Pen up

G0 X141.617 Y164.000 F3000 ; Travel to line 227
G0 Z0.0 ; Pen down
G1 X164.725 Y146.300 F1000
G1 X164.725 Y146.300 F1000
G1 X141.617 Y164.000 F1000
G0 Z3.0 ; Pen up

G0 X141.617 Y164.492 F3000 ; Travel to line 228
G0 Z0.0 ; Pen down
G1 X164.233 Y147.283 F1000
G0 Z3.0 ; Pen up

G0 X163.742 Y148.267 F3000 ; Travel to line 229
G0 Z0.0 ; Pen down
G1 X141.617 Y164.983 F1000
G0 Z3.0 ; Pen up

G0 X142.108 Y164.983 F3000 ; Travel to line 230
G0 Z0.0 ; Pen down
G1 X163.742 Y148.267 F1000
G1 X163.742 Y148.267 F1000
G1 X142.108 Y164.983 F1000
G0 Z3.0 ; Pen up

G0 X142.108 Y165.475 F3000 ; Travel to line 231
G0 Z0.0 ; Pen down
G1 X163.250 Y149.250 F1000
G0 Z3.0 ; Pen up

G0 X162.758 Y150.233 F3000 ; Travel to line 232
G0 Z0.0 ; Pen down
G1 X142.108 Y165.967 F1000
G1 X142.108 Y165.967 F1000
G1 X162.758 Y150.233 F1000
G1 X162.758 Y150.233 F1000
G1 X142.600 Y165.967 F1000
G0 Z3.0 ; Pen up

G0 X142.600 Y166.458 F3000 ; Travel to line 233
G0 Z0.0 ; Pen down
G1 X162.267 Y151.217 F1000
G1 X162.267 Y151.217 F1000
G1 X142.600 Y166.458 F1000
G1 X142.600 Y166.458 F1000
G1 X161.775 Y152.200 F1000
G1 X161.775 Y152.200 F1000
G1 X142.600 Y166.950 F1000
G0 Z3.0 ; Pen up

G0 X143.092 Y166.950 F3000 ; Travel to line 234
G0 Z0.0 ; Pen down
G1 X161.283 Y153.183 F1000
G1 X161.283 Y153.183 F1000
G1 X143.092 Y166.950 F1000
G0 Z3.0 ; Pen up

G0 X143.092 Y167.442 F3000 ; Travel to line 235
G0 Z0.0 ; Pen down
G1 X160.792 Y154.167 F1000
G0 Z3.0 ; Pen up

G0 X160.300 Y155.150 F3000 ; Travel to line 236
G0 Z0.0 ; Pen down
G1 X143.583 Y167.933 F1000
G0 Z3.0 ; Pen up

G0 X143.092 Y167.933 F3000 ; Travel to line 237
G0 Z0.0 ; Pen down
G1 X160.792 Y154.167 F1000
G1 X160.792 Y154.167 F1000
G1 X143.092 Y167.933 F1000
G0 Z3.0 ; Pen up

G0 X143.583 Y168.425 F3000 ; Travel to line 238
G0 Z0.0 ; Pen down
G1 X159.808 Y156.133 F1000
G1 X159.808 Y156.133 F1000
G1 X143.583 Y168.917 F1000
G0 Z3.0 ; Pen up

G0 X144.075 Y169.408 F3000 ; Travel to line 239
G0 Z0.0 ; Pen down
G1 X158.825 Y158.100 F1000
G1 X158.825 Y158.100 F1000
G1 X144.075 Y169.408 F1000
G1 X144.075 Y169.408 F1000
G1 X158.825 Y158.100 F1000
G0 Z3.0 ; Pen up

G0 X158.333 Y159.083 F3000 ; Travel to line 240
G0 Z0.0 ; Pen down
G1 X144.075 Y169.900 F1000
G0 Z3.0 ; Pen up

G0 X144.567 Y170.392 F3000 ; Travel to line 241
G0 Z0.0 ; Pen down
G1 X157.842 Y160.067 F1000
G1 X157.842 Y160.067 F1000
G1 X144.567 Y169.900 F1000
G1 X144.567 Y169.900 F1000
G1 X157.842 Y160.067 F1000
G0 Z3.0 ; Pen up

G0 X156.858 Y162.033 F3000 ; Travel to line 242
G0 Z0.0 ; Pen down
G1 X145.058 Y170.883 F1000
G0 Z3.0 ; Pen up

G0 X145.058 Y171.375 F3000 ; Travel to line 243
G0 Z0.0 ; Pen down
G1 X156.858 Y162.033 F1000
G1 X156.858 Y162.033 F1000
G1 X145.058 Y171.375 F1000
G0 Z3.0 ; Pen up

G0 X145.550 Y171.867 F3000 ; Travel to line 244
G0 Z0.0 ; Pen down
G1 X155.875 Y164.000 F1000
G1 X155.875 Y164.000 F1000
G1 X145.550 Y171.867 F1000
G0 Z3.0 ; Pen up

G0 X145.550 Y172.358 F3000 ; Travel to line 245
G0 Z0.0 ; Pen down
G1 X155.383 Y164.983 F1000
G0 Z3.0 ; Pen up

G0 X154.892 Y165.967 F3000 ; Travel to line 246
G0 Z0.0 ; Pen down
G1 X145.550 Y172.850 F1000
G1 X145.550 Y172.850 F1000
G1 X154.892 Y165.967 F1000
G1 X154.892 Y165.967 F1000
G1 X146.042 Y172.850 F1000
G0 Z3.0 ; Pen up

G0 X146.042 Y173.342 F3000 ; Travel to line 247
G0 Z0.0 ; Pen down
G1 X154.400 Y166.950 F1000
G0 Z3.0 ; Pen up

G0 X153.908 Y167.933 F3000 ; Travel to line 248
G0 Z0.0 ; Pen down
G1 X146.042 Y173.833 F1000
G1 X146.042 Y173.833 F1000
G1 X153.908 Y167.933 F1000
G1 X153.908 Y167.933 F1000
G1 X146.042 Y173.833 F1000
G0 Z3.0 ; Pen up

G0 X146.533 Y173.833 F3000 ; Travel to line 249
G0 Z0.0 ; Pen down
G1 X153.417 Y168.917 F1000
G1 X153.417 Y168.917 F1000
G1 X146.533 Y173.833 F1000
G0 Z3.0 ; Pen up

G0 X146.533 Y174.325 F3000 ; Travel to line 250
G0 Z0.0 ; Pen down
G1 X152.925 Y169.900 F1000
G0 Z3.0 ; Pen up

G0 X151.450 Y172.850 F3000 ; Travel to line 251
G0 Z0.0 ; Pen down
G1 X147.517 Y176.292 F1000
G1 X147.517 Y176.292 F1000
G1 X150.958 Y173.833 F1000
G0 Z3.0 ; Pen up

G0 X150.467 Y174.817 F3000 ; Travel to line 252
G0 Z0.0 ; Pen down
G1 X147.517 Y176.783 F1000
G0 Z3.0 ; Pen up

G0 X147.517 Y176.292 F3000 ; Travel to line 253
G0 Z0.0 ; Pen down
G1 X151.450 Y172.850 F1000
G1 X151.450 Y172.850 F1000
G1 X147.025 Y175.800 F1000
G1 X147.025 Y175.800 F1000
G1 X151.942 Y171.867 F1000
G1 X151.942 Y171.867 F1000
G1 X147.025 Y175.800 F1000
G0 Z3.0 ; Pen up

G0 X147.025 Y175.308 F3000 ; Travel to line 254
G0 Z0.0 ; Pen down
G1 X152.433 Y170.883 F1000
G1 X152.433 Y170.883 F1000
G1 X147.025 Y174.817 F1000
G0 Z3.0 ; Pen up

G0 X146.533 Y174.817 F3000 ; Travel to line 255
G0 Z0.0 ; Pen down
G1 X152.925 Y169.900 F1000
G1 X152.925 Y169.900 F1000
G1 X146.533 Y174.817 F1000
G0 Z3.0 ; Pen up

G0 X148.008 Y176.783 F3000 ; Travel to line 256
G0 Z0.0 ; Pen down
G1 X150.467 Y174.817 F1000
G1 X150.467 Y174.817 F1000
G1 X148.008 Y176.783 F1000
G0 Z3.0 ; Pen up

G0 X148.008 Y177.275 F3000 ; Travel to line 257
G0 Z0.0 ; Pen down
G1 X149.975 Y175.800 F1000
G0 Z3.0 ; Pen up

G0 X149.483 Y176.783 F3000 ; Travel to line 258
G0 Z0.0 ; Pen down
G1 X148.008 Y177.767 F1000
G1 X148.008 Y177.767 F1000
G1 X149.483 Y176.783 F1000
G1 X149.483 Y176.783 F1000
G1 X148.500 Y177.767 F1000
G0 Z3.0 ; Pen up

G0 X148.500 Y178.258 F3000 ; Travel to line 259
G0 Z0.0 ; Pen down
G1 X148.992 Y177.767 F1000
G1 X148.992 Y177.767 F1000
G1 X148.500 Y178.258 F1000
G0 Z3.0 ; Pen up

G0 X144.567 Y170.883 F3000 ; Travel to line 260
G0 Z0.0 ; Pen down
G1 X157.350 Y161.050 F1000
G1 X157.350 Y161.050 F1000
G1 X144.567 Y170.883 F1000
G0 Z3.0 ; Pen up

G0 X141.125 Y163.508 F3000 ; Travel to line 261
G0 Z0.0 ; Pen down
G1 X165.708 Y144.333 F1000
G1 X165.708 Y144.333 F1000
G1 X141.125 Y163.017 F1000
G0 Z3.0 ; Pen up

G0 X140.633 Y163.017 F3000 ; Travel to line 262
G0 Z0.0 ; Pen down
G1 X166.200 Y143.350 F1000
G1 X166.200 Y143.350 F1000
G1 X140.633 Y163.017 F1000
G0 Z3.0 ; Pen up

G0 X138.667 Y158.592 F3000 ; Travel to line 263
G0 Z0.0 ; Pen down
G1 X171.117 Y133.517 F1000
G1 X171.117 Y133.517 F1000
G1 X138.667 Y158.592 F1000
G0 Z3.0 ; Pen up

G0 X138.667 Y158.100 F3000 ; Travel to line 264
G0 Z0.0 ; Pen down
G1 X171.608 Y132.533 F1000
G1 X171.608 Y132.533 F1000
G1 X138.175 Y158.100 F1000
G1 X138.175 Y158.100 F1000
G1 X172.100 Y131.550 F1000
G1 X172.100 Y131.550 F1000
G1 X138.175 Y158.100 F1000
G0 Z3.0 ; Pen up

G0 X137.683 Y156.625 F3000 ; Travel to line 265
G0 Z0.0 ; Pen down
G1 X172.592 Y129.583 F1000
G1 X172.592 Y129.583 F1000
G1 X137.683 Y156.625 F1000
G0 Z3.0 ; Pen up

G0 X137.192 Y155.642 F3000 ; Travel to line 266
G0 Z0.0 ; Pen down
G1 X170.625 Y129.583 F1000
G1 X170.625 Y129.583 F1000
G1 X137.192 Y155.642 F1000
G0 Z3.0 ; Pen up

G0 X136.208 Y153.675 F3000 ; Travel to line 267
G0 Z0.0 ; Pen down
G1 X167.183 Y129.583 F1000
G1 X167.183 Y129.583 F1000
G1 X136.208 Y153.675 F1000
G0 Z3.0 ; Pen up

G0 X134.733 Y150.725 F3000 ; Travel to line 268
G0 Z0.0 ; Pen down
G1 X161.283 Y129.583 F1000
G1 X161.283 Y129.583 F1000
G1 X134.733 Y150.725 F1000
G0 Z3.0 ; Pen up

G0 X133.750 Y148.267 F3000 ; Travel to line 269
G0 Z0.0 ; Pen down
G1 X160.792 Y127.125 F1000
G1 X160.792 Y127.125 F1000
G1 X133.750 Y148.267 F1000
G0 Z3.0 ; Pen up

G0 X131.783 Y145.317 F3000 ; Travel to line 270
G0 Z0.0 ; Pen down
G1 X160.792 Y122.208 F1000
G1 X160.792 Y122.208 F1000
G1 X131.783 Y145.317 F1000
G0 Z3.0 ; Pen up

G0 X129.325 Y139.417 F3000 ; Travel to line 271
G0 Z0.0 ; Pen down
G1 X160.792 Y113.358 F1000
G1 X160.792 Y113.358 F1000
G1 X129.325 Y139.417 F1000
G0 Z3.0 ; Pen up

G0 X126.375 Y133.517 F3000 ; Travel to line 272
G0 Z0.0 ; Pen down
G1 X131.292 Y129.583 F1000
G1 X131.292 Y129.583 F1000
G1 X126.375 Y134.008 F1000
G1 X126.375 Y134.008 F1000
G1 X131.783 Y129.583 F1000
G0 Z3.0 ; Pen up

G0 X130.800 Y129.583 F3000 ; Travel to line 273
G0 Z0.0 ; Pen down
G1 X125.883 Y133.517 F1000
G1 X125.883 Y133.517 F1000
G1 X130.308 Y129.583 F1000
G0 Z3.0 ; Pen up

G0 X129.325 Y129.583 F3000 ; Travel to line 274
G0 Z0.0 ; Pen down
G1 X125.883 Y132.533 F1000
G0 Z3.0 ; Pen up

G0 X125.883 Y133.025 F3000 ; Travel to line 275
G0 Z0.0 ; Pen down
G1 X129.817 Y129.583 F1000
G1 X129.817 Y129.583 F1000
G1 X125.883 Y133.025 F1000
G0 Z3.0 ; Pen up

G0 X125.392 Y132.533 F3000 ; Travel to line 276
G0 Z0.0 ; Pen down
G1 X128.833 Y129.583 F1000
G1 X128.833 Y129.583 F1000
G1 X125.392 Y132.533 F1000
G0 Z3.0 ; Pen up

G0 X125.392 Y132.042 F3000 ; Travel to line 277
G0 Z0.0 ; Pen down
G1 X128.342 Y129.583 F1000
G0 Z3.0 ; Pen up

G0 X127.850 Y129.583 F3000 ; Travel to line 278
G0 Z0.0 ; Pen down
G1 X125.392 Y131.550 F1000
G0 Z3.0 ; Pen up

G0 X124.900 Y131.550 F3000 ; Travel to line 279
G0 Z0.0 ; Pen down
G1 X127.358 Y129.583 F1000
G1 X127.358 Y129.583 F1000
G1 X124.900 Y131.550 F1000
G1 X124.900 Y131.550 F1000
G1 X126.867 Y129.583 F1000
G0 Z3.0 ; Pen up

G0 X125.883 Y129.583 F3000 ; Travel to line 280
G0 Z0.0 ; Pen down
G1 X124.900 Y130.567 F1000
G1 X124.900 Y130.567 F1000
G1 X126.375 Y129.583 F1000
G1 X126.375 Y129.583 F1000
G1 X124.900 Y131.058 F1000
G0 Z3.0 ; Pen up

G0 X124.408 Y130.567 F3000 ; Travel to line 281
G0 Z0.0 ; Pen down
G1 X125.392 Y129.583 F1000
G1 X125.392 Y129.583 F1000
G1 X124.408 Y130.567 F1000
G0 Z3.0 ; Pen up

G0 X124.408 Y130.075 F3000 ; Travel to line 282
G0 Z0.0 ; Pen down
G1 X124.900 Y129.583 F1000
G0 Z3.0 ; Pen up

G0 X136.208 Y124.667 F3000 ; Travel to line 283
G0 Z0.0 ; Pen down
G1 X160.792 Y104.017 F1000
G1 X160.792 Y104.017 F1000
G1 X136.208 Y124.175 F1000
G1 X136.208 Y124.175 F1000
G1 X160.792 Y103.525 F1000
G1 X160.792 Y103.525 F1000
G1 X136.208 Y124.175 F1000
G0 Z3.0 ; Pen up

G0 X136.208 Y122.208 F3000 ; Travel to line 284
G0 Z0.0 ; Pen down
G1 X160.792 Y101.558 F1000
G1 X160.792 Y101.558 F1000
G1 X136.208 Y122.208 F1000
G0 Z3.0 ; Pen up

G0 X136.208 Y121.225 F3000 ; Travel to line 285
G0 Z0.0 ; Pen down
G1 X160.792 Y100.575 F1000
G1 X160.792 Y100.575 F1000
G1 X136.208 Y121.225 F1000
G0 Z3.0 ; Pen up

G0 X136.208 Y120.733 F3000 ; Travel to line 286
G0 Z0.0 ; Pen down
G1 X160.792 Y100.083 F1000
G1 X160.792 Y100.083 F1000
G1 X136.208 Y120.733 F1000
G0 Z3.0 ; Pen up

G0 X136.208 Y112.375 F3000 ; Travel to line 287
G0 Z0.0 ; Pen down
G1 X160.792 Y91.725 F1000
G1 X160.792 Y91.725 F1000
G1 X136.208 Y112.375 F1000
G0 Z3.0 ; Pen up

G0 X136.208 Y109.425 F3000 ; Travel to line 288
G0 Z0.0 ; Pen down
G1 X160.792 Y88.775 F1000
G1 X160.792 Y88.775 F1000
G1 X136.208 Y109.425 F1000
G0 Z3.0 ; Pen up

G0 X136.208 Y105.983 F3000 ; Travel to line 289
G0 Z0.0 ; Pen down
G1 X160.792 Y85.333 F1000
G1 X160.792 Y85.333 F1000
G1 X136.208 Y105.983 F1000
G0 Z3.0 ; Pen up

G0 X136.208 Y105.492 F3000 ; Travel to line 290
G0 Z0.0 ; Pen down
G1 X160.792 Y84.842 F1000
G1 X160.792 Y84.842 F1000
G1 X136.208 Y105.492 F1000
G0 Z3.0 ; Pen up

G0 X136.208 Y80.908 F3000 ; Travel to line 291
G0 Z0.0 ; Pen down
G1 X160.792 Y61.733 F1000
G1 X160.792 Y61.733 F1000
G1 X136.208 Y80.908 F1000
G0 Z3.0 ; Pen up

G0 X136.208 Y77.958 F3000 ; Travel to line 292
G0 Z0.0 ; Pen down
G1 X160.792 Y58.783 F1000
G1 X160.792 Y58.783 F1000
G1 X136.208 Y77.958 F1000
G0 Z3.0 ; Pen up

G0 X136.208 Y70.583 F3000 ; Travel to line 293
G0 Z0.0 ; Pen down
G1 X160.792 Y51.900 F1000
G1 X160.792 Y51.900 F1000
G1 X136.208 Y70.583 F1000
G0 Z3.0 ; Pen up

G0 X136.208 Y67.633 F3000 ; Travel to line 294
G0 Z0.0 ; Pen down
G1 X160.792 Y48.950 F1000
G1 X160.792 Y48.950 F1000
G1 X136.208 Y67.633 F1000
G0 Z3.0 ; Pen up

G0 X136.208 Y66.650 F3000 ; Travel to line 295
G0 Z0.0 ; Pen down
G1 X160.792 Y47.967 F1000
G1 X160.792 Y47.967 F1000
G1 X136.208 Y66.650 F1000
G0 Z3.0 ; Pen up

G0 X136.208 Y64.683 F3000 ; Travel to line 296
G0 Z0.0 ; Pen down
G1 X160.792 Y45.508 F1000
G1 X160.792 Y45.508 F1000
G1 X136.208 Y64.192 F1000
G0 Z3.0 ; Pen up

G0 X136.208 Y63.700 F3000 ; Travel to line 297
G0 Z0.0 ; Pen down
G1 X160.792 Y45.017 F1000
G1 X160.792 Y45.017 F1000
G1 X136.208 Y63.700 F1000
G0 Z3.0 ; Pen up

G0 X136.208 Y60.750 F3000 ; Travel to line 298
G0 Z0.0 ; Pen down
G1 X160.792 Y42.067 F1000
G1 X160.792 Y42.067 F1000
G1 X136.208 Y60.750 F1000
G0 Z3.0 ; Pen up

G0 X136.208 Y57.800 F3000 ; Travel to line 299
G0 Z0.0 ; Pen down
G1 X160.792 Y39.117 F1000
G1 X160.792 Y39.117 F1000
G1 X136.208 Y57.800 F1000
G0 Z3.0 ; Pen up

G0 X136.208 Y53.867 F3000 ; Travel to line 300
G0 Z0.0 ; Pen down
G1 X160.792 Y35.183 F1000
G1 X160.792 Y35.183 F1000
G1 X136.208 Y53.867 F1000
G0 Z3.0 ; Pen up

G0 X136.208 Y52.392 F3000 ; Travel to line 301
G0 Z0.0 ; Pen down
G1 X160.792 Y34.200 F1000
G1 X160.792 Y34.200 F1000
G1 X136.208 Y52.392 F1000
G0 Z3.0 ; Pen up

G0 X136.208 Y50.917 F3000 ; Travel to line 302
G0 Z0.0 ; Pen down
G1 X160.792 Y32.725 F1000
G1 X160.792 Y32.725 F1000
G1 X136.208 Y50.917 F1000
G0 Z3.0 ; Pen up

G0 X136.208 Y46.983 F3000 ; Travel to line 303
G0 Z0.0 ; Pen down
G1 X157.842 Y31.250 F1000
G1 X157.842 Y31.250 F1000
G1 X136.208 Y46.983 F1000
G0 Z3.0 ; Pen up

G0 X136.208 Y44.033 F3000 ; Travel to line 304
G0 Z0.0 ; Pen down
G1 X153.908 Y31.250 F1000
G1 X153.908 Y31.250 F1000
G1 X136.208 Y44.033 F1000
G0 Z3.0 ; Pen up

G0 X136.208 Y43.050 F3000 ; Travel to line 305
G0 Z0.0 ; Pen down
G1 X152.433 Y31.250 F1000
G1 X152.433 Y31.250 F1000
G1 X136.208 Y43.050 F1000
G0 Z3.0 ; Pen up

G0 X136.208 Y40.100 F3000 ; Travel to line 306
G0 Z0.0 ; Pen down
G1 X148.500 Y31.250 F1000
G1 X148.500 Y31.250 F1000
G1 X136.208 Y40.100 F1000
G0 Z3.0 ; Pen up

G0 X136.208 Y34.692 F3000 ; Travel to line 307
G0 Z0.0 ; Pen down
G1 X141.125 Y31.250 F1000
G1 X141.125 Y31.250 F1000
G1 X136.208 Y34.692 F1000
G0 Z3.0 ; Pen up

G0 X136.208 Y33.708 F3000 ; Travel to line 308
G0 Z0.0 ; Pen down
G1 X139.650 Y31.250 F1000
G1 X139.650 Y31.250 F1000
G1 X136.208 Y33.708 F1000
G0 Z3.0 ; Pen up

G0 X160.792 Y105.983 F3000 ; Travel to line 309
G0 Z0.0 ; Pen down
G1 X136.208 Y126.633 F1000
G1 X136.208 Y126.633 F1000
G1 X160.792 Y106.475 F1000
G0 Z3.0 ; Pen up

G0 X159.808 Y156.133 F3000 ; Travel to line 310
G0 Z0.0 ; Pen down
G1 X143.583 Y168.917 F1000
G1 X143.583 Y168.917 F1000
G1 X159.317 Y157.117 F1000
G0 Z3.0 ; Pen up

G0 X156.367 Y163.017 F3000 ; Travel to line 311
G0 Z0.0 ; Pen down
G1 X145.058 Y171.867 F1000
G1 X145.058 Y171.867 F1000
G1 X155.875 Y164.000 F1000
G0 Z3.0 ; Pen up

; Return to origin
G0 X0 Y0
G0 Z3.0

; Total drawing distance: 15342.66 mm
; Total travel distance: 637.91 mm
; Total lines: 311
; Estimated time: 933.3 seconds (15.6 minutes)
M2 ; End program