; Blueprint to G-code
; Input: test_images_solid/test8_small_details.png
; Generated with blueprint2gcode.py

G21 ; Set units to millimeters
G90 ; Absolute positioning
G0 Z3.0 ; Pen up
G0 X0 Y0 ; Move to origin

G0 X45.193 Y72.760 F3000 ; Travel to line 1
G0 Z0.0 ; Pen down
G1 X44.847 Y72.413 F1000
G1 X45.193 Y72.760 F1000
G1 X45.887 Y72.760 F1000
G1 X46.233 Y72.413 F1000
G1 X46.233 Y71.720 F1000
G1 X45.887 Y71.373 F1000
G1 X45.193 Y71.373 F1000
G1 X45.887 Y71.373 F1000
G1 X46.233 Y71.027 F1000
G1 X46.233 Y70.333 F1000
G1 X45.887 Y69.987 F1000
G1 X45.193 Y69.987 F1000
G1 X44.847 Y70.333 F1000
G1 X45.193 Y69.987 F1000
G1 X45.887 Y69.987 F1000
G1 X46.233 Y70.333 F1000
G1 X46.233 Y71.027 F1000
G1 X45.887 Y71.373 F1000
G1 X46.233 Y71.720 F1000
G1 X46.233 Y72.413 F1000
G1 X45.887 Y72.760 F1000
G0 Z3.0 ; Pen up

G0 X47.620 Y72.067 F3000 ; Travel to line 2
G0 Z0.0 ; Pen down
G1 X47.620 Y70.680 F1000
G1 X48.313 Y69.987 F1000
G1 X48.660 Y69.987 F1000
G1 X49.007 Y70.333 F1000
G1 X49.007 Y70.680 F1000
G1 X49.353 Y71.027 F1000
G1 X49.353 Y71.720 F1000
G1 X49.007 Y72.067 F1000
G1 X49.007 Y72.413 F1000
G1 X48.660 Y72.760 F1000
G1 X48.313 Y72.760 F1000
G0 Z3.0 ; Pen up

G0 X48.660 Y72.760 F3000 ; Travel to line 3
G0 Z0.0 ; Pen down
G1 X49.353 Y72.067 F1000
G1 X49.353 Y70.680 F1000
G1 X48.660 Y69.987 F1000
G1 X47.967 Y69.987 F1000
G1 X47.620 Y70.333 F1000
G1 X47.620 Y72.413 F1000
G1 X47.967 Y72.760 F1000
G0 Z3.0 ; Pen up

G0 X50.047 Y71.373 F3000 ; Travel to line 4
G0 Z0.0 ; Pen down
G1 X50.047 Y70.680 F1000
G1 X50.740 Y69.987 F1000
G1 X51.087 Y69.987 F1000
G1 X51.780 Y70.680 F1000
G1 X51.780 Y71.373 F1000
G1 X51.087 Y72.067 F1000
G1 X50.740 Y72.067 F1000
G1 X50.740 Y72.067 F1000
G1 X50.393 Y71.720 F1000
G1 X50.047 Y71.720 F1000
G1 X50.047 Y68.947 F1000
G1 X50.047 Y69.987 F1000
G1 X50.393 Y70.333 F1000
G1 X50.740 Y69.987 F1000
G1 X51.433 Y69.987 F1000
G1 X51.433 Y70.333 F1000
G1 X51.780 Y70.680 F1000
G1 X51.780 Y71.373 F1000
G1 X51.433 Y71.720 F1000
G1 X51.433 Y72.067 F1000
G0 Z3.0 ; Pen up

G0 X52.820 Y72.067 F3000 ; Travel to line 5
G0 Z0.0 ; Pen down
G1 X53.167 Y71.720 F1000
G1 X53.167 Y71.373 F1000
G1 X53.513 Y71.027 F1000
G1 X53.513 Y70.680 F1000
G1 X53.513 Y71.373 F1000
G0 Z3.0 ; Pen up

G0 X51.780 Y77.613 F3000 ; Travel to line 6
G0 Z0.0 ; Pen down
G1 X44.847 Y84.547 F1000
G0 Z3.0 ; Pen up

G0 X45.193 Y84.547 F3000 ; Travel to line 7
G0 Z0.0 ; Pen down
G1 X51.780 Y77.960 F1000
G0 Z3.0 ; Pen up

G0 X52.127 Y77.960 F3000 ; Travel to line 8
G0 Z0.0 ; Pen down
G1 X45.193 Y84.893 F1000
G0 Z3.0 ; Pen up

G0 X45.540 Y85.240 F3000 ; Travel to line 9
G0 Z0.0 ; Pen down
G1 X52.473 Y78.307 F1000
G0 Z3.0 ; Pen up

G0 X53.167 Y79.000 F3000 ; Travel to line 10
G0 Z0.0 ; Pen down
G1 X46.233 Y85.933 F1000
G0 Z3.0 ; Pen up

G0 X45.887 Y85.587 F3000 ; Travel to line 11
G0 Z0.0 ; Pen down
G1 X52.820 Y78.653 F1000
G1 X52.820 Y78.653 F1000
G1 X45.887 Y85.587 F1000
G0 Z3.0 ; Pen up

G0 X46.580 Y86.280 F3000 ; Travel to line 12
G0 Z0.0 ; Pen down
G1 X53.513 Y79.347 F1000
G1 X53.513 Y79.347 F1000
G1 X46.580 Y86.280 F1000
G0 Z3.0 ; Pen up

G0 X46.927 Y86.627 F3000 ; Travel to line 13
G0 Z0.0 ; Pen down
G1 X53.860 Y79.693 F1000
G0 Z3.0 ; Pen up

G0 X54.207 Y80.040 F3000 ; Travel to line 14
G0 Z0.0 ; Pen down
G1 X47.273 Y86.973 F1000
G0 Z3.0 ; Pen up

G0 X47.620 Y86.973 F3000 ; Travel to line 15
G0 Z0.0 ; Pen down
G1 X54.207 Y80.387 F1000
G0 Z3.0 ; Pen up

G0 X54.553 Y80.387 F3000 ; Travel to line 16
G0 Z0.0 ; Pen down
G1 X47.620 Y87.320 F1000
G0 Z3.0 ; Pen up

G0 X48.313 Y87.320 F3000 ; Travel to line 17
G0 Z0.0 ; Pen down
G1 X54.553 Y81.080 F1000
G0 Z3.0 ; Pen up

G0 X54.900 Y82.120 F3000 ; Travel to line 18
G0 Z0.0 ; Pen down
G1 X49.353 Y87.667 F1000
G0 Z3.0 ; Pen up

G0 X50.047 Y87.667 F3000 ; Travel to line 19
G0 Z0.0 ; Pen down
G1 X54.900 Y82.813 F1000
G0 Z3.0 ; Pen up

G0 X54.900 Y83.160 F3000 ; Travel to line 20
G0 Z0.0 ; Pen down
G1 X50.393 Y87.667 F1000
G0 Z3.0 ; Pen up

G0 X50.740 Y87.667 F3000 ; Travel to line 21
G0 Z0.0 ; Pen down
G1 X54.900 Y83.507 F1000
G0 Z3.0 ; Pen up

G0 X54.553 Y84.547 F3000 ; Travel to line 22
G0 Z0.0 ; Pen down
G1 X51.780 Y87.320 F1000
G0 Z3.0 ; Pen up

G0 X48.660 Y87.667 F3000 ; Travel to line 23
G0 Z0.0 ; Pen down
G1 X54.900 Y81.427 F1000
G1 X54.900 Y81.427 F1000
G1 X48.660 Y87.667 F1000
G0 Z3.0 ; Pen up

G0 X44.847 Y83.853 F3000 ; Travel to line 24
G0 Z0.0 ; Pen down
G1 X51.087 Y77.613 F1000
G0 Z3.0 ; Pen up

G0 X50.047 Y77.267 F3000 ; Travel to line 25
G0 Z0.0 ; Pen down
G1 X44.500 Y82.813 F1000
G0 Z3.0 ; Pen up

G0 X44.500 Y82.120 F3000 ; Travel to line 26
G0 Z0.0 ; Pen down
G1 X49.353 Y77.267 F1000
G0 Z3.0 ; Pen up

G0 X49.007 Y77.267 F3000 ; Travel to line 27
G0 Z0.0 ; Pen down
G1 X44.500 Y81.773 F1000
G0 Z3.0 ; Pen up

G0 X44.500 Y81.427 F3000 ; Travel to line 28
G0 Z0.0 ; Pen down
G1 X48.660 Y77.267 F1000
G0 Z3.0 ; Pen up

G0 X47.620 Y77.613 F3000 ; Travel to line 29
G0 Z0.0 ; Pen down
G1 X44.847 Y80.387 F1000
G0 Z3.0 ; Pen up

G0 X44.500 Y83.507 F3000 ; Travel to line 30
G0 Z0.0 ; Pen down
G1 X50.740 Y77.267 F1000
G1 X50.740 Y77.267 F1000
G1 X44.500 Y83.507 F1000
G0 Z3.0 ; Pen up

G0 X106.900 Y80.387 F3000 ; Travel to line 31
G0 Z0.0 ; Pen down
G1 X116.953 Y70.333 F1000
G0 Z3.0 ; Pen up

G0 X116.260 Y70.333 F3000 ; Travel to line 32
G0 Z0.0 ; Pen down
G1 X106.900 Y79.693 F1000
G0 Z3.0 ; Pen up

G0 X106.900 Y79.347 F3000 ; Travel to line 33
G0 Z0.0 ; Pen down
G1 X115.913 Y70.333 F1000
G0 Z3.0 ; Pen up

G0 X115.567 Y70.333 F3000 ; Travel to line 34
G0 Z0.0 ; Pen down
G1 X106.900 Y79.000 F1000
G0 Z3.0 ; Pen up

G0 X106.900 Y78.307 F3000 ; Travel to line 35
G0 Z0.0 ; Pen down
G1 X114.873 Y70.333 F1000
G0 Z3.0 ; Pen up

G0 X113.140 Y70.680 F3000 ; Travel to line 36
G0 Z0.0 ; Pen down
G1 X107.247 Y76.573 F1000
G0 Z3.0 ; Pen up

G0 X106.900 Y77.613 F3000 ; Travel to line 37
G0 Z0.0 ; Pen down
G1 X114.180 Y70.333 F1000
G1 X114.180 Y70.333 F1000
G1 X106.900 Y77.613 F1000
G0 Z3.0 ; Pen up

G0 X107.593 Y75.533 F3000 ; Travel to line 38
G0 Z0.0 ; Pen down
G1 X112.100 Y71.027 F1000
G0 Z3.0 ; Pen up

G0 X111.407 Y71.373 F3000 ; Travel to line 39
G0 Z0.0 ; Pen down
G1 X107.940 Y74.840 F1000
G0 Z3.0 ; Pen up

G0 X108.287 Y74.147 F3000 ; Travel to line 40
G0 Z0.0 ; Pen down
G1 X110.713 Y71.720 F1000
G0 Z3.0 ; Pen up

G0 X110.713 Y65.827 F3000 ; Travel to line 41
G0 Z0.0 ; Pen down
G1 X111.060 Y65.827 F1000
G1 X111.407 Y65.480 F1000
G1 X111.407 Y65.133 F1000
G1 X111.753 Y64.787 F1000
G1 X111.753 Y64.093 F1000
G1 X111.407 Y63.747 F1000
G1 X111.407 Y63.400 F1000
G1 X111.060 Y63.053 F1000
G1 X110.713 Y63.053 F1000
G1 X110.020 Y63.747 F1000
G1 X110.020 Y65.133 F1000
G0 Z3.0 ; Pen up

G0 X110.367 Y65.827 F3000 ; Travel to line 42
G0 Z0.0 ; Pen down
G1 X110.020 Y65.480 F1000
G1 X110.020 Y63.400 F1000
G1 X110.367 Y63.053 F1000
G1 X111.060 Y63.053 F1000
G1 X111.753 Y63.747 F1000
G1 X111.753 Y65.133 F1000
G1 X111.060 Y65.827 F1000
G0 Z3.0 ; Pen up

G0 X112.447 Y64.440 F3000 ; Travel to line 43
G0 Z0.0 ; Pen down
G1 X112.447 Y63.747 F1000
G1 X113.140 Y63.053 F1000
G1 X113.487 Y63.053 F1000
G1 X114.180 Y63.747 F1000
G1 X114.180 Y64.440 F1000
G1 X113.487 Y65.133 F1000
G1 X113.140 Y65.133 F1000
G1 X113.140 Y65.133 F1000
G1 X112.793 Y64.787 F1000
G1 X112.447 Y64.787 F1000
G1 X112.447 Y62.013 F1000
G1 X112.447 Y63.053 F1000
G1 X112.793 Y63.400 F1000
G1 X113.140 Y63.053 F1000
G1 X113.833 Y63.053 F1000
G1 X113.833 Y63.400 F1000
G1 X114.180 Y63.747 F1000
G1 X114.180 Y64.440 F1000
G1 X113.833 Y64.787 F1000
G1 X113.833 Y65.133 F1000
G0 Z3.0 ; Pen up

G0 X115.220 Y65.133 F3000 ; Travel to line 44
G0 Z0.0 ; Pen down
G1 X115.567 Y64.787 F1000
G1 X115.567 Y64.440 F1000
G1 X115.913 Y64.093 F1000
G1 X115.913 Y63.747 F1000
G1 X115.913 Y64.440 F1000
G0 Z3.0 ; Pen up

G0 X117.993 Y70.680 F3000 ; Travel to line 45
G0 Z0.0 ; Pen down
G1 X107.247 Y81.427 F1000
G0 Z3.0 ; Pen up

G0 X107.593 Y81.773 F3000 ; Travel to line 46
G0 Z0.0 ; Pen down
G1 X118.340 Y71.027 F1000
G1 X118.340 Y71.027 F1000
G1 X107.593 Y81.773 F1000
G0 Z3.0 ; Pen up

G0 X107.593 Y82.467 F3000 ; Travel to line 47
G0 Z0.0 ; Pen down
G1 X119.033 Y71.027 F1000
G0 Z3.0 ; Pen up

G0 X119.380 Y71.373 F3000 ; Travel to line 48
G0 Z0.0 ; Pen down
G1 X107.940 Y82.813 F1000
G0 Z3.0 ; Pen up

G0 X107.940 Y83.160 F3000 ; Travel to line 49
G0 Z0.0 ; Pen down
G1 X119.727 Y71.373 F1000
G0 Z3.0 ; Pen up

G0 X119.727 Y71.720 F3000 ; Travel to line 50
G0 Z0.0 ; Pen down
G1 X108.287 Y83.160 F1000
G0 Z3.0 ; Pen up

G0 X108.287 Y83.853 F3000 ; Travel to line 51
G0 Z0.0 ; Pen down
G1 X120.420 Y71.720 F1000
G0 Z3.0 ; Pen up

G0 X121.113 Y72.413 F3000 ; Travel to line 52
G0 Z0.0 ; Pen down
G1 X108.980 Y84.547 F1000
G0 Z3.0 ; Pen up

G0 X109.327 Y84.893 F3000 ; Travel to line 53
G0 Z0.0 ; Pen down
G1 X121.460 Y72.760 F1000
G0 Z3.0 ; Pen up

G0 X121.460 Y73.107 F3000 ; Travel to line 54
G0 Z0.0 ; Pen down
G1 X109.673 Y84.893 F1000
G0 Z3.0 ; Pen up

G0 X109.673 Y85.240 F3000 ; Travel to line 55
G0 Z0.0 ; Pen down
G1 X121.807 Y73.107 F1000
G0 Z3.0 ; Pen up

G0 X122.153 Y73.453 F3000 ; Travel to line 56
G0 Z0.0 ; Pen down
G1 X110.020 Y85.587 F1000
G0 Z3.0 ; Pen up

G0 X110.367 Y85.933 F3000 ; Travel to line 57
G0 Z0.0 ; Pen down
G1 X122.500 Y73.800 F1000
G1 X122.500 Y73.800 F1000
G1 X110.367 Y85.933 F1000
G0 Z3.0 ; Pen up

G0 X110.713 Y86.280 F3000 ; Travel to line 58
G0 Z0.0 ; Pen down
G1 X122.847 Y74.147 F1000
G0 Z3.0 ; Pen up

G0 X122.847 Y74.840 F3000 ; Travel to line 59
G0 Z0.0 ; Pen down
G1 X111.407 Y86.280 F1000
G0 Z3.0 ; Pen up

G0 X111.407 Y86.627 F3000 ; Travel to line 60
G0 Z0.0 ; Pen down
G1 X123.193 Y74.840 F1000
G0 Z3.0 ; Pen up

G0 X123.193 Y75.187 F3000 ; Travel to line 61
G0 Z0.0 ; Pen down
G1 X111.753 Y86.627 F1000
G0 Z3.0 ; Pen up

G0 X112.100 Y86.973 F3000 ; Travel to line 62
G0 Z0.0 ; Pen down
G1 X123.540 Y75.533 F1000
G0 Z3.0 ; Pen up

G0 X123.887 Y76.573 F3000 ; Travel to line 63
G0 Z0.0 ; Pen down
G1 X113.140 Y87.320 F1000
G0 Z3.0 ; Pen up

G0 X112.793 Y86.973 F3000 ; Travel to line 64
G0 Z0.0 ; Pen down
G1 X123.540 Y76.227 F1000
G1 X123.540 Y76.227 F1000
G1 X112.793 Y86.973 F1000
G0 Z3.0 ; Pen up

G0 X113.833 Y87.320 F3000 ; Travel to line 65
G0 Z0.0 ; Pen down
G1 X123.887 Y77.267 F1000
G1 X123.887 Y77.267 F1000
G1 X113.833 Y87.320 F1000
G0 Z3.0 ; Pen up

G0 X114.180 Y87.667 F3000 ; Travel to line 66
G0 Z0.0 ; Pen down
G1 X124.233 Y77.613 F1000
G0 Z3.0 ; Pen up

G0 X124.233 Y78.307 F3000 ; Travel to line 67
G0 Z0.0 ; Pen down
G1 X114.873 Y87.667 F1000
G0 Z3.0 ; Pen up

G0 X115.220 Y87.667 F3000 ; Travel to line 68
G0 Z0.0 ; Pen down
G1 X124.233 Y78.653 F1000
G0 Z3.0 ; Pen up

G0 X124.233 Y79.000 F3000 ; Travel to line 69
G0 Z0.0 ; Pen down
G1 X115.567 Y87.667 F1000
G0 Z3.0 ; Pen up

G0 X116.260 Y87.667 F3000 ; Travel to line 70
G0 Z0.0 ; Pen down
G1 X124.233 Y79.693 F1000
G0 Z3.0 ; Pen up

G0 X123.887 Y81.427 F3000 ; Travel to line 71
G0 Z0.0 ; Pen down
G1 X117.993 Y87.320 F1000
G0 Z3.0 ; Pen up

G0 X116.953 Y87.667 F3000 ; Travel to line 72
G0 Z0.0 ; Pen down
G1 X124.233 Y80.387 F1000
G1 X124.233 Y80.387 F1000
G1 X116.953 Y87.667 F1000
G0 Z3.0 ; Pen up

G0 X119.033 Y86.973 F3000 ; Travel to line 73
G0 Z0.0 ; Pen down
G1 X123.540 Y82.467 F1000
G0 Z3.0 ; Pen up

G0 X123.193 Y83.160 F3000 ; Travel to line 74
G0 Z0.0 ; Pen down
G1 X119.727 Y86.627 F1000
G0 Z3.0 ; Pen up

G0 X120.420 Y86.280 F3000 ; Travel to line 75
G0 Z0.0 ; Pen down
G1 X122.847 Y83.853 F1000
G0 Z3.0 ; Pen up

G0 X108.633 Y84.200 F3000 ; Travel to line 76
G0 Z0.0 ; Pen down
G1 X120.767 Y72.067 F1000
G1 X120.767 Y72.067 F1000
G1 X108.633 Y84.200 F1000
G0 Z3.0 ; Pen up

G0 X107.247 Y80.733 F3000 ; Travel to line 77
G0 Z0.0 ; Pen down
G1 X117.300 Y70.680 F1000
G1 X117.300 Y70.680 F1000
G1 X107.247 Y80.733 F1000
G0 Z3.0 ; Pen up

G0 X107.247 Y65.827 F3000 ; Travel to line 78
G0 Z0.0 ; Pen down
G1 X107.247 Y64.787 F1000
G1 X108.287 Y64.787 F1000
G1 X108.633 Y64.440 F1000
G1 X108.633 Y63.400 F1000
G1 X108.287 Y63.053 F1000
G1 X107.593 Y63.053 F1000
G1 X107.247 Y63.400 F1000
G1 X107.593 Y63.053 F1000
G1 X108.287 Y63.053 F1000
G1 X108.633 Y63.400 F1000
G1 X108.633 Y64.440 F1000
G1 X108.287 Y64.787 F1000
G1 X107.593 Y64.787 F1000
G1 X107.247 Y65.133 F1000
G1 X107.247 Y65.480 F1000
G1 X107.593 Y65.827 F1000
G1 X108.633 Y65.827 F1000
G0 Z3.0 ; Pen up

G0 X169.300 Y72.067 F3000 ; Travel to line 79
G0 Z0.0 ; Pen down
G1 X181.433 Y59.933 F1000
G0 Z3.0 ; Pen up

G0 X181.780 Y59.933 F3000 ; Travel to line 80
G0 Z0.0 ; Pen down
G1 X169.300 Y72.413 F1000
G0 Z3.0 ; Pen up

G0 X169.300 Y73.107 F3000 ; Travel to line 81
G0 Z0.0 ; Pen down
G1 X182.473 Y59.933 F1000
G0 Z3.0 ; Pen up

G0 X182.820 Y59.933 F3000 ; Travel to line 82
G0 Z0.0 ; Pen down
G1 X169.300 Y73.453 F1000
G0 Z3.0 ; Pen up

G0 X169.300 Y73.800 F3000 ; Travel to line 83
G0 Z0.0 ; Pen down
G1 X183.167 Y59.933 F1000
G0 Z3.0 ; Pen up

G0 X183.860 Y59.933 F3000 ; Travel to line 84
G0 Z0.0 ; Pen down
G1 X169.300 Y74.493 F1000
G0 Z3.0 ; Pen up

G0 X169.300 Y74.840 F3000 ; Travel to line 85
G0 Z0.0 ; Pen down
G1 X184.207 Y59.933 F1000
G0 Z3.0 ; Pen up

G0 X184.900 Y59.933 F3000 ; Travel to line 86
G0 Z0.0 ; Pen down
G1 X169.300 Y75.533 F1000
G0 Z3.0 ; Pen up

G0 X169.300 Y75.880 F3000 ; Travel to line 87
G0 Z0.0 ; Pen down
G1 X185.247 Y59.933 F1000
G0 Z3.0 ; Pen up

G0 X185.247 Y60.280 F3000 ; Travel to line 88
G0 Z0.0 ; Pen down
G1 X169.647 Y75.880 F1000
G0 Z3.0 ; Pen up

G0 X169.647 Y76.573 F3000 ; Travel to line 89
G0 Z0.0 ; Pen down
G1 X185.940 Y60.280 F1000
G0 Z3.0 ; Pen up

G0 X186.287 Y60.280 F3000 ; Travel to line 90
G0 Z0.0 ; Pen down
G1 X169.647 Y76.920 F1000
G0 Z3.0 ; Pen up

G0 X169.993 Y77.267 F3000 ; Travel to line 91
G0 Z0.0 ; Pen down
G1 X186.633 Y60.627 F1000
G0 Z3.0 ; Pen up

G0 X186.980 Y60.627 F3000 ; Travel to line 92
G0 Z0.0 ; Pen down
G1 X169.993 Y77.613 F1000
G0 Z3.0 ; Pen up

G0 X169.993 Y78.307 F3000 ; Travel to line 93
G0 Z0.0 ; Pen down
G1 X187.673 Y60.627 F1000
G0 Z3.0 ; Pen up

G0 X187.673 Y60.973 F3000 ; Travel to line 94
G0 Z0.0 ; Pen down
G1 X170.340 Y78.307 F1000
G0 Z3.0 ; Pen up

G0 X170.340 Y78.653 F3000 ; Travel to line 95
G0 Z0.0 ; Pen down
G1 X188.020 Y60.973 F1000
G0 Z3.0 ; Pen up

G0 X188.713 Y60.973 F3000 ; Travel to line 96
G0 Z0.0 ; Pen down
G1 X170.340 Y79.347 F1000
G0 Z3.0 ; Pen up

G0 X170.687 Y79.347 F3000 ; Travel to line 97
G0 Z0.0 ; Pen down
G1 X188.713 Y61.320 F1000
G0 Z3.0 ; Pen up

G0 X189.407 Y61.320 F3000 ; Travel to line 98
G0 Z0.0 ; Pen down
G1 X170.687 Y80.040 F1000
G0 Z3.0 ; Pen up

G0 X171.033 Y80.040 F3000 ; Travel to line 99
G0 Z0.0 ; Pen down
G1 X189.407 Y61.667 F1000
G0 Z3.0 ; Pen up

G0 X189.753 Y61.667 F3000 ; Travel to line 100
G0 Z0.0 ; Pen down
G1 X171.033 Y80.387 F1000
G0 Z3.0 ; Pen up

G0 X171.380 Y80.733 F3000 ; Travel to line 101
G0 Z0.0 ; Pen down
G1 X190.100 Y62.013 F1000
G0 Z3.0 ; Pen up

G0 X190.447 Y62.013 F3000 ; Travel to line 102
G0 Z0.0 ; Pen down
G1 X171.380 Y81.080 F1000
G0 Z3.0 ; Pen up

G0 X171.727 Y81.427 F3000 ; Travel to line 103
G0 Z0.0 ; Pen down
G1 X190.793 Y62.360 F1000
G0 Z3.0 ; Pen up

G0 X191.140 Y62.360 F3000 ; Travel to line 104
G0 Z0.0 ; Pen down
G1 X171.727 Y81.773 F1000
G0 Z3.0 ; Pen up

G0 X172.073 Y82.120 F3000 ; Travel to line 105
G0 Z0.0 ; Pen down
G1 X191.487 Y62.707 F1000
G0 Z3.0 ; Pen up

G0 X191.487 Y63.053 F3000 ; Travel to line 106
G0 Z0.0 ; Pen down
G1 X172.420 Y82.120 F1000
G0 Z3.0 ; Pen up

G0 X172.420 Y82.467 F3000 ; Travel to line 107
G0 Z0.0 ; Pen down
G1 X191.833 Y63.053 F1000
G0 Z3.0 ; Pen up

G0 X192.180 Y63.400 F3000 ; Travel to line 108
G0 Z0.0 ; Pen down
G1 X172.767 Y82.813 F1000
G0 Z3.0 ; Pen up

G0 X172.767 Y83.160 F3000 ; Travel to line 109
G0 Z0.0 ; Pen down
G1 X192.527 Y63.400 F1000
G0 Z3.0 ; Pen up

G0 X192.873 Y63.747 F3000 ; Travel to line 110
G0 Z0.0 ; Pen down
G1 X173.113 Y83.507 F1000
G0 Z3.0 ; Pen up

G0 X173.460 Y83.507 F3000 ; Travel to line 111
G0 Z0.0 ; Pen down
G1 X192.873 Y64.093 F1000
G0 Z3.0 ; Pen up

G0 X193.220 Y64.093 F3000 ; Travel to line 112
G0 Z0.0 ; Pen down
G1 X173.460 Y83.853 F1000
G0 Z3.0 ; Pen up

G0 X173.807 Y84.200 F3000 ; Travel to line 113
G0 Z0.0 ; Pen down
G1 X193.567 Y64.440 F1000
G0 Z3.0 ; Pen up

G0 X193.567 Y64.787 F3000 ; Travel to line 114
G0 Z0.0 ; Pen down
G1 X174.153 Y84.200 F1000
G0 Z3.0 ; Pen up

G0 X174.500 Y84.547 F3000 ; Travel to line 115
G0 Z0.0 ; Pen down
G1 X193.913 Y65.133 F1000
G0 Z3.0 ; Pen up

G0 X193.913 Y65.480 F3000 ; Travel to line 116
G0 Z0.0 ; Pen down
G1 X174.847 Y84.547 F1000
G0 Z3.0 ; Pen up

G0 X174.847 Y84.893 F3000 ; Travel to line 117
G0 Z0.0 ; Pen down
G1 X194.260 Y65.480 F1000
G0 Z3.0 ; Pen up

G0 X194.607 Y65.827 F3000 ; Travel to line 118
G0 Z0.0 ; Pen down
G1 X175.193 Y85.240 F1000
G0 Z3.0 ; Pen up

G0 X175.540 Y85.240 F3000 ; Travel to line 119
G0 Z0.0 ; Pen down
G1 X194.607 Y66.173 F1000
G0 Z3.0 ; Pen up

G0 X194.953 Y66.520 F3000 ; Travel to line 120
G0 Z0.0 ; Pen down
G1 X175.887 Y85.587 F1000
G0 Z3.0 ; Pen up

G0 X176.233 Y85.587 F3000 ; Travel to line 121
G0 Z0.0 ; Pen down
G1 X194.953 Y66.867 F1000
G0 Z3.0 ; Pen up

G0 X195.300 Y67.213 F3000 ; Travel to line 122
G0 Z0.0 ; Pen down
G1 X176.580 Y85.933 F1000
G0 Z3.0 ; Pen up

G0 X176.927 Y85.933 F3000 ; Travel to line 123
G0 Z0.0 ; Pen down
G1 X195.300 Y67.560 F1000
G0 Z3.0 ; Pen up

G0 X195.647 Y67.560 F3000 ; Travel to line 124
G0 Z0.0 ; Pen down
G1 X176.927 Y86.280 F1000
G0 Z3.0 ; Pen up

G0 X177.620 Y86.280 F3000 ; Travel to line 125
G0 Z0.0 ; Pen down
G1 X195.647 Y68.253 F1000
G0 Z3.0 ; Pen up

G0 X195.993 Y68.253 F3000 ; Travel to line 126
G0 Z0.0 ; Pen down
G1 X177.620 Y86.627 F1000
G0 Z3.0 ; Pen up

G0 X178.313 Y86.627 F3000 ; Travel to line 127
G0 Z0.0 ; Pen down
G1 X195.993 Y68.947 F1000
G0 Z3.0 ; Pen up

G0 X195.993 Y69.293 F3000 ; Travel to line 128
G0 Z0.0 ; Pen down
G1 X178.660 Y86.627 F1000
G0 Z3.0 ; Pen up

G0 X178.660 Y86.973 F3000 ; Travel to line 129
G0 Z0.0 ; Pen down
G1 X196.340 Y69.293 F1000
G0 Z3.0 ; Pen up

G0 X196.340 Y69.987 F3000 ; Travel to line 130
G0 Z0.0 ; Pen down
G1 X179.353 Y86.973 F1000
G0 Z3.0 ; Pen up

G0 X179.700 Y86.973 F3000 ; Travel to line 131
G0 Z0.0 ; Pen down
G1 X196.340 Y70.333 F1000
G0 Z3.0 ; Pen up

G0 X196.687 Y70.680 F3000 ; Travel to line 132
G0 Z0.0 ; Pen down
G1 X180.047 Y87.320 F1000
G0 Z3.0 ; Pen up

G0 X180.393 Y87.320 F3000 ; Travel to line 133
G0 Z0.0 ; Pen down
G1 X196.687 Y71.027 F1000
G0 Z3.0 ; Pen up

G0 X196.687 Y71.720 F3000 ; Travel to line 134
G0 Z0.0 ; Pen down
G1 X181.087 Y87.320 F1000
G0 Z3.0 ; Pen up

G0 X181.087 Y87.667 F3000 ; Travel to line 135
G0 Z0.0 ; Pen down
G1 X197.033 Y71.720 F1000
G0 Z3.0 ; Pen up

G0 X197.033 Y72.067 F3000 ; Travel to line 136
G0 Z0.0 ; Pen down
G1 X181.433 Y87.667 F1000
G0 Z3.0 ; Pen up

G0 X182.127 Y87.667 F3000 ; Travel to line 137
G0 Z0.0 ; Pen down
G1 X197.033 Y72.760 F1000
G0 Z3.0 ; Pen up

G0 X197.033 Y73.107 F3000 ; Travel to line 138
G0 Z0.0 ; Pen down
G1 X182.473 Y87.667 F1000
G0 Z3.0 ; Pen up

G0 X183.167 Y87.667 F3000 ; Travel to line 139
G0 Z0.0 ; Pen down
G1 X197.033 Y73.800 F1000
G0 Z3.0 ; Pen up

G0 X197.033 Y74.147 F3000 ; Travel to line 140
G0 Z0.0 ; Pen down
G1 X183.513 Y87.667 F1000
G0 Z3.0 ; Pen up

G0 X183.860 Y87.667 F3000 ; Travel to line 141
G0 Z0.0 ; Pen down
G1 X197.033 Y74.493 F1000
G0 Z3.0 ; Pen up

G0 X197.033 Y75.187 F3000 ; Travel to line 142
G0 Z0.0 ; Pen down
G1 X184.553 Y87.667 F1000
G0 Z3.0 ; Pen up

G0 X184.900 Y87.667 F3000 ; Travel to line 143
G0 Z0.0 ; Pen down
G1 X197.033 Y75.533 F1000
G0 Z3.0 ; Pen up

G0 X196.687 Y76.573 F3000 ; Travel to line 144
G0 Z0.0 ; Pen down
G1 X185.940 Y87.320 F1000
G0 Z3.0 ; Pen up

G0 X186.287 Y87.320 F3000 ; Travel to line 145
G0 Z0.0 ; Pen down
G1 X196.687 Y76.920 F1000
G0 Z3.0 ; Pen up

G0 X196.687 Y77.267 F3000 ; Travel to line 146
G0 Z0.0 ; Pen down
G1 X186.633 Y87.320 F1000
G0 Z3.0 ; Pen up

G0 X187.673 Y86.973 F3000 ; Travel to line 147
G0 Z0.0 ; Pen down
G1 X196.340 Y78.307 F1000
G0 Z3.0 ; Pen up

G0 X195.993 Y79.000 F3000 ; Travel to line 148
G0 Z0.0 ; Pen down
G1 X188.367 Y86.627 F1000
G0 Z3.0 ; Pen up

G0 X189.407 Y86.280 F3000 ; Travel to line 149
G0 Z0.0 ; Pen down
G1 X195.647 Y80.040 F1000
G0 Z3.0 ; Pen up

G0 X195.300 Y80.733 F3000 ; Travel to line 150
G0 Z0.0 ; Pen down
G1 X190.100 Y85.933 F1000
G0 Z3.0 ; Pen up

G0 X192.527 Y84.200 F3000 ; Travel to line 151
G0 Z0.0 ; Pen down
G1 X193.567 Y83.160 F1000
G0 Z3.0 ; Pen up

G0 X180.393 Y60.280 F3000 ; Travel to line 152
G0 Z0.0 ; Pen down
G1 X169.647 Y71.027 F1000
G0 Z3.0 ; Pen up

G0 X169.647 Y70.680 F3000 ; Travel to line 153
G0 Z0.0 ; Pen down
G1 X180.047 Y60.280 F1000
G0 Z3.0 ; Pen up

G0 X179.700 Y60.280 F3000 ; Travel to line 154
G0 Z0.0 ; Pen down
G1 X169.647 Y70.333 F1000
G0 Z3.0 ; Pen up

G0 X169.993 Y69.293 F3000 ; Travel to line 155
G0 Z0.0 ; Pen down
G1 X178.660 Y60.627 F1000
G0 Z3.0 ; Pen up

G0 X177.967 Y60.973 F3000 ; Travel to line 156
G0 Z0.0 ; Pen down
G1 X170.340 Y68.600 F1000
G0 Z3.0 ; Pen up

G0 X170.687 Y67.560 F3000 ; Travel to line 157
G0 Z0.0 ; Pen down
G1 X176.927 Y61.320 F1000
G0 Z3.0 ; Pen up

G0 X176.233 Y61.667 F3000 ; Travel to line 158
G0 Z0.0 ; Pen down
G1 X171.033 Y66.867 F1000
G0 Z3.0 ; Pen up

G0 X172.767 Y64.440 F3000 ; Travel to line 159
G0 Z0.0 ; Pen down
G1 X173.807 Y63.400 F1000
G0 Z3.0 ; Pen up

G0 X173.460 Y55.427 F3000 ; Travel to line 160
G0 Z0.0 ; Pen down
G1 X174.153 Y54.733 F1000
G1 X174.153 Y53.347 F1000
G1 X173.460 Y52.653 F1000
G1 X172.767 Y52.653 F1000
G1 X172.420 Y53.000 F1000
G1 X172.420 Y55.080 F1000
G1 X172.767 Y55.427 F1000
G0 Z3.0 ; Pen up

G0 X173.113 Y55.427 F3000 ; Travel to line 161
G0 Z0.0 ; Pen down
G1 X173.460 Y55.427 F1000
G1 X173.807 Y55.080 F1000
G1 X173.807 Y54.733 F1000
G1 X174.153 Y54.387 F1000
G1 X174.153 Y53.693 F1000
G1 X173.807 Y53.347 F1000
G1 X173.807 Y53.000 F1000
G1 X173.460 Y52.653 F1000
G1 X173.113 Y52.653 F1000
G1 X172.420 Y53.347 F1000
G1 X172.420 Y54.733 F1000
G0 Z3.0 ; Pen up

G0 X171.033 Y55.427 F3000 ; Travel to line 162
G0 Z0.0 ; Pen down
G1 X171.033 Y53.693 F1000
G1 X171.380 Y53.347 F1000
G1 X171.380 Y53.000 F1000
G1 X171.033 Y52.653 F1000
G1 X169.993 Y52.653 F1000
G1 X169.647 Y53.000 F1000
G1 X169.647 Y53.693 F1000
G1 X169.993 Y54.040 F1000
G1 X169.647 Y54.387 F1000
G1 X169.647 Y55.080 F1000
G1 X169.993 Y55.427 F1000
G0 Z3.0 ; Pen up

G0 X170.340 Y55.427 F3000 ; Travel to line 163
G0 Z0.0 ; Pen down
G1 X170.687 Y55.427 F1000
G1 X171.033 Y55.080 F1000
G1 X171.033 Y54.387 F1000
G1 X170.687 Y54.040 F1000
G1 X170.340 Y54.040 F1000
G1 X169.647 Y54.733 F1000
G0 Z3.0 ; Pen up

G0 X169.647 Y53.693 F3000 ; Travel to line 164
G0 Z0.0 ; Pen down
G1 X169.993 Y54.040 F1000
G1 X170.687 Y54.040 F1000
G1 X171.380 Y53.347 F1000
G1 X170.687 Y52.653 F1000
G1 X169.993 Y52.653 F1000
G1 X169.647 Y53.000 F1000
G0 Z3.0 ; Pen up

G0 X174.847 Y54.040 F3000 ; Travel to line 165
G0 Z0.0 ; Pen down
G1 X174.847 Y53.347 F1000
G1 X175.540 Y52.653 F1000
G1 X175.887 Y52.653 F1000
G1 X176.580 Y53.347 F1000
G1 X176.580 Y54.040 F1000
G1 X175.887 Y54.733 F1000
G1 X175.540 Y54.733 F1000
G1 X175.540 Y54.733 F1000
G1 X175.193 Y54.387 F1000
G1 X174.847 Y54.387 F1000
G1 X174.847 Y51.613 F1000
G1 X174.847 Y52.653 F1000
G1 X175.193 Y53.000 F1000
G1 X175.540 Y52.653 F1000
G1 X176.233 Y52.653 F1000
G1 X176.233 Y53.000 F1000
G1 X176.580 Y53.347 F1000
G1 X176.580 Y54.040 F1000
G1 X176.233 Y54.387 F1000
G1 X176.233 Y54.733 F1000
G0 Z3.0 ; Pen up

G0 X177.620 Y54.733 F3000 ; Travel to line 166
G0 Z0.0 ; Pen down
G1 X177.967 Y54.387 F1000
G1 X177.967 Y54.040 F1000
G1 X178.313 Y53.693 F1000
G1 X178.313 Y53.347 F1000
G1 X178.313 Y54.040 F1000
G0 Z3.0 ; Pen up

G0 X231.700 Y64.440 F3000 ; Travel to line 167
G0 Z0.0 ; Pen down
G1 X250.073 Y46.067 F1000
G0 Z3.0 ; Pen up

G0 X250.767 Y46.067 F3000 ; Travel to line 168
G0 Z0.0 ; Pen down
G1 X231.700 Y65.827 F1000
G0 Z3.0 ; Pen up

G0 X231.700 Y66.173 F3000 ; Travel to line 169
G0 Z0.0 ; Pen down
G1 X251.460 Y46.067 F1000
G1 X251.460 Y46.067 F1000
G1 X231.700 Y66.520 F1000
G0 Z3.0 ; Pen up

G0 X231.700 Y66.867 F3000 ; Travel to line 170
G0 Z0.0 ; Pen down
G1 X251.807 Y46.067 F1000
G0 Z3.0 ; Pen up

G0 X252.153 Y46.067 F3000 ; Travel to line 171
G0 Z0.0 ; Pen down
G1 X231.700 Y67.213 F1000
G0 Z3.0 ; Pen up

G0 X231.700 Y67.907 F3000 ; Travel to line 172
G0 Z0.0 ; Pen down
G1 X252.847 Y46.067 F1000
G1 X252.847 Y46.067 F1000
G1 X231.700 Y67.907 F1000
G0 Z3.0 ; Pen up

G0 X231.700 Y68.600 F3000 ; Travel to line 173
G0 Z0.0 ; Pen down
G1 X253.193 Y46.067 F1000
G0 Z3.0 ; Pen up

G0 X253.540 Y46.067 F3000 ; Travel to line 174
G0 Z0.0 ; Pen down
G1 X231.700 Y68.947 F1000
G0 Z3.0 ; Pen up

G0 X231.700 Y69.293 F3000 ; Travel to line 175
G0 Z0.0 ; Pen down
G1 X253.887 Y46.067 F1000
G0 Z3.0 ; Pen up

G0 X254.233 Y46.067 F3000 ; Travel to line 176
G0 Z0.0 ; Pen down
G1 X232.047 Y69.293 F1000
G0 Z3.0 ; Pen up

G0 X232.047 Y69.987 F3000 ; Travel to line 177
G0 Z0.0 ; Pen down
G1 X254.580 Y46.067 F1000
G0 Z3.0 ; Pen up

G0 X255.273 Y46.413 F3000 ; Travel to line 178
G0 Z0.0 ; Pen down
G1 X232.047 Y71.027 F1000
G0 Z3.0 ; Pen up

G0 X232.393 Y71.373 F3000 ; Travel to line 179
G0 Z0.0 ; Pen down
G1 X255.620 Y46.413 F1000
G1 X255.620 Y46.413 F1000
G1 X232.393 Y71.373 F1000
G0 Z3.0 ; Pen up

G0 X232.393 Y71.720 F3000 ; Travel to line 180
G0 Z0.0 ; Pen down
G1 X255.967 Y46.413 F1000
G0 Z3.0 ; Pen up

G0 X257.007 Y46.413 F3000 ; Travel to line 181
G0 Z0.0 ; Pen down
G1 X232.740 Y72.760 F1000
G0 Z3.0 ; Pen up

G0 X232.740 Y73.107 F3000 ; Travel to line 182
G0 Z0.0 ; Pen down
G1 X257.007 Y46.760 F1000
G0 Z3.0 ; Pen up

G0 X258.047 Y46.760 F3000 ; Travel to line 183
G0 Z0.0 ; Pen down
G1 X233.087 Y73.800 F1000
G0 Z3.0 ; Pen up

G0 X232.740 Y73.800 F3000 ; Travel to line 184
G0 Z0.0 ; Pen down
G1 X257.353 Y46.760 F1000
G1 X257.353 Y46.760 F1000
G1 X232.740 Y73.800 F1000
G0 Z3.0 ; Pen up

G0 X233.087 Y74.493 F3000 ; Travel to line 185
G0 Z0.0 ; Pen down
G1 X258.393 Y46.760 F1000
G1 X258.393 Y46.760 F1000
G1 X233.433 Y74.493 F1000
G0 Z3.0 ; Pen up

G0 X233.433 Y74.840 F3000 ; Travel to line 186
G0 Z0.0 ; Pen down
G1 X258.393 Y47.107 F1000
G0 Z3.0 ; Pen up

G0 X259.087 Y47.107 F3000 ; Travel to line 187
G0 Z0.0 ; Pen down
G1 X233.433 Y75.187 F1000
G0 Z3.0 ; Pen up

G0 X233.780 Y75.533 F3000 ; Travel to line 188
G0 Z0.0 ; Pen down
G1 X259.433 Y47.107 F1000
G1 X259.433 Y47.107 F1000
G1 X233.780 Y75.533 F1000
G0 Z3.0 ; Pen up

G0 X233.780 Y76.227 F3000 ; Travel to line 189
G0 Z0.0 ; Pen down
G1 X259.433 Y47.453 F1000
G0 Z3.0 ; Pen up

G0 X260.127 Y47.800 F3000 ; Travel to line 190
G0 Z0.0 ; Pen down
G1 X234.127 Y76.920 F1000
G0 Z3.0 ; Pen up

G0 X234.473 Y77.267 F3000 ; Travel to line 191
G0 Z0.0 ; Pen down
G1 X260.473 Y47.800 F1000
G1 X260.473 Y47.800 F1000
G1 X234.473 Y77.267 F1000
G0 Z3.0 ; Pen up

G0 X234.820 Y77.267 F3000 ; Travel to line 192
G0 Z0.0 ; Pen down
G1 X260.820 Y47.800 F1000
G0 Z3.0 ; Pen up

G0 X261.167 Y47.800 F3000 ; Travel to line 193
G0 Z0.0 ; Pen down
G1 X234.820 Y77.960 F1000
G0 Z3.0 ; Pen up

G0 X235.167 Y78.307 F3000 ; Travel to line 194
G0 Z0.0 ; Pen down
G1 X261.513 Y48.147 F1000
G1 X261.513 Y48.147 F1000
G1 X235.167 Y78.307 F1000
G0 Z3.0 ; Pen up

G0 X235.513 Y78.307 F3000 ; Travel to line 195
G0 Z0.0 ; Pen down
G1 X261.860 Y48.147 F1000
G0 Z3.0 ; Pen up

G0 X262.207 Y48.493 F3000 ; Travel to line 196
G0 Z0.0 ; Pen down
G1 X235.860 Y79.000 F1000
G0 Z3.0 ; Pen up

G0 X235.513 Y79.000 F3000 ; Travel to line 197
G0 Z0.0 ; Pen down
G1 X261.860 Y48.493 F1000
G1 X261.860 Y48.493 F1000
G1 X235.513 Y79.000 F1000
G0 Z3.0 ; Pen up

G0 X236.207 Y79.347 F3000 ; Travel to line 198
G0 Z0.0 ; Pen down
G1 X262.553 Y48.493 F1000
G0 Z3.0 ; Pen up

G0 X262.900 Y49.187 F3000 ; Travel to line 199
G0 Z0.0 ; Pen down
G1 X236.553 Y80.040 F1000
G0 Z3.0 ; Pen up

G0 X236.553 Y79.693 F3000 ; Travel to line 200
G0 Z0.0 ; Pen down
G1 X262.900 Y48.840 F1000
G1 X262.900 Y48.840 F1000
G1 X236.553 Y79.693 F1000
G0 Z3.0 ; Pen up

G0 X236.900 Y80.387 F3000 ; Travel to line 201
G0 Z0.0 ; Pen down
G1 X263.247 Y49.187 F1000
G1 X263.247 Y49.187 F1000
G1 X236.900 Y80.733 F1000
G1 X236.900 Y80.733 F1000
G1 X263.593 Y49.187 F1000
G0 Z3.0 ; Pen up

G0 X263.940 Y49.533 F3000 ; Travel to line 202
G0 Z0.0 ; Pen down
G1 X237.247 Y81.080 F1000
G0 Z3.0 ; Pen up

G0 X237.593 Y81.427 F3000 ; Travel to line 203
G0 Z0.0 ; Pen down
G1 X263.940 Y49.880 F1000
G1 X263.940 Y49.880 F1000
G1 X237.593 Y81.427 F1000
G0 Z3.0 ; Pen up

G0 X237.940 Y81.427 F3000 ; Travel to line 204
G0 Z0.0 ; Pen down
G1 X264.287 Y49.880 F1000
G0 Z3.0 ; Pen up

G0 X264.633 Y50.227 F3000 ; Travel to line 205
G0 Z0.0 ; Pen down
G1 X238.287 Y82.120 F1000
G0 Z3.0 ; Pen up

G0 X238.287 Y81.773 F3000 ; Travel to line 206
G0 Z0.0 ; Pen down
G1 X264.633 Y49.880 F1000
G1 X264.633 Y49.880 F1000
G1 X238.287 Y81.773 F1000
G0 Z3.0 ; Pen up

G0 X238.633 Y82.467 F3000 ; Travel to line 207
G0 Z0.0 ; Pen down
G1 X264.980 Y50.573 F1000
G1 X264.980 Y50.573 F1000
G1 X238.980 Y82.467 F1000
G0 Z3.0 ; Pen up

G0 X238.980 Y82.813 F3000 ; Travel to line 208
G0 Z0.0 ; Pen down
G1 X265.327 Y50.573 F1000
G0 Z3.0 ; Pen up

G0 X265.327 Y50.920 F3000 ; Travel to line 209
G0 Z0.0 ; Pen down
G1 X239.327 Y82.813 F1000
G0 Z3.0 ; Pen up

G0 X239.673 Y83.160 F3000 ; Travel to line 210
G0 Z0.0 ; Pen down
G1 X265.673 Y50.920 F1000
G1 X265.673 Y50.920 F1000
G1 X239.673 Y83.160 F1000
G0 Z3.0 ; Pen up

G0 X240.020 Y83.160 F3000 ; Travel to line 211
G0 Z0.0 ; Pen down
G1 X266.020 Y50.920 F1000
G0 Z3.0 ; Pen up

G0 X266.367 Y51.613 F3000 ; Travel to line 212
G0 Z0.0 ; Pen down
G1 X240.367 Y83.853 F1000
G0 Z3.0 ; Pen up

G0 X240.367 Y83.507 F3000 ; Travel to line 213
G0 Z0.0 ; Pen down
G1 X266.367 Y51.267 F1000
G1 X266.367 Y51.267 F1000
G1 X240.367 Y83.507 F1000
G0 Z3.0 ; Pen up

G0 X241.060 Y83.853 F3000 ; Travel to line 214
G0 Z0.0 ; Pen down
G1 X266.713 Y51.613 F1000
G0 Z3.0 ; Pen up

G0 X267.060 Y51.960 F3000 ; Travel to line 215
G0 Z0.0 ; Pen down
G1 X241.407 Y84.547 F1000
G0 Z3.0 ; Pen up

G0 X241.753 Y84.547 F3000 ; Travel to line 216
G0 Z0.0 ; Pen down
G1 X267.060 Y52.307 F1000
G1 X267.060 Y52.307 F1000
G1 X241.753 Y84.547 F1000
G0 Z3.0 ; Pen up

G0 X242.100 Y84.893 F3000 ; Travel to line 217
G0 Z0.0 ; Pen down
G1 X267.407 Y52.653 F1000
G0 Z3.0 ; Pen up

G0 X267.753 Y53.000 F3000 ; Travel to line 218
G0 Z0.0 ; Pen down
G1 X242.793 Y85.240 F1000
G0 Z3.0 ; Pen up

G0 X242.447 Y85.240 F3000 ; Travel to line 219
G0 Z0.0 ; Pen down
G1 X267.753 Y52.653 F1000
G1 X267.753 Y52.653 F1000
G1 X242.447 Y85.240 F1000
G0 Z3.0 ; Pen up

G0 X243.140 Y85.587 F3000 ; Travel to line 220
G0 Z0.0 ; Pen down
G1 X268.100 Y53.000 F1000
G0 Z3.0 ; Pen up

G0 X268.447 Y53.347 F3000 ; Travel to line 221
G0 Z0.0 ; Pen down
G1 X243.833 Y85.933 F1000
G0 Z3.0 ; Pen up

G0 X244.180 Y85.933 F3000 ; Travel to line 222
G0 Z0.0 ; Pen down
G1 X268.447 Y54.040 F1000
G1 X268.447 Y54.040 F1000
G1 X244.180 Y85.933 F1000
G0 Z3.0 ; Pen up

G0 X244.527 Y85.933 F3000 ; Travel to line 223
G0 Z0.0 ; Pen down
G1 X268.793 Y54.040 F1000
G0 Z3.0 ; Pen up

G0 X268.793 Y54.387 F3000 ; Travel to line 224
G0 Z0.0 ; Pen down
G1 X244.873 Y86.280 F1000
G0 Z3.0 ; Pen up

G0 X245.220 Y86.280 F3000 ; Travel to line 225
G0 Z0.0 ; Pen down
G1 X269.140 Y54.387 F1000
G1 X269.140 Y54.387 F1000
G1 X245.220 Y86.280 F1000
G0 Z3.0 ; Pen up

G0 X245.567 Y86.627 F3000 ; Travel to line 226
G0 Z0.0 ; Pen down
G1 X269.140 Y54.733 F1000
G0 Z3.0 ; Pen up

G0 X269.487 Y55.427 F3000 ; Travel to line 227
G0 Z0.0 ; Pen down
G1 X246.607 Y86.627 F1000
G0 Z3.0 ; Pen up

G0 X246.607 Y86.973 F3000 ; Travel to line 228
G0 Z0.0 ; Pen down
G1 X269.833 Y55.427 F1000
G0 Z3.0 ; Pen up

G0 X270.180 Y55.773 F3000 ; Travel to line 229
G0 Z0.0 ; Pen down
G1 X247.647 Y86.973 F1000
G0 Z3.0 ; Pen up

G0 X247.993 Y86.973 F3000 ; Travel to line 230
G0 Z0.0 ; Pen down
G1 X270.180 Y56.120 F1000
G1 X270.180 Y56.120 F1000
G1 X247.993 Y86.973 F1000
G0 Z3.0 ; Pen up

G0 X248.340 Y87.320 F3000 ; Travel to line 231
G0 Z0.0 ; Pen down
G1 X270.527 Y56.467 F1000
G0 Z3.0 ; Pen up

G0 X270.873 Y56.813 F3000 ; Travel to line 232
G0 Z0.0 ; Pen down
G1 X249.033 Y87.320 F1000
G0 Z3.0 ; Pen up

G0 X249.380 Y87.320 F3000 ; Travel to line 233
G0 Z0.0 ; Pen down
G1 X270.873 Y57.160 F1000
G0 Z3.0 ; Pen up

G0 X271.220 Y57.507 F3000 ; Travel to line 234
G0 Z0.0 ; Pen down
G1 X250.073 Y87.667 F1000
G0 Z3.0 ; Pen up

G0 X250.073 Y87.320 F3000 ; Travel to line 235
G0 Z0.0 ; Pen down
G1 X270.873 Y57.507 F1000
G1 X270.873 Y57.507 F1000
G1 X250.073 Y87.320 F1000
G0 Z3.0 ; Pen up

G0 X251.113 Y87.667 F3000 ; Travel to line 236
G0 Z0.0 ; Pen down
G1 X271.567 Y58.200 F1000
G0 Z3.0 ; Pen up

G0 X271.567 Y58.547 F3000 ; Travel to line 237
G0 Z0.0 ; Pen down
G1 X251.460 Y87.667 F1000
G0 Z3.0 ; Pen up

G0 X251.807 Y87.667 F3000 ; Travel to line 238
G0 Z0.0 ; Pen down
G1 X271.567 Y58.893 F1000
G1 X271.567 Y58.893 F1000
G1 X251.807 Y87.667 F1000
G0 Z3.0 ; Pen up

G0 X252.500 Y87.667 F3000 ; Travel to line 239
G0 Z0.0 ; Pen down
G1 X271.567 Y59.240 F1000
G0 Z3.0 ; Pen up

G0 X271.913 Y59.933 F3000 ; Travel to line 240
G0 Z0.0 ; Pen down
G1 X253.193 Y87.667 F1000
G0 Z3.0 ; Pen up

G0 X253.540 Y87.667 F3000 ; Travel to line 241
G0 Z0.0 ; Pen down
G1 X272.260 Y59.933 F1000
G1 X272.260 Y59.933 F1000
G1 X253.540 Y87.667 F1000
G0 Z3.0 ; Pen up

G0 X253.887 Y87.667 F3000 ; Travel to line 242
G0 Z0.0 ; Pen down
G1 X272.260 Y60.280 F1000
G0 Z3.0 ; Pen up

G0 X272.260 Y60.627 F3000 ; Travel to line 243
G0 Z0.0 ; Pen down
G1 X254.580 Y87.667 F1000
G0 Z3.0 ; Pen up

G0 X254.927 Y87.667 F3000 ; Travel to line 244
G0 Z0.0 ; Pen down
G1 X272.260 Y60.973 F1000
G1 X272.260 Y60.973 F1000
G1 X254.927 Y87.667 F1000
G0 Z3.0 ; Pen up

G0 X255.620 Y87.320 F3000 ; Travel to line 245
G0 Z0.0 ; Pen down
G1 X272.607 Y60.973 F1000
G0 Z3.0 ; Pen up

G0 X272.607 Y62.013 F3000 ; Travel to line 246
G0 Z0.0 ; Pen down
G1 X256.313 Y87.320 F1000
G0 Z3.0 ; Pen up

G0 X256.660 Y87.320 F3000 ; Travel to line 247
G0 Z0.0 ; Pen down
G1 X272.607 Y62.360 F1000
G0 Z3.0 ; Pen up

G0 X272.953 Y63.053 F3000 ; Travel to line 248
G0 Z0.0 ; Pen down
G1 X257.700 Y86.973 F1000
G0 Z3.0 ; Pen up

G0 X258.047 Y86.973 F3000 ; Travel to line 249
G0 Z0.0 ; Pen down
G1 X272.953 Y63.400 F1000
G1 X272.953 Y63.400 F1000
G1 X258.047 Y86.973 F1000
G0 Z3.0 ; Pen up

G0 X258.393 Y86.973 F3000 ; Travel to line 250
G0 Z0.0 ; Pen down
G1 X272.953 Y63.747 F1000
G0 Z3.0 ; Pen up

G0 X273.300 Y64.440 F3000 ; Travel to line 251
G0 Z0.0 ; Pen down
G1 X259.433 Y86.627 F1000
G0 Z3.0 ; Pen up

G0 X259.087 Y86.627 F3000 ; Travel to line 252
G0 Z0.0 ; Pen down
G1 X272.953 Y64.440 F1000
G1 X272.953 Y64.440 F1000
G1 X259.087 Y86.627 F1000
G0 Z3.0 ; Pen up

G0 X260.127 Y86.280 F3000 ; Travel to line 253
G0 Z0.0 ; Pen down
G1 X273.300 Y64.787 F1000
G0 Z3.0 ; Pen up

G0 X273.300 Y65.480 F3000 ; Travel to line 254
G0 Z0.0 ; Pen down
G1 X260.820 Y85.933 F1000
G0 Z3.0 ; Pen up

G0 X260.473 Y85.933 F3000 ; Travel to line 255
G0 Z0.0 ; Pen down
G1 X273.300 Y65.133 F1000
G1 X273.300 Y65.133 F1000
G1 X260.473 Y85.933 F1000
G0 Z3.0 ; Pen up

G0 X261.513 Y85.587 F3000 ; Travel to line 256
G0 Z0.0 ; Pen down
G1 X273.300 Y66.173 F1000
G1 X273.300 Y66.173 F1000
G1 X261.513 Y85.587 F1000
G0 Z3.0 ; Pen up

G0 X261.860 Y85.587 F3000 ; Travel to line 257
G0 Z0.0 ; Pen down
G1 X273.300 Y66.520 F1000
G0 Z3.0 ; Pen up

G0 X273.300 Y67.213 F3000 ; Travel to line 258
G0 Z0.0 ; Pen down
G1 X262.553 Y85.240 F1000
G0 Z3.0 ; Pen up

G0 X262.900 Y84.893 F3000 ; Travel to line 259
G0 Z0.0 ; Pen down
G1 X273.300 Y67.560 F1000
G1 X273.300 Y67.560 F1000
G1 X262.900 Y84.893 F1000
G0 Z3.0 ; Pen up

G0 X263.593 Y84.547 F3000 ; Travel to line 260
G0 Z0.0 ; Pen down
G1 X273.300 Y67.907 F1000
G0 Z3.0 ; Pen up

G0 X273.300 Y68.947 F3000 ; Travel to line 261
G0 Z0.0 ; Pen down
G1 X264.633 Y83.853 F1000
G0 Z3.0 ; Pen up

G0 X264.287 Y83.853 F3000 ; Travel to line 262
G0 Z0.0 ; Pen down
G1 X273.300 Y68.600 F1000
G1 X273.300 Y68.600 F1000
G1 X264.287 Y83.853 F1000
G0 Z3.0 ; Pen up

G0 X265.327 Y83.160 F3000 ; Travel to line 263
G0 Z0.0 ; Pen down
G1 X272.953 Y69.987 F1000
G0 Z3.0 ; Pen up

G0 X272.953 Y71.027 F3000 ; Travel to line 264
G0 Z0.0 ; Pen down
G1 X266.367 Y82.467 F1000
G0 Z3.0 ; Pen up

G0 X266.020 Y82.813 F3000 ; Travel to line 265
G0 Z0.0 ; Pen down
G1 X272.953 Y70.680 F1000
G1 X272.953 Y70.680 F1000
G1 X266.020 Y82.813 F1000
G0 Z3.0 ; Pen up

G0 X267.407 Y81.427 F3000 ; Travel to line 266
G0 Z0.0 ; Pen down
G1 X272.607 Y72.413 F1000
G1 X272.607 Y72.413 F1000
G1 X267.407 Y81.427 F1000
G0 Z3.0 ; Pen up

G0 X268.100 Y80.733 F3000 ; Travel to line 267
G0 Z0.0 ; Pen down
G1 X272.607 Y72.760 F1000
G0 Z3.0 ; Pen up

G0 X271.567 Y75.533 F3000 ; Travel to line 268
G0 Z0.0 ; Pen down
G1 X270.873 Y76.920 F1000
G0 Z3.0 ; Pen up

G0 X269.487 Y79.000 F3000 ; Travel to line 269
G0 Z0.0 ; Pen down
G1 X272.260 Y73.800 F1000
G1 X272.260 Y73.800 F1000
G1 X269.140 Y79.347 F1000
G0 Z3.0 ; Pen up

G0 X257.007 Y87.320 F3000 ; Travel to line 270
G0 Z0.0 ; Pen down
G1 X272.953 Y62.360 F1000
G1 X272.953 Y62.360 F1000
G1 X257.007 Y87.320 F1000
G0 Z3.0 ; Pen up

G0 X255.967 Y87.320 F3000 ; Travel to line 271
G0 Z0.0 ; Pen down
G1 X272.607 Y61.667 F1000
G1 X272.607 Y61.667 F1000
G1 X255.967 Y87.320 F1000
G0 Z3.0 ; Pen up

G0 X252.847 Y87.667 F3000 ; Travel to line 272
G0 Z0.0 ; Pen down
G1 X271.913 Y59.240 F1000
G1 X271.913 Y59.240 F1000
G1 X252.847 Y87.667 F1000
G0 Z3.0 ; Pen up

G0 X248.687 Y87.320 F3000 ; Travel to line 273
G0 Z0.0 ; Pen down
G1 X270.527 Y56.813 F1000
G1 X270.527 Y56.813 F1000
G1 X248.687 Y87.320 F1000
G0 Z3.0 ; Pen up

G0 X246.953 Y86.973 F3000 ; Travel to line 274
G0 Z0.0 ; Pen down
G1 X269.833 Y55.773 F1000
G1 X269.833 Y55.773 F1000
G1 X246.953 Y86.973 F1000
G0 Z3.0 ; Pen up

G0 X245.913 Y86.627 F3000 ; Travel to line 275
G0 Z0.0 ; Pen down
G1 X269.487 Y54.733 F1000
G1 X269.487 Y54.733 F1000
G1 X245.913 Y86.627 F1000
G0 Z3.0 ; Pen up

G0 X243.487 Y85.587 F3000 ; Travel to line 276
G0 Z0.0 ; Pen down
G1 X268.100 Y53.347 F1000
G1 X268.100 Y53.347 F1000
G1 X243.487 Y85.587 F1000
G0 Z3.0 ; Pen up

G0 X241.060 Y84.200 F3000 ; Travel to line 277
G0 Z0.0 ; Pen down
G1 X266.713 Y51.960 F1000
G1 X266.713 Y51.960 F1000
G1 X241.060 Y84.200 F1000
G0 Z3.0 ; Pen up

G0 X234.127 Y76.227 F3000 ; Travel to line 278
G0 Z0.0 ; Pen down
G1 X259.780 Y47.453 F1000
G1 X259.780 Y47.453 F1000
G1 X234.127 Y76.227 F1000
G0 Z3.0 ; Pen up

G0 X232.393 Y72.760 F3000 ; Travel to line 279
G0 Z0.0 ; Pen down
G1 X256.660 Y46.413 F1000
G1 X256.660 Y46.413 F1000
G1 X232.393 Y72.413 F1000
G0 Z3.0 ; Pen up

G0 X232.047 Y70.333 F3000 ; Travel to line 280
G0 Z0.0 ; Pen down
G1 X254.927 Y46.067 F1000
G1 X254.927 Y46.067 F1000
G1 X232.047 Y70.333 F1000
G0 Z3.0 ; Pen up

G0 X231.700 Y65.133 F3000 ; Travel to line 281
G0 Z0.0 ; Pen down
G1 X250.420 Y46.067 F1000
G1 X250.420 Y46.067 F1000
G1 X231.700 Y65.133 F1000
G0 Z3.0 ; Pen up

G0 X232.047 Y63.747 F3000 ; Travel to line 282
G0 Z0.0 ; Pen down
G1 X249.033 Y46.413 F1000
G1 X249.033 Y46.413 F1000
G1 X232.047 Y63.747 F1000
G0 Z3.0 ; Pen up

G0 X232.047 Y63.053 F3000 ; Travel to line 283
G0 Z0.0 ; Pen down
G1 X248.687 Y46.413 F1000
G0 Z3.0 ; Pen up

G0 X247.993 Y46.413 F3000 ; Travel to line 284
G0 Z0.0 ; Pen down
G1 X232.047 Y62.707 F1000
G0 Z3.0 ; Pen up

G0 X232.393 Y61.667 F3000 ; Travel to line 285
G0 Z0.0 ; Pen down
G1 X247.300 Y46.760 F1000
G1 X247.300 Y46.760 F1000
G1 X232.393 Y61.667 F1000
G0 Z3.0 ; Pen up

G0 X232.393 Y60.973 F3000 ; Travel to line 286
G0 Z0.0 ; Pen down
G1 X246.607 Y46.760 F1000
G0 Z3.0 ; Pen up

G0 X244.180 Y47.800 F3000 ; Travel to line 287
G0 Z0.0 ; Pen down
G1 X233.433 Y58.547 F1000
G0 Z3.0 ; Pen up

G0 X233.780 Y57.507 F3000 ; Travel to line 288
G0 Z0.0 ; Pen down
G1 X243.140 Y48.147 F1000
G0 Z3.0 ; Pen up

G0 X242.447 Y48.493 F3000 ; Travel to line 289
G0 Z0.0 ; Pen down
G1 X234.127 Y56.813 F1000
G0 Z3.0 ; Pen up

G0 X234.820 Y55.773 F3000 ; Travel to line 290
G0 Z0.0 ; Pen down
G1 X241.407 Y49.187 F1000
G0 Z3.0 ; Pen up

G0 X238.980 Y50.920 F3000 ; Travel to line 291
G0 Z0.0 ; Pen down
G1 X236.553 Y53.347 F1000
G0 Z3.0 ; Pen up

G0 X232.740 Y59.933 F3000 ; Travel to line 292
G0 Z0.0 ; Pen down
G1 X245.567 Y47.107 F1000
G1 X245.567 Y47.107 F1000
G1 X232.740 Y59.933 F1000
G0 Z3.0 ; Pen up

G0 X232.740 Y41.560 F3000 ; Travel to line 293
G0 Z0.0 ; Pen down
G1 X232.740 Y39.133 F1000
G1 X233.087 Y38.787 F1000
G1 X233.780 Y38.787 F1000
G1 X232.393 Y38.787 F1000
G1 X232.740 Y39.133 F1000
G1 X232.740 Y41.213 F1000
G1 X232.393 Y41.560 F1000
G1 X232.047 Y41.560 F1000
G0 Z3.0 ; Pen up

G0 X235.167 Y41.560 F3000 ; Travel to line 294
G0 Z0.0 ; Pen down
G1 X234.820 Y41.213 F1000
G1 X235.167 Y41.560 F1000
G1 X235.860 Y41.560 F1000
G1 X236.207 Y41.213 F1000
G1 X236.207 Y40.520 F1000
G1 X235.167 Y39.480 F1000
G1 X235.167 Y38.787 F1000
G1 X236.207 Y38.787 F1000
G1 X235.513 Y38.787 F1000
G1 X235.167 Y39.133 F1000
G1 X236.207 Y40.173 F1000
G1 X236.207 Y41.213 F1000
G1 X235.860 Y41.560 F1000
G0 Z3.0 ; Pen up

G0 X237.247 Y40.867 F3000 ; Travel to line 295
G0 Z0.0 ; Pen down
G1 X237.247 Y39.480 F1000
G1 X237.940 Y38.787 F1000
G1 X238.287 Y38.787 F1000
G1 X238.633 Y39.133 F1000
G1 X238.633 Y39.480 F1000
G1 X238.980 Y39.827 F1000
G1 X238.980 Y40.520 F1000
G1 X238.633 Y40.867 F1000
G1 X238.633 Y41.213 F1000
G1 X238.287 Y41.560 F1000
G1 X237.940 Y41.560 F1000
G0 Z3.0 ; Pen up

G0 X237.593 Y41.560 F3000 ; Travel to line 296
G0 Z0.0 ; Pen down
G1 X237.247 Y41.213 F1000
G1 X237.247 Y39.133 F1000
G1 X237.593 Y38.787 F1000
G1 X238.287 Y38.787 F1000
G1 X238.980 Y39.480 F1000
G1 X238.980 Y40.867 F1000
G1 X238.287 Y41.560 F1000
G0 Z3.0 ; Pen up

G0 X240.020 Y40.173 F3000 ; Travel to line 297
G0 Z0.0 ; Pen down
G1 X240.020 Y39.480 F1000
G1 X240.713 Y38.787 F1000
G1 X241.060 Y38.787 F1000
G1 X241.753 Y39.480 F1000
G1 X241.753 Y40.173 F1000
G1 X241.060 Y40.867 F1000
G1 X240.713 Y40.867 F1000
G1 X240.713 Y40.867 F1000
G1 X240.367 Y40.520 F1000
G1 X240.020 Y40.520 F1000
G1 X240.020 Y37.747 F1000
G1 X240.020 Y38.787 F1000
G1 X240.367 Y39.133 F1000
G1 X240.713 Y38.787 F1000
G1 X241.407 Y38.787 F1000
G1 X241.407 Y39.133 F1000
G1 X241.753 Y39.480 F1000
G1 X241.753 Y40.173 F1000
G1 X241.407 Y40.520 F1000
G1 X241.407 Y40.867 F1000
G0 Z3.0 ; Pen up

G0 X242.793 Y40.867 F3000 ; Travel to line 298
G0 Z0.0 ; Pen down
G1 X243.140 Y40.520 F1000
G1 X243.140 Y40.173 F1000
G1 X243.487 Y39.827 F1000
G1 X243.487 Y39.480 F1000
G1 X243.487 Y40.173 F1000
G0 Z3.0 ; Pen up

G0 X271.220 Y57.853 F3000 ; Travel to line 299
G0 Z0.0 ; Pen down
G1 X250.767 Y87.667 F1000
G1 X250.767 Y87.667 F1000
G1 X271.220 Y58.200 F1000
G0 Z3.0 ; Pen up

G0 X240.713 Y161.507 F3000 ; Travel to line 300
G0 Z0.0 ; Pen down
G1 X240.713 Y160.813 F1000
G1 X240.713 Y161.160 F1000
G1 X240.367 Y161.507 F1000
G1 X240.367 Y161.853 F1000
G1 X240.020 Y162.200 F1000
G0 Z3.0 ; Pen up

G0 X238.633 Y162.200 F3000 ; Travel to line 301
G0 Z0.0 ; Pen down
G1 X238.633 Y161.853 F1000
G1 X238.980 Y161.507 F1000
G1 X238.980 Y160.813 F1000
G1 X238.633 Y160.467 F1000
G1 X238.633 Y160.120 F1000
G1 X237.940 Y160.120 F1000
G1 X237.593 Y160.467 F1000
G1 X237.247 Y160.120 F1000
G1 X237.247 Y159.080 F1000
G1 X237.247 Y161.853 F1000
G1 X237.593 Y161.853 F1000
G1 X237.940 Y162.200 F1000
G1 X237.940 Y162.200 F1000
G1 X238.287 Y162.200 F1000
G1 X238.980 Y161.507 F1000
G1 X238.980 Y160.813 F1000
G1 X238.287 Y160.120 F1000
G1 X237.940 Y160.120 F1000
G1 X237.247 Y160.813 F1000
G1 X237.247 Y161.507 F1000
G0 Z3.0 ; Pen up

G0 X235.860 Y162.893 F3000 ; Travel to line 302
G0 Z0.0 ; Pen down
G1 X236.553 Y162.200 F1000
G1 X236.553 Y160.813 F1000
G1 X235.860 Y160.120 F1000
G1 X235.167 Y160.120 F1000
G1 X234.820 Y160.467 F1000
G1 X234.820 Y162.547 F1000
G1 X235.167 Y162.893 F1000
G0 Z3.0 ; Pen up

G0 X235.513 Y162.893 F3000 ; Travel to line 303
G0 Z0.0 ; Pen down
G1 X235.860 Y162.893 F1000
G1 X236.207 Y162.547 F1000
G1 X236.207 Y162.200 F1000
G1 X236.553 Y161.853 F1000
G1 X236.553 Y161.160 F1000
G1 X236.207 Y160.813 F1000
G1 X236.207 Y160.467 F1000
G1 X235.860 Y160.120 F1000
G1 X235.513 Y160.120 F1000
G1 X234.820 Y160.813 F1000
G1 X234.820 Y162.200 F1000
G0 Z3.0 ; Pen up

G0 X233.087 Y162.893 F3000 ; Travel to line 304
G0 Z0.0 ; Pen down
G1 X233.433 Y162.547 F1000
G1 X233.433 Y161.507 F1000
G1 X232.393 Y160.467 F1000
G1 X232.740 Y160.120 F1000
G1 X233.433 Y160.120 F1000
G1 X232.393 Y160.120 F1000
G1 X232.393 Y160.813 F1000
G1 X233.433 Y161.853 F1000
G1 X233.433 Y162.547 F1000
G1 X233.087 Y162.893 F1000
G1 X232.393 Y162.893 F1000
G1 X232.047 Y162.547 F1000
G1 X232.393 Y162.893 F1000
G0 Z3.0 ; Pen up

G0 X234.127 Y167.400 F3000 ; Travel to line 305
G0 Z0.0 ; Pen down
G1 X231.700 Y169.827 F1000
G0 Z3.0 ; Pen up

G0 X231.700 Y170.173 F3000 ; Travel to line 306
G0 Z0.0 ; Pen down
G1 X234.473 Y167.400 F1000
G0 Z3.0 ; Pen up

G0 X235.167 Y167.400 F3000 ; Travel to line 307
G0 Z0.0 ; Pen down
G1 X231.700 Y170.867 F1000
G0 Z3.0 ; Pen up

G0 X231.700 Y171.560 F3000 ; Travel to line 308
G0 Z0.0 ; Pen down
G1 X235.860 Y167.400 F1000
G0 Z3.0 ; Pen up

G0 X236.207 Y167.400 F3000 ; Travel to line 309
G0 Z0.0 ; Pen down
G1 X231.700 Y171.907 F1000
G0 Z3.0 ; Pen up

G0 X232.047 Y171.907 F3000 ; Travel to line 310
G0 Z0.0 ; Pen down
G1 X236.207 Y167.747 F1000
G0 Z3.0 ; Pen up

G0 X236.900 Y167.747 F3000 ; Travel to line 311
G0 Z0.0 ; Pen down
G1 X232.047 Y172.600 F1000
G0 Z3.0 ; Pen up

G0 X232.393 Y172.600 F3000 ; Travel to line 312
G0 Z0.0 ; Pen down
G1 X236.900 Y168.093 F1000
G0 Z3.0 ; Pen up

G0 X237.247 Y168.093 F3000 ; Travel to line 313
G0 Z0.0 ; Pen down
G1 X232.393 Y172.947 F1000
G0 Z3.0 ; Pen up

G0 X232.740 Y173.293 F3000 ; Travel to line 314
G0 Z0.0 ; Pen down
G1 X237.593 Y168.440 F1000
G0 Z3.0 ; Pen up

G0 X237.940 Y168.787 F3000 ; Travel to line 315
G0 Z0.0 ; Pen down
G1 X233.087 Y173.640 F1000
G0 Z3.0 ; Pen up

G0 X233.433 Y173.640 F3000 ; Travel to line 316
G0 Z0.0 ; Pen down
G1 X237.940 Y169.133 F1000
G0 Z3.0 ; Pen up

G0 X238.287 Y169.133 F3000 ; Travel to line 317
G0 Z0.0 ; Pen down
G1 X233.433 Y173.987 F1000
G0 Z3.0 ; Pen up

G0 X234.127 Y173.987 F3000 ; Travel to line 318
G0 Z0.0 ; Pen down
G1 X238.287 Y169.827 F1000
G0 Z3.0 ; Pen up

G0 X238.633 Y169.827 F3000 ; Travel to line 319
G0 Z0.0 ; Pen down
G1 X234.127 Y174.333 F1000
G0 Z3.0 ; Pen up

G0 X234.473 Y174.333 F3000 ; Travel to line 320
G0 Z0.0 ; Pen down
G1 X238.633 Y170.173 F1000
G0 Z3.0 ; Pen up

G0 X238.633 Y170.867 F3000 ; Travel to line 321
G0 Z0.0 ; Pen down
G1 X235.167 Y174.333 F1000
G0 Z3.0 ; Pen up

G0 X235.860 Y174.333 F3000 ; Travel to line 322
G0 Z0.0 ; Pen down
G1 X238.633 Y171.560 F1000
G0 Z3.0 ; Pen up

G0 X238.633 Y171.907 F3000 ; Travel to line 323
G0 Z0.0 ; Pen down
G1 X236.207 Y174.333 F1000
G0 Z3.0 ; Pen up

G0 X236.900 Y173.987 F3000 ; Travel to line 324
G0 Z0.0 ; Pen down
G1 X238.287 Y172.600 F1000
G0 Z3.0 ; Pen up

G0 X233.433 Y167.747 F3000 ; Travel to line 325
G0 Z0.0 ; Pen down
G1 X232.047 Y169.133 F1000
G0 Z3.0 ; Pen up

G0 X178.313 Y163.240 F3000 ; Travel to line 326
G0 Z0.0 ; Pen down
G1 X178.313 Y162.547 F1000
G1 X178.313 Y162.893 F1000
G1 X177.967 Y163.240 F1000
G1 X177.967 Y163.587 F1000
G1 X177.620 Y163.933 F1000
G0 Z3.0 ; Pen up

G0 X176.233 Y163.933 F3000 ; Travel to line 327
G0 Z0.0 ; Pen down
G1 X176.233 Y163.587 F1000
G1 X176.580 Y163.240 F1000
G1 X176.580 Y162.547 F1000
G1 X176.233 Y162.200 F1000
G1 X176.233 Y161.853 F1000
G1 X175.540 Y161.853 F1000
G1 X175.193 Y162.200 F1000
G1 X174.847 Y161.853 F1000
G1 X174.847 Y160.813 F1000
G1 X174.847 Y163.587 F1000
G1 X175.193 Y163.587 F1000
G1 X175.540 Y163.933 F1000
G1 X175.540 Y163.933 F1000
G1 X175.887 Y163.933 F1000
G1 X176.580 Y163.240 F1000
G1 X176.580 Y162.547 F1000
G1 X175.887 Y161.853 F1000
G1 X175.540 Y161.853 F1000
G1 X174.847 Y162.547 F1000
G1 X174.847 Y163.240 F1000
G0 Z3.0 ; Pen up

G0 X173.807 Y164.627 F3000 ; Travel to line 328
G0 Z0.0 ; Pen down
G1 X172.767 Y164.627 F1000
G1 X172.420 Y164.280 F1000
G1 X172.420 Y163.933 F1000
G1 X172.767 Y163.587 F1000
G1 X173.460 Y163.587 F1000
G1 X173.807 Y163.240 F1000
G1 X173.807 Y162.200 F1000
G1 X173.460 Y161.853 F1000
G1 X172.767 Y161.853 F1000
G1 X172.420 Y162.200 F1000
G1 X172.767 Y161.853 F1000
G1 X173.460 Y161.853 F1000
G1 X173.807 Y162.200 F1000
G1 X173.807 Y163.240 F1000
G1 X173.460 Y163.587 F1000
G1 X172.420 Y163.587 F1000
G1 X172.420 Y164.627 F1000
G0 Z3.0 ; Pen up

G0 X170.340 Y164.627 F3000 ; Travel to line 329
G0 Z0.0 ; Pen down
G1 X170.340 Y162.200 F1000
G1 X170.687 Y161.853 F1000
G1 X171.380 Y161.853 F1000
G1 X169.993 Y161.853 F1000
G1 X170.340 Y162.200 F1000
G1 X170.340 Y164.280 F1000
G1 X169.993 Y164.627 F1000
G1 X169.647 Y164.627 F1000
G0 Z3.0 ; Pen up

G0 X115.913 Y164.973 F3000 ; Travel to line 330
G0 Z0.0 ; Pen down
G1 X115.913 Y164.280 F1000
G1 X115.913 Y164.627 F1000
G1 X115.567 Y164.973 F1000
G1 X115.567 Y165.320 F1000
G1 X115.220 Y165.667 F1000
G0 Z3.0 ; Pen up

G0 X113.833 Y165.667 F3000 ; Travel to line 331
G0 Z0.0 ; Pen down
G1 X113.833 Y165.320 F1000
G1 X114.180 Y164.973 F1000
G1 X114.180 Y164.280 F1000
G1 X113.833 Y163.933 F1000
G1 X113.833 Y163.587 F1000
G1 X113.140 Y163.587 F1000
G1 X112.793 Y163.933 F1000
G1 X112.447 Y163.587 F1000
G1 X112.447 Y162.547 F1000
G1 X112.447 Y165.320 F1000
G1 X112.793 Y165.320 F1000
G1 X113.140 Y165.667 F1000
G1 X113.140 Y165.667 F1000
G1 X113.487 Y165.667 F1000
G1 X114.180 Y164.973 F1000
G1 X114.180 Y164.280 F1000
G1 X113.487 Y163.587 F1000
G1 X113.140 Y163.587 F1000
G1 X112.447 Y164.280 F1000
G1 X112.447 Y164.973 F1000
G0 Z3.0 ; Pen up

G0 X111.060 Y166.360 F3000 ; Travel to line 332
G0 Z0.0 ; Pen down
G1 X111.753 Y165.667 F1000
G1 X111.753 Y164.280 F1000
G1 X111.060 Y163.587 F1000
G1 X110.367 Y163.587 F1000
G1 X110.020 Y163.933 F1000
G1 X110.020 Y166.013 F1000
G1 X110.367 Y166.360 F1000
G0 Z3.0 ; Pen up

G0 X110.713 Y166.360 F3000 ; Travel to line 333
G0 Z0.0 ; Pen down
G1 X111.060 Y166.360 F1000
G1 X111.407 Y166.013 F1000
G1 X111.407 Y165.667 F1000
G1 X111.753 Y165.320 F1000
G1 X111.753 Y164.627 F1000
G1 X111.407 Y164.280 F1000
G1 X111.407 Y163.933 F1000
G1 X111.060 Y163.587 F1000
G1 X110.713 Y163.587 F1000
G1 X110.020 Y164.280 F1000
G1 X110.020 Y165.667 F1000
G0 Z3.0 ; Pen up

G0 X107.940 Y166.360 F3000 ; Travel to line 334
G0 Z0.0 ; Pen down
G1 X107.940 Y163.933 F1000
G1 X108.287 Y163.587 F1000
G1 X108.980 Y163.587 F1000
G1 X107.593 Y163.587 F1000
G1 X107.940 Y163.933 F1000
G1 X107.940 Y166.013 F1000
G1 X107.593 Y166.360 F1000
G1 X107.247 Y166.360 F1000
G0 Z3.0 ; Pen up

G0 X50.740 Y166.707 F3000 ; Travel to line 335
G0 Z0.0 ; Pen down
G1 X50.740 Y166.013 F1000
G1 X50.740 Y166.360 F1000
G1 X50.393 Y166.707 F1000
G1 X50.393 Y167.053 F1000
G1 X50.047 Y167.400 F1000
G0 Z3.0 ; Pen up

G0 X49.007 Y167.400 F3000 ; Travel to line 336
G0 Z0.0 ; Pen down
G1 X49.007 Y167.053 F1000
G1 X49.353 Y166.707 F1000
G1 X49.353 Y166.013 F1000
G1 X49.007 Y165.667 F1000
G1 X49.007 Y165.320 F1000
G1 X48.313 Y165.320 F1000
G1 X47.967 Y165.667 F1000
G1 X47.620 Y165.320 F1000
G1 X47.620 Y164.280 F1000
G1 X47.620 Y167.053 F1000
G1 X47.967 Y167.053 F1000
G1 X48.313 Y167.400 F1000
G1 X48.313 Y167.400 F1000
G1 X48.660 Y167.400 F1000
G1 X49.353 Y166.707 F1000
G1 X49.353 Y166.013 F1000
G1 X48.660 Y165.320 F1000
G1 X48.313 Y165.320 F1000
G1 X47.620 Y166.013 F1000
G1 X47.620 Y166.707 F1000
G0 Z3.0 ; Pen up

G0 X46.233 Y168.093 F3000 ; Travel to line 337
G0 Z0.0 ; Pen down
G1 X45.193 Y168.093 F1000
G1 X44.847 Y167.747 F1000
G1 X44.847 Y167.400 F1000
G1 X45.193 Y167.053 F1000
G1 X45.887 Y167.053 F1000
G1 X46.233 Y166.707 F1000
G1 X46.233 Y165.667 F1000
G1 X45.887 Y165.320 F1000
G1 X45.193 Y165.320 F1000
G1 X44.847 Y165.667 F1000
G1 X45.193 Y165.320 F1000
G1 X45.887 Y165.320 F1000
G1 X46.233 Y165.667 F1000
G1 X46.233 Y166.707 F1000
G1 X45.887 Y167.053 F1000
G1 X44.847 Y167.053 F1000
G1 X44.847 Y168.093 F1000
G0 Z3.0 ; Pen up

; Return to origin
G0 X0 Y0
G0 Z3.0

; Total drawing distance: 9522.92 mm
; Total travel distance: 976.90 mm
; Total lines: 337
; Estimated time: 590.9 seconds (9.8 minutes)
M2 ; End program