; Blueprint to G-code
; Input: test_data/test_images/test_black_square_white_circle.png
; Generated with blueprint2gcode.py

G21 ; Set units to millimeters
G90 ; Absolute positioning
G0 Z3.0 ; Pen up
G0 X0 Y0 ; Move to origin

G0 X78.220 Y207.000 F3000 ; Travel to line 1
G0 Z0.0 ; Pen down
G1 X77.960 Y206.740 F1000
G1 X75.620 Y206.740 F1000
G1 X75.360 Y206.480 F1000
G1 X73.540 Y206.480 F1000
G1 X73.280 Y206.220 F1000
G1 X71.720 Y206.220 F1000
G1 X71.460 Y205.960 F1000
G1 X69.900 Y205.960 F1000
G1 X69.640 Y205.700 F1000
G1 X68.600 Y205.700 F1000
G1 X68.340 Y205.440 F1000
G1 X67.040 Y205.440 F1000
G1 X66.780 Y205.180 F1000
G1 X65.740 Y205.180 F1000
G1 X65.480 Y204.920 F1000
G1 X64.440 Y204.920 F1000
G1 X64.180 Y204.660 F1000
G1 X63.400 Y204.660 F1000
G1 X63.140 Y204.400 F1000
G1 X62.100 Y204.400 F1000
G1 X61.840 Y204.140 F1000
G1 X61.060 Y204.140 F1000
G1 X60.800 Y203.880 F1000
G1 X60.020 Y203.880 F1000
G1 X59.760 Y203.620 F1000
G1 X59.240 Y203.620 F1000
G1 X58.980 Y203.360 F1000
G1 X58.200 Y203.360 F1000
G1 X57.940 Y203.100 F1000
G1 X57.160 Y203.100 F1000
G1 X56.900 Y202.840 F1000
G1 X56.380 Y202.840 F1000
G1 X56.120 Y202.580 F1000
G1 X55.340 Y202.580 F1000
G1 X55.080 Y202.320 F1000
G1 X54.560 Y202.320 F1000
G1 X54.300 Y202.060 F1000
G1 X53.780 Y202.060 F1000
G1 X53.520 Y201.800 F1000
G1 X53.000 Y201.800 F1000
G1 X52.740 Y201.540 F1000
G1 X52.480 Y201.540 F1000
G1 X51.960 Y201.020 F1000
G1 X51.960 Y200.760 F1000
G1 X51.700 Y200.500 F1000
G1 X51.700 Y199.980 F1000
G1 X51.440 Y199.720 F1000
G1 X51.440 Y199.200 F1000
G1 X51.180 Y198.940 F1000
G1 X51.180 Y198.420 F1000
G1 X50.920 Y198.160 F1000
G1 X50.920 Y197.380 F1000
G1 X50.660 Y197.120 F1000
G1 X50.660 Y196.600 F1000
G1 X50.400 Y196.340 F1000
G1 X50.400 Y195.560 F1000
G1 X50.140 Y195.300 F1000
G1 X50.140 Y194.520 F1000
G1 X49.880 Y194.260 F1000
G1 X49.880 Y193.740 F1000
G1 X49.620 Y193.480 F1000
G1 X49.620 Y192.700 F1000
G1 X49.360 Y192.440 F1000
G1 X49.360 Y191.660 F1000
G1 X49.100 Y191.400 F1000
G1 X49.100 Y190.360 F1000
G1 X48.840 Y190.100 F1000
G1 X48.840 Y189.320 F1000
G1 X48.580 Y189.060 F1000
G1 X48.580 Y188.020 F1000
G1 X48.320 Y187.760 F1000
G1 X48.320 Y186.720 F1000
G1 X48.060 Y186.460 F1000
G1 X48.060 Y185.160 F1000
G1 X47.800 Y184.900 F1000
G1 X47.800 Y183.860 F1000
G1 X47.540 Y183.600 F1000
G1 X47.540 Y182.040 F1000
G1 X47.280 Y181.780 F1000
G1 X47.280 Y180.220 F1000
G1 X47.020 Y179.960 F1000
G1 X47.020 Y178.140 F1000
G1 X46.760 Y177.880 F1000
G1 X46.760 Y175.540 F1000
G1 X46.500 Y175.280 F1000
G1 X46.500 Y171.380 F1000
G1 X46.240 Y171.120 F1000
G1 X46.240 Y125.880 F1000
G1 X46.500 Y125.620 F1000
G1 X46.500 Y121.720 F1000
G1 X46.760 Y121.460 F1000
G1 X46.760 Y119.120 F1000
G1 X47.020 Y118.860 F1000
G1 X47.020 Y117.040 F1000
G1 X47.280 Y116.780 F1000
G1 X47.280 Y115.220 F1000
G1 X47.540 Y114.960 F1000
G1 X47.540 Y113.400 F1000
G1 X47.800 Y113.140 F1000
G1 X47.800 Y112.100 F1000
G1 X48.060 Y111.840 F1000
G1 X48.060 Y110.540 F1000
G1 X48.320 Y110.280 F1000
G1 X48.320 Y109.240 F1000
G1 X48.580 Y108.980 F1000
G1 X48.580 Y107.940 F1000
G1 X48.840 Y107.680 F1000
G1 X48.840 Y106.900 F1000
G1 X49.100 Y106.640 F1000
G1 X49.100 Y105.600 F1000
G1 X49.360 Y105.340 F1000
G1 X49.360 Y104.560 F1000
G1 X49.620 Y104.300 F1000
G1 X49.620 Y103.520 F1000
G1 X49.880 Y103.260 F1000
G1 X49.880 Y102.740 F1000
G1 X50.140 Y102.480 F1000
G1 X50.140 Y101.700 F1000
G1 X50.400 Y101.440 F1000
G1 X50.400 Y100.660 F1000
G1 X50.660 Y100.400 F1000
G1 X50.660 Y99.880 F1000
G1 X50.920 Y99.620 F1000
G1 X50.920 Y98.840 F1000
G1 X51.180 Y98.580 F1000
G1 X51.180 Y98.060 F1000
G1 X51.440 Y97.800 F1000
G1 X51.440 Y97.280 F1000
G1 X51.700 Y97.020 F1000
G1 X51.700 Y96.500 F1000
G1 X51.960 Y96.240 F1000
G1 X51.960 Y95.980 F1000
G1 X52.480 Y95.460 F1000
G1 X53.000 Y95.460 F1000
G1 X53.260 Y95.200 F1000
G1 X53.780 Y95.200 F1000
G1 X54.040 Y94.940 F1000
G1 X54.560 Y94.940 F1000
G1 X54.820 Y94.680 F1000
G1 X55.600 Y94.680 F1000
G1 X55.860 Y94.420 F1000
G1 X56.380 Y94.420 F1000
G1 X56.640 Y94.160 F1000
G1 X57.420 Y94.160 F1000
G1 X57.680 Y93.900 F1000
G1 X58.200 Y93.900 F1000
G1 X58.460 Y93.640 F1000
G1 X59.240 Y93.640 F1000
G1 X59.500 Y93.380 F1000
G1 X60.280 Y93.380 F1000
G1 X60.540 Y93.120 F1000
G1 X61.320 Y93.120 F1000
G1 X61.580 Y92.860 F1000
G1 X62.360 Y92.860 F1000
G1 X62.620 Y92.600 F1000
G1 X63.660 Y92.600 F1000
G1 X63.920 Y92.340 F1000
G1 X64.700 Y92.340 F1000
G1 X64.960 Y92.080 F1000
G1 X66.000 Y92.080 F1000
G1 X66.260 Y91.820 F1000
G1 X67.300 Y91.820 F1000
G1 X67.560 Y91.560 F1000
G1 X68.860 Y91.560 F1000
G1 X69.120 Y91.300 F1000
G1 X70.420 Y91.300 F1000
G1 X70.680 Y91.040 F1000
G1 X72.240 Y91.040 F1000
G1 X72.500 Y90.780 F1000
G1 X74.060 Y90.780 F1000
G1 X74.320 Y90.520 F1000
G1 X76.400 Y90.520 F1000
G1 X76.660 Y90.260 F1000
G1 X79.520 Y90.260 F1000
G1 X79.780 Y90.000 F1000
G1 X130.220 Y90.000 F1000
G1 X130.480 Y90.260 F1000
G1 X133.340 Y90.260 F1000
G1 X133.600 Y90.520 F1000
G1 X135.680 Y90.520 F1000
G1 X135.940 Y90.780 F1000
G1 X137.500 Y90.780 F1000
G1 X137.760 Y91.040 F1000
G1 X139.320 Y91.040 F1000
G1 X139.580 Y91.300 F1000
G1 X140.880 Y91.300 F1000
G1 X141.140 Y91.560 F1000
G1 X142.440 Y91.560 F1000
G1 X142.700 Y91.820 F1000
G1 X143.740 Y91.820 F1000
G1 X144.000 Y92.080 F1000
G1 X145.040 Y92.080 F1000
G1 X145.300 Y92.340 F1000
G1 X146.080 Y92.340 F1000
G1 X146.340 Y92.600 F1000
G1 X147.380 Y92.600 F1000
G1 X147.640 Y92.860 F1000
G1 X148.420 Y92.860 F1000
G1 X148.680 Y93.120 F1000
G1 X149.460 Y93.120 F1000
G1 X149.720 Y93.380 F1000
G1 X150.500 Y93.380 F1000
G1 X150.760 Y93.640 F1000
G1 X151.540 Y93.640 F1000
G1 X151.800 Y93.900 F1000
G1 X152.320 Y93.900 F1000
G1 X152.580 Y94.160 F1000
G1 X153.360 Y94.160 F1000
G1 X153.620 Y94.420 F1000
G1 X154.140 Y94.420 F1000
G1 X154.400 Y94.680 F1000
G1 X155.180 Y94.680 F1000
G1 X155.440 Y94.940 F1000
G1 X155.960 Y94.940 F1000
G1 X156.220 Y95.200 F1000
G1 X156.740 Y95.200 F1000
G1 X157.000 Y95.460 F1000
G1 X157.520 Y95.460 F1000
G1 X158.040 Y95.980 F1000
G1 X158.040 Y96.500 F1000
G1 X158.300 Y96.760 F1000
G1 X158.300 Y97.280 F1000
G1 X158.560 Y97.540 F1000
G1 X158.560 Y98.060 F1000
G1 X158.820 Y98.320 F1000
G1 X158.820 Y99.100 F1000
G1 X159.080 Y99.360 F1000
G1 X159.080 Y99.880 F1000
G1 X159.340 Y100.140 F1000
G1 X159.340 Y100.920 F1000
G1 X159.600 Y101.180 F1000
G1 X159.600 Y101.700 F1000
G1 X159.860 Y101.960 F1000
G1 X159.860 Y102.740 F1000
G1 X160.120 Y103.000 F1000
G1 X160.120 Y103.780 F1000
G1 X160.380 Y104.040 F1000
G1 X160.380 Y104.820 F1000
G1 X160.640 Y105.080 F1000
G1 X160.640 Y105.860 F1000
G1 X160.900 Y106.120 F1000
G1 X160.900 Y107.160 F1000
G1 X161.160 Y107.420 F1000
G1 X161.160 Y108.200 F1000
G1 X161.420 Y108.460 F1000
G1 X161.420 Y109.500 F1000
G1 X161.680 Y109.760 F1000
G1 X161.680 Y110.800 F1000
G1 X161.940 Y111.060 F1000
G1 X161.940 Y112.360 F1000
G1 X162.200 Y112.620 F1000
G1 X162.200 Y113.920 F1000
G1 X162.460 Y114.180 F1000
G1 X162.460 Y115.740 F1000
G1 X162.720 Y116.000 F1000
G1 X162.720 Y117.560 F1000
G1 X162.980 Y117.820 F1000
G1 X162.980 Y119.900 F1000
G1 X163.240 Y120.160 F1000
G1 X163.240 Y123.020 F1000
G1 X163.500 Y123.280 F1000
G1 X163.500 Y173.720 F1000
G1 X163.240 Y173.980 F1000
G1 X163.240 Y176.840 F1000
G1 X162.980 Y177.100 F1000
G1 X162.980 Y179.180 F1000
G1 X162.720 Y179.440 F1000
G1 X162.720 Y181.000 F1000
G1 X162.460 Y181.260 F1000
G1 X162.460 Y182.820 F1000
G1 X162.200 Y183.080 F1000
G1 X162.200 Y184.380 F1000
G1 X161.940 Y184.640 F1000
G1 X161.940 Y185.940 F1000
G1 X161.680 Y186.200 F1000
G1 X161.680 Y187.240 F1000
G1 X161.420 Y187.500 F1000
G1 X161.420 Y188.540 F1000
G1 X161.160 Y188.800 F1000
G1 X161.160 Y189.580 F1000
G1 X160.900 Y189.840 F1000
G1 X160.900 Y190.880 F1000
G1 X160.640 Y191.140 F1000
G1 X160.640 Y191.920 F1000
G1 X160.380 Y192.180 F1000
G1 X160.380 Y192.960 F1000
G1 X160.120 Y193.220 F1000
G1 X160.120 Y194.000 F1000
G1 X159.860 Y194.260 F1000
G1 X159.860 Y195.040 F1000
G1 X159.600 Y195.300 F1000
G1 X159.600 Y195.820 F1000
G1 X159.340 Y196.080 F1000
G1 X159.340 Y196.860 F1000
G1 X159.080 Y197.120 F1000
G1 X159.080 Y197.640 F1000
G1 X158.820 Y197.900 F1000
G1 X158.820 Y198.680 F1000
G1 X158.560 Y198.940 F1000
G1 X158.560 Y199.460 F1000
G1 X158.300 Y199.720 F1000
G1 X158.300 Y200.240 F1000
G1 X158.040 Y200.500 F1000
G1 X158.040 Y201.020 F1000
G1 X157.520 Y201.540 F1000
G1 X157.260 Y201.540 F1000
G1 X157.000 Y201.800 F1000
G1 X156.480 Y201.800 F1000
G1 X156.220 Y202.060 F1000
G1 X155.700 Y202.060 F1000
G1 X155.440 Y202.320 F1000
G1 X154.920 Y202.320 F1000
G1 X154.660 Y202.580 F1000
G1 X153.880 Y202.580 F1000
G1 X153.620 Y202.840 F1000
G1 X153.100 Y202.840 F1000
G1 X152.840 Y203.100 F1000
G1 X152.060 Y203.100 F1000
G1 X151.800 Y203.360 F1000
G1 X151.020 Y203.360 F1000
G1 X150.760 Y203.620 F1000
G1 X150.240 Y203.620 F1000
G1 X149.980 Y203.880 F1000
G1 X149.200 Y203.880 F1000
G1 X148.940 Y204.140 F1000
G1 X148.160 Y204.140 F1000
G1 X147.900 Y204.400 F1000
G1 X146.860 Y204.400 F1000
G1 X146.600 Y204.660 F1000
G1 X145.820 Y204.660 F1000
G1 X145.560 Y204.920 F1000
G1 X144.520 Y204.920 F1000
G1 X144.260 Y205.180 F1000
G1 X143.220 Y205.180 F1000
G1 X142.960 Y205.440 F1000
G1 X141.660 Y205.440 F1000
G1 X141.400 Y205.700 F1000
G1 X140.360 Y205.700 F1000
G1 X140.100 Y205.960 F1000
G1 X138.540 Y205.960 F1000
G1 X138.280 Y206.220 F1000
G1 X136.720 Y206.220 F1000
G1 X136.460 Y206.480 F1000
G1 X134.640 Y206.480 F1000
G1 X134.380 Y206.740 F1000
G1 X132.040 Y206.740 F1000
G1 X131.780 Y207.000 F1000
G1 X127.880 Y207.000 F1000
G1 X127.620 Y207.260 F1000
G1 X82.380 Y207.260 F1000
G1 X82.120 Y207.000 F1000
G0 Z3.0 ; Pen up

G0 X82.380 Y207.260 F3000 ; Travel to line 2
G0 Z0.0 ; Pen down
G1 X82.120 Y207.000 F1000
G1 X78.220 Y207.000 F1000
G1 X77.960 Y206.740 F1000
G1 X75.620 Y206.740 F1000
G1 X75.360 Y206.480 F1000
G1 X73.540 Y206.480 F1000
G1 X73.280 Y206.220 F1000
G1 X71.720 Y206.220 F1000
G1 X71.460 Y205.960 F1000
G1 X69.900 Y205.960 F1000
G1 X69.640 Y205.700 F1000
G1 X68.600 Y205.700 F1000
G1 X68.340 Y205.440 F1000
G1 X67.040 Y205.440 F1000
G1 X66.780 Y205.180 F1000
G1 X65.740 Y205.180 F1000
G1 X65.480 Y204.920 F1000
G1 X64.440 Y204.920 F1000
G1 X64.180 Y204.660 F1000
G1 X63.400 Y204.660 F1000
G1 X63.140 Y204.400 F1000
G1 X62.100 Y204.400 F1000
G1 X61.840 Y204.140 F1000
G1 X61.060 Y204.140 F1000
G1 X60.800 Y203.880 F1000
G1 X60.020 Y203.880 F1000
G1 X59.760 Y203.620 F1000
G1 X59.240 Y203.620 F1000
G1 X58.980 Y203.360 F1000
G1 X58.200 Y203.360 F1000
G1 X57.940 Y203.100 F1000
G1 X57.160 Y203.100 F1000
G1 X56.900 Y202.840 F1000
G1 X56.380 Y202.840 F1000
G1 X56.120 Y202.580 F1000
G1 X55.340 Y202.580 F1000
G1 X55.080 Y202.320 F1000
G1 X54.560 Y202.320 F1000
G1 X54.300 Y202.060 F1000
G1 X53.780 Y202.060 F1000
G1 X53.520 Y201.800 F1000
G1 X53.000 Y201.800 F1000
G1 X52.740 Y201.540 F1000
G1 X52.220 Y201.540 F1000
G1 X51.960 Y201.280 F1000
G1 X51.960 Y200.760 F1000
G1 X51.700 Y200.500 F1000
G1 X51.700 Y199.980 F1000
G1 X51.440 Y199.720 F1000
G1 X51.440 Y199.200 F1000
G1 X51.180 Y198.940 F1000
G1 X51.180 Y198.420 F1000
G1 X50.920 Y198.160 F1000
G1 X50.920 Y197.380 F1000
G1 X50.660 Y197.120 F1000
G1 X50.660 Y196.600 F1000
G1 X50.400 Y196.340 F1000
G1 X50.400 Y195.560 F1000
G1 X50.140 Y195.300 F1000
G1 X50.140 Y194.520 F1000
G1 X49.880 Y194.260 F1000
G1 X49.880 Y193.740 F1000
G1 X49.620 Y193.480 F1000
G1 X49.620 Y192.700 F1000
G1 X49.360 Y192.440 F1000
G1 X49.360 Y191.660 F1000
G1 X49.100 Y191.400 F1000
G1 X49.100 Y190.360 F1000
G1 X48.840 Y190.100 F1000
G1 X48.840 Y189.320 F1000
G1 X48.580 Y189.060 F1000
G1 X48.580 Y188.020 F1000
G1 X48.320 Y187.760 F1000
G1 X48.320 Y186.720 F1000
G1 X48.060 Y186.460 F1000
G1 X48.060 Y185.160 F1000
G1 X47.800 Y184.900 F1000
G1 X47.800 Y183.860 F1000
G1 X47.540 Y183.600 F1000
G1 X47.540 Y182.040 F1000
G1 X47.280 Y181.780 F1000
G1 X47.280 Y180.220 F1000
G1 X47.020 Y179.960 F1000
G1 X47.020 Y178.140 F1000
G1 X46.760 Y177.880 F1000
G1 X46.760 Y175.540 F1000
G1 X46.500 Y175.280 F1000
G1 X46.500 Y171.380 F1000
G1 X46.240 Y171.120 F1000
G1 X46.240 Y125.880 F1000
G1 X46.500 Y125.620 F1000
G1 X46.500 Y121.720 F1000
G1 X46.760 Y121.460 F1000
G1 X46.760 Y119.120 F1000
G1 X47.020 Y118.860 F1000
G1 X47.020 Y117.040 F1000
G1 X47.280 Y116.780 F1000
G1 X47.280 Y115.220 F1000
G1 X47.540 Y114.960 F1000
G1 X47.540 Y113.400 F1000
G1 X47.800 Y113.140 F1000
G1 X47.800 Y112.100 F1000
G1 X48.060 Y111.840 F1000
G1 X48.060 Y110.540 F1000
G1 X48.320 Y110.280 F1000
G1 X48.320 Y109.240 F1000
G1 X48.580 Y108.980 F1000
G1 X48.580 Y107.940 F1000
G1 X48.840 Y107.680 F1000
G1 X48.840 Y106.900 F1000
G1 X49.100 Y106.640 F1000
G1 X49.100 Y105.600 F1000
G1 X49.360 Y105.340 F1000
G1 X49.360 Y104.560 F1000
G1 X49.620 Y104.300 F1000
G1 X49.620 Y103.520 F1000
G1 X49.880 Y103.260 F1000
G1 X49.880 Y102.740 F1000
G1 X50.140 Y102.480 F1000
G1 X50.140 Y101.700 F1000
G1 X50.400 Y101.440 F1000
G1 X50.400 Y100.660 F1000
G1 X50.660 Y100.400 F1000
G1 X50.660 Y99.880 F1000
G1 X50.920 Y99.620 F1000
G1 X50.920 Y98.840 F1000
G1 X51.180 Y98.580 F1000
G1 X51.180 Y98.060 F1000
G1 X51.440 Y97.800 F1000
G1 X51.440 Y97.280 F1000
G1 X51.700 Y97.020 F1000
G1 X51.700 Y96.500 F1000
G1 X51.960 Y96.240 F1000
G1 X51.960 Y95.720 F1000
G1 X52.220 Y95.720 F1000
G1 X52.480 Y95.460 F1000
G1 X53.000 Y95.460 F1000
G1 X53.260 Y95.200 F1000
G1 X53.780 Y95.200 F1000
G1 X54.040 Y94.940 F1000
G1 X54.560 Y94.940 F1000
G1 X54.820 Y94.680 F1000
G1 X55.600 Y94.680 F1000
G1 X55.860 Y94.420 F1000
G1 X56.380 Y94.420 F1000
G1 X56.640 Y94.160 F1000
G1 X57.420 Y94.160 F1000
G1 X57.680 Y93.900 F1000
G1 X58.200 Y93.900 F1000
G1 X58.460 Y93.640 F1000
G1 X59.240 Y93.640 F1000
G1 X59.500 Y93.380 F1000
G1 X60.280 Y93.380 F1000
G1 X60.540 Y93.120 F1000
G1 X61.320 Y93.120 F1000
G1 X61.580 Y92.860 F1000
G1 X62.360 Y92.860 F1000
G1 X62.620 Y92.600 F1000
G1 X63.660 Y92.600 F1000
G1 X63.920 Y92.340 F1000
G1 X64.700 Y92.340 F1000
G1 X64.960 Y92.080 F1000
G1 X66.000 Y92.080 F1000
G1 X66.260 Y91.820 F1000
G1 X67.300 Y91.820 F1000
G1 X67.560 Y91.560 F1000
G1 X68.860 Y91.560 F1000
G1 X69.120 Y91.300 F1000
G1 X70.420 Y91.300 F1000
G1 X70.680 Y91.040 F1000
G1 X72.240 Y91.040 F1000
G1 X72.500 Y90.780 F1000
G1 X74.060 Y90.780 F1000
G1 X74.320 Y90.520 F1000
G1 X76.400 Y90.520 F1000
G1 X76.660 Y90.260 F1000
G1 X79.520 Y90.260 F1000
G1 X79.780 Y90.000 F1000
G1 X130.220 Y90.000 F1000
G1 X130.480 Y90.260 F1000
G1 X133.340 Y90.260 F1000
G1 X133.600 Y90.520 F1000
G1 X135.680 Y90.520 F1000
G1 X135.940 Y90.780 F1000
G1 X137.500 Y90.780 F1000
G1 X137.760 Y91.040 F1000
G1 X139.320 Y91.040 F1000
G1 X139.580 Y91.300 F1000
G1 X140.880 Y91.300 F1000
G1 X141.140 Y91.560 F1000
G1 X142.440 Y91.560 F1000
G1 X142.700 Y91.820 F1000
G1 X143.740 Y91.820 F1000
G1 X144.000 Y92.080 F1000
G1 X145.040 Y92.080 F1000
G1 X145.300 Y92.340 F1000
G1 X146.080 Y92.340 F1000
G1 X146.340 Y92.600 F1000
G1 X147.380 Y92.600 F1000
G1 X147.640 Y92.860 F1000
G1 X148.420 Y92.860 F1000
G1 X148.680 Y93.120 F1000
G1 X149.460 Y93.120 F1000
G1 X149.720 Y93.380 F1000
G1 X150.500 Y93.380 F1000
G1 X150.760 Y93.640 F1000
G1 X151.540 Y93.640 F1000
G1 X151.800 Y93.900 F1000
G1 X152.320 Y93.900 F1000
G1 X152.580 Y94.160 F1000
G1 X153.360 Y94.160 F1000
G1 X153.620 Y94.420 F1000
G1 X154.140 Y94.420 F1000
G1 X154.400 Y94.680 F1000
G1 X155.180 Y94.680 F1000
G1 X155.440 Y94.940 F1000
G1 X155.960 Y94.940 F1000
G1 X156.220 Y95.200 F1000
G1 X156.740 Y95.200 F1000
G1 X157.000 Y95.460 F1000
G1 X157.520 Y95.460 F1000
G1 X158.040 Y95.980 F1000
G1 X158.040 Y96.500 F1000
G1 X158.300 Y96.760 F1000
G1 X158.300 Y97.280 F1000
G1 X158.560 Y97.540 F1000
G1 X158.560 Y98.060 F1000
G1 X158.820 Y98.320 F1000
G1 X158.820 Y99.100 F1000
G1 X159.080 Y99.360 F1000
G1 X159.080 Y99.880 F1000
G1 X159.340 Y100.140 F1000
G1 X159.340 Y100.920 F1000
G1 X159.600 Y101.180 F1000
G1 X159.600 Y101.700 F1000
G1 X159.860 Y101.960 F1000
G1 X159.860 Y102.740 F1000
G1 X160.120 Y103.000 F1000
G1 X160.120 Y103.780 F1000
G1 X160.380 Y104.040 F1000
G1 X160.380 Y104.820 F1000
G1 X160.640 Y105.080 F1000
G1 X160.640 Y105.860 F1000
G1 X160.900 Y106.120 F1000
G1 X160.900 Y107.160 F1000
G1 X161.160 Y107.420 F1000
G1 X161.160 Y108.200 F1000
G1 X161.420 Y108.460 F1000
G1 X161.420 Y109.500 F1000
G1 X161.680 Y109.760 F1000
G1 X161.680 Y110.800 F1000
G1 X161.940 Y111.060 F1000
G1 X161.940 Y112.360 F1000
G1 X162.200 Y112.620 F1000
G1 X162.200 Y113.920 F1000
G1 X162.460 Y114.180 F1000
G1 X162.460 Y115.740 F1000
G1 X162.720 Y116.000 F1000
G1 X162.720 Y117.560 F1000
G1 X162.980 Y117.820 F1000
G1 X162.980 Y119.900 F1000
G1 X163.240 Y120.160 F1000
G1 X163.240 Y123.020 F1000
G1 X163.500 Y123.280 F1000
G1 X163.500 Y173.720 F1000
G1 X163.240 Y173.980 F1000
G1 X163.240 Y176.840 F1000
G1 X162.980 Y177.100 F1000
G1 X162.980 Y179.180 F1000
G1 X162.720 Y179.440 F1000
G1 X162.720 Y181.000 F1000
G1 X162.460 Y181.260 F1000
G1 X162.460 Y182.820 F1000
G1 X162.200 Y183.080 F1000
G1 X162.200 Y184.380 F1000
G1 X161.940 Y184.640 F1000
G1 X161.940 Y185.940 F1000
G1 X161.680 Y186.200 F1000
G1 X161.680 Y187.240 F1000
G1 X161.420 Y187.500 F1000
G1 X161.420 Y188.540 F1000
G1 X161.160 Y188.800 F1000
G1 X161.160 Y189.580 F1000
G1 X160.900 Y189.840 F1000
G1 X160.900 Y190.880 F1000
G1 X160.640 Y191.140 F1000
G1 X160.640 Y191.920 F1000
G1 X160.380 Y192.180 F1000
G1 X160.380 Y192.960 F1000
G1 X160.120 Y193.220 F1000
G1 X160.120 Y194.000 F1000
G1 X159.860 Y194.260 F1000
G1 X159.860 Y195.040 F1000
G1 X159.600 Y195.300 F1000
G1 X159.600 Y195.820 F1000
G1 X159.340 Y196.080 F1000
G1 X159.340 Y196.860 F1000
G1 X159.080 Y197.120 F1000
G1 X159.080 Y197.640 F1000
G1 X158.820 Y197.900 F1000
G1 X158.820 Y198.680 F1000
G1 X158.560 Y198.940 F1000
G1 X158.560 Y199.460 F1000
G1 X158.300 Y199.720 F1000
G1 X158.300 Y200.240 F1000
G1 X158.040 Y200.500 F1000
G1 X158.040 Y201.020 F1000
G1 X157.780 Y201.280 F1000
G1 X157.780 Y201.540 F1000
G1 X157.260 Y201.540 F1000
G1 X157.000 Y201.800 F1000
G1 X156.480 Y201.800 F1000
G1 X156.220 Y202.060 F1000
G1 X155.700 Y202.060 F1000
G1 X155.440 Y202.320 F1000
G1 X154.920 Y202.320 F1000
G1 X154.660 Y202.580 F1000
G1 X153.880 Y202.580 F1000
G1 X153.620 Y202.840 F1000
G1 X153.100 Y202.840 F1000
G1 X152.840 Y203.100 F1000
G1 X152.060 Y203.100 F1000
G1 X151.800 Y203.360 F1000
G1 X151.020 Y203.360 F1000
G1 X150.760 Y203.620 F1000
G1 X150.240 Y203.620 F1000
G1 X149.980 Y203.880 F1000
G1 X149.200 Y203.880 F1000
G1 X148.940 Y204.140 F1000
G1 X148.160 Y204.140 F1000
G1 X147.900 Y204.400 F1000
G1 X146.860 Y204.400 F1000
G1 X146.600 Y204.660 F1000
G1 X145.820 Y204.660 F1000
G1 X145.560 Y204.920 F1000
G1 X144.520 Y204.920 F1000
G1 X144.260 Y205.180 F1000
G1 X143.220 Y205.180 F1000
G1 X142.960 Y205.440 F1000
G1 X141.660 Y205.440 F1000
G1 X141.400 Y205.700 F1000
G1 X140.360 Y205.700 F1000
G1 X140.100 Y205.960 F1000
G1 X138.540 Y205.960 F1000
G1 X138.280 Y206.220 F1000
G1 X136.720 Y206.220 F1000
G1 X136.460 Y206.480 F1000
G1 X134.640 Y206.480 F1000
G1 X134.380 Y206.740 F1000
G1 X132.040 Y206.740 F1000
G1 X131.780 Y207.000 F1000
G1 X127.880 Y207.000 F1000
G1 X127.620 Y207.260 F1000
G0 Z3.0 ; Pen up

; Return to origin
G0 X0 Y0
G0 Z3.0

; Total drawing distance: 1054.78 mm
; Total travel distance: 221.65 mm
; Total lines: 2
; Estimated time: 67.7 seconds (1.1 minutes)
M2 ; End program