; Blueprint to G-code
; Input: test_data/test_images/test_black_square_white_circle.png
; Generated with blueprint2gcode.py

G21 ; Set units to millimeters
G90 ; Absolute positioning
G0 Z3.0 ; Pen up
G0 X0 Y0 ; Move to origin

G0 X79.260 Y70.240 F3000 ; Travel to line 1
G0 Z0.0 ; Pen down
G1 X27.000 Y122.500 F1000
G0 Z3.0 ; Pen up

G0 X27.000 Y123.280 F3000 ; Travel to line 2
G0 Z0.0 ; Pen down
G1 X80.040 Y70.240 F1000
G0 Z3.0 ; Pen up

G0 X80.820 Y70.240 F3000 ; Travel to line 3
G0 Z0.0 ; Pen down
G1 X27.000 Y124.060 F1000
G0 Z3.0 ; Pen up

G0 X27.000 Y124.580 F3000 ; Travel to line 4
G0 Z0.0 ; Pen down
G1 X81.340 Y70.240 F1000
G0 Z3.0 ; Pen up

G0 X82.120 Y70.240 F3000 ; Travel to line 5
G0 Z0.0 ; Pen down
G1 X27.000 Y125.360 F1000
G0 Z3.0 ; Pen up

G0 X27.000 Y126.140 F3000 ; Travel to line 6
G0 Z0.0 ; Pen down
G1 X82.900 Y70.240 F1000
G0 Z3.0 ; Pen up

G0 X83.420 Y70.240 F3000 ; Travel to line 7
G0 Z0.0 ; Pen down
G1 X27.000 Y126.660 F1000
G0 Z3.0 ; Pen up

G0 X27.000 Y127.440 F3000 ; Travel to line 8
G0 Z0.0 ; Pen down
G1 X84.200 Y70.240 F1000
G0 Z3.0 ; Pen up

G0 X84.980 Y70.240 F3000 ; Travel to line 9
G0 Z0.0 ; Pen down
G1 X27.000 Y128.220 F1000
G0 Z3.0 ; Pen up

G0 X27.000 Y129.000 F3000 ; Travel to line 10
G0 Z0.0 ; Pen down
G1 X85.760 Y70.240 F1000
G0 Z3.0 ; Pen up

G0 X86.280 Y70.240 F3000 ; Travel to line 11
G0 Z0.0 ; Pen down
G1 X27.000 Y129.520 F1000
G0 Z3.0 ; Pen up

G0 X27.000 Y130.300 F3000 ; Travel to line 12
G0 Z0.0 ; Pen down
G1 X87.060 Y70.240 F1000
G0 Z3.0 ; Pen up

G0 X87.840 Y70.240 F3000 ; Travel to line 13
G0 Z0.0 ; Pen down
G1 X27.000 Y131.080 F1000
G0 Z3.0 ; Pen up

G0 X27.000 Y131.860 F3000 ; Travel to line 14
G0 Z0.0 ; Pen down
G1 X88.620 Y70.240 F1000
G0 Z3.0 ; Pen up

G0 X89.140 Y70.240 F3000 ; Travel to line 15
G0 Z0.0 ; Pen down
G1 X27.000 Y132.380 F1000
G0 Z3.0 ; Pen up

G0 X27.000 Y133.160 F3000 ; Travel to line 16
G0 Z0.0 ; Pen down
G1 X89.920 Y70.240 F1000
G0 Z3.0 ; Pen up

G0 X90.700 Y70.240 F3000 ; Travel to line 17
G0 Z0.0 ; Pen down
G1 X27.000 Y133.940 F1000
G0 Z3.0 ; Pen up

G0 X27.000 Y134.460 F3000 ; Travel to line 18
G0 Z0.0 ; Pen down
G1 X91.220 Y70.240 F1000
G0 Z3.0 ; Pen up

G0 X92.000 Y70.240 F3000 ; Travel to line 19
G0 Z0.0 ; Pen down
G1 X27.000 Y135.240 F1000
G0 Z3.0 ; Pen up

G0 X27.000 Y136.020 F3000 ; Travel to line 20
G0 Z0.0 ; Pen down
G1 X92.780 Y70.240 F1000
G0 Z3.0 ; Pen up

G0 X93.560 Y70.240 F3000 ; Travel to line 21
G0 Z0.0 ; Pen down
G1 X27.000 Y136.800 F1000
G0 Z3.0 ; Pen up

G0 X27.000 Y137.320 F3000 ; Travel to line 22
G0 Z0.0 ; Pen down
G1 X94.080 Y70.240 F1000
G0 Z3.0 ; Pen up

G0 X94.860 Y70.240 F3000 ; Travel to line 23
G0 Z0.0 ; Pen down
G1 X27.000 Y138.100 F1000
G0 Z3.0 ; Pen up

G0 X27.000 Y138.880 F3000 ; Travel to line 24
G0 Z0.0 ; Pen down
G1 X95.640 Y70.240 F1000
G0 Z3.0 ; Pen up

G0 X96.160 Y70.240 F3000 ; Travel to line 25
G0 Z0.0 ; Pen down
G1 X27.000 Y139.400 F1000
G0 Z3.0 ; Pen up

G0 X27.000 Y140.180 F3000 ; Travel to line 26
G0 Z0.0 ; Pen down
G1 X96.940 Y70.240 F1000
G0 Z3.0 ; Pen up

G0 X97.720 Y70.240 F3000 ; Travel to line 27
G0 Z0.0 ; Pen down
G1 X27.000 Y140.960 F1000
G0 Z3.0 ; Pen up

G0 X27.000 Y141.740 F3000 ; Travel to line 28
G0 Z0.0 ; Pen down
G1 X98.500 Y70.240 F1000
G0 Z3.0 ; Pen up

G0 X99.020 Y70.240 F3000 ; Travel to line 29
G0 Z0.0 ; Pen down
G1 X27.000 Y142.260 F1000
G0 Z3.0 ; Pen up

G0 X27.000 Y143.040 F3000 ; Travel to line 30
G0 Z0.0 ; Pen down
G1 X99.800 Y70.240 F1000
G0 Z3.0 ; Pen up

G0 X100.580 Y70.240 F3000 ; Travel to line 31
G0 Z0.0 ; Pen down
G1 X27.000 Y143.820 F1000
G0 Z3.0 ; Pen up

G0 X27.000 Y144.340 F3000 ; Travel to line 32
G0 Z0.0 ; Pen down
G1 X101.100 Y70.240 F1000
G0 Z3.0 ; Pen up

G0 X101.880 Y70.240 F3000 ; Travel to line 33
G0 Z0.0 ; Pen down
G1 X27.000 Y145.120 F1000
G0 Z3.0 ; Pen up

G0 X27.000 Y145.900 F3000 ; Travel to line 34
G0 Z0.0 ; Pen down
G1 X102.660 Y70.240 F1000
G0 Z3.0 ; Pen up

G0 X103.440 Y70.240 F3000 ; Travel to line 35
G0 Z0.0 ; Pen down
G1 X27.000 Y146.680 F1000
G0 Z3.0 ; Pen up

G0 X27.000 Y147.200 F3000 ; Travel to line 36
G0 Z0.0 ; Pen down
G1 X103.960 Y70.240 F1000
G0 Z3.0 ; Pen up

G0 X104.740 Y70.240 F3000 ; Travel to line 37
G0 Z0.0 ; Pen down
G1 X27.000 Y147.980 F1000
G0 Z3.0 ; Pen up

G0 X27.000 Y148.760 F3000 ; Travel to line 38
G0 Z0.0 ; Pen down
G1 X105.520 Y70.240 F1000
G0 Z3.0 ; Pen up

G0 X106.300 Y70.240 F3000 ; Travel to line 39
G0 Z0.0 ; Pen down
G1 X27.000 Y149.540 F1000
G0 Z3.0 ; Pen up

G0 X27.000 Y150.060 F3000 ; Travel to line 40
G0 Z0.0 ; Pen down
G1 X106.820 Y70.240 F1000
G0 Z3.0 ; Pen up

G0 X107.600 Y70.240 F3000 ; Travel to line 41
G0 Z0.0 ; Pen down
G1 X27.000 Y150.840 F1000
G0 Z3.0 ; Pen up

G0 X27.000 Y151.620 F3000 ; Travel to line 42
G0 Z0.0 ; Pen down
G1 X108.380 Y70.240 F1000
G0 Z3.0 ; Pen up

G0 X108.900 Y70.240 F3000 ; Travel to line 43
G0 Z0.0 ; Pen down
G1 X27.000 Y152.140 F1000
G0 Z3.0 ; Pen up

G0 X27.000 Y152.920 F3000 ; Travel to line 44
G0 Z0.0 ; Pen down
G1 X109.680 Y70.240 F1000
G0 Z3.0 ; Pen up

G0 X110.460 Y70.240 F3000 ; Travel to line 45
G0 Z0.0 ; Pen down
G1 X27.000 Y153.700 F1000
G0 Z3.0 ; Pen up

G0 X27.000 Y154.480 F3000 ; Travel to line 46
G0 Z0.0 ; Pen down
G1 X111.240 Y70.240 F1000
G0 Z3.0 ; Pen up

G0 X111.760 Y70.240 F3000 ; Travel to line 47
G0 Z0.0 ; Pen down
G1 X27.000 Y155.000 F1000
G0 Z3.0 ; Pen up

G0 X27.000 Y155.780 F3000 ; Travel to line 48
G0 Z0.0 ; Pen down
G1 X112.540 Y70.240 F1000
G0 Z3.0 ; Pen up

G0 X113.320 Y70.240 F3000 ; Travel to line 49
G0 Z0.0 ; Pen down
G1 X27.000 Y156.560 F1000
G0 Z3.0 ; Pen up

G0 X27.000 Y157.080 F3000 ; Travel to line 50
G0 Z0.0 ; Pen down
G1 X113.840 Y70.240 F1000
G0 Z3.0 ; Pen up

G0 X114.620 Y70.240 F3000 ; Travel to line 51
G0 Z0.0 ; Pen down
G1 X27.000 Y157.860 F1000
G0 Z3.0 ; Pen up

G0 X27.000 Y158.640 F3000 ; Travel to line 52
G0 Z0.0 ; Pen down
G1 X115.400 Y70.240 F1000
G0 Z3.0 ; Pen up

G0 X116.180 Y70.240 F3000 ; Travel to line 53
G0 Z0.0 ; Pen down
G1 X27.000 Y159.420 F1000
G0 Z3.0 ; Pen up

G0 X27.000 Y159.940 F3000 ; Travel to line 54
G0 Z0.0 ; Pen down
G1 X116.700 Y70.240 F1000
G0 Z3.0 ; Pen up

G0 X117.480 Y70.240 F3000 ; Travel to line 55
G0 Z0.0 ; Pen down
G1 X27.000 Y160.720 F1000
G0 Z3.0 ; Pen up

G0 X27.000 Y161.500 F3000 ; Travel to line 56
G0 Z0.0 ; Pen down
G1 X118.260 Y70.240 F1000
G0 Z3.0 ; Pen up

G0 X118.780 Y70.240 F3000 ; Travel to line 57
G0 Z0.0 ; Pen down
G1 X27.000 Y162.020 F1000
G0 Z3.0 ; Pen up

G0 X27.000 Y162.800 F3000 ; Travel to line 58
G0 Z0.0 ; Pen down
G1 X119.560 Y70.240 F1000
G0 Z3.0 ; Pen up

G0 X120.340 Y70.240 F3000 ; Travel to line 59
G0 Z0.0 ; Pen down
G1 X27.000 Y163.580 F1000
G0 Z3.0 ; Pen up

G0 X27.000 Y164.360 F3000 ; Travel to line 60
G0 Z0.0 ; Pen down
G1 X121.120 Y70.240 F1000
G0 Z3.0 ; Pen up

G0 X121.640 Y70.240 F3000 ; Travel to line 61
G0 Z0.0 ; Pen down
G1 X27.000 Y164.880 F1000
G0 Z3.0 ; Pen up

G0 X27.000 Y165.660 F3000 ; Travel to line 62
G0 Z0.0 ; Pen down
G1 X122.420 Y70.240 F1000
G0 Z3.0 ; Pen up

G0 X123.200 Y70.240 F3000 ; Travel to line 63
G0 Z0.0 ; Pen down
G1 X27.000 Y166.440 F1000
G0 Z3.0 ; Pen up

G0 X27.000 Y167.220 F3000 ; Travel to line 64
G0 Z0.0 ; Pen down
G1 X123.980 Y70.240 F1000
G0 Z3.0 ; Pen up

G0 X124.500 Y70.240 F3000 ; Travel to line 65
G0 Z0.0 ; Pen down
G1 X27.000 Y167.740 F1000
G0 Z3.0 ; Pen up

G0 X27.000 Y168.520 F3000 ; Travel to line 66
G0 Z0.0 ; Pen down
G1 X125.280 Y70.240 F1000
G0 Z3.0 ; Pen up

G0 X126.060 Y70.240 F3000 ; Travel to line 67
G0 Z0.0 ; Pen down
G1 X27.000 Y169.300 F1000
G0 Z3.0 ; Pen up

G0 X27.000 Y169.820 F3000 ; Travel to line 68
G0 Z0.0 ; Pen down
G1 X126.580 Y70.240 F1000
G0 Z3.0 ; Pen up

G0 X127.360 Y70.240 F3000 ; Travel to line 69
G0 Z0.0 ; Pen down
G1 X27.000 Y170.600 F1000
G0 Z3.0 ; Pen up

G0 X27.000 Y171.380 F3000 ; Travel to line 70
G0 Z0.0 ; Pen down
G1 X74.060 Y124.320 F1000
G0 Z3.0 ; Pen up

G0 X71.980 Y127.180 F3000 ; Travel to line 71
G0 Z0.0 ; Pen down
G1 X27.000 Y172.160 F1000
G0 Z3.0 ; Pen up

G0 X27.000 Y172.680 F3000 ; Travel to line 72
G0 Z0.0 ; Pen down
G1 X71.200 Y128.480 F1000
G0 Z3.0 ; Pen up

G0 X70.160 Y130.300 F3000 ; Travel to line 73
G0 Z0.0 ; Pen down
G1 X27.000 Y173.460 F1000
G0 Z3.0 ; Pen up

G0 X27.000 Y174.240 F3000 ; Travel to line 74
G0 Z0.0 ; Pen down
G1 X69.380 Y131.860 F1000
G0 Z3.0 ; Pen up

G0 X69.120 Y132.640 F3000 ; Travel to line 75
G0 Z0.0 ; Pen down
G1 X27.000 Y174.760 F1000
G0 Z3.0 ; Pen up

G0 X27.000 Y175.540 F3000 ; Travel to line 76
G0 Z0.0 ; Pen down
G1 X68.340 Y134.200 F1000
G0 Z3.0 ; Pen up

G0 X68.080 Y135.240 F3000 ; Travel to line 77
G0 Z0.0 ; Pen down
G1 X27.000 Y176.320 F1000
G0 Z3.0 ; Pen up

G0 X27.000 Y177.100 F3000 ; Travel to line 78
G0 Z0.0 ; Pen down
G1 X67.560 Y136.540 F1000
G0 Z3.0 ; Pen up

G0 X67.300 Y137.320 F3000 ; Travel to line 79
G0 Z0.0 ; Pen down
G1 X27.000 Y177.620 F1000
G0 Z3.0 ; Pen up

G0 X27.000 Y178.400 F3000 ; Travel to line 80
G0 Z0.0 ; Pen down
G1 X67.040 Y138.360 F1000
G0 Z3.0 ; Pen up

G0 X66.780 Y139.400 F3000 ; Travel to line 81
G0 Z0.0 ; Pen down
G1 X27.000 Y179.180 F1000
G0 Z3.0 ; Pen up

G0 X27.000 Y179.700 F3000 ; Travel to line 82
G0 Z0.0 ; Pen down
G1 X66.520 Y140.180 F1000
G0 Z3.0 ; Pen up

G0 X66.520 Y140.960 F3000 ; Travel to line 83
G0 Z0.0 ; Pen down
G1 X27.000 Y180.480 F1000
G0 Z3.0 ; Pen up

G0 X27.000 Y181.260 F3000 ; Travel to line 84
G0 Z0.0 ; Pen down
G1 X66.260 Y142.000 F1000
G0 Z3.0 ; Pen up

G0 X66.000 Y143.040 F3000 ; Travel to line 85
G0 Z0.0 ; Pen down
G1 X27.000 Y182.040 F1000
G0 Z3.0 ; Pen up

G0 X27.000 Y182.560 F3000 ; Travel to line 86
G0 Z0.0 ; Pen down
G1 X66.000 Y143.560 F1000
G0 Z3.0 ; Pen up

G0 X66.000 Y144.340 F3000 ; Travel to line 87
G0 Z0.0 ; Pen down
G1 X27.000 Y183.340 F1000
G0 Z3.0 ; Pen up

G0 X27.000 Y184.120 F3000 ; Travel to line 88
G0 Z0.0 ; Pen down
G1 X65.740 Y145.380 F1000
G0 Z3.0 ; Pen up

G0 X65.740 Y146.160 F3000 ; Travel to line 89
G0 Z0.0 ; Pen down
G1 X27.000 Y184.900 F1000
G0 Z3.0 ; Pen up

G0 X27.000 Y185.420 F3000 ; Travel to line 90
G0 Z0.0 ; Pen down
G1 X65.740 Y146.680 F1000
G0 Z3.0 ; Pen up

G0 X65.740 Y147.460 F3000 ; Travel to line 91
G0 Z0.0 ; Pen down
G1 X27.000 Y186.200 F1000
G0 Z3.0 ; Pen up

G0 X27.000 Y186.980 F3000 ; Travel to line 92
G0 Z0.0 ; Pen down
G1 X65.740 Y148.240 F1000
G0 Z3.0 ; Pen up

G0 X65.740 Y148.760 F3000 ; Travel to line 93
G0 Z0.0 ; Pen down
G1 X27.000 Y187.500 F1000
G0 Z3.0 ; Pen up

G0 X27.000 Y188.280 F3000 ; Travel to line 94
G0 Z0.0 ; Pen down
G1 X65.740 Y149.540 F1000
G0 Z3.0 ; Pen up

G0 X65.740 Y150.320 F3000 ; Travel to line 95
G0 Z0.0 ; Pen down
G1 X27.000 Y189.060 F1000
G0 Z3.0 ; Pen up

G0 X27.000 Y189.840 F3000 ; Travel to line 96
G0 Z0.0 ; Pen down
G1 X65.740 Y151.100 F1000
G0 Z3.0 ; Pen up

G0 X65.740 Y151.620 F3000 ; Travel to line 97
G0 Z0.0 ; Pen down
G1 X27.000 Y190.360 F1000
G0 Z3.0 ; Pen up

G0 X27.000 Y191.140 F3000 ; Travel to line 98
G0 Z0.0 ; Pen down
G1 X66.000 Y152.140 F1000
G0 Z3.0 ; Pen up

G0 X66.000 Y152.920 F3000 ; Travel to line 99
G0 Z0.0 ; Pen down
G1 X27.000 Y191.920 F1000
G0 Z3.0 ; Pen up

G0 X27.000 Y192.440 F3000 ; Travel to line 100
G0 Z0.0 ; Pen down
G1 X66.000 Y153.440 F1000
G0 Z3.0 ; Pen up

G0 X66.000 Y153.960 F3000 ; Travel to line 101
G0 Z0.0 ; Pen down
G1 X27.000 Y193.220 F1000
G0 Z3.0 ; Pen up

G0 X27.000 Y194.000 F3000 ; Travel to line 102
G0 Z0.0 ; Pen down
G1 X66.260 Y154.740 F1000
G0 Z3.0 ; Pen up

G0 X66.260 Y155.520 F3000 ; Travel to line 103
G0 Z0.0 ; Pen down
G1 X27.000 Y194.780 F1000
G0 Z3.0 ; Pen up

G0 X27.000 Y195.300 F3000 ; Travel to line 104
G0 Z0.0 ; Pen down
G1 X66.520 Y155.780 F1000
G0 Z3.0 ; Pen up

G0 X66.520 Y156.560 F3000 ; Travel to line 105
G0 Z0.0 ; Pen down
G1 X27.000 Y196.080 F1000
G0 Z3.0 ; Pen up

G0 X27.000 Y196.860 F3000 ; Travel to line 106
G0 Z0.0 ; Pen down
G1 X66.780 Y157.080 F1000
G0 Z3.0 ; Pen up

G0 X66.780 Y157.600 F3000 ; Travel to line 107
G0 Z0.0 ; Pen down
G1 X27.000 Y197.380 F1000
G0 Z3.0 ; Pen up

G0 X27.000 Y198.160 F3000 ; Travel to line 108
G0 Z0.0 ; Pen down
G1 X67.040 Y158.120 F1000
G0 Z3.0 ; Pen up

G0 X67.040 Y158.900 F3000 ; Travel to line 109
G0 Z0.0 ; Pen down
G1 X27.000 Y198.940 F1000
G0 Z3.0 ; Pen up

G0 X27.000 Y199.720 F3000 ; Travel to line 110
G0 Z0.0 ; Pen down
G1 X67.300 Y159.420 F1000
G0 Z3.0 ; Pen up

G0 X67.560 Y159.680 F3000 ; Travel to line 111
G0 Z0.0 ; Pen down
G1 X27.000 Y200.240 F1000
G0 Z3.0 ; Pen up

G0 X27.000 Y201.020 F3000 ; Travel to line 112
G0 Z0.0 ; Pen down
G1 X67.560 Y160.460 F1000
G0 Z3.0 ; Pen up

G0 X67.820 Y160.980 F3000 ; Travel to line 113
G0 Z0.0 ; Pen down
G1 X27.000 Y201.800 F1000
G0 Z3.0 ; Pen up

G0 X27.000 Y202.320 F3000 ; Travel to line 114
G0 Z0.0 ; Pen down
G1 X67.820 Y161.240 F1000
G0 Z3.0 ; Pen up

G0 X68.080 Y162.020 F3000 ; Travel to line 115
G0 Z0.0 ; Pen down
G1 X27.000 Y203.100 F1000
G0 Z3.0 ; Pen up

G0 X27.000 Y203.880 F3000 ; Travel to line 116
G0 Z0.0 ; Pen down
G1 X68.340 Y162.540 F1000
G0 Z3.0 ; Pen up

G0 X68.600 Y163.060 F3000 ; Travel to line 117
G0 Z0.0 ; Pen down
G1 X27.000 Y204.660 F1000
G0 Z3.0 ; Pen up

G0 X27.000 Y205.180 F3000 ; Travel to line 118
G0 Z0.0 ; Pen down
G1 X68.600 Y163.320 F1000
G0 Z3.0 ; Pen up

G0 X68.860 Y163.840 F3000 ; Travel to line 119
G0 Z0.0 ; Pen down
G1 X27.000 Y205.960 F1000
G0 Z3.0 ; Pen up

G0 X27.000 Y206.740 F3000 ; Travel to line 120
G0 Z0.0 ; Pen down
G1 X69.120 Y164.620 F1000
G0 Z3.0 ; Pen up

G0 X69.380 Y165.140 F3000 ; Travel to line 121
G0 Z0.0 ; Pen down
G1 X27.000 Y207.520 F1000
G0 Z3.0 ; Pen up

G0 X27.000 Y208.040 F3000 ; Travel to line 122
G0 Z0.0 ; Pen down
G1 X69.640 Y165.400 F1000
G0 Z3.0 ; Pen up

G0 X69.900 Y165.920 F3000 ; Travel to line 123
G0 Z0.0 ; Pen down
G1 X27.000 Y208.820 F1000
G0 Z3.0 ; Pen up

G0 X27.000 Y209.600 F3000 ; Travel to line 124
G0 Z0.0 ; Pen down
G1 X70.160 Y166.440 F1000
G0 Z3.0 ; Pen up

G0 X70.160 Y166.700 F3000 ; Travel to line 125
G0 Z0.0 ; Pen down
G1 X27.000 Y210.120 F1000
G0 Z3.0 ; Pen up

G0 X27.000 Y210.900 F3000 ; Travel to line 126
G0 Z0.0 ; Pen down
G1 X70.420 Y167.220 F1000
G0 Z3.0 ; Pen up

G0 X70.940 Y167.740 F3000 ; Travel to line 127
G0 Z0.0 ; Pen down
G1 X27.000 Y211.680 F1000
G0 Z3.0 ; Pen up

G0 X27.000 Y212.460 F3000 ; Travel to line 128
G0 Z0.0 ; Pen down
G1 X71.200 Y168.260 F1000
G0 Z3.0 ; Pen up

G0 X71.200 Y168.520 F3000 ; Travel to line 129
G0 Z0.0 ; Pen down
G1 X27.000 Y212.980 F1000
G0 Z3.0 ; Pen up

G0 X27.000 Y213.760 F3000 ; Travel to line 130
G0 Z0.0 ; Pen down
G1 X71.460 Y169.040 F1000
G0 Z3.0 ; Pen up

G0 X71.980 Y169.560 F3000 ; Travel to line 131
G0 Z0.0 ; Pen down
G1 X27.000 Y214.540 F1000
G0 Z3.0 ; Pen up

G0 X27.000 Y215.060 F3000 ; Travel to line 132
G0 Z0.0 ; Pen down
G1 X71.980 Y169.820 F1000
G0 Z3.0 ; Pen up

G0 X72.500 Y170.340 F3000 ; Travel to line 133
G0 Z0.0 ; Pen down
G1 X27.000 Y215.840 F1000
G0 Z3.0 ; Pen up

G0 X27.000 Y216.620 F3000 ; Travel to line 134
G0 Z0.0 ; Pen down
G1 X72.760 Y170.860 F1000
G0 Z3.0 ; Pen up

G0 X73.280 Y171.120 F3000 ; Travel to line 135
G0 Z0.0 ; Pen down
G1 X27.000 Y217.400 F1000
G0 Z3.0 ; Pen up

G0 X27.000 Y217.920 F3000 ; Travel to line 136
G0 Z0.0 ; Pen down
G1 X73.280 Y171.640 F1000
G0 Z3.0 ; Pen up

G0 X73.540 Y171.900 F3000 ; Travel to line 137
G0 Z0.0 ; Pen down
G1 X27.000 Y218.700 F1000
G0 Z3.0 ; Pen up

G0 X27.000 Y219.480 F3000 ; Travel to line 138
G0 Z0.0 ; Pen down
G1 X74.060 Y172.420 F1000
G0 Z3.0 ; Pen up

G0 X74.060 Y172.680 F3000 ; Travel to line 139
G0 Z0.0 ; Pen down
G1 X27.000 Y220.000 F1000
G0 Z3.0 ; Pen up

G0 X27.000 Y220.780 F3000 ; Travel to line 140
G0 Z0.0 ; Pen down
G1 X74.580 Y173.200 F1000
G0 Z3.0 ; Pen up

G0 X75.100 Y173.460 F3000 ; Travel to line 141
G0 Z0.0 ; Pen down
G1 X27.000 Y221.560 F1000
G0 Z3.0 ; Pen up

G0 X27.000 Y222.340 F3000 ; Travel to line 142
G0 Z0.0 ; Pen down
G1 X75.100 Y173.980 F1000
G0 Z3.0 ; Pen up

G0 X75.360 Y174.240 F3000 ; Travel to line 143
G0 Z0.0 ; Pen down
G1 X27.000 Y222.860 F1000
G0 Z3.0 ; Pen up

G0 X27.000 Y223.640 F3000 ; Travel to line 144
G0 Z0.0 ; Pen down
G1 X75.880 Y174.760 F1000
G0 Z3.0 ; Pen up

G0 X76.400 Y175.020 F3000 ; Travel to line 145
G0 Z0.0 ; Pen down
G1 X27.000 Y224.420 F1000
G0 Z3.0 ; Pen up

G0 X27.000 Y225.200 F3000 ; Travel to line 146
G0 Z0.0 ; Pen down
G1 X76.660 Y175.540 F1000
G0 Z3.0 ; Pen up

G0 X76.920 Y175.800 F3000 ; Travel to line 147
G0 Z0.0 ; Pen down
G1 X27.000 Y225.720 F1000
G0 Z3.0 ; Pen up

G0 X27.000 Y226.500 F3000 ; Travel to line 148
G0 Z0.0 ; Pen down
G1 X77.440 Y176.060 F1000
G1 X77.440 Y176.060 F1000
G1 X27.000 Y226.500 F1000
G1 X27.000 Y226.500 F1000
G1 X77.440 Y176.060 F1000
G1 X77.440 Y176.060 F1000
G1 X27.000 Y226.500 F1000
G1 X27.000 Y226.500 F1000
G1 X77.440 Y176.060 F1000
G1 X77.440 Y176.060 F1000
G1 X27.000 Y226.500 F1000
G1 X27.000 Y226.500 F1000
G1 X77.440 Y176.060 F1000
G1 X77.440 Y176.060 F1000
G1 X27.000 Y226.500 F1000
G1 X27.000 Y226.500 F1000
G1 X77.440 Y176.060 F1000
G1 X77.440 Y176.060 F1000
G1 X27.000 Y226.500 F1000
G1 X27.000 Y226.500 F1000
G1 X77.440 Y176.060 F1000
G1 X77.440 Y176.060 F1000
G1 X27.000 Y226.500 F1000
G1 X27.000 Y226.500 F1000
G1 X77.440 Y176.060 F1000
G1 X77.440 Y176.060 F1000
G1 X27.000 Y226.500 F1000
G1 X27.000 Y226.500 F1000
G1 X77.440 Y176.060 F1000
G1 X77.440 Y176.060 F1000
G1 X27.000 Y226.500 F1000
G1 X27.000 Y226.500 F1000
G1 X77.440 Y176.060 F1000
G1 X77.440 Y176.060 F1000
G1 X27.000 Y226.500 F1000
G1 X27.000 Y226.500 F1000
G1 X77.440 Y176.060 F1000
G1 X77.440 Y176.060 F1000
G1 X27.000 Y226.500 F1000
G1 X27.000 Y226.500 F1000
G1 X77.440 Y176.060 F1000
G1 X77.440 Y176.060 F1000
G1 X27.000 Y226.500 F1000
G1 X27.000 Y226.500 F1000
G1 X77.440 Y176.060 F1000
G1 X77.440 Y176.060 F1000
G1 X27.000 Y226.500 F1000
G1 X27.000 Y226.500 F1000
G1 X77.440 Y176.060 F1000
G1 X77.440 Y176.060 F1000
G1 X27.000 Y226.500 F1000
G1 X27.000 Y226.500 F1000
G1 X77.440 Y176.060 F1000
G1 X77.440 Y176.060 F1000
G1 X27.000 Y226.500 F1000
G1 X27.000 Y226.500 F1000
G1 X77.440 Y176.060 F1000
G1 X77.440 Y176.060 F1000
G1 X27.000 Y226.500 F1000
G1 X27.000 Y226.500 F1000
G1 X77.440 Y176.060 F1000
G1 X77.440 Y176.060 F1000
G1 X27.000 Y226.500 F1000
G1 X27.000 Y226.500 F1000
G1 X77.440 Y176.060 F1000
G1 X77.440 Y176.060 F1000
G1 X27.000 Y226.500 F1000
G1 X27.000 Y226.500 F1000
G1 X77.440 Y176.060 F1000
G1 X77.440 Y176.060 F1000
G1 X27.000 Y226.500 F1000
G1 X27.000 Y226.500 F1000
G1 X77.440 Y176.060 F1000
G1 X77.440 Y176.060 F1000
G1 X27.000 Y226.500 F1000
G1 X27.000 Y226.500 F1000
G1 X77.440 Y176.060 F1000
G1 X77.440 Y176.060 F1000
G1 X27.000 Y226.500 F1000
G1 X27.000 Y226.500 F1000
G1 X77.440 Y176.060 F1000
G1 X77.440 Y176.060 F1000
G1 X27.000 Y226.500 F1000
G1 X27.000 Y226.500 F1000
G1 X77.440 Y176.060 F1000
G1 X77.440 Y176.060 F1000
G1 X27.000 Y226.500 F1000
G1 X27.000 Y226.500 F1000
G1 X77.440 Y176.060 F1000
G1 X77.440 Y176.060 F1000
G1 X27.000 Y226.500 F1000
G1 X27.000 Y226.500 F1000
G1 X77.440 Y176.060 F1000
G1 X77.440 Y176.060 F1000
G1 X27.000 Y226.500 F1000
G1 X27.000 Y226.500 F1000
G1 X77.440 Y176.060 F1000
G1 X77.440 Y176.060 F1000
G1 X27.000 Y226.500 F1000
G1 X27.000 Y226.500 F1000
G1 X77.440 Y176.060 F1000
G1 X77.440 Y176.060 F1000
G1 X27.000 Y226.500 F1000
G1 X27.000 Y226.500 F1000
G1 X77.440 Y176.060 F1000
G1 X77.440 Y176.060 F1000
G1 X27.000 Y226.500 F1000
G1 X27.000 Y226.500 F1000
G1 X77.440 Y176.060 F1000
G1 X77.440 Y176.060 F1000
G1 X27.000 Y226.500 F1000
G1 X27.000 Y226.500 F1000
G1 X77.440 Y176.060 F1000
G1 X77.440 Y176.060 F1000
G1 X27.000 Y226.500 F1000
G1 X27.000 Y226.500 F1000
G1 X77.440 Y176.060 F1000
G1 X77.440 Y176.060 F1000
G1 X27.000 Y226.500 F1000
G1 X27.000 Y226.500 F1000
G1 X77.440 Y176.060 F1000
G1 X77.440 Y176.060 F1000
G1 X27.000 Y226.500 F1000
G1 X27.000 Y226.500 F1000
G1 X77.440 Y176.060 F1000
G1 X77.440 Y176.060 F1000
G1 X27.000 Y226.500 F1000
G1 X27.000 Y226.500 F1000
G1 X77.440 Y176.060 F1000
G1 X77.440 Y176.060 F1000
G1 X27.000 Y226.500 F1000
G1 X27.000 Y226.500 F1000
G1 X77.440 Y176.060 F1000
G1 X77.440 Y176.060 F1000
G1 X27.000 Y226.500 F1000
G1 X27.000 Y226.500 F1000
G1 X77.440 Y176.060 F1000
G1 X77.440 Y176.060 F1000
G1 X27.000 Y226.500 F1000
G1 X27.000 Y226.500 F1000
G1 X77.440 Y176.060 F1000
G1 X77.440 Y176.060 F1000
G1 X27.000 Y226.500 F1000
G1 X27.000 Y226.500 F1000
G1 X77.440 Y176.060 F1000
G1 X77.440 Y176.060 F1000
G1 X27.000 Y226.500 F1000
G1 X27.000 Y226.500 F1000
G1 X77.440 Y176.060 F1000
G1 X77.440 Y176.060 F1000
G1 X27.000 Y226.500 F1000
G1 X27.000 Y226.500 F1000
G1 X77.440 Y176.060 F1000
G1 X77.440 Y176.060 F1000
G1 X27.000 Y226.500 F1000
G1 X27.000 Y226.500 F1000
G1 X77.440 Y176.060 F1000
G1 X77.440 Y176.060 F1000
G1 X27.000 Y226.500 F1000
G1 X27.000 Y226.500 F1000
G1 X77.440 Y176.060 F1000
G1 X77.440 Y176.060 F1000
G1 X27.000 Y226.500 F1000
G1 X27.000 Y226.500 F1000
G1 X77.440 Y176.060 F1000
G1 X77.440 Y176.060 F1000
G1 X27.000 Y226.500 F1000
G1 X27.000 Y226.500 F1000
G1 X77.440 Y176.060 F1000
G1 X77.440 Y176.060 F1000
G1 X27.000 Y226.500 F1000
G1 X27.000 Y226.500 F1000
G1 X77.440 Y176.060 F1000
G1 X77.440 Y176.060 F1000
G1 X27.000 Y226.500 F1000
G1 X27.000 Y226.500 F1000
G1 X77.440 Y176.060 F1000
G1 X77.440 Y176.060 F1000
G1 X27.000 Y226.500 F1000
G1 X27.000 Y226.500 F1000
G1 X77.440 Y176.060 F1000
G1 X77.440 Y176.060 F1000
G1 X27.000 Y226.500 F1000
G1 X27.000 Y226.500 F1000
G1 X77.440 Y176.060 F1000
G1 X77.440 Y176.060 F1000
G1 X27.000 Y226.500 F1000
G1 X27.000 Y226.500 F1000
G1 X77.440 Y176.060 F1000
G1 X77.440 Y176.060 F1000
G1 X27.000 Y226.500 F1000
G1 X27.000 Y226.500 F1000
G1 X77.440 Y176.060 F1000
G1 X77.440 Y176.060 F1000
G1 X27.000 Y226.500 F1000
G1 X27.000 Y226.500 F1000
G1 X77.440 Y176.060 F1000
G1 X77.440 Y176.060 F1000
G1 X27.000 Y226.500 F1000
G1 X27.000 Y226.500 F1000
G1 X77.440 Y176.060 F1000
G1 X77.440 Y176.060 F1000
G1 X27.000 Y226.500 F1000
G1 X27.000 Y226.500 F1000
G1 X77.440 Y176.060 F1000
G1 X77.440 Y176.060 F1000
G1 X27.000 Y226.500 F1000
G1 X27.000 Y226.500 F1000
G1 X77.440 Y176.060 F1000
G1 X77.440 Y176.060 F1000
G1 X27.000 Y226.500 F1000
G1 X27.000 Y226.500 F1000
G1 X77.440 Y176.060 F1000
G1 X77.440 Y176.060 F1000
G1 X27.000 Y226.500 F1000
G1 X27.000 Y226.500 F1000
G1 X77.440 Y176.060 F1000
G1 X77.440 Y176.060 F1000
G1 X27.000 Y226.500 F1000
G1 X27.000 Y226.500 F1000
G1 X77.440 Y176.060 F1000
G1 X77.440 Y176.060 F1000
G1 X27.000 Y226.500 F1000
G1 X27.000 Y226.500 F1000
G1 X77.440 Y176.060 F1000
G1 X77.440 Y176.060 F1000
G1 X27.000 Y226.500 F1000
G1 X27.000 Y226.500 F1000
G1 X77.440 Y176.060 F1000
G1 X77.440 Y176.060 F1000
G1 X27.000 Y226.500 F1000
G1 X27.000 Y226.500 F1000
G1 X77.440 Y176.060 F1000
G1 X77.440 Y176.060 F1000
G1 X27.000 Y226.500 F1000
G1 X27.000 Y226.500 F1000
G1 X77.440 Y176.060 F1000
G1 X77.440 Y176.060 F1000
G1 X27.000 Y226.500 F1000
G1 X27.000 Y226.500 F1000
G1 X77.440 Y176.060 F1000
G1 X77.440 Y176.060 F1000
G1 X27.000 Y226.500 F1000
G1 X27.000 Y226.500 F1000
G1 X77.440 Y176.060 F1000
G1 X77.440 Y176.060 F1000
G1 X27.000 Y226.500 F1000
G1 X27.000 Y226.500 F1000
G1 X77.440 Y176.060 F1000
G1 X77.440 Y176.060 F1000
G1 X27.000 Y226.500 F1000
G1 X27.000 Y226.500 F1000
G1 X77.440 Y176.060 F1000
G1 X77.440 Y176.060 F1000
G1 X27.000 Y226.500 F1000
G1 X27.000 Y226.500 F1000
G1 X77.440 Y176.060 F1000
G1 X77.440 Y176.060 F1000
G1 X27.000 Y226.500 F1000
G1 X27.000 Y226.500 F1000
G1 X77.440 Y176.060 F1000
G1 X77.440 Y176.060 F1000
G1 X27.000 Y226.500 F1000
G1 X27.000 Y226.500 F1000
G1 X77.440 Y176.060 F1000
G1 X77.440 Y176.060 F1000
G1 X27.000 Y226.500 F1000
G1 X27.000 Y226.500 F1000
G1 X77.440 Y176.060 F1000
G1 X77.440 Y176.060 F1000
G1 X27.000 Y226.500 F1000
G1 X27.000 Y226.500 F1000
G1 X77.440 Y176.060 F1000
G1 X77.440 Y176.060 F1000
G1 X27.000 Y226.500 F1000
G1 X27.000 Y226.500 F1000
G1 X77.440 Y176.060 F1000
G1 X77.440 Y176.060 F1000
G1 X27.000 Y226.500 F1000
G1 X27.000 Y226.500 F1000
G1 X77.440 Y176.060 F1000
G1 X77.440 Y176.060 F1000
G1 X27.000 Y226.500 F1000
G1 X27.000 Y226.500 F1000
G1 X77.440 Y176.060 F1000
G1 X77.440 Y176.060 F1000
G1 X27.000 Y226.500 F1000
G1 X27.000 Y226.500 F1000
G1 X77.440 Y176.060 F1000
G1 X77.440 Y176.060 F1000
G1 X27.000 Y226.500 F1000
G1 X27.000 Y226.500 F1000
G1 X77.440 Y176.060 F1000
G1 X77.440 Y176.060 F1000
G1 X27.000 Y226.500 F1000
G1 X27.000 Y226.500 F1000
G1 X77.440 Y176.060 F1000
G1 X77.440 Y176.060 F1000
G1 X27.000 Y226.500 F1000
G1 X27.000 Y226.500 F1000
G1 X77.440 Y176.060 F1000
G1 X77.440 Y176.060 F1000
G1 X27.000 Y226.500 F1000
G1 X27.000 Y226.500 F1000
G1 X77.440 Y176.060 F1000
G1 X77.440 Y176.060 F1000
G1 X27.000 Y226.500 F1000
G1 X27.000 Y226.500 F1000
G1 X77.440 Y176.060 F1000
G1 X77.440 Y176.060 F1000
G1 X27.000 Y226.500 F1000
G1 X27.000 Y226.500 F1000
G1 X77.180 Y176.060 F1000
G0 Z3.0 ; Pen up

G0 X77.440 Y176.060 F3000 ; Travel to line 149
G0 Z0.0 ; Pen down
G1 X27.000 Y226.500 F1000
G1 X27.000 Y226.500 F1000
G1 X77.440 Y176.320 F1000
G0 Z3.0 ; Pen up

G0 X77.700 Y176.580 F3000 ; Travel to line 150
G0 Z0.0 ; Pen down
G1 X27.520 Y226.500 F1000
G0 Z3.0 ; Pen up

G0 X28.300 Y226.500 F3000 ; Travel to line 151
G0 Z0.0 ; Pen down
G1 X77.960 Y176.840 F1000
G0 Z3.0 ; Pen up

G0 X78.480 Y177.100 F3000 ; Travel to line 152
G0 Z0.0 ; Pen down
G1 X29.080 Y226.500 F1000
G0 Z3.0 ; Pen up

G0 X29.860 Y226.500 F3000 ; Travel to line 153
G0 Z0.0 ; Pen down
G1 X78.740 Y177.620 F1000
G0 Z3.0 ; Pen up

G0 X79.000 Y177.880 F3000 ; Travel to line 154
G0 Z0.0 ; Pen down
G1 X30.380 Y226.500 F1000
G0 Z3.0 ; Pen up

G0 X31.160 Y226.500 F3000 ; Travel to line 155
G0 Z0.0 ; Pen down
G1 X79.520 Y178.400 F1000
G0 Z3.0 ; Pen up

G0 X80.040 Y178.400 F3000 ; Travel to line 156
G0 Z0.0 ; Pen down
G1 X31.940 Y226.500 F1000
G0 Z3.0 ; Pen up

G0 X32.460 Y226.500 F3000 ; Travel to line 157
G0 Z0.0 ; Pen down
G1 X80.300 Y178.660 F1000
G0 Z3.0 ; Pen up

G0 X80.560 Y179.180 F3000 ; Travel to line 158
G0 Z0.0 ; Pen down
G1 X33.240 Y226.500 F1000
G0 Z3.0 ; Pen up

G0 X34.020 Y226.500 F3000 ; Travel to line 159
G0 Z0.0 ; Pen down
G1 X81.080 Y179.440 F1000
G0 Z3.0 ; Pen up

G0 X81.600 Y179.960 F3000 ; Travel to line 160
G0 Z0.0 ; Pen down
G1 X34.800 Y226.500 F1000
G0 Z3.0 ; Pen up

G0 X35.320 Y226.500 F3000 ; Travel to line 161
G0 Z0.0 ; Pen down
G1 X81.860 Y179.960 F1000
G0 Z3.0 ; Pen up

G0 X82.380 Y180.220 F3000 ; Travel to line 162
G0 Z0.0 ; Pen down
G1 X36.100 Y226.500 F1000
G0 Z3.0 ; Pen up

G0 X36.880 Y226.500 F3000 ; Travel to line 163
G0 Z0.0 ; Pen down
G1 X82.640 Y180.740 F1000
G0 Z3.0 ; Pen up

G0 X83.160 Y181.000 F3000 ; Travel to line 164
G0 Z0.0 ; Pen down
G1 X37.660 Y226.500 F1000
G0 Z3.0 ; Pen up

G0 X38.180 Y226.500 F3000 ; Travel to line 165
G0 Z0.0 ; Pen down
G1 X83.420 Y181.260 F1000
G0 Z3.0 ; Pen up

G0 X83.940 Y181.520 F3000 ; Travel to line 166
G0 Z0.0 ; Pen down
G1 X38.960 Y226.500 F1000
G0 Z3.0 ; Pen up

G0 X39.740 Y226.500 F3000 ; Travel to line 167
G0 Z0.0 ; Pen down
G1 X84.460 Y182.040 F1000
G0 Z3.0 ; Pen up

G0 X84.720 Y182.040 F3000 ; Travel to line 168
G0 Z0.0 ; Pen down
G1 X40.260 Y226.500 F1000
G0 Z3.0 ; Pen up

G0 X41.040 Y226.500 F3000 ; Travel to line 169
G0 Z0.0 ; Pen down
G1 X85.240 Y182.300 F1000
G0 Z3.0 ; Pen up

G0 X85.760 Y182.560 F3000 ; Travel to line 170
G0 Z0.0 ; Pen down
G1 X41.820 Y226.500 F1000
G0 Z3.0 ; Pen up

G0 X42.600 Y226.500 F3000 ; Travel to line 171
G0 Z0.0 ; Pen down
G1 X86.280 Y183.080 F1000
G0 Z3.0 ; Pen up

G0 X86.540 Y183.080 F3000 ; Travel to line 172
G0 Z0.0 ; Pen down
G1 X43.120 Y226.500 F1000
G0 Z3.0 ; Pen up

G0 X43.900 Y226.500 F3000 ; Travel to line 173
G0 Z0.0 ; Pen down
G1 X87.060 Y183.340 F1000
G0 Z3.0 ; Pen up

G0 X87.580 Y183.600 F3000 ; Travel to line 174
G0 Z0.0 ; Pen down
G1 X44.680 Y226.500 F1000
G0 Z3.0 ; Pen up

G0 X45.200 Y226.500 F3000 ; Travel to line 175
G0 Z0.0 ; Pen down
G1 X87.840 Y183.860 F1000
G0 Z3.0 ; Pen up

G0 X88.360 Y184.120 F3000 ; Travel to line 176
G0 Z0.0 ; Pen down
G1 X45.980 Y226.500 F1000
G0 Z3.0 ; Pen up

G0 X46.760 Y226.500 F3000 ; Travel to line 177
G0 Z0.0 ; Pen down
G1 X88.880 Y184.380 F1000
G0 Z3.0 ; Pen up

G0 X89.660 Y184.640 F3000 ; Travel to line 178
G0 Z0.0 ; Pen down
G1 X47.540 Y226.500 F1000
G0 Z3.0 ; Pen up

G0 X48.060 Y226.500 F3000 ; Travel to line 179
G0 Z0.0 ; Pen down
G1 X89.920 Y184.640 F1000
G0 Z3.0 ; Pen up

G0 X90.440 Y184.900 F3000 ; Travel to line 180
G0 Z0.0 ; Pen down
G1 X48.840 Y226.500 F1000
G0 Z3.0 ; Pen up

G0 X49.620 Y226.500 F3000 ; Travel to line 181
G0 Z0.0 ; Pen down
G1 X90.960 Y185.160 F1000
G0 Z3.0 ; Pen up

G0 X91.480 Y185.420 F3000 ; Travel to line 182
G0 Z0.0 ; Pen down
G1 X50.140 Y226.500 F1000
G0 Z3.0 ; Pen up

G0 X50.920 Y226.500 F3000 ; Travel to line 183
G0 Z0.0 ; Pen down
G1 X92.000 Y185.420 F1000
G0 Z3.0 ; Pen up

G0 X92.520 Y185.680 F3000 ; Travel to line 184
G0 Z0.0 ; Pen down
G1 X51.700 Y226.500 F1000
G0 Z3.0 ; Pen up

G0 X52.480 Y226.500 F3000 ; Travel to line 185
G0 Z0.0 ; Pen down
G1 X93.040 Y185.940 F1000
G0 Z3.0 ; Pen up

G0 X93.560 Y185.940 F3000 ; Travel to line 186
G0 Z0.0 ; Pen down
G1 X53.000 Y226.500 F1000
G0 Z3.0 ; Pen up

G0 X53.780 Y226.500 F3000 ; Travel to line 187
G0 Z0.0 ; Pen down
G1 X94.080 Y186.200 F1000
G0 Z3.0 ; Pen up

G0 X94.600 Y186.460 F3000 ; Travel to line 188
G0 Z0.0 ; Pen down
G1 X54.560 Y226.500 F1000
G0 Z3.0 ; Pen up

G0 X55.080 Y226.500 F3000 ; Travel to line 189
G0 Z0.0 ; Pen down
G1 X95.120 Y186.460 F1000
G0 Z3.0 ; Pen up

G0 X95.640 Y186.720 F3000 ; Travel to line 190
G0 Z0.0 ; Pen down
G1 X55.860 Y226.500 F1000
G0 Z3.0 ; Pen up

G0 X56.640 Y226.500 F3000 ; Travel to line 191
G0 Z0.0 ; Pen down
G1 X96.420 Y186.720 F1000
G0 Z3.0 ; Pen up

G0 X96.940 Y186.980 F3000 ; Travel to line 192
G0 Z0.0 ; Pen down
G1 X57.420 Y226.500 F1000
G0 Z3.0 ; Pen up

G0 X57.940 Y226.500 F3000 ; Travel to line 193
G0 Z0.0 ; Pen down
G1 X97.460 Y186.980 F1000
G0 Z3.0 ; Pen up

G0 X97.980 Y187.240 F3000 ; Travel to line 194
G0 Z0.0 ; Pen down
G1 X58.720 Y226.500 F1000
G0 Z3.0 ; Pen up

G0 X59.500 Y226.500 F3000 ; Travel to line 195
G0 Z0.0 ; Pen down
G1 X98.760 Y187.240 F1000
G0 Z3.0 ; Pen up

G0 X99.540 Y187.500 F3000 ; Travel to line 196
G0 Z0.0 ; Pen down
G1 X60.280 Y226.500 F1000
G0 Z3.0 ; Pen up

G0 X60.800 Y226.500 F3000 ; Travel to line 197
G0 Z0.0 ; Pen down
G1 X99.800 Y187.500 F1000
G0 Z3.0 ; Pen up

G0 X100.580 Y187.500 F3000 ; Travel to line 198
G0 Z0.0 ; Pen down
G1 X61.580 Y226.500 F1000
G0 Z3.0 ; Pen up

G0 X62.360 Y226.500 F3000 ; Travel to line 199
G0 Z0.0 ; Pen down
G1 X101.360 Y187.500 F1000
G0 Z3.0 ; Pen up

G0 X101.880 Y187.500 F3000 ; Travel to line 200
G0 Z0.0 ; Pen down
G1 X62.880 Y226.500 F1000
G0 Z3.0 ; Pen up

G0 X63.660 Y226.500 F3000 ; Travel to line 201
G0 Z0.0 ; Pen down
G1 X102.400 Y187.760 F1000
G0 Z3.0 ; Pen up

G0 X103.180 Y187.760 F3000 ; Travel to line 202
G0 Z0.0 ; Pen down
G1 X64.440 Y226.500 F1000
G0 Z3.0 ; Pen up

G0 X65.220 Y226.500 F3000 ; Travel to line 203
G0 Z0.0 ; Pen down
G1 X103.960 Y187.760 F1000
G0 Z3.0 ; Pen up

G0 X104.480 Y187.760 F3000 ; Travel to line 204
G0 Z0.0 ; Pen down
G1 X65.740 Y226.500 F1000
G0 Z3.0 ; Pen up

G0 X66.520 Y226.500 F3000 ; Travel to line 205
G0 Z0.0 ; Pen down
G1 X105.260 Y187.760 F1000
G0 Z3.0 ; Pen up

G0 X106.040 Y187.760 F3000 ; Travel to line 206
G0 Z0.0 ; Pen down
G1 X67.300 Y226.500 F1000
G0 Z3.0 ; Pen up

G0 X67.820 Y226.500 F3000 ; Travel to line 207
G0 Z0.0 ; Pen down
G1 X106.560 Y187.760 F1000
G0 Z3.0 ; Pen up

G0 X107.340 Y187.760 F3000 ; Travel to line 208
G0 Z0.0 ; Pen down
G1 X68.600 Y226.500 F1000
G0 Z3.0 ; Pen up

G0 X69.380 Y226.500 F3000 ; Travel to line 209
G0 Z0.0 ; Pen down
G1 X108.120 Y187.760 F1000
G0 Z3.0 ; Pen up

G0 X109.160 Y187.500 F3000 ; Travel to line 210
G0 Z0.0 ; Pen down
G1 X70.160 Y226.500 F1000
G0 Z3.0 ; Pen up

G0 X70.680 Y226.500 F3000 ; Travel to line 211
G0 Z0.0 ; Pen down
G1 X109.680 Y187.500 F1000
G0 Z3.0 ; Pen up

G0 X110.460 Y187.500 F3000 ; Travel to line 212
G0 Z0.0 ; Pen down
G1 X71.460 Y226.500 F1000
G0 Z3.0 ; Pen up

G0 X72.240 Y226.500 F3000 ; Travel to line 213
G0 Z0.0 ; Pen down
G1 X111.500 Y187.240 F1000
G0 Z3.0 ; Pen up

G0 X112.020 Y187.240 F3000 ; Travel to line 214
G0 Z0.0 ; Pen down
G1 X72.760 Y226.500 F1000
G0 Z3.0 ; Pen up

G0 X73.540 Y226.500 F3000 ; Travel to line 215
G0 Z0.0 ; Pen down
G1 X113.060 Y186.980 F1000
G0 Z3.0 ; Pen up

G0 X114.100 Y186.720 F3000 ; Travel to line 216
G0 Z0.0 ; Pen down
G1 X74.320 Y226.500 F1000
G0 Z3.0 ; Pen up

G0 X75.100 Y226.500 F3000 ; Travel to line 217
G0 Z0.0 ; Pen down
G1 X115.140 Y186.460 F1000
G0 Z3.0 ; Pen up

G0 X115.920 Y186.200 F3000 ; Travel to line 218
G0 Z0.0 ; Pen down
G1 X75.620 Y226.500 F1000
G0 Z3.0 ; Pen up

G0 X76.400 Y226.500 F3000 ; Travel to line 219
G0 Z0.0 ; Pen down
G1 X116.960 Y185.940 F1000
G0 Z3.0 ; Pen up

G0 X118.260 Y185.420 F3000 ; Travel to line 220
G0 Z0.0 ; Pen down
G1 X77.180 Y226.500 F1000
G0 Z3.0 ; Pen up

G0 X77.960 Y226.500 F3000 ; Travel to line 221
G0 Z0.0 ; Pen down
G1 X119.300 Y185.160 F1000
G0 Z3.0 ; Pen up

G0 X120.340 Y184.640 F3000 ; Travel to line 222
G0 Z0.0 ; Pen down
G1 X78.480 Y226.500 F1000
G0 Z3.0 ; Pen up

G0 X79.260 Y226.500 F3000 ; Travel to line 223
G0 Z0.0 ; Pen down
G1 X121.640 Y184.120 F1000
G0 Z3.0 ; Pen up

G0 X123.200 Y183.340 F3000 ; Travel to line 224
G0 Z0.0 ; Pen down
G1 X80.040 Y226.500 F1000
G0 Z3.0 ; Pen up

G0 X80.560 Y226.500 F3000 ; Travel to line 225
G0 Z0.0 ; Pen down
G1 X124.500 Y182.560 F1000
G0 Z3.0 ; Pen up

G0 X126.320 Y181.520 F3000 ; Travel to line 226
G0 Z0.0 ; Pen down
G1 X81.340 Y226.500 F1000
G0 Z3.0 ; Pen up

G0 X82.120 Y226.500 F3000 ; Travel to line 227
G0 Z0.0 ; Pen down
G1 X129.180 Y179.440 F1000
G0 Z3.0 ; Pen up

G0 X136.200 Y172.420 F3000 ; Travel to line 228
G0 Z0.0 ; Pen down
G1 X183.260 Y125.360 F1000
G0 Z3.0 ; Pen up

G0 X183.260 Y126.140 F3000 ; Travel to line 229
G0 Z0.0 ; Pen down
G1 X82.900 Y226.500 F1000
G0 Z3.0 ; Pen up

G0 X83.420 Y226.500 F3000 ; Travel to line 230
G0 Z0.0 ; Pen down
G1 X183.260 Y126.660 F1000
G0 Z3.0 ; Pen up

G0 X183.260 Y127.440 F3000 ; Travel to line 231
G0 Z0.0 ; Pen down
G1 X84.200 Y226.500 F1000
G0 Z3.0 ; Pen up

G0 X84.980 Y226.500 F3000 ; Travel to line 232
G0 Z0.0 ; Pen down
G1 X183.260 Y128.220 F1000
G0 Z3.0 ; Pen up

G0 X183.260 Y128.740 F3000 ; Travel to line 233
G0 Z0.0 ; Pen down
G1 X85.500 Y226.500 F1000
G0 Z3.0 ; Pen up

G0 X86.280 Y226.500 F3000 ; Travel to line 234
G0 Z0.0 ; Pen down
G1 X183.260 Y129.520 F1000
G0 Z3.0 ; Pen up

G0 X183.260 Y130.300 F3000 ; Travel to line 235
G0 Z0.0 ; Pen down
G1 X87.060 Y226.500 F1000
G0 Z3.0 ; Pen up

G0 X87.840 Y226.500 F3000 ; Travel to line 236
G0 Z0.0 ; Pen down
G1 X183.260 Y131.080 F1000
G0 Z3.0 ; Pen up

G0 X183.260 Y131.600 F3000 ; Travel to line 237
G0 Z0.0 ; Pen down
G1 X88.360 Y226.500 F1000
G0 Z3.0 ; Pen up

G0 X89.140 Y226.500 F3000 ; Travel to line 238
G0 Z0.0 ; Pen down
G1 X183.260 Y132.380 F1000
G0 Z3.0 ; Pen up

G0 X183.260 Y133.160 F3000 ; Travel to line 239
G0 Z0.0 ; Pen down
G1 X89.920 Y226.500 F1000
G0 Z3.0 ; Pen up

G0 X90.440 Y226.500 F3000 ; Travel to line 240
G0 Z0.0 ; Pen down
G1 X183.260 Y133.680 F1000
G0 Z3.0 ; Pen up

G0 X183.260 Y134.460 F3000 ; Travel to line 241
G0 Z0.0 ; Pen down
G1 X91.220 Y226.500 F1000
G0 Z3.0 ; Pen up

G0 X92.000 Y226.500 F3000 ; Travel to line 242
G0 Z0.0 ; Pen down
G1 X183.260 Y135.240 F1000
G0 Z3.0 ; Pen up

G0 X183.260 Y136.020 F3000 ; Travel to line 243
G0 Z0.0 ; Pen down
G1 X92.780 Y226.500 F1000
G0 Z3.0 ; Pen up

G0 X93.300 Y226.500 F3000 ; Travel to line 244
G0 Z0.0 ; Pen down
G1 X183.260 Y136.540 F1000
G0 Z3.0 ; Pen up

G0 X183.260 Y137.320 F3000 ; Travel to line 245
G0 Z0.0 ; Pen down
G1 X94.080 Y226.500 F1000
G0 Z3.0 ; Pen up

G0 X94.860 Y226.500 F3000 ; Travel to line 246
G0 Z0.0 ; Pen down
G1 X183.260 Y138.100 F1000
G0 Z3.0 ; Pen up

G0 X183.260 Y138.880 F3000 ; Travel to line 247
G0 Z0.0 ; Pen down
G1 X95.640 Y226.500 F1000
G0 Z3.0 ; Pen up

G0 X96.160 Y226.500 F3000 ; Travel to line 248
G0 Z0.0 ; Pen down
G1 X183.260 Y139.400 F1000
G0 Z3.0 ; Pen up

G0 X183.260 Y140.180 F3000 ; Travel to line 249
G0 Z0.0 ; Pen down
G1 X96.940 Y226.500 F1000
G0 Z3.0 ; Pen up

G0 X97.720 Y226.500 F3000 ; Travel to line 250
G0 Z0.0 ; Pen down
G1 X183.260 Y140.960 F1000
G0 Z3.0 ; Pen up

G0 X183.260 Y141.480 F3000 ; Travel to line 251
G0 Z0.0 ; Pen down
G1 X98.240 Y226.500 F1000
G0 Z3.0 ; Pen up

G0 X99.020 Y226.500 F3000 ; Travel to line 252
G0 Z0.0 ; Pen down
G1 X183.260 Y142.260 F1000
G0 Z3.0 ; Pen up

G0 X183.260 Y143.040 F3000 ; Travel to line 253
G0 Z0.0 ; Pen down
G1 X99.800 Y226.500 F1000
G0 Z3.0 ; Pen up

G0 X100.580 Y226.500 F3000 ; Travel to line 254
G0 Z0.0 ; Pen down
G1 X183.260 Y143.820 F1000
G0 Z3.0 ; Pen up

G0 X183.260 Y144.340 F3000 ; Travel to line 255
G0 Z0.0 ; Pen down
G1 X101.100 Y226.500 F1000
G0 Z3.0 ; Pen up

G0 X101.880 Y226.500 F3000 ; Travel to line 256
G0 Z0.0 ; Pen down
G1 X183.260 Y145.120 F1000
G0 Z3.0 ; Pen up

G0 X183.260 Y145.900 F3000 ; Travel to line 257
G0 Z0.0 ; Pen down
G1 X102.660 Y226.500 F1000
G0 Z3.0 ; Pen up

G0 X103.180 Y226.500 F3000 ; Travel to line 258
G0 Z0.0 ; Pen down
G1 X183.260 Y146.420 F1000
G0 Z3.0 ; Pen up

G0 X183.260 Y147.200 F3000 ; Travel to line 259
G0 Z0.0 ; Pen down
G1 X103.960 Y226.500 F1000
G0 Z3.0 ; Pen up

G0 X104.740 Y226.500 F3000 ; Travel to line 260
G0 Z0.0 ; Pen down
G1 X183.260 Y147.980 F1000
G0 Z3.0 ; Pen up

G0 X183.260 Y148.760 F3000 ; Travel to line 261
G0 Z0.0 ; Pen down
G1 X105.520 Y226.500 F1000
G0 Z3.0 ; Pen up

G0 X106.040 Y226.500 F3000 ; Travel to line 262
G0 Z0.0 ; Pen down
G1 X183.260 Y149.280 F1000
G0 Z3.0 ; Pen up

G0 X183.260 Y150.060 F3000 ; Travel to line 263
G0 Z0.0 ; Pen down
G1 X106.820 Y226.500 F1000
G0 Z3.0 ; Pen up

G0 X107.600 Y226.500 F3000 ; Travel to line 264
G0 Z0.0 ; Pen down
G1 X183.260 Y150.840 F1000
G0 Z3.0 ; Pen up

G0 X183.260 Y151.360 F3000 ; Travel to line 265
G0 Z0.0 ; Pen down
G1 X108.120 Y226.500 F1000
G0 Z3.0 ; Pen up

G0 X108.900 Y226.500 F3000 ; Travel to line 266
G0 Z0.0 ; Pen down
G1 X183.260 Y152.140 F1000
G0 Z3.0 ; Pen up

G0 X183.260 Y152.920 F3000 ; Travel to line 267
G0 Z0.0 ; Pen down
G1 X109.680 Y226.500 F1000
G0 Z3.0 ; Pen up

G0 X110.460 Y226.500 F3000 ; Travel to line 268
G0 Z0.0 ; Pen down
G1 X183.260 Y153.700 F1000
G0 Z3.0 ; Pen up

G0 X183.260 Y154.220 F3000 ; Travel to line 269
G0 Z0.0 ; Pen down
G1 X110.980 Y226.500 F1000
G0 Z3.0 ; Pen up

G0 X111.760 Y226.500 F3000 ; Travel to line 270
G0 Z0.0 ; Pen down
G1 X183.260 Y155.000 F1000
G0 Z3.0 ; Pen up

G0 X183.260 Y155.780 F3000 ; Travel to line 271
G0 Z0.0 ; Pen down
G1 X112.540 Y226.500 F1000
G0 Z3.0 ; Pen up

G0 X113.320 Y226.500 F3000 ; Travel to line 272
G0 Z0.0 ; Pen down
G1 X183.260 Y156.560 F1000
G0 Z3.0 ; Pen up

G0 X183.260 Y157.080 F3000 ; Travel to line 273
G0 Z0.0 ; Pen down
G1 X113.840 Y226.500 F1000
G0 Z3.0 ; Pen up

G0 X114.620 Y226.500 F3000 ; Travel to line 274
G0 Z0.0 ; Pen down
G1 X183.260 Y157.860 F1000
G0 Z3.0 ; Pen up

G0 X183.260 Y158.640 F3000 ; Travel to line 275
G0 Z0.0 ; Pen down
G1 X115.400 Y226.500 F1000
G0 Z3.0 ; Pen up

G0 X115.920 Y226.500 F3000 ; Travel to line 276
G0 Z0.0 ; Pen down
G1 X183.260 Y159.160 F1000
G0 Z3.0 ; Pen up

G0 X183.260 Y159.940 F3000 ; Travel to line 277
G0 Z0.0 ; Pen down
G1 X116.700 Y226.500 F1000
G0 Z3.0 ; Pen up

G0 X117.480 Y226.500 F3000 ; Travel to line 278
G0 Z0.0 ; Pen down
G1 X183.260 Y160.720 F1000
G0 Z3.0 ; Pen up

G0 X183.260 Y161.500 F3000 ; Travel to line 279
G0 Z0.0 ; Pen down
G1 X118.260 Y226.500 F1000
G0 Z3.0 ; Pen up

G0 X118.780 Y226.500 F3000 ; Travel to line 280
G0 Z0.0 ; Pen down
G1 X183.260 Y162.020 F1000
G0 Z3.0 ; Pen up

G0 X183.260 Y162.800 F3000 ; Travel to line 281
G0 Z0.0 ; Pen down
G1 X119.560 Y226.500 F1000
G0 Z3.0 ; Pen up

G0 X120.340 Y226.500 F3000 ; Travel to line 282
G0 Z0.0 ; Pen down
G1 X183.260 Y163.580 F1000
G0 Z3.0 ; Pen up

G0 X183.260 Y164.100 F3000 ; Travel to line 283
G0 Z0.0 ; Pen down
G1 X120.860 Y226.500 F1000
G0 Z3.0 ; Pen up

G0 X121.640 Y226.500 F3000 ; Travel to line 284
G0 Z0.0 ; Pen down
G1 X183.260 Y164.880 F1000
G0 Z3.0 ; Pen up

G0 X183.260 Y165.660 F3000 ; Travel to line 285
G0 Z0.0 ; Pen down
G1 X122.420 Y226.500 F1000
G0 Z3.0 ; Pen up

G0 X123.200 Y226.500 F3000 ; Travel to line 286
G0 Z0.0 ; Pen down
G1 X183.260 Y166.440 F1000
G0 Z3.0 ; Pen up

G0 X183.260 Y166.960 F3000 ; Travel to line 287
G0 Z0.0 ; Pen down
G1 X123.720 Y226.500 F1000
G0 Z3.0 ; Pen up

G0 X124.500 Y226.500 F3000 ; Travel to line 288
G0 Z0.0 ; Pen down
G1 X183.260 Y167.740 F1000
G0 Z3.0 ; Pen up

G0 X183.260 Y168.520 F3000 ; Travel to line 289
G0 Z0.0 ; Pen down
G1 X125.280 Y226.500 F1000
G0 Z3.0 ; Pen up

G0 X125.800 Y226.500 F3000 ; Travel to line 290
G0 Z0.0 ; Pen down
G1 X183.260 Y169.040 F1000
G0 Z3.0 ; Pen up

G0 X183.260 Y169.820 F3000 ; Travel to line 291
G0 Z0.0 ; Pen down
G1 X126.580 Y226.500 F1000
G0 Z3.0 ; Pen up

G0 X127.360 Y226.500 F3000 ; Travel to line 292
G0 Z0.0 ; Pen down
G1 X183.260 Y170.600 F1000
G0 Z3.0 ; Pen up

G0 X183.260 Y171.380 F3000 ; Travel to line 293
G0 Z0.0 ; Pen down
G1 X128.140 Y226.500 F1000
G0 Z3.0 ; Pen up

G0 X128.660 Y226.500 F3000 ; Travel to line 294
G0 Z0.0 ; Pen down
G1 X183.260 Y171.900 F1000
G0 Z3.0 ; Pen up

G0 X183.260 Y172.680 F3000 ; Travel to line 295
G0 Z0.0 ; Pen down
G1 X129.440 Y226.500 F1000
G0 Z3.0 ; Pen up

G0 X130.220 Y226.500 F3000 ; Travel to line 296
G0 Z0.0 ; Pen down
G1 X183.260 Y173.460 F1000
G0 Z3.0 ; Pen up

G0 X183.260 Y173.980 F3000 ; Travel to line 297
G0 Z0.0 ; Pen down
G1 X130.740 Y226.500 F1000
G0 Z3.0 ; Pen up

G0 X138.280 Y169.560 F3000 ; Travel to line 298
G0 Z0.0 ; Pen down
G1 X183.260 Y124.580 F1000
G0 Z3.0 ; Pen up

G0 X183.260 Y123.800 F3000 ; Travel to line 299
G0 Z0.0 ; Pen down
G1 X139.580 Y167.480 F1000
G1 X139.580 Y167.480 F1000
G1 X139.320 Y167.740 F1000
G0 Z3.0 ; Pen up

G0 X140.100 Y166.440 F3000 ; Travel to line 300
G0 Z0.0 ; Pen down
G1 X183.260 Y123.280 F1000
G0 Z3.0 ; Pen up

G0 X183.260 Y122.500 F3000 ; Travel to line 301
G0 Z0.0 ; Pen down
G1 X141.140 Y164.620 F1000
G0 Z3.0 ; Pen up

G0 X140.880 Y164.880 F3000 ; Travel to line 302
G0 Z0.0 ; Pen down
G1 X177.800 Y127.960 F1000
G0 Z3.0 ; Pen up

G0 X178.320 Y126.660 F3000 ; Travel to line 303
G0 Z0.0 ; Pen down
G1 X141.400 Y163.580 F1000
G0 Z3.0 ; Pen up

G0 X141.660 Y163.320 F3000 ; Travel to line 304
G0 Z0.0 ; Pen down
G1 X183.260 Y121.720 F1000
G0 Z3.0 ; Pen up

G0 X183.260 Y121.200 F3000 ; Travel to line 305
G0 Z0.0 ; Pen down
G1 X141.920 Y162.540 F1000
G0 Z3.0 ; Pen up

G0 X142.180 Y161.500 F3000 ; Travel to line 306
G0 Z0.0 ; Pen down
G1 X179.100 Y124.580 F1000
G0 Z3.0 ; Pen up

G0 X179.880 Y122.240 F3000 ; Travel to line 307
G0 Z0.0 ; Pen down
G1 X142.960 Y159.160 F1000
G0 Z3.0 ; Pen up

G0 X143.220 Y158.900 F3000 ; Travel to line 308
G0 Z0.0 ; Pen down
G1 X183.260 Y118.860 F1000
G0 Z3.0 ; Pen up

G0 X183.260 Y118.340 F3000 ; Travel to line 309
G0 Z0.0 ; Pen down
G1 X143.220 Y158.380 F1000
G0 Z3.0 ; Pen up

G0 X143.480 Y157.340 F3000 ; Travel to line 310
G0 Z0.0 ; Pen down
G1 X183.260 Y117.560 F1000
G0 Z3.0 ; Pen up

G0 X183.260 Y116.780 F3000 ; Travel to line 311
G0 Z0.0 ; Pen down
G1 X143.740 Y156.300 F1000
G0 Z3.0 ; Pen up

G0 X144.000 Y155.260 F3000 ; Travel to line 312
G0 Z0.0 ; Pen down
G1 X183.260 Y116.000 F1000
G0 Z3.0 ; Pen up

G0 X183.260 Y115.480 F3000 ; Travel to line 313
G0 Z0.0 ; Pen down
G1 X144.000 Y154.740 F1000
G0 Z3.0 ; Pen up

G0 X144.260 Y153.700 F3000 ; Travel to line 314
G0 Z0.0 ; Pen down
G1 X183.260 Y114.700 F1000
G0 Z3.0 ; Pen up

G0 X183.260 Y113.920 F3000 ; Travel to line 315
G0 Z0.0 ; Pen down
G1 X144.260 Y152.920 F1000
G0 Z3.0 ; Pen up

G0 X144.260 Y152.400 F3000 ; Travel to line 316
G0 Z0.0 ; Pen down
G1 X183.260 Y113.400 F1000
G0 Z3.0 ; Pen up

G0 X183.260 Y112.620 F3000 ; Travel to line 317
G0 Z0.0 ; Pen down
G1 X144.520 Y151.360 F1000
G0 Z3.0 ; Pen up

G0 X144.520 Y150.580 F3000 ; Travel to line 318
G0 Z0.0 ; Pen down
G1 X183.260 Y111.840 F1000
G0 Z3.0 ; Pen up

G0 X183.260 Y111.060 F3000 ; Travel to line 319
G0 Z0.0 ; Pen down
G1 X144.520 Y149.800 F1000
G0 Z3.0 ; Pen up

G0 X144.520 Y149.280 F3000 ; Travel to line 320
G0 Z0.0 ; Pen down
G1 X183.260 Y110.540 F1000
G0 Z3.0 ; Pen up

G0 X183.260 Y109.760 F3000 ; Travel to line 321
G0 Z0.0 ; Pen down
G1 X144.520 Y148.500 F1000
G0 Z3.0 ; Pen up

G0 X144.520 Y147.720 F3000 ; Travel to line 322
G0 Z0.0 ; Pen down
G1 X183.260 Y108.980 F1000
G0 Z3.0 ; Pen up

G0 X183.260 Y108.460 F3000 ; Travel to line 323
G0 Z0.0 ; Pen down
G1 X144.520 Y147.200 F1000
G0 Z3.0 ; Pen up

G0 X144.520 Y146.420 F3000 ; Travel to line 324
G0 Z0.0 ; Pen down
G1 X183.260 Y107.680 F1000
G0 Z3.0 ; Pen up

G0 X183.260 Y106.900 F3000 ; Travel to line 325
G0 Z0.0 ; Pen down
G1 X144.520 Y145.640 F1000
G0 Z3.0 ; Pen up

G0 X144.260 Y145.120 F3000 ; Travel to line 326
G0 Z0.0 ; Pen down
G1 X183.260 Y106.120 F1000
G0 Z3.0 ; Pen up

G0 X183.260 Y105.600 F3000 ; Travel to line 327
G0 Z0.0 ; Pen down
G1 X144.260 Y144.600 F1000
G0 Z3.0 ; Pen up

G0 X144.260 Y143.820 F3000 ; Travel to line 328
G0 Z0.0 ; Pen down
G1 X183.260 Y104.820 F1000
G0 Z3.0 ; Pen up

G0 X183.260 Y104.040 F3000 ; Travel to line 329
G0 Z0.0 ; Pen down
G1 X144.260 Y143.040 F1000
G0 Z3.0 ; Pen up

G0 X144.000 Y142.780 F3000 ; Travel to line 330
G0 Z0.0 ; Pen down
G1 X183.260 Y103.520 F1000
G0 Z3.0 ; Pen up

G0 X183.260 Y102.740 F3000 ; Travel to line 331
G0 Z0.0 ; Pen down
G1 X144.000 Y142.000 F1000
G0 Z3.0 ; Pen up

G0 X143.740 Y141.220 F3000 ; Travel to line 332
G0 Z0.0 ; Pen down
G1 X183.260 Y101.960 F1000
G0 Z3.0 ; Pen up

G0 X183.260 Y101.180 F3000 ; Travel to line 333
G0 Z0.0 ; Pen down
G1 X143.740 Y140.700 F1000
G0 Z3.0 ; Pen up

G0 X143.740 Y140.180 F3000 ; Travel to line 334
G0 Z0.0 ; Pen down
G1 X183.260 Y100.660 F1000
G0 Z3.0 ; Pen up

G0 X183.260 Y99.880 F3000 ; Travel to line 335
G0 Z0.0 ; Pen down
G1 X143.480 Y139.660 F1000
G0 Z3.0 ; Pen up

G0 X143.220 Y138.880 F3000 ; Travel to line 336
G0 Z0.0 ; Pen down
G1 X183.260 Y99.100 F1000
G0 Z3.0 ; Pen up

G0 X183.260 Y98.320 F3000 ; Travel to line 337
G0 Z0.0 ; Pen down
G1 X143.220 Y138.360 F1000
G0 Z3.0 ; Pen up

G0 X142.960 Y137.840 F3000 ; Travel to line 338
G0 Z0.0 ; Pen down
G1 X183.260 Y97.800 F1000
G0 Z3.0 ; Pen up

G0 X183.260 Y97.020 F3000 ; Travel to line 339
G0 Z0.0 ; Pen down
G1 X142.960 Y137.320 F1000
G0 Z3.0 ; Pen up

G0 X142.700 Y136.800 F3000 ; Travel to line 340
G0 Z0.0 ; Pen down
G1 X183.260 Y96.240 F1000
G0 Z3.0 ; Pen up

G0 X183.260 Y95.720 F3000 ; Travel to line 341
G0 Z0.0 ; Pen down
G1 X142.440 Y136.280 F1000
G0 Z3.0 ; Pen up

G0 X142.440 Y135.760 F3000 ; Travel to line 342
G0 Z0.0 ; Pen down
G1 X183.260 Y94.940 F1000
G0 Z3.0 ; Pen up

G0 X183.260 Y94.160 F3000 ; Travel to line 343
G0 Z0.0 ; Pen down
G1 X142.180 Y135.240 F1000
G0 Z3.0 ; Pen up

G0 X141.920 Y134.720 F3000 ; Travel to line 344
G0 Z0.0 ; Pen down
G1 X183.260 Y93.380 F1000
G0 Z3.0 ; Pen up

G0 X183.260 Y92.860 F3000 ; Travel to line 345
G0 Z0.0 ; Pen down
G1 X141.920 Y134.200 F1000
G0 Z3.0 ; Pen up

G0 X141.660 Y133.680 F3000 ; Travel to line 346
G0 Z0.0 ; Pen down
G1 X183.260 Y92.080 F1000
G0 Z3.0 ; Pen up

G0 X183.260 Y91.300 F3000 ; Travel to line 347
G0 Z0.0 ; Pen down
G1 X141.400 Y133.160 F1000
G0 Z3.0 ; Pen up

G0 X141.140 Y132.900 F3000 ; Travel to line 348
G0 Z0.0 ; Pen down
G1 X183.260 Y90.780 F1000
G0 Z3.0 ; Pen up

G0 X183.260 Y90.000 F3000 ; Travel to line 349
G0 Z0.0 ; Pen down
G1 X140.880 Y132.120 F1000
G0 Z3.0 ; Pen up

G0 X140.620 Y131.600 F3000 ; Travel to line 350
G0 Z0.0 ; Pen down
G1 X183.260 Y89.220 F1000
G0 Z3.0 ; Pen up

G0 X183.260 Y88.440 F3000 ; Travel to line 351
G0 Z0.0 ; Pen down
G1 X140.360 Y131.080 F1000
G0 Z3.0 ; Pen up

G0 X140.360 Y130.820 F3000 ; Travel to line 352
G0 Z0.0 ; Pen down
G1 X183.260 Y87.920 F1000
G0 Z3.0 ; Pen up

G0 X183.260 Y87.140 F3000 ; Travel to line 353
G0 Z0.0 ; Pen down
G1 X140.100 Y130.300 F1000
G0 Z3.0 ; Pen up

G0 X139.840 Y129.780 F3000 ; Travel to line 354
G0 Z0.0 ; Pen down
G1 X183.260 Y86.360 F1000
G0 Z3.0 ; Pen up

G0 X183.260 Y85.840 F3000 ; Travel to line 355
G0 Z0.0 ; Pen down
G1 X139.580 Y129.520 F1000
G0 Z3.0 ; Pen up

G0 X139.320 Y129.000 F3000 ; Travel to line 356
G0 Z0.0 ; Pen down
G1 X183.260 Y85.060 F1000
G0 Z3.0 ; Pen up

G0 X183.260 Y84.280 F3000 ; Travel to line 357
G0 Z0.0 ; Pen down
G1 X139.060 Y128.480 F1000
G0 Z3.0 ; Pen up

G0 X138.800 Y127.960 F3000 ; Travel to line 358
G0 Z0.0 ; Pen down
G1 X183.260 Y83.500 F1000
G0 Z3.0 ; Pen up

G0 X183.260 Y82.980 F3000 ; Travel to line 359
G0 Z0.0 ; Pen down
G1 X138.540 Y127.700 F1000
G0 Z3.0 ; Pen up

G0 X138.280 Y127.180 F3000 ; Travel to line 360
G0 Z0.0 ; Pen down
G1 X183.260 Y82.200 F1000
G0 Z3.0 ; Pen up

G0 X183.260 Y81.420 F3000 ; Travel to line 361
G0 Z0.0 ; Pen down
G1 X137.760 Y126.660 F1000
G0 Z3.0 ; Pen up

G0 X137.760 Y126.400 F3000 ; Travel to line 362
G0 Z0.0 ; Pen down
G1 X183.260 Y80.900 F1000
G0 Z3.0 ; Pen up

G0 X183.260 Y80.120 F3000 ; Travel to line 363
G0 Z0.0 ; Pen down
G1 X137.240 Y125.880 F1000
G0 Z3.0 ; Pen up

G0 X136.980 Y125.620 F3000 ; Travel to line 364
G0 Z0.0 ; Pen down
G1 X183.260 Y79.340 F1000
G0 Z3.0 ; Pen up

G0 X183.260 Y78.560 F3000 ; Travel to line 365
G0 Z0.0 ; Pen down
G1 X136.720 Y125.100 F1000
G0 Z3.0 ; Pen up

G0 X136.460 Y124.840 F3000 ; Travel to line 366
G0 Z0.0 ; Pen down
G1 X183.260 Y78.040 F1000
G0 Z3.0 ; Pen up

G0 X183.260 Y77.260 F3000 ; Travel to line 367
G0 Z0.0 ; Pen down
G1 X136.200 Y124.320 F1000
G0 Z3.0 ; Pen up

G0 X135.680 Y123.800 F3000 ; Travel to line 368
G0 Z0.0 ; Pen down
G1 X183.260 Y76.480 F1000
G0 Z3.0 ; Pen up

G0 X183.260 Y75.700 F3000 ; Travel to line 369
G0 Z0.0 ; Pen down
G1 X135.420 Y123.540 F1000
G0 Z3.0 ; Pen up

G0 X135.160 Y123.280 F3000 ; Travel to line 370
G0 Z0.0 ; Pen down
G1 X183.260 Y75.180 F1000
G0 Z3.0 ; Pen up

G0 X183.260 Y74.400 F3000 ; Travel to line 371
G0 Z0.0 ; Pen down
G1 X134.900 Y122.760 F1000
G0 Z3.0 ; Pen up

G0 X134.380 Y122.240 F3000 ; Travel to line 372
G0 Z0.0 ; Pen down
G1 X183.260 Y73.620 F1000
G0 Z3.0 ; Pen up

G0 X183.260 Y72.840 F3000 ; Travel to line 373
G0 Z0.0 ; Pen down
G1 X134.120 Y121.980 F1000
G0 Z3.0 ; Pen up

G0 X133.860 Y121.720 F3000 ; Travel to line 374
G0 Z0.0 ; Pen down
G1 X183.260 Y72.320 F1000
G0 Z3.0 ; Pen up

G0 X183.260 Y71.280 F3000 ; Travel to line 375
G0 Z0.0 ; Pen down
G1 X133.340 Y121.200 F1000
G0 Z3.0 ; Pen up

G0 X133.080 Y120.940 F3000 ; Travel to line 376
G0 Z0.0 ; Pen down
G1 X183.260 Y70.760 F1000
G0 Z3.0 ; Pen up

G0 X183.260 Y70.240 F3000 ; Travel to line 377
G0 Z0.0 ; Pen down
G1 X132.820 Y120.680 F1000
G1 X132.820 Y120.680 F1000
G1 X183.260 Y70.240 F1000
G1 X183.260 Y70.240 F1000
G1 X132.820 Y120.680 F1000
G1 X132.820 Y120.680 F1000
G1 X183.260 Y70.240 F1000
G1 X183.260 Y70.240 F1000
G1 X132.820 Y120.680 F1000
G1 X132.820 Y120.680 F1000
G1 X183.260 Y70.240 F1000
G1 X183.260 Y70.240 F1000
G1 X132.820 Y120.680 F1000
G1 X132.820 Y120.680 F1000
G1 X183.260 Y70.240 F1000
G1 X183.260 Y70.240 F1000
G1 X132.820 Y120.680 F1000
G1 X132.820 Y120.680 F1000
G1 X183.260 Y70.240 F1000
G1 X183.260 Y70.240 F1000
G1 X132.820 Y120.680 F1000
G1 X132.820 Y120.680 F1000
G1 X183.260 Y70.240 F1000
G1 X183.260 Y70.240 F1000
G1 X132.820 Y120.680 F1000
G1 X132.820 Y120.680 F1000
G1 X183.260 Y70.240 F1000
G1 X183.260 Y70.240 F1000
G1 X132.820 Y120.680 F1000
G1 X132.820 Y120.680 F1000
G1 X183.260 Y70.240 F1000
G1 X183.260 Y70.240 F1000
G1 X132.820 Y120.680 F1000
G1 X132.820 Y120.680 F1000
G1 X183.260 Y70.240 F1000
G1 X183.260 Y70.240 F1000
G1 X132.820 Y120.680 F1000
G1 X132.820 Y120.680 F1000
G1 X183.260 Y70.240 F1000
G1 X183.260 Y70.240 F1000
G1 X132.820 Y120.680 F1000
G1 X132.820 Y120.680 F1000
G1 X183.260 Y70.240 F1000
G1 X183.260 Y70.240 F1000
G1 X132.820 Y120.680 F1000
G1 X132.820 Y120.680 F1000
G1 X183.260 Y70.240 F1000
G1 X183.260 Y70.240 F1000
G1 X132.820 Y120.680 F1000
G1 X132.820 Y120.680 F1000
G1 X183.260 Y70.240 F1000
G1 X183.260 Y70.240 F1000
G1 X132.820 Y120.680 F1000
G1 X132.820 Y120.680 F1000
G1 X183.260 Y70.240 F1000
G1 X183.260 Y70.240 F1000
G1 X132.820 Y120.680 F1000
G1 X132.820 Y120.680 F1000
G1 X183.260 Y70.240 F1000
G1 X183.260 Y70.240 F1000
G1 X132.820 Y120.680 F1000
G1 X132.820 Y120.680 F1000
G1 X183.260 Y70.240 F1000
G1 X183.260 Y70.240 F1000
G1 X132.820 Y120.680 F1000
G1 X132.820 Y120.680 F1000
G1 X183.260 Y70.240 F1000
G1 X183.260 Y70.240 F1000
G1 X132.820 Y120.680 F1000
G1 X132.820 Y120.680 F1000
G1 X183.260 Y70.240 F1000
G1 X183.260 Y70.240 F1000
G1 X132.820 Y120.680 F1000
G1 X132.820 Y120.680 F1000
G1 X183.260 Y70.240 F1000
G1 X183.260 Y70.240 F1000
G1 X132.820 Y120.680 F1000
G1 X132.820 Y120.680 F1000
G1 X183.260 Y70.240 F1000
G1 X183.260 Y70.240 F1000
G1 X132.820 Y120.680 F1000
G1 X132.820 Y120.680 F1000
G1 X183.260 Y70.240 F1000
G1 X183.260 Y70.240 F1000
G1 X132.820 Y120.680 F1000
G1 X132.820 Y120.680 F1000
G1 X183.260 Y70.240 F1000
G1 X183.260 Y70.240 F1000
G1 X132.820 Y120.680 F1000
G1 X132.820 Y120.680 F1000
G1 X183.260 Y70.240 F1000
G1 X183.260 Y70.240 F1000
G1 X132.820 Y120.680 F1000
G1 X132.820 Y120.680 F1000
G1 X183.260 Y70.240 F1000
G1 X183.260 Y70.240 F1000
G1 X132.820 Y120.680 F1000
G1 X132.820 Y120.680 F1000
G1 X183.260 Y70.240 F1000
G1 X183.260 Y70.240 F1000
G1 X132.820 Y120.680 F1000
G1 X132.820 Y120.680 F1000
G1 X183.260 Y70.240 F1000
G1 X183.260 Y70.240 F1000
G1 X132.820 Y120.680 F1000
G1 X132.820 Y120.680 F1000
G1 X183.260 Y70.240 F1000
G1 X183.260 Y70.240 F1000
G1 X132.820 Y120.680 F1000
G1 X132.820 Y120.680 F1000
G1 X183.260 Y70.240 F1000
G1 X183.260 Y70.240 F1000
G1 X132.820 Y120.680 F1000
G1 X132.820 Y120.680 F1000
G1 X183.260 Y70.240 F1000
G1 X183.260 Y70.240 F1000
G1 X132.820 Y120.680 F1000
G1 X132.820 Y120.680 F1000
G1 X183.260 Y70.240 F1000
G1 X183.260 Y70.240 F1000
G1 X132.820 Y120.680 F1000
G1 X132.820 Y120.680 F1000
G1 X183.260 Y70.240 F1000
G1 X183.260 Y70.240 F1000
G1 X132.820 Y120.680 F1000
G1 X132.820 Y120.680 F1000
G1 X183.260 Y70.240 F1000
G1 X183.260 Y70.240 F1000
G1 X132.820 Y120.680 F1000
G1 X132.820 Y120.680 F1000
G1 X183.260 Y70.240 F1000
G1 X183.260 Y70.240 F1000
G1 X132.820 Y120.680 F1000
G1 X132.820 Y120.680 F1000
G1 X183.260 Y70.240 F1000
G1 X183.260 Y70.240 F1000
G1 X132.820 Y120.680 F1000
G1 X132.820 Y120.680 F1000
G1 X183.260 Y70.240 F1000
G1 X183.260 Y70.240 F1000
G1 X132.820 Y120.680 F1000
G1 X132.820 Y120.680 F1000
G1 X183.260 Y70.240 F1000
G1 X183.260 Y70.240 F1000
G1 X132.820 Y120.680 F1000
G1 X132.820 Y120.680 F1000
G1 X183.260 Y70.240 F1000
G1 X183.260 Y70.240 F1000
G1 X132.820 Y120.680 F1000
G1 X132.820 Y120.680 F1000
G1 X183.260 Y70.240 F1000
G1 X183.260 Y70.240 F1000
G1 X132.820 Y120.680 F1000
G1 X132.820 Y120.680 F1000
G1 X183.260 Y70.240 F1000
G1 X183.260 Y70.240 F1000
G1 X132.820 Y120.680 F1000
G1 X132.820 Y120.680 F1000
G1 X183.260 Y70.240 F1000
G1 X183.260 Y70.240 F1000
G1 X132.820 Y120.680 F1000
G1 X132.820 Y120.680 F1000
G1 X183.260 Y70.240 F1000
G1 X183.260 Y70.240 F1000
G1 X132.820 Y120.680 F1000
G1 X132.820 Y120.680 F1000
G1 X183.260 Y70.240 F1000
G1 X183.260 Y70.240 F1000
G1 X132.820 Y120.680 F1000
G1 X132.820 Y120.680 F1000
G1 X183.260 Y70.240 F1000
G1 X183.260 Y70.240 F1000
G1 X132.820 Y120.680 F1000
G1 X132.820 Y120.680 F1000
G1 X183.260 Y70.240 F1000
G1 X183.260 Y70.240 F1000
G1 X132.820 Y120.680 F1000
G1 X132.820 Y120.680 F1000
G1 X183.260 Y70.240 F1000
G1 X183.260 Y70.240 F1000
G1 X132.820 Y120.680 F1000
G1 X132.820 Y120.680 F1000
G1 X183.260 Y70.240 F1000
G1 X183.260 Y70.240 F1000
G1 X132.820 Y120.680 F1000
G1 X132.820 Y120.680 F1000
G1 X183.260 Y70.240 F1000
G1 X183.260 Y70.240 F1000
G1 X132.820 Y120.680 F1000
G1 X132.820 Y120.680 F1000
G1 X183.260 Y70.240 F1000
G1 X183.260 Y70.240 F1000
G1 X132.820 Y120.680 F1000
G1 X132.820 Y120.680 F1000
G1 X183.260 Y70.240 F1000
G1 X183.260 Y70.240 F1000
G1 X132.820 Y120.680 F1000
G1 X132.820 Y120.680 F1000
G1 X183.260 Y70.240 F1000
G1 X183.260 Y70.240 F1000
G1 X132.820 Y120.680 F1000
G1 X132.820 Y120.680 F1000
G1 X183.260 Y70.240 F1000
G1 X183.260 Y70.240 F1000
G1 X132.820 Y120.680 F1000
G1 X132.820 Y120.680 F1000
G1 X183.260 Y70.240 F1000
G1 X183.260 Y70.240 F1000
G1 X132.820 Y120.680 F1000
G1 X132.820 Y120.680 F1000
G1 X183.260 Y70.240 F1000
G1 X183.260 Y70.240 F1000
G1 X132.820 Y120.680 F1000
G1 X132.820 Y120.680 F1000
G1 X183.260 Y70.240 F1000
G1 X183.260 Y70.240 F1000
G1 X132.820 Y120.680 F1000
G1 X132.820 Y120.680 F1000
G1 X183.260 Y70.240 F1000
G1 X183.260 Y70.240 F1000
G1 X132.820 Y120.680 F1000
G1 X132.820 Y120.680 F1000
G1 X183.260 Y70.240 F1000
G1 X183.260 Y70.240 F1000
G1 X132.820 Y120.680 F1000
G1 X132.820 Y120.680 F1000
G1 X183.260 Y70.240 F1000
G1 X183.260 Y70.240 F1000
G1 X132.820 Y120.680 F1000
G1 X132.820 Y120.680 F1000
G1 X183.260 Y70.240 F1000
G1 X183.260 Y70.240 F1000
G1 X132.820 Y120.680 F1000
G1 X132.820 Y120.680 F1000
G1 X183.260 Y70.240 F1000
G1 X183.260 Y70.240 F1000
G1 X132.820 Y120.680 F1000
G1 X132.820 Y120.680 F1000
G1 X183.260 Y70.240 F1000
G1 X183.260 Y70.240 F1000
G1 X132.820 Y120.680 F1000
G1 X132.820 Y120.680 F1000
G1 X183.260 Y70.240 F1000
G1 X183.260 Y70.240 F1000
G1 X132.820 Y120.680 F1000
G1 X132.820 Y120.680 F1000
G1 X183.260 Y70.240 F1000
G1 X183.260 Y70.240 F1000
G1 X132.820 Y120.680 F1000
G1 X132.820 Y120.680 F1000
G1 X183.260 Y70.240 F1000
G1 X183.260 Y70.240 F1000
G1 X132.820 Y120.680 F1000
G1 X132.820 Y120.680 F1000
G1 X183.260 Y70.240 F1000
G1 X183.260 Y70.240 F1000
G1 X132.820 Y120.680 F1000
G1 X132.820 Y120.680 F1000
G1 X183.260 Y70.240 F1000
G1 X183.260 Y70.240 F1000
G1 X132.820 Y120.680 F1000
G1 X132.820 Y120.680 F1000
G1 X183.260 Y70.240 F1000
G1 X183.260 Y70.240 F1000
G1 X132.820 Y120.680 F1000
G1 X132.820 Y120.680 F1000
G1 X183.260 Y70.240 F1000
G1 X183.260 Y70.240 F1000
G1 X132.820 Y120.680 F1000
G1 X132.820 Y120.680 F1000
G1 X183.260 Y70.240 F1000
G1 X183.260 Y70.240 F1000
G1 X132.820 Y120.680 F1000
G1 X132.820 Y120.680 F1000
G1 X183.260 Y70.240 F1000
G1 X183.260 Y70.240 F1000
G1 X132.820 Y120.680 F1000
G1 X132.820 Y120.680 F1000
G1 X183.260 Y70.240 F1000
G1 X183.260 Y70.240 F1000
G1 X132.820 Y120.680 F1000
G1 X132.820 Y120.680 F1000
G1 X183.260 Y70.240 F1000
G1 X183.260 Y70.240 F1000
G1 X132.820 Y120.680 F1000
G1 X132.820 Y120.680 F1000
G1 X183.260 Y70.240 F1000
G1 X183.260 Y70.240 F1000
G1 X132.820 Y120.680 F1000
G1 X132.820 Y120.680 F1000
G1 X183.260 Y70.240 F1000
G1 X183.260 Y70.240 F1000
G1 X132.820 Y120.680 F1000
G1 X132.820 Y120.680 F1000
G1 X183.260 Y70.240 F1000
G1 X183.260 Y70.240 F1000
G1 X132.820 Y120.680 F1000
G1 X132.820 Y120.680 F1000
G1 X183.260 Y70.240 F1000
G1 X183.260 Y70.240 F1000
G1 X132.820 Y120.680 F1000
G1 X132.820 Y120.680 F1000
G1 X183.260 Y70.240 F1000
G1 X183.260 Y70.240 F1000
G1 X132.820 Y120.680 F1000
G1 X132.820 Y120.680 F1000
G1 X183.260 Y70.240 F1000
G1 X183.260 Y70.240 F1000
G1 X132.820 Y120.680 F1000
G1 X132.820 Y120.680 F1000
G1 X183.260 Y70.240 F1000
G1 X183.260 Y70.240 F1000
G1 X132.820 Y120.680 F1000
G1 X132.820 Y120.680 F1000
G1 X183.260 Y70.240 F1000
G1 X183.260 Y70.240 F1000
G1 X132.820 Y120.680 F1000
G0 Z3.0 ; Pen up

G0 X132.560 Y120.420 F3000 ; Travel to line 378
G0 Z0.0 ; Pen down
G1 X182.480 Y70.240 F1000
G0 Z3.0 ; Pen up

G0 X182.220 Y70.240 F3000 ; Travel to line 379
G0 Z0.0 ; Pen down
G1 X132.300 Y120.160 F1000
G0 Z3.0 ; Pen up

G0 X131.780 Y119.640 F3000 ; Travel to line 380
G0 Z0.0 ; Pen down
G1 X181.180 Y70.240 F1000
G0 Z3.0 ; Pen up

G0 X180.660 Y70.240 F3000 ; Travel to line 381
G0 Z0.0 ; Pen down
G1 X131.520 Y119.380 F1000
G0 Z3.0 ; Pen up

G0 X131.000 Y118.860 F3000 ; Travel to line 382
G0 Z0.0 ; Pen down
G1 X179.620 Y70.240 F1000
G0 Z3.0 ; Pen up

G0 X179.100 Y70.240 F3000 ; Travel to line 383
G0 Z0.0 ; Pen down
G1 X130.740 Y118.600 F1000
G0 Z3.0 ; Pen up

G0 X130.220 Y118.340 F3000 ; Travel to line 384
G0 Z0.0 ; Pen down
G1 X178.320 Y70.240 F1000
G0 Z3.0 ; Pen up

G0 X177.540 Y70.240 F3000 ; Travel to line 385
G0 Z0.0 ; Pen down
G1 X129.960 Y118.080 F1000
G0 Z3.0 ; Pen up

G0 X129.440 Y117.560 F3000 ; Travel to line 386
G0 Z0.0 ; Pen down
G1 X176.760 Y70.240 F1000
G0 Z3.0 ; Pen up

G0 X176.240 Y70.240 F3000 ; Travel to line 387
G0 Z0.0 ; Pen down
G1 X129.180 Y117.300 F1000
G0 Z3.0 ; Pen up

G0 X128.660 Y117.040 F3000 ; Travel to line 388
G0 Z0.0 ; Pen down
G1 X175.460 Y70.240 F1000
G0 Z3.0 ; Pen up

G0 X174.680 Y70.240 F3000 ; Travel to line 389
G0 Z0.0 ; Pen down
G1 X128.400 Y116.780 F1000
G0 Z3.0 ; Pen up

G0 X127.880 Y116.520 F3000 ; Travel to line 390
G0 Z0.0 ; Pen down
G1 X174.160 Y70.240 F1000
G0 Z3.0 ; Pen up

G0 X173.380 Y70.240 F3000 ; Travel to line 391
G0 Z0.0 ; Pen down
G1 X127.620 Y116.260 F1000
G0 Z3.0 ; Pen up

G0 X127.100 Y115.740 F3000 ; Travel to line 392
G0 Z0.0 ; Pen down
G1 X172.600 Y70.240 F1000
G0 Z3.0 ; Pen up

G0 X171.820 Y70.240 F3000 ; Travel to line 393
G0 Z0.0 ; Pen down
G1 X126.580 Y115.480 F1000
G0 Z3.0 ; Pen up

G0 X126.320 Y115.220 F3000 ; Travel to line 394
G0 Z0.0 ; Pen down
G1 X171.300 Y70.240 F1000
G0 Z3.0 ; Pen up

G0 X170.520 Y70.240 F3000 ; Travel to line 395
G0 Z0.0 ; Pen down
G1 X125.800 Y114.960 F1000
G0 Z3.0 ; Pen up

G0 X125.280 Y114.700 F3000 ; Travel to line 396
G0 Z0.0 ; Pen down
G1 X169.740 Y70.240 F1000
G0 Z3.0 ; Pen up

G0 X169.220 Y70.240 F3000 ; Travel to line 397
G0 Z0.0 ; Pen down
G1 X125.020 Y114.440 F1000
G0 Z3.0 ; Pen up

G0 X124.500 Y114.180 F3000 ; Travel to line 398
G0 Z0.0 ; Pen down
G1 X168.440 Y70.240 F1000
G0 Z3.0 ; Pen up

G0 X167.660 Y70.240 F3000 ; Travel to line 399
G0 Z0.0 ; Pen down
G1 X123.980 Y113.920 F1000
G0 Z3.0 ; Pen up

G0 X123.460 Y113.660 F3000 ; Travel to line 400
G0 Z0.0 ; Pen down
G1 X166.880 Y70.240 F1000
G0 Z3.0 ; Pen up

G0 X166.360 Y70.240 F3000 ; Travel to line 401
G0 Z0.0 ; Pen down
G1 X123.200 Y113.400 F1000
G0 Z3.0 ; Pen up

G0 X122.680 Y113.140 F3000 ; Travel to line 402
G0 Z0.0 ; Pen down
G1 X165.580 Y70.240 F1000
G0 Z3.0 ; Pen up

G0 X164.800 Y70.240 F3000 ; Travel to line 403
G0 Z0.0 ; Pen down
G1 X122.160 Y112.880 F1000
G0 Z3.0 ; Pen up

G0 X121.900 Y112.880 F3000 ; Travel to line 404
G0 Z0.0 ; Pen down
G1 X164.280 Y70.240 F1000
G0 Z3.0 ; Pen up

G0 X163.500 Y70.240 F3000 ; Travel to line 405
G0 Z0.0 ; Pen down
G1 X121.380 Y112.620 F1000
G0 Z3.0 ; Pen up

G0 X120.600 Y112.360 F3000 ; Travel to line 406
G0 Z0.0 ; Pen down
G1 X162.720 Y70.240 F1000
G0 Z3.0 ; Pen up

G0 X161.940 Y70.240 F3000 ; Travel to line 407
G0 Z0.0 ; Pen down
G1 X120.080 Y112.100 F1000
G0 Z3.0 ; Pen up

G0 X119.820 Y111.840 F3000 ; Travel to line 408
G0 Z0.0 ; Pen down
G1 X161.420 Y70.240 F1000
G0 Z3.0 ; Pen up

G0 X160.640 Y70.240 F3000 ; Travel to line 409
G0 Z0.0 ; Pen down
G1 X119.300 Y111.580 F1000
G0 Z3.0 ; Pen up

G0 X118.780 Y111.580 F3000 ; Travel to line 410
G0 Z0.0 ; Pen down
G1 X159.860 Y70.240 F1000
G0 Z3.0 ; Pen up

G0 X159.080 Y70.240 F3000 ; Travel to line 411
G0 Z0.0 ; Pen down
G1 X118.000 Y111.320 F1000
G0 Z3.0 ; Pen up

G0 X117.740 Y111.060 F3000 ; Travel to line 412
G0 Z0.0 ; Pen down
G1 X158.560 Y70.240 F1000
G0 Z3.0 ; Pen up

G0 X157.780 Y70.240 F3000 ; Travel to line 413
G0 Z0.0 ; Pen down
G1 X117.220 Y111.060 F1000
G0 Z3.0 ; Pen up

G0 X116.440 Y110.800 F3000 ; Travel to line 414
G0 Z0.0 ; Pen down
G1 X157.000 Y70.240 F1000
G0 Z3.0 ; Pen up

G0 X156.480 Y70.240 F3000 ; Travel to line 415
G0 Z0.0 ; Pen down
G1 X116.180 Y110.540 F1000
G0 Z3.0 ; Pen up

G0 X115.660 Y110.540 F3000 ; Travel to line 416
G0 Z0.0 ; Pen down
G1 X155.700 Y70.240 F1000
G0 Z3.0 ; Pen up

G0 X154.920 Y70.240 F3000 ; Travel to line 417
G0 Z0.0 ; Pen down
G1 X114.880 Y110.280 F1000
G0 Z3.0 ; Pen up

G0 X114.360 Y110.020 F3000 ; Travel to line 418
G0 Z0.0 ; Pen down
G1 X154.140 Y70.240 F1000
G0 Z3.0 ; Pen up

G0 X153.620 Y70.240 F3000 ; Travel to line 419
G0 Z0.0 ; Pen down
G1 X113.840 Y110.020 F1000
G0 Z3.0 ; Pen up

G0 X113.320 Y109.760 F3000 ; Travel to line 420
G0 Z0.0 ; Pen down
G1 X152.840 Y70.240 F1000
G0 Z3.0 ; Pen up

G0 X152.060 Y70.240 F3000 ; Travel to line 421
G0 Z0.0 ; Pen down
G1 X112.540 Y109.760 F1000
G0 Z3.0 ; Pen up

G0 X112.280 Y109.760 F3000 ; Travel to line 422
G0 Z0.0 ; Pen down
G1 X151.540 Y70.240 F1000
G0 Z3.0 ; Pen up

G0 X150.760 Y70.240 F3000 ; Travel to line 423
G0 Z0.0 ; Pen down
G1 X111.500 Y109.500 F1000
G0 Z3.0 ; Pen up

G0 X110.720 Y109.500 F3000 ; Travel to line 424
G0 Z0.0 ; Pen down
G1 X149.980 Y70.240 F1000
G0 Z3.0 ; Pen up

G0 X149.200 Y70.240 F3000 ; Travel to line 425
G0 Z0.0 ; Pen down
G1 X110.200 Y109.240 F1000
G0 Z3.0 ; Pen up

G0 X109.680 Y109.240 F3000 ; Travel to line 426
G0 Z0.0 ; Pen down
G1 X148.680 Y70.240 F1000
G0 Z3.0 ; Pen up

G0 X147.900 Y70.240 F3000 ; Travel to line 427
G0 Z0.0 ; Pen down
G1 X108.900 Y109.240 F1000
G0 Z3.0 ; Pen up

G0 X108.380 Y109.240 F3000 ; Travel to line 428
G0 Z0.0 ; Pen down
G1 X147.120 Y70.240 F1000
G0 Z3.0 ; Pen up

G0 X146.600 Y70.240 F3000 ; Travel to line 429
G0 Z0.0 ; Pen down
G1 X107.860 Y108.980 F1000
G0 Z3.0 ; Pen up

G0 X107.080 Y108.980 F3000 ; Travel to line 430
G0 Z0.0 ; Pen down
G1 X145.820 Y70.240 F1000
G0 Z3.0 ; Pen up

G0 X145.040 Y70.240 F3000 ; Travel to line 431
G0 Z0.0 ; Pen down
G1 X106.300 Y108.980 F1000
G0 Z3.0 ; Pen up

G0 X105.520 Y108.980 F3000 ; Travel to line 432
G0 Z0.0 ; Pen down
G1 X144.260 Y70.240 F1000
G0 Z3.0 ; Pen up

G0 X143.740 Y70.240 F3000 ; Travel to line 433
G0 Z0.0 ; Pen down
G1 X105.000 Y108.980 F1000
G0 Z3.0 ; Pen up

G0 X104.220 Y108.980 F3000 ; Travel to line 434
G0 Z0.0 ; Pen down
G1 X142.960 Y70.240 F1000
G0 Z3.0 ; Pen up

G0 X142.180 Y70.240 F3000 ; Travel to line 435
G0 Z0.0 ; Pen down
G1 X103.440 Y108.980 F1000
G0 Z3.0 ; Pen up

G0 X102.920 Y108.980 F3000 ; Travel to line 436
G0 Z0.0 ; Pen down
G1 X141.660 Y70.240 F1000
G0 Z3.0 ; Pen up

G0 X140.880 Y70.240 F3000 ; Travel to line 437
G0 Z0.0 ; Pen down
G1 X102.140 Y108.980 F1000
G0 Z3.0 ; Pen up

G0 X101.100 Y109.240 F3000 ; Travel to line 438
G0 Z0.0 ; Pen down
G1 X140.100 Y70.240 F1000
G0 Z3.0 ; Pen up

G0 X139.320 Y70.240 F3000 ; Travel to line 439
G0 Z0.0 ; Pen down
G1 X100.320 Y109.240 F1000
G0 Z3.0 ; Pen up

G0 X99.800 Y109.240 F3000 ; Travel to line 440
G0 Z0.0 ; Pen down
G1 X138.800 Y70.240 F1000
G0 Z3.0 ; Pen up

G0 X138.020 Y70.240 F3000 ; Travel to line 441
G0 Z0.0 ; Pen down
G1 X98.760 Y109.500 F1000
G0 Z3.0 ; Pen up

G0 X97.720 Y109.760 F3000 ; Travel to line 442
G0 Z0.0 ; Pen down
G1 X137.240 Y70.240 F1000
G0 Z3.0 ; Pen up

G0 X136.460 Y70.240 F3000 ; Travel to line 443
G0 Z0.0 ; Pen down
G1 X96.940 Y109.760 F1000
G0 Z3.0 ; Pen up

G0 X96.160 Y110.020 F3000 ; Travel to line 444
G0 Z0.0 ; Pen down
G1 X135.940 Y70.240 F1000
G0 Z3.0 ; Pen up

G0 X135.160 Y70.240 F3000 ; Travel to line 445
G0 Z0.0 ; Pen down
G1 X95.120 Y110.280 F1000
G0 Z3.0 ; Pen up

G0 X94.080 Y110.540 F3000 ; Travel to line 446
G0 Z0.0 ; Pen down
G1 X134.380 Y70.240 F1000
G0 Z3.0 ; Pen up

G0 X133.860 Y70.240 F3000 ; Travel to line 447
G0 Z0.0 ; Pen down
G1 X93.300 Y110.800 F1000
G0 Z3.0 ; Pen up

G0 X92.260 Y111.060 F3000 ; Travel to line 448
G0 Z0.0 ; Pen down
G1 X133.080 Y70.240 F1000
G0 Z3.0 ; Pen up

G0 X132.300 Y70.240 F3000 ; Travel to line 449
G0 Z0.0 ; Pen down
G1 X90.960 Y111.580 F1000
G0 Z3.0 ; Pen up

G0 X92.000 Y111.320 F3000 ; Travel to line 450
G0 Z0.0 ; Pen down
G1 X128.920 Y74.400 F1000
G0 Z3.0 ; Pen up

G0 X125.540 Y75.700 F3000 ; Travel to line 451
G0 Z0.0 ; Pen down
G1 X88.620 Y112.620 F1000
G0 Z3.0 ; Pen up

G0 X88.880 Y112.360 F3000 ; Travel to line 452
G0 Z0.0 ; Pen down
G1 X131.000 Y70.240 F1000
G0 Z3.0 ; Pen up

G0 X131.520 Y70.240 F3000 ; Travel to line 453
G0 Z0.0 ; Pen down
G1 X89.400 Y112.360 F1000
G0 Z3.0 ; Pen up

G0 X87.060 Y113.400 F3000 ; Travel to line 454
G0 Z0.0 ; Pen down
G1 X130.220 Y70.240 F1000
G0 Z3.0 ; Pen up

G0 X129.440 Y70.240 F3000 ; Travel to line 455
G0 Z0.0 ; Pen down
G1 X85.500 Y114.180 F1000
G0 Z3.0 ; Pen up

G0 X85.240 Y114.440 F3000 ; Travel to line 456
G0 Z0.0 ; Pen down
G1 X122.160 Y77.520 F1000
G0 Z3.0 ; Pen up

G0 X128.140 Y70.240 F3000 ; Travel to line 457
G0 Z0.0 ; Pen down
G1 X81.080 Y117.300 F1000
G0 Z3.0 ; Pen up

G0 X83.940 Y115.220 F3000 ; Travel to line 458
G0 Z0.0 ; Pen down
G1 X128.920 Y70.240 F1000
G0 Z3.0 ; Pen up

G0 X183.260 Y119.640 F3000 ; Travel to line 459
G0 Z0.0 ; Pen down
G1 X142.700 Y160.200 F1000
G0 Z3.0 ; Pen up

G0 X142.440 Y161.240 F3000 ; Travel to line 460
G0 Z0.0 ; Pen down
G1 X183.260 Y120.420 F1000
G0 Z3.0 ; Pen up

; Return to origin
G0 X0 Y0
G0 Z3.0

; Total drawing distance: 56751.20 mm
; Total travel distance: 584.07 mm
; Total lines: 460
; Estimated time: 3416.8 seconds (56.9 minutes)
M2 ; End program