; Blueprint to G-code
; Input: test_images_solid/test4_floor_plan_with_walls.png
; Generated with blueprint2gcode.py

G21 ; Set units to millimeters
G90 ; Absolute positioning
G0 Z3.0 ; Pen up
G0 X0 Y0 ; Move to origin

G0 X29.324 Y38.337 F3000 ; Travel to line 1
G0 Z0.0 ; Pen down
G1 X29.195 Y38.466 F1000
G0 Z3.0 ; Pen up

G0 X30.096 Y38.209 F3000 ; Travel to line 2
G0 Z0.0 ; Pen down
G1 X30.354 Y37.951 F1000
G0 Z3.0 ; Pen up

G0 X30.998 Y38.209 F3000 ; Travel to line 3
G0 Z0.0 ; Pen down
G1 X31.126 Y38.080 F1000
G1 X31.770 Y38.080 F1000
G1 X31.899 Y38.209 F1000
G1 X31.899 Y38.337 F1000
G1 X31.641 Y38.595 F1000
G1 X31.384 Y38.595 F1000
G1 X31.384 Y38.595 F1000
G1 X31.255 Y38.466 F1000
G1 X31.126 Y38.466 F1000
G1 X30.998 Y38.337 F1000
G1 X30.998 Y37.694 F1000
G1 X31.255 Y37.436 F1000
G1 X32.028 Y37.436 F1000
G1 X31.255 Y37.436 F1000
G1 X30.998 Y37.694 F1000
G1 X30.998 Y37.951 F1000
G1 X31.126 Y38.080 F1000
G1 X31.899 Y38.080 F1000
G1 X31.899 Y38.337 F1000
G1 X31.641 Y38.595 F1000
G0 Z3.0 ; Pen up

G0 X32.671 Y38.466 F3000 ; Travel to line 4
G0 Z0.0 ; Pen down
G1 X32.543 Y38.337 F1000
G1 X32.543 Y38.209 F1000
G1 X32.414 Y38.080 F1000
G1 X32.414 Y37.822 F1000
G1 X32.543 Y37.694 F1000
G1 X32.543 Y37.565 F1000
G1 X32.671 Y37.436 F1000
G1 X33.315 Y37.436 F1000
G1 X33.444 Y37.565 F1000
G1 X33.444 Y38.337 F1000
G1 X33.315 Y38.466 F1000
G1 X33.186 Y38.466 F1000
G1 X33.058 Y38.595 F1000
G1 X32.929 Y38.595 F1000
G1 X32.800 Y38.466 F1000
G0 Z3.0 ; Pen up

G0 X33.444 Y38.981 F3000 ; Travel to line 5
G0 Z0.0 ; Pen down
G1 X33.444 Y38.595 F1000
G1 X33.315 Y38.466 F1000
G1 X33.186 Y38.466 F1000
G1 X33.058 Y38.595 F1000
G1 X32.929 Y38.595 F1000
G1 X32.800 Y38.466 F1000
G1 X32.671 Y38.466 F1000
G1 X32.543 Y38.337 F1000
G1 X32.543 Y38.209 F1000
G1 X32.414 Y38.080 F1000
G1 X32.414 Y37.822 F1000
G1 X32.543 Y37.694 F1000
G1 X32.543 Y37.565 F1000
G1 X32.671 Y37.436 F1000
G1 X33.444 Y37.436 F1000
G0 Z3.0 ; Pen up

G0 X34.602 Y38.466 F3000 ; Travel to line 6
G0 Z0.0 ; Pen down
G1 X34.345 Y38.466 F1000
G1 X34.216 Y38.337 F1000
G1 X34.216 Y37.436 F1000
G1 X34.216 Y38.337 F1000
G1 X34.345 Y38.466 F1000
G1 X34.602 Y38.466 F1000
G1 X34.731 Y38.595 F1000
G0 Z3.0 ; Pen up

G0 X35.375 Y38.466 F3000 ; Travel to line 7
G0 Z0.0 ; Pen down
G1 X35.246 Y38.337 F1000
G1 X35.246 Y38.209 F1000
G1 X35.117 Y38.080 F1000
G1 X35.117 Y37.822 F1000
G1 X35.246 Y37.694 F1000
G1 X35.246 Y37.565 F1000
G1 X35.375 Y37.436 F1000
G1 X36.019 Y37.436 F1000
G1 X36.148 Y37.565 F1000
G1 X36.148 Y38.337 F1000
G1 X36.019 Y38.466 F1000
G1 X35.890 Y38.466 F1000
G1 X35.761 Y38.595 F1000
G1 X35.633 Y38.595 F1000
G1 X35.504 Y38.466 F1000
G0 Z3.0 ; Pen up

G0 X35.633 Y38.595 F3000 ; Travel to line 8
G0 Z0.0 ; Pen down
G1 X35.504 Y38.466 F1000
G1 X35.375 Y38.466 F1000
G1 X35.246 Y38.337 F1000
G1 X35.246 Y38.209 F1000
G1 X35.117 Y38.080 F1000
G1 X35.117 Y37.822 F1000
G1 X35.246 Y37.694 F1000
G1 X35.246 Y37.565 F1000
G1 X35.375 Y37.436 F1000
G1 X36.019 Y37.436 F1000
G1 X36.148 Y37.565 F1000
G1 X36.148 Y38.337 F1000
G1 X36.019 Y38.466 F1000
G1 X35.890 Y38.466 F1000
G1 X35.761 Y38.595 F1000
G0 Z3.0 ; Pen up

G0 X36.920 Y38.466 F3000 ; Travel to line 9
G0 Z0.0 ; Pen down
G1 X36.791 Y38.337 F1000
G1 X36.791 Y38.209 F1000
G1 X36.663 Y38.080 F1000
G1 X36.663 Y37.822 F1000
G1 X36.791 Y37.694 F1000
G1 X36.791 Y37.565 F1000
G1 X36.920 Y37.436 F1000
G1 X37.564 Y37.436 F1000
G1 X37.692 Y37.565 F1000
G1 X37.692 Y38.337 F1000
G1 X37.564 Y38.466 F1000
G1 X37.435 Y38.466 F1000
G1 X37.306 Y38.595 F1000
G1 X37.178 Y38.595 F1000
G1 X37.049 Y38.466 F1000
G0 Z3.0 ; Pen up

G0 X37.178 Y38.595 F3000 ; Travel to line 10
G0 Z0.0 ; Pen down
G1 X37.049 Y38.466 F1000
G1 X36.920 Y38.466 F1000
G1 X36.791 Y38.337 F1000
G1 X36.791 Y38.209 F1000
G1 X36.663 Y38.080 F1000
G1 X36.663 Y37.822 F1000
G1 X36.791 Y37.694 F1000
G1 X36.791 Y37.565 F1000
G1 X36.920 Y37.436 F1000
G1 X37.564 Y37.436 F1000
G1 X37.692 Y37.565 F1000
G1 X37.692 Y38.337 F1000
G1 X37.564 Y38.466 F1000
G1 X37.435 Y38.466 F1000
G1 X37.306 Y38.595 F1000
G0 Z3.0 ; Pen up

G0 X38.851 Y38.595 F3000 ; Travel to line 11
G0 Z0.0 ; Pen down
G1 X38.722 Y38.466 F1000
G1 X38.465 Y38.466 F1000
G1 X38.336 Y38.337 F1000
G1 X38.336 Y37.436 F1000
G1 X38.336 Y38.337 F1000
G1 X38.465 Y38.466 F1000
G1 X38.722 Y38.466 F1000
G1 X38.851 Y38.595 F1000
G1 X38.980 Y38.595 F1000
G1 X39.237 Y38.337 F1000
G1 X39.237 Y37.436 F1000
G1 X39.237 Y38.209 F1000
G1 X39.366 Y38.337 F1000
G1 X39.495 Y38.337 F1000
G1 X39.752 Y38.595 F1000
G1 X39.881 Y38.595 F1000
G1 X40.139 Y38.337 F1000
G1 X40.139 Y37.436 F1000
G1 X40.139 Y38.337 F1000
G1 X39.881 Y38.595 F1000
G1 X39.752 Y38.595 F1000
G1 X39.624 Y38.466 F1000
G1 X39.495 Y38.466 F1000
G1 X39.366 Y38.337 F1000
G1 X39.237 Y38.337 F1000
G1 X38.980 Y38.595 F1000
G0 Z3.0 ; Pen up

G0 X30.354 Y38.724 F3000 ; Travel to line 12
G0 Z0.0 ; Pen down
G1 X29.968 Y39.110 F1000
G0 Z3.0 ; Pen up

G0 X28.809 Y61.513 F3000 ; Travel to line 13
G0 Z0.0 ; Pen down
G1 X28.680 Y61.384 F1000
G1 X28.680 Y60.998 F1000
G1 X28.551 Y60.869 F1000
G1 X28.551 Y60.740 F1000
G1 X28.422 Y60.611 F1000
G1 X28.422 Y60.483 F1000
G1 X28.165 Y60.225 F1000
G1 X28.165 Y60.096 F1000
G1 X27.779 Y59.710 F1000
G1 X27.650 Y59.710 F1000
G1 X27.393 Y59.453 F1000
G1 X27.264 Y59.453 F1000
G1 X27.135 Y59.324 F1000
G1 X27.006 Y59.324 F1000
G1 X26.878 Y59.195 F1000
G1 X26.491 Y59.195 F1000
G1 X26.363 Y59.066 F1000
G1 X25.848 Y59.066 F1000
G1 X26.363 Y59.066 F1000
G1 X26.491 Y59.195 F1000
G1 X26.878 Y59.195 F1000
G1 X27.006 Y59.324 F1000
G1 X27.135 Y59.324 F1000
G1 X27.264 Y59.453 F1000
G1 X27.393 Y59.453 F1000
G1 X28.422 Y60.483 F1000
G1 X28.422 Y60.611 F1000
G1 X28.551 Y60.740 F1000
G1 X28.551 Y60.869 F1000
G1 X28.680 Y60.998 F1000
G1 X28.680 Y61.384 F1000
G1 X28.809 Y61.513 F1000
G1 X28.809 Y62.028 F1000
G0 Z3.0 ; Pen up

G0 X23.788 Y64.989 F3000 ; Travel to line 14
G0 Z0.0 ; Pen down
G1 X23.916 Y64.860 F1000
G1 X25.075 Y64.860 F1000
G1 X25.204 Y64.989 F1000
G1 X25.332 Y64.989 F1000
G1 X25.590 Y65.246 F1000
G1 X25.332 Y64.989 F1000
G1 X25.204 Y64.989 F1000
G1 X25.075 Y64.860 F1000
G1 X23.916 Y64.860 F1000
G1 X23.788 Y64.731 F1000
G1 X23.788 Y15.291 F1000
G1 X23.916 Y15.162 F1000
G1 X99.621 Y15.162 F1000
G1 X99.750 Y15.291 F1000
G1 X99.750 Y51.212 F1000
G1 X98.463 Y52.500 F1000
G1 X49.538 Y52.500 F1000
G1 X48.250 Y53.788 F1000
G1 X48.250 Y89.709 F1000
G1 X48.121 Y89.838 F1000
G1 X23.916 Y89.838 F1000
G1 X23.788 Y89.709 F1000
G0 Z3.0 ; Pen up

G0 X29.195 Y77.606 F3000 ; Travel to line 15
G0 Z0.0 ; Pen down
G1 X29.195 Y76.061 F1000
G1 X30.096 Y76.061 F1000
G1 X29.324 Y76.061 F1000
G1 X29.195 Y76.190 F1000
G0 Z3.0 ; Pen up

G0 X30.611 Y76.061 F3000 ; Travel to line 16
G0 Z0.0 ; Pen down
G1 X30.611 Y77.091 F1000
G0 Z3.0 ; Pen up

G0 X31.384 Y77.091 F3000 ; Travel to line 17
G0 Z0.0 ; Pen down
G1 X31.384 Y76.834 F1000
G1 X31.512 Y76.705 F1000
G1 X31.512 Y76.448 F1000
G1 X31.641 Y76.319 F1000
G1 X31.641 Y76.190 F1000
G1 X32.028 Y76.190 F1000
G1 X32.028 Y76.448 F1000
G1 X32.156 Y76.576 F1000
G1 X32.156 Y76.834 F1000
G1 X32.285 Y76.963 F1000
G1 X32.285 Y77.091 F1000
G1 X32.285 Y76.963 F1000
G1 X32.156 Y76.834 F1000
G1 X32.156 Y76.576 F1000
G1 X32.028 Y76.448 F1000
G1 X32.028 Y76.319 F1000
G1 X31.899 Y76.190 F1000
G1 X31.770 Y76.190 F1000
G1 X31.512 Y76.448 F1000
G1 X31.512 Y76.705 F1000
G1 X31.384 Y76.834 F1000
G0 Z3.0 ; Pen up

G0 X32.929 Y77.091 F3000 ; Travel to line 18
G0 Z0.0 ; Pen down
G1 X32.929 Y76.061 F1000
G0 Z3.0 ; Pen up

G0 X34.088 Y77.220 F3000 ; Travel to line 19
G0 Z0.0 ; Pen down
G1 X33.959 Y77.091 F1000
G1 X33.701 Y77.091 F1000
G1 X33.573 Y76.963 F1000
G1 X33.573 Y76.061 F1000
G1 X33.573 Y76.963 F1000
G1 X33.701 Y77.091 F1000
G1 X33.959 Y77.091 F1000
G1 X34.088 Y77.220 F1000
G1 X34.216 Y77.220 F1000
G1 X34.474 Y76.963 F1000
G1 X34.474 Y76.061 F1000
G1 X34.474 Y76.963 F1000
G1 X34.216 Y77.220 F1000
G0 Z3.0 ; Pen up

G0 X35.375 Y77.091 F3000 ; Travel to line 20
G0 Z0.0 ; Pen down
G1 X35.246 Y76.963 F1000
G1 X35.246 Y76.834 F1000
G1 X35.117 Y76.705 F1000
G1 X35.117 Y76.448 F1000
G1 X35.246 Y76.319 F1000
G1 X35.246 Y76.190 F1000
G1 X35.375 Y76.061 F1000
G1 X36.019 Y76.061 F1000
G1 X36.148 Y76.190 F1000
G1 X36.148 Y76.963 F1000
G1 X36.019 Y77.091 F1000
G1 X35.890 Y77.091 F1000
G1 X35.761 Y77.220 F1000
G1 X35.633 Y77.220 F1000
G1 X35.504 Y77.091 F1000
G0 Z3.0 ; Pen up

G0 X35.633 Y77.220 F3000 ; Travel to line 21
G0 Z0.0 ; Pen down
G1 X35.504 Y77.091 F1000
G1 X35.375 Y77.091 F1000
G1 X35.246 Y76.963 F1000
G1 X35.246 Y76.834 F1000
G1 X35.117 Y76.705 F1000
G1 X35.117 Y76.448 F1000
G1 X35.246 Y76.319 F1000
G1 X35.246 Y76.190 F1000
G1 X35.375 Y76.061 F1000
G1 X36.019 Y76.061 F1000
G1 X36.148 Y75.933 F1000
G1 X36.148 Y75.675 F1000
G1 X36.019 Y75.546 F1000
G1 X35.375 Y75.546 F1000
G1 X36.019 Y75.546 F1000
G1 X36.148 Y75.675 F1000
G1 X36.148 Y77.091 F1000
G1 X35.890 Y77.091 F1000
G1 X35.761 Y77.220 F1000
G0 Z3.0 ; Pen up

G0 X37.692 Y77.478 F3000 ; Travel to line 22
G0 Z0.0 ; Pen down
G1 X37.692 Y77.091 F1000
G1 X37.821 Y76.963 F1000
G1 X38.465 Y76.963 F1000
G1 X38.594 Y77.091 F1000
G1 X38.594 Y77.478 F1000
G1 X38.336 Y77.735 F1000
G1 X37.950 Y77.735 F1000
G0 Z3.0 ; Pen up

G0 X37.821 Y77.735 F3000 ; Travel to line 23
G0 Z0.0 ; Pen down
G1 X37.692 Y77.606 F1000
G1 X37.692 Y76.061 F1000
G1 X37.692 Y76.834 F1000
G1 X37.821 Y76.963 F1000
G1 X38.336 Y76.963 F1000
G1 X38.465 Y76.834 F1000
G1 X38.465 Y76.705 F1000
G1 X38.722 Y76.448 F1000
G1 X38.722 Y76.319 F1000
G1 X38.851 Y76.190 F1000
G1 X38.851 Y76.061 F1000
G1 X38.851 Y76.190 F1000
G1 X38.722 Y76.319 F1000
G1 X38.722 Y76.448 F1000
G1 X38.594 Y76.576 F1000
G1 X38.594 Y76.705 F1000
G1 X38.465 Y76.834 F1000
G1 X38.465 Y76.963 F1000
G1 X38.594 Y77.091 F1000
G1 X38.594 Y77.606 F1000
G1 X38.465 Y77.606 F1000
G1 X38.336 Y77.735 F1000
G0 Z3.0 ; Pen up

G0 X39.495 Y77.091 F3000 ; Travel to line 24
G0 Z0.0 ; Pen down
G1 X39.366 Y76.963 F1000
G1 X39.366 Y76.834 F1000
G1 X39.237 Y76.705 F1000
G1 X39.237 Y76.448 F1000
G1 X39.366 Y76.319 F1000
G1 X39.366 Y76.190 F1000
G1 X39.495 Y76.061 F1000
G1 X40.139 Y76.061 F1000
G1 X40.267 Y76.190 F1000
G1 X40.267 Y76.963 F1000
G1 X40.139 Y77.091 F1000
G1 X40.010 Y77.091 F1000
G1 X39.881 Y77.220 F1000
G1 X39.752 Y77.220 F1000
G1 X39.624 Y77.091 F1000
G0 Z3.0 ; Pen up

G0 X39.752 Y77.220 F3000 ; Travel to line 25
G0 Z0.0 ; Pen down
G1 X39.624 Y77.091 F1000
G1 X39.495 Y77.091 F1000
G1 X39.366 Y76.963 F1000
G1 X39.366 Y76.834 F1000
G1 X39.237 Y76.705 F1000
G1 X39.237 Y76.448 F1000
G1 X39.366 Y76.319 F1000
G1 X39.366 Y76.190 F1000
G1 X39.495 Y76.061 F1000
G1 X40.139 Y76.061 F1000
G1 X40.267 Y76.190 F1000
G1 X40.267 Y76.963 F1000
G1 X40.139 Y77.091 F1000
G1 X40.010 Y77.091 F1000
G1 X39.881 Y77.220 F1000
G0 Z3.0 ; Pen up

G0 X41.040 Y77.091 F3000 ; Travel to line 26
G0 Z0.0 ; Pen down
G1 X40.911 Y76.963 F1000
G1 X40.911 Y76.834 F1000
G1 X40.782 Y76.705 F1000
G1 X40.782 Y76.448 F1000
G1 X40.911 Y76.319 F1000
G1 X40.911 Y76.190 F1000
G1 X41.040 Y76.061 F1000
G1 X41.684 Y76.061 F1000
G1 X41.812 Y76.190 F1000
G1 X41.812 Y76.963 F1000
G1 X41.684 Y77.091 F1000
G1 X41.555 Y77.091 F1000
G1 X41.426 Y77.220 F1000
G1 X41.297 Y77.220 F1000
G1 X41.169 Y77.091 F1000
G0 Z3.0 ; Pen up

G0 X41.297 Y77.220 F3000 ; Travel to line 27
G0 Z0.0 ; Pen down
G1 X41.169 Y77.091 F1000
G1 X41.040 Y77.091 F1000
G1 X40.911 Y76.963 F1000
G1 X40.911 Y76.834 F1000
G1 X40.782 Y76.705 F1000
G1 X40.782 Y76.448 F1000
G1 X40.911 Y76.319 F1000
G1 X40.911 Y76.190 F1000
G1 X41.040 Y76.061 F1000
G1 X41.684 Y76.061 F1000
G1 X41.812 Y76.190 F1000
G1 X41.812 Y76.963 F1000
G1 X41.684 Y77.091 F1000
G1 X41.555 Y77.091 F1000
G1 X41.426 Y77.220 F1000
G0 Z3.0 ; Pen up

G0 X42.971 Y77.220 F3000 ; Travel to line 28
G0 Z0.0 ; Pen down
G1 X42.843 Y77.091 F1000
G1 X42.585 Y77.091 F1000
G1 X42.456 Y76.963 F1000
G1 X42.456 Y76.061 F1000
G1 X42.456 Y76.963 F1000
G1 X42.585 Y77.091 F1000
G1 X42.843 Y77.091 F1000
G1 X42.971 Y77.220 F1000
G1 X43.100 Y77.220 F1000
G1 X43.358 Y76.963 F1000
G1 X43.358 Y76.061 F1000
G1 X43.358 Y76.834 F1000
G1 X43.486 Y76.963 F1000
G1 X43.615 Y76.963 F1000
G1 X43.873 Y77.220 F1000
G1 X44.001 Y77.220 F1000
G1 X44.259 Y76.963 F1000
G1 X44.259 Y76.061 F1000
G1 X44.259 Y76.963 F1000
G1 X44.001 Y77.220 F1000
G1 X43.873 Y77.220 F1000
G1 X43.744 Y77.091 F1000
G1 X43.615 Y77.091 F1000
G1 X43.486 Y76.963 F1000
G1 X43.358 Y76.963 F1000
G1 X43.100 Y77.220 F1000
G0 Z3.0 ; Pen up

G0 X48.379 Y89.838 F3000 ; Travel to line 29
G0 Z0.0 ; Pen down
G1 X48.250 Y89.709 F1000
G1 X48.250 Y53.788 F1000
G1 X49.538 Y52.500 F1000
G1 X98.463 Y52.500 F1000
G1 X99.750 Y51.212 F1000
G1 X99.750 Y15.291 F1000
G1 X99.879 Y15.162 F1000
G1 X123.955 Y15.162 F1000
G1 X124.213 Y15.420 F1000
G1 X124.213 Y89.709 F1000
G1 X124.084 Y89.838 F1000
G1 X79.150 Y89.838 F1000
G1 X79.021 Y89.966 F1000
G1 X68.979 Y89.966 F1000
G1 X68.850 Y89.838 F1000
G0 Z3.0 ; Pen up

G0 X68.979 Y89.966 F3000 ; Travel to line 30
G0 Z0.0 ; Pen down
G1 X68.850 Y89.838 F1000
G1 X23.788 Y89.838 F1000
G1 X23.788 Y15.162 F1000
G1 X124.084 Y15.162 F1000
G1 X124.213 Y15.291 F1000
G1 X124.213 Y89.838 F1000
G1 X79.150 Y89.838 F1000
G1 X79.021 Y89.966 F1000
G0 Z3.0 ; Pen up

G0 X79.150 Y77.606 F3000 ; Travel to line 31
G0 Z0.0 ; Pen down
G1 X79.150 Y76.061 F1000
G1 X79.150 Y76.963 F1000
G1 X79.279 Y77.091 F1000
G1 X79.536 Y77.091 F1000
G1 X79.665 Y77.220 F1000
G1 X79.794 Y77.220 F1000
G1 X80.051 Y76.963 F1000
G1 X80.051 Y76.061 F1000
G1 X80.051 Y76.963 F1000
G1 X79.794 Y77.220 F1000
G1 X79.665 Y77.220 F1000
G1 X79.536 Y77.091 F1000
G1 X79.279 Y77.091 F1000
G1 X79.150 Y77.220 F1000
G0 Z3.0 ; Pen up

G0 X78.377 Y77.220 F3000 ; Travel to line 32
G0 Z0.0 ; Pen down
G1 X78.506 Y77.091 F1000
G1 X78.635 Y77.091 F1000
G1 X78.506 Y77.091 F1000
G1 X78.377 Y77.220 F1000
G1 X78.120 Y77.220 F1000
G1 X77.605 Y76.705 F1000
G1 X77.605 Y76.448 F1000
G1 X77.991 Y76.061 F1000
G1 X78.635 Y76.061 F1000
G1 X77.991 Y76.061 F1000
G1 X77.605 Y76.448 F1000
G1 X77.605 Y76.705 F1000
G1 X78.120 Y77.220 F1000
G0 Z3.0 ; Pen up

G0 X76.704 Y77.349 F3000 ; Travel to line 33
G0 Z0.0 ; Pen down
G1 X76.832 Y77.220 F1000
G1 X77.090 Y77.220 F1000
G1 X76.832 Y77.220 F1000
G1 X76.704 Y77.091 F1000
G1 X76.704 Y76.190 F1000
G1 X76.832 Y76.061 F1000
G1 X77.090 Y76.061 F1000
G1 X76.832 Y76.061 F1000
G1 X76.704 Y76.190 F1000
G1 X76.704 Y77.478 F1000
G0 Z3.0 ; Pen up

G0 X75.931 Y77.091 F3000 ; Travel to line 34
G0 Z0.0 ; Pen down
G1 X75.931 Y76.061 F1000
G0 Z3.0 ; Pen up

G0 X75.545 Y77.735 F3000 ; Travel to line 35
G0 Z0.0 ; Pen down
G1 X75.416 Y77.735 F1000
G1 X74.644 Y76.963 F1000
G1 X74.644 Y76.834 F1000
G1 X75.159 Y76.319 F1000
G1 X75.159 Y76.190 F1000
G1 X75.416 Y75.933 F1000
G1 X74.515 Y76.834 F1000
G1 X74.386 Y76.834 F1000
G1 X74.258 Y76.705 F1000
G1 X74.258 Y76.061 F1000
G1 X74.258 Y77.606 F1000
G1 X74.258 Y76.963 F1000
G1 X74.386 Y76.834 F1000
G1 X74.515 Y76.834 F1000
G1 X74.644 Y76.963 F1000
G1 X74.644 Y77.091 F1000
G1 X75.288 Y77.735 F1000
G0 Z3.0 ; Pen up

G0 X80.695 Y76.834 F3000 ; Travel to line 36
G0 Z0.0 ; Pen down
G1 X80.824 Y76.705 F1000
G1 X81.468 Y76.705 F1000
G1 X81.596 Y76.834 F1000
G1 X81.596 Y76.963 F1000
G1 X81.339 Y77.220 F1000
G1 X81.081 Y77.220 F1000
G1 X81.081 Y77.220 F1000
G1 X80.953 Y77.091 F1000
G1 X80.824 Y77.091 F1000
G1 X80.695 Y76.963 F1000
G1 X80.695 Y76.319 F1000
G1 X80.953 Y76.061 F1000
G1 X81.725 Y76.061 F1000
G1 X80.953 Y76.061 F1000
G1 X80.695 Y76.319 F1000
G1 X80.695 Y76.576 F1000
G1 X80.824 Y76.705 F1000
G1 X81.596 Y76.705 F1000
G1 X81.596 Y76.963 F1000
G1 X81.339 Y77.220 F1000
G0 Z3.0 ; Pen up

G0 X82.884 Y77.220 F3000 ; Travel to line 37
G0 Z0.0 ; Pen down
G1 X82.755 Y77.091 F1000
G1 X82.498 Y77.091 F1000
G1 X82.369 Y76.963 F1000
G1 X82.369 Y76.061 F1000
G1 X82.369 Y76.963 F1000
G1 X82.498 Y77.091 F1000
G1 X82.755 Y77.091 F1000
G1 X82.884 Y77.220 F1000
G1 X83.013 Y77.220 F1000
G1 X83.270 Y76.963 F1000
G1 X83.270 Y76.061 F1000
G1 X83.270 Y76.963 F1000
G1 X83.013 Y77.220 F1000
G0 Z3.0 ; Pen up

G0 X107.218 Y39.110 F3000 ; Travel to line 38
G0 Z0.0 ; Pen down
G1 X107.604 Y38.724 F1000
G0 Z3.0 ; Pen up

G0 X107.346 Y38.209 F3000 ; Travel to line 39
G0 Z0.0 ; Pen down
G1 X107.604 Y37.951 F1000
G0 Z3.0 ; Pen up

G0 X108.248 Y37.822 F3000 ; Travel to line 40
G0 Z0.0 ; Pen down
G1 X108.248 Y37.565 F1000
G1 X108.376 Y37.436 F1000
G1 X108.891 Y37.436 F1000
G1 X109.149 Y37.694 F1000
G1 X109.149 Y37.951 F1000
G1 X109.020 Y38.080 F1000
G1 X108.505 Y38.080 F1000
G0 Z3.0 ; Pen up

G0 X108.505 Y38.595 F3000 ; Travel to line 41
G0 Z0.0 ; Pen down
G1 X108.376 Y38.466 F1000
G1 X108.248 Y38.466 F1000
G1 X108.376 Y38.466 F1000
G1 X108.505 Y38.595 F1000
G1 X108.763 Y38.595 F1000
G1 X109.149 Y38.209 F1000
G1 X109.020 Y38.080 F1000
G1 X108.505 Y38.080 F1000
G1 X108.248 Y37.822 F1000
G1 X108.248 Y37.565 F1000
G1 X108.376 Y37.436 F1000
G1 X108.891 Y37.436 F1000
G1 X109.020 Y37.565 F1000
G1 X109.149 Y37.436 F1000
G1 X109.020 Y37.565 F1000
G1 X109.149 Y37.694 F1000
G1 X109.149 Y38.337 F1000
G1 X109.020 Y38.466 F1000
G1 X108.891 Y38.466 F1000
G1 X108.763 Y38.595 F1000
G0 Z3.0 ; Pen up

G0 X109.793 Y38.724 F3000 ; Travel to line 42
G0 Z0.0 ; Pen down
G1 X109.921 Y38.595 F1000
G1 X110.179 Y38.595 F1000
G1 X109.921 Y38.595 F1000
G1 X109.793 Y38.466 F1000
G1 X109.793 Y37.565 F1000
G1 X109.921 Y37.436 F1000
G1 X110.179 Y37.436 F1000
G1 X109.921 Y37.436 F1000
G1 X109.793 Y37.565 F1000
G1 X109.793 Y38.852 F1000
G0 Z3.0 ; Pen up

G0 X110.823 Y38.981 F3000 ; Travel to line 43
G0 Z0.0 ; Pen down
G1 X110.823 Y37.436 F1000
G1 X110.823 Y38.337 F1000
G1 X110.951 Y38.466 F1000
G1 X111.209 Y38.466 F1000
G1 X111.338 Y38.595 F1000
G1 X111.466 Y38.595 F1000
G1 X111.724 Y38.337 F1000
G1 X111.724 Y37.436 F1000
G1 X111.724 Y38.337 F1000
G1 X111.466 Y38.595 F1000
G1 X111.338 Y38.595 F1000
G1 X111.209 Y38.466 F1000
G1 X110.951 Y38.466 F1000
G1 X110.823 Y38.595 F1000
G0 Z3.0 ; Pen up

G0 X106.574 Y38.337 F3000 ; Travel to line 44
G0 Z0.0 ; Pen down
G1 X106.445 Y38.466 F1000
G0 Z3.0 ; Pen up

; Return to origin
G0 X0 Y0
G0 Z3.0

; Total drawing distance: 1263.85 mm
; Total travel distance: 211.66 mm
; Total lines: 44
; Estimated time: 80.1 seconds (1.3 minutes)
M2 ; End program