; Blueprint to G-code
; Input: test_images_solid/test2_mixed_solid_outline.png
; Generated with blueprint2gcode.py

G21 ; Set units to millimeters
G90 ; Absolute positioning
G0 Z3.0 ; Pen up
G0 X0 Y0 ; Move to origin

G0 X70.760 Y79.000 F3000 ; Travel to line 1
G0 Z0.0 ; Pen down
G1 X70.240 Y79.520 F1000
G0 Z3.0 ; Pen up

G0 X69.980 Y80.040 F3000 ; Travel to line 2
G0 Z0.0 ; Pen down
G1 X71.020 Y79.000 F1000
G0 Z3.0 ; Pen up

G0 X71.280 Y79.000 F3000 ; Travel to line 3
G0 Z0.0 ; Pen down
G1 X69.720 Y80.560 F1000
G0 Z3.0 ; Pen up

G0 X69.460 Y81.080 F3000 ; Travel to line 4
G0 Z0.0 ; Pen down
G1 X71.540 Y79.000 F1000
G0 Z3.0 ; Pen up

G0 X71.800 Y79.000 F3000 ; Travel to line 5
G0 Z0.0 ; Pen down
G1 X69.200 Y81.600 F1000
G0 Z3.0 ; Pen up

G0 X68.940 Y82.120 F3000 ; Travel to line 6
G0 Z0.0 ; Pen down
G1 X72.060 Y79.000 F1000
G0 Z3.0 ; Pen up

G0 X72.320 Y79.000 F3000 ; Travel to line 7
G0 Z0.0 ; Pen down
G1 X68.680 Y82.640 F1000
G0 Z3.0 ; Pen up

G0 X68.160 Y83.680 F3000 ; Travel to line 8
G0 Z0.0 ; Pen down
G1 X72.840 Y79.000 F1000
G0 Z3.0 ; Pen up

G0 X73.360 Y79.000 F3000 ; Travel to line 9
G0 Z0.0 ; Pen down
G1 X67.640 Y84.720 F1000
G0 Z3.0 ; Pen up

G0 X67.380 Y85.240 F3000 ; Travel to line 10
G0 Z0.0 ; Pen down
G1 X73.620 Y79.000 F1000
G0 Z3.0 ; Pen up

G0 X73.880 Y79.000 F3000 ; Travel to line 11
G0 Z0.0 ; Pen down
G1 X67.120 Y85.760 F1000
G0 Z3.0 ; Pen up

G0 X66.600 Y86.800 F3000 ; Travel to line 12
G0 Z0.0 ; Pen down
G1 X74.400 Y79.000 F1000
G0 Z3.0 ; Pen up

G0 X74.660 Y79.000 F3000 ; Travel to line 13
G0 Z0.0 ; Pen down
G1 X66.340 Y87.320 F1000
G0 Z3.0 ; Pen up

G0 X66.080 Y87.840 F3000 ; Travel to line 14
G0 Z0.0 ; Pen down
G1 X74.920 Y79.000 F1000
G0 Z3.0 ; Pen up

G0 X75.440 Y79.000 F3000 ; Travel to line 15
G0 Z0.0 ; Pen down
G1 X65.560 Y88.880 F1000
G0 Z3.0 ; Pen up

G0 X65.040 Y89.920 F3000 ; Travel to line 16
G0 Z0.0 ; Pen down
G1 X75.960 Y79.000 F1000
G0 Z3.0 ; Pen up

G0 X76.220 Y79.000 F3000 ; Travel to line 17
G0 Z0.0 ; Pen down
G1 X64.780 Y90.440 F1000
G0 Z3.0 ; Pen up

G0 X64.520 Y90.960 F3000 ; Travel to line 18
G0 Z0.0 ; Pen down
G1 X76.480 Y79.000 F1000
G0 Z3.0 ; Pen up

G0 X77.000 Y79.000 F3000 ; Travel to line 19
G0 Z0.0 ; Pen down
G1 X64.000 Y92.000 F1000
G0 Z3.0 ; Pen up

G0 X63.740 Y92.520 F3000 ; Travel to line 20
G0 Z0.0 ; Pen down
G1 X77.260 Y79.000 F1000
G0 Z3.0 ; Pen up

G0 X77.520 Y79.000 F3000 ; Travel to line 21
G0 Z0.0 ; Pen down
G1 X63.480 Y93.040 F1000
G0 Z3.0 ; Pen up

G0 X62.960 Y94.080 F3000 ; Travel to line 22
G0 Z0.0 ; Pen down
G1 X78.040 Y79.000 F1000
G0 Z3.0 ; Pen up

G0 X78.300 Y79.000 F3000 ; Travel to line 23
G0 Z0.0 ; Pen down
G1 X62.700 Y94.600 F1000
G0 Z3.0 ; Pen up

G0 X62.440 Y95.120 F3000 ; Travel to line 24
G0 Z0.0 ; Pen down
G1 X78.560 Y79.000 F1000
G0 Z3.0 ; Pen up

G0 X79.080 Y79.000 F3000 ; Travel to line 25
G0 Z0.0 ; Pen down
G1 X61.920 Y96.160 F1000
G0 Z3.0 ; Pen up

G0 X61.400 Y97.200 F3000 ; Travel to line 26
G0 Z0.0 ; Pen down
G1 X79.600 Y79.000 F1000
G0 Z3.0 ; Pen up

G0 X79.860 Y79.000 F3000 ; Travel to line 27
G0 Z0.0 ; Pen down
G1 X61.140 Y97.720 F1000
G0 Z3.0 ; Pen up

G0 X60.880 Y98.240 F3000 ; Travel to line 28
G0 Z0.0 ; Pen down
G1 X80.120 Y79.000 F1000
G0 Z3.0 ; Pen up

G0 X80.640 Y79.000 F3000 ; Travel to line 29
G0 Z0.0 ; Pen down
G1 X60.360 Y99.280 F1000
G0 Z3.0 ; Pen up

G0 X60.100 Y99.800 F3000 ; Travel to line 30
G0 Z0.0 ; Pen down
G1 X80.900 Y79.000 F1000
G0 Z3.0 ; Pen up

G0 X81.160 Y79.000 F3000 ; Travel to line 31
G0 Z0.0 ; Pen down
G1 X59.840 Y100.320 F1000
G0 Z3.0 ; Pen up

G0 X59.320 Y101.360 F3000 ; Travel to line 32
G0 Z0.0 ; Pen down
G1 X81.680 Y79.000 F1000
G0 Z3.0 ; Pen up

G0 X82.200 Y79.000 F3000 ; Travel to line 33
G0 Z0.0 ; Pen down
G1 X58.800 Y102.400 F1000
G0 Z3.0 ; Pen up

G0 X58.540 Y102.920 F3000 ; Travel to line 34
G0 Z0.0 ; Pen down
G1 X82.460 Y79.000 F1000
G0 Z3.0 ; Pen up

G0 X82.720 Y79.000 F3000 ; Travel to line 35
G0 Z0.0 ; Pen down
G1 X58.280 Y103.440 F1000
G0 Z3.0 ; Pen up

G0 X57.760 Y104.480 F3000 ; Travel to line 36
G0 Z0.0 ; Pen down
G1 X83.240 Y79.000 F1000
G0 Z3.0 ; Pen up

G0 X83.500 Y79.000 F3000 ; Travel to line 37
G0 Z0.0 ; Pen down
G1 X57.500 Y105.000 F1000
G0 Z3.0 ; Pen up

G0 X57.760 Y105.000 F3000 ; Travel to line 38
G0 Z0.0 ; Pen down
G1 X83.760 Y79.000 F1000
G0 Z3.0 ; Pen up

G0 X84.280 Y79.000 F3000 ; Travel to line 39
G0 Z0.0 ; Pen down
G1 X58.020 Y105.260 F1000
G0 Z3.0 ; Pen up

G0 X58.540 Y105.260 F3000 ; Travel to line 40
G0 Z0.0 ; Pen down
G1 X84.800 Y79.000 F1000
G1 X84.800 Y79.000 F1000
G1 X58.540 Y105.260 F1000
G0 Z3.0 ; Pen up

G0 X58.800 Y105.520 F3000 ; Travel to line 41
G0 Z0.0 ; Pen down
G1 X85.320 Y79.000 F1000
G0 Z3.0 ; Pen up

G0 X85.840 Y79.000 F3000 ; Travel to line 42
G0 Z0.0 ; Pen down
G1 X59.060 Y105.780 F1000
G0 Z3.0 ; Pen up

G0 X59.320 Y105.780 F3000 ; Travel to line 43
G0 Z0.0 ; Pen down
G1 X86.100 Y79.000 F1000
G0 Z3.0 ; Pen up

G0 X86.360 Y79.000 F3000 ; Travel to line 44
G0 Z0.0 ; Pen down
G1 X59.580 Y105.780 F1000
G0 Z3.0 ; Pen up

G0 X59.840 Y106.040 F3000 ; Travel to line 45
G0 Z0.0 ; Pen down
G1 X86.880 Y79.000 F1000
G0 Z3.0 ; Pen up

G0 X87.140 Y79.000 F3000 ; Travel to line 46
G0 Z0.0 ; Pen down
G1 X60.100 Y106.040 F1000
G0 Z3.0 ; Pen up

G0 X60.100 Y106.300 F3000 ; Travel to line 47
G0 Z0.0 ; Pen down
G1 X87.400 Y79.000 F1000
G0 Z3.0 ; Pen up

G0 X87.920 Y79.000 F3000 ; Travel to line 48
G0 Z0.0 ; Pen down
G1 X60.620 Y106.300 F1000
G0 Z3.0 ; Pen up

G0 X60.880 Y106.560 F3000 ; Travel to line 49
G0 Z0.0 ; Pen down
G1 X88.440 Y79.000 F1000
G0 Z3.0 ; Pen up

G0 X88.700 Y79.000 F3000 ; Travel to line 50
G0 Z0.0 ; Pen down
G1 X61.140 Y106.560 F1000
G0 Z3.0 ; Pen up

G0 X61.140 Y106.820 F3000 ; Travel to line 51
G0 Z0.0 ; Pen down
G1 X88.960 Y79.000 F1000
G0 Z3.0 ; Pen up

G0 X89.480 Y79.000 F3000 ; Travel to line 52
G0 Z0.0 ; Pen down
G1 X61.660 Y106.820 F1000
G0 Z3.0 ; Pen up

G0 X61.660 Y107.080 F3000 ; Travel to line 53
G0 Z0.0 ; Pen down
G1 X89.740 Y79.000 F1000
G0 Z3.0 ; Pen up

G0 X90.000 Y79.000 F3000 ; Travel to line 54
G0 Z0.0 ; Pen down
G1 X61.920 Y107.080 F1000
G0 Z3.0 ; Pen up

G0 X62.180 Y107.340 F3000 ; Travel to line 55
G0 Z0.0 ; Pen down
G1 X90.520 Y79.000 F1000
G0 Z3.0 ; Pen up

G0 X91.560 Y79.000 F3000 ; Travel to line 56
G0 Z0.0 ; Pen down
G1 X62.960 Y107.600 F1000
G0 Z3.0 ; Pen up

G0 X63.220 Y107.860 F3000 ; Travel to line 57
G0 Z0.0 ; Pen down
G1 X92.080 Y79.000 F1000
G0 Z3.0 ; Pen up

G0 X92.340 Y79.000 F3000 ; Travel to line 58
G0 Z0.0 ; Pen down
G1 X63.480 Y107.860 F1000
G0 Z3.0 ; Pen up

G0 X63.740 Y107.860 F3000 ; Travel to line 59
G0 Z0.0 ; Pen down
G1 X92.600 Y79.000 F1000
G0 Z3.0 ; Pen up

G0 X93.120 Y79.000 F3000 ; Travel to line 60
G0 Z0.0 ; Pen down
G1 X64.000 Y108.120 F1000
G0 Z3.0 ; Pen up

G0 X64.260 Y108.120 F3000 ; Travel to line 61
G0 Z0.0 ; Pen down
G1 X93.380 Y79.000 F1000
G0 Z3.0 ; Pen up

G0 X93.640 Y79.000 F3000 ; Travel to line 62
G0 Z0.0 ; Pen down
G1 X64.260 Y108.380 F1000
G0 Z3.0 ; Pen up

G0 X64.780 Y108.380 F3000 ; Travel to line 63
G0 Z0.0 ; Pen down
G1 X94.160 Y79.000 F1000
G0 Z3.0 ; Pen up

G0 X94.680 Y79.000 F3000 ; Travel to line 64
G0 Z0.0 ; Pen down
G1 X65.040 Y108.640 F1000
G0 Z3.0 ; Pen up

G0 X65.300 Y108.640 F3000 ; Travel to line 65
G0 Z0.0 ; Pen down
G1 X94.940 Y79.000 F1000
G0 Z3.0 ; Pen up

G0 X95.200 Y79.000 F3000 ; Travel to line 66
G0 Z0.0 ; Pen down
G1 X65.300 Y108.900 F1000
G0 Z3.0 ; Pen up

G0 X65.820 Y108.900 F3000 ; Travel to line 67
G0 Z0.0 ; Pen down
G1 X95.720 Y79.000 F1000
G0 Z3.0 ; Pen up

G0 X95.980 Y79.000 F3000 ; Travel to line 68
G0 Z0.0 ; Pen down
G1 X65.820 Y109.160 F1000
G0 Z3.0 ; Pen up

G0 X66.080 Y109.160 F3000 ; Travel to line 69
G0 Z0.0 ; Pen down
G1 X96.240 Y79.000 F1000
G0 Z3.0 ; Pen up

G0 X96.500 Y79.260 F3000 ; Travel to line 70
G0 Z0.0 ; Pen down
G1 X66.340 Y109.420 F1000
G0 Z3.0 ; Pen up

G0 X66.860 Y109.420 F3000 ; Travel to line 71
G0 Z0.0 ; Pen down
G1 X96.760 Y79.520 F1000
G0 Z3.0 ; Pen up

G0 X96.760 Y79.780 F3000 ; Travel to line 72
G0 Z0.0 ; Pen down
G1 X66.860 Y109.680 F1000
G0 Z3.0 ; Pen up

G0 X67.120 Y109.680 F3000 ; Travel to line 73
G0 Z0.0 ; Pen down
G1 X96.760 Y80.040 F1000
G0 Z3.0 ; Pen up

G0 X97.020 Y80.300 F3000 ; Travel to line 74
G0 Z0.0 ; Pen down
G1 X67.380 Y109.940 F1000
G0 Z3.0 ; Pen up

G0 X67.640 Y109.940 F3000 ; Travel to line 75
G0 Z0.0 ; Pen down
G1 X97.020 Y80.560 F1000
G0 Z3.0 ; Pen up

G0 X97.280 Y80.560 F3000 ; Travel to line 76
G0 Z0.0 ; Pen down
G1 X67.900 Y109.940 F1000
G0 Z3.0 ; Pen up

G0 X68.160 Y110.200 F3000 ; Travel to line 77
G0 Z0.0 ; Pen down
G1 X97.280 Y81.080 F1000
G0 Z3.0 ; Pen up

G0 X97.800 Y81.600 F3000 ; Travel to line 78
G0 Z0.0 ; Pen down
G1 X68.940 Y110.460 F1000
G0 Z3.0 ; Pen up

G0 X69.200 Y110.720 F3000 ; Travel to line 79
G0 Z0.0 ; Pen down
G1 X97.800 Y82.120 F1000
G0 Z3.0 ; Pen up

G0 X98.060 Y82.120 F3000 ; Travel to line 80
G0 Z0.0 ; Pen down
G1 X69.460 Y110.720 F1000
G0 Z3.0 ; Pen up

G0 X69.460 Y110.980 F3000 ; Travel to line 81
G0 Z0.0 ; Pen down
G1 X98.060 Y82.380 F1000
G0 Z3.0 ; Pen up

G0 X98.320 Y82.640 F3000 ; Travel to line 82
G0 Z0.0 ; Pen down
G1 X69.980 Y110.980 F1000
G0 Z3.0 ; Pen up

G0 X69.980 Y111.240 F3000 ; Travel to line 83
G0 Z0.0 ; Pen down
G1 X98.320 Y82.900 F1000
G0 Z3.0 ; Pen up

G0 X98.320 Y83.160 F3000 ; Travel to line 84
G0 Z0.0 ; Pen down
G1 X70.240 Y111.240 F1000
G0 Z3.0 ; Pen up

G0 X70.500 Y111.500 F3000 ; Travel to line 85
G0 Z0.0 ; Pen down
G1 X98.580 Y83.420 F1000
G0 Z3.0 ; Pen up

G0 X98.840 Y83.680 F3000 ; Travel to line 86
G0 Z0.0 ; Pen down
G1 X71.020 Y111.500 F1000
G0 Z3.0 ; Pen up

G0 X71.020 Y111.760 F3000 ; Travel to line 87
G0 Z0.0 ; Pen down
G1 X98.840 Y83.940 F1000
G0 Z3.0 ; Pen up

G0 X98.840 Y84.200 F3000 ; Travel to line 88
G0 Z0.0 ; Pen down
G1 X71.280 Y111.760 F1000
G0 Z3.0 ; Pen up

G0 X71.540 Y112.020 F3000 ; Travel to line 89
G0 Z0.0 ; Pen down
G1 X99.100 Y84.460 F1000
G0 Z3.0 ; Pen up

G0 X99.100 Y84.720 F3000 ; Travel to line 90
G0 Z0.0 ; Pen down
G1 X71.800 Y112.020 F1000
G0 Z3.0 ; Pen up

G0 X72.060 Y112.020 F3000 ; Travel to line 91
G0 Z0.0 ; Pen down
G1 X99.360 Y84.720 F1000
G0 Z3.0 ; Pen up

G0 X99.360 Y85.240 F3000 ; Travel to line 92
G0 Z0.0 ; Pen down
G1 X72.320 Y112.280 F1000
G0 Z3.0 ; Pen up

G0 X72.580 Y112.540 F3000 ; Travel to line 93
G0 Z0.0 ; Pen down
G1 X99.620 Y85.500 F1000
G1 X99.620 Y85.500 F1000
G1 X72.580 Y112.540 F1000
G0 Z3.0 ; Pen up

G0 X73.100 Y112.540 F3000 ; Travel to line 94
G0 Z0.0 ; Pen down
G1 X99.880 Y85.760 F1000
G0 Z3.0 ; Pen up

G0 X99.880 Y86.280 F3000 ; Travel to line 95
G0 Z0.0 ; Pen down
G1 X73.360 Y112.800 F1000
G0 Z3.0 ; Pen up

G0 X73.620 Y112.800 F3000 ; Travel to line 96
G0 Z0.0 ; Pen down
G1 X100.140 Y86.280 F1000
G0 Z3.0 ; Pen up

G0 X100.140 Y86.540 F3000 ; Travel to line 97
G0 Z0.0 ; Pen down
G1 X73.620 Y113.060 F1000
G0 Z3.0 ; Pen up

G0 X74.140 Y113.060 F3000 ; Travel to line 98
G0 Z0.0 ; Pen down
G1 X100.400 Y86.800 F1000
G0 Z3.0 ; Pen up

G0 X100.400 Y87.060 F3000 ; Travel to line 99
G0 Z0.0 ; Pen down
G1 X74.140 Y113.320 F1000
G0 Z3.0 ; Pen up

G0 X74.400 Y113.320 F3000 ; Travel to line 100
G0 Z0.0 ; Pen down
G1 X100.400 Y87.320 F1000
G0 Z3.0 ; Pen up

G0 X100.660 Y87.580 F3000 ; Travel to line 101
G0 Z0.0 ; Pen down
G1 X74.660 Y113.580 F1000
G0 Z3.0 ; Pen up

G0 X75.180 Y113.580 F3000 ; Travel to line 102
G0 Z0.0 ; Pen down
G1 X100.920 Y87.840 F1000
G0 Z3.0 ; Pen up

G0 X100.920 Y88.100 F3000 ; Travel to line 103
G0 Z0.0 ; Pen down
G1 X75.180 Y113.840 F1000
G0 Z3.0 ; Pen up

G0 X75.440 Y113.840 F3000 ; Travel to line 104
G0 Z0.0 ; Pen down
G1 X100.920 Y88.360 F1000
G0 Z3.0 ; Pen up

G0 X101.180 Y88.620 F3000 ; Travel to line 105
G0 Z0.0 ; Pen down
G1 X75.700 Y114.100 F1000
G0 Z3.0 ; Pen up

G0 X75.960 Y114.100 F3000 ; Travel to line 106
G0 Z0.0 ; Pen down
G1 X101.180 Y88.880 F1000
G0 Z3.0 ; Pen up

G0 X101.440 Y88.880 F3000 ; Travel to line 107
G0 Z0.0 ; Pen down
G1 X76.220 Y114.100 F1000
G0 Z3.0 ; Pen up

G0 X76.480 Y114.360 F3000 ; Travel to line 108
G0 Z0.0 ; Pen down
G1 X101.440 Y89.400 F1000
G0 Z3.0 ; Pen up

G0 X101.700 Y89.660 F3000 ; Travel to line 109
G0 Z0.0 ; Pen down
G1 X76.740 Y114.620 F1000
G0 Z3.0 ; Pen up

G0 X77.000 Y114.620 F3000 ; Travel to line 110
G0 Z0.0 ; Pen down
G1 X101.700 Y89.920 F1000
G0 Z3.0 ; Pen up

G0 X101.960 Y89.920 F3000 ; Travel to line 111
G0 Z0.0 ; Pen down
G1 X77.260 Y114.620 F1000
G0 Z3.0 ; Pen up

G0 X77.520 Y114.880 F3000 ; Travel to line 112
G0 Z0.0 ; Pen down
G1 X101.960 Y90.440 F1000
G0 Z3.0 ; Pen up

G0 X102.220 Y90.440 F3000 ; Travel to line 113
G0 Z0.0 ; Pen down
G1 X77.780 Y114.880 F1000
G0 Z3.0 ; Pen up

G0 X77.780 Y115.140 F3000 ; Travel to line 114
G0 Z0.0 ; Pen down
G1 X102.220 Y90.700 F1000
G0 Z3.0 ; Pen up

G0 X102.480 Y90.960 F3000 ; Travel to line 115
G0 Z0.0 ; Pen down
G1 X78.300 Y115.140 F1000
G0 Z3.0 ; Pen up

G0 X78.560 Y115.400 F3000 ; Travel to line 116
G0 Z0.0 ; Pen down
G1 X102.480 Y91.480 F1000
G1 X102.480 Y91.480 F1000
G1 X78.560 Y115.400 F1000
G0 Z3.0 ; Pen up

G0 X78.820 Y115.660 F3000 ; Travel to line 117
G0 Z0.0 ; Pen down
G1 X102.740 Y91.740 F1000
G0 Z3.0 ; Pen up

G0 X103.000 Y92.000 F3000 ; Travel to line 118
G0 Z0.0 ; Pen down
G1 X79.340 Y115.660 F1000
G0 Z3.0 ; Pen up

G0 X79.340 Y115.920 F3000 ; Travel to line 119
G0 Z0.0 ; Pen down
G1 X103.000 Y92.260 F1000
G0 Z3.0 ; Pen up

G0 X103.000 Y92.520 F3000 ; Travel to line 120
G0 Z0.0 ; Pen down
G1 X79.600 Y115.920 F1000
G0 Z3.0 ; Pen up

G0 X79.860 Y116.180 F3000 ; Travel to line 121
G0 Z0.0 ; Pen down
G1 X103.260 Y92.780 F1000
G0 Z3.0 ; Pen up

G0 X103.260 Y93.040 F3000 ; Travel to line 122
G0 Z0.0 ; Pen down
G1 X80.120 Y116.180 F1000
G0 Z3.0 ; Pen up

G0 X80.380 Y116.180 F3000 ; Travel to line 123
G0 Z0.0 ; Pen down
G1 X103.520 Y93.040 F1000
G0 Z3.0 ; Pen up

G0 X103.520 Y93.560 F3000 ; Travel to line 124
G0 Z0.0 ; Pen down
G1 X80.640 Y116.440 F1000
G0 Z3.0 ; Pen up

G0 X80.900 Y116.700 F3000 ; Travel to line 125
G0 Z0.0 ; Pen down
G1 X103.780 Y93.820 F1000
G0 Z3.0 ; Pen up

G0 X103.780 Y94.080 F3000 ; Travel to line 126
G0 Z0.0 ; Pen down
G1 X81.160 Y116.700 F1000
G0 Z3.0 ; Pen up

G0 X81.420 Y116.700 F3000 ; Travel to line 127
G0 Z0.0 ; Pen down
G1 X104.040 Y94.080 F1000
G0 Z3.0 ; Pen up

G0 X104.040 Y94.600 F3000 ; Travel to line 128
G0 Z0.0 ; Pen down
G1 X81.680 Y116.960 F1000
G0 Z3.0 ; Pen up

G0 X81.940 Y116.960 F3000 ; Travel to line 129
G0 Z0.0 ; Pen down
G1 X104.300 Y94.600 F1000
G0 Z3.0 ; Pen up

G0 X104.300 Y94.860 F3000 ; Travel to line 130
G0 Z0.0 ; Pen down
G1 X81.940 Y117.220 F1000
G0 Z3.0 ; Pen up

G0 X82.460 Y117.220 F3000 ; Travel to line 131
G0 Z0.0 ; Pen down
G1 X104.560 Y95.120 F1000
G0 Z3.0 ; Pen up

G0 X104.820 Y95.900 F3000 ; Travel to line 132
G0 Z0.0 ; Pen down
G1 X82.980 Y117.740 F1000
G0 Z3.0 ; Pen up

G0 X82.720 Y117.480 F3000 ; Travel to line 133
G0 Z0.0 ; Pen down
G1 X104.560 Y95.640 F1000
G1 X104.560 Y95.640 F1000
G1 X82.720 Y117.480 F1000
G0 Z3.0 ; Pen up

G0 X83.500 Y117.740 F3000 ; Travel to line 134
G0 Z0.0 ; Pen down
G1 X105.080 Y96.160 F1000
G0 Z3.0 ; Pen up

G0 X105.080 Y96.420 F3000 ; Travel to line 135
G0 Z0.0 ; Pen down
G1 X83.500 Y118.000 F1000
G0 Z3.0 ; Pen up

G0 X84.020 Y117.740 F3000 ; Travel to line 136
G0 Z0.0 ; Pen down
G1 X105.080 Y96.680 F1000
G0 Z3.0 ; Pen up

G0 X105.340 Y96.940 F3000 ; Travel to line 137
G0 Z0.0 ; Pen down
G1 X85.060 Y117.220 F1000
G0 Z3.0 ; Pen up

G0 X85.580 Y116.960 F3000 ; Travel to line 138
G0 Z0.0 ; Pen down
G1 X105.340 Y97.200 F1000
G0 Z3.0 ; Pen up

G0 X105.600 Y97.200 F3000 ; Travel to line 139
G0 Z0.0 ; Pen down
G1 X86.100 Y116.700 F1000
G0 Z3.0 ; Pen up

G0 X87.140 Y116.180 F3000 ; Travel to line 140
G0 Z0.0 ; Pen down
G1 X105.600 Y97.720 F1000
G0 Z3.0 ; Pen up

G0 X105.860 Y97.980 F3000 ; Travel to line 141
G0 Z0.0 ; Pen down
G1 X88.180 Y115.660 F1000
G0 Z3.0 ; Pen up

G0 X88.700 Y115.400 F3000 ; Travel to line 142
G0 Z0.0 ; Pen down
G1 X105.860 Y98.240 F1000
G0 Z3.0 ; Pen up

G0 X106.120 Y98.240 F3000 ; Travel to line 143
G0 Z0.0 ; Pen down
G1 X89.220 Y115.140 F1000
G0 Z3.0 ; Pen up

G0 X90.260 Y114.620 F3000 ; Travel to line 144
G0 Z0.0 ; Pen down
G1 X106.120 Y98.760 F1000
G0 Z3.0 ; Pen up

G0 X106.380 Y98.760 F3000 ; Travel to line 145
G0 Z0.0 ; Pen down
G1 X90.780 Y114.360 F1000
G0 Z3.0 ; Pen up

G0 X91.300 Y114.100 F3000 ; Travel to line 146
G0 Z0.0 ; Pen down
G1 X106.380 Y99.020 F1000
G0 Z3.0 ; Pen up

G0 X106.640 Y99.280 F3000 ; Travel to line 147
G0 Z0.0 ; Pen down
G1 X92.340 Y113.580 F1000
G0 Z3.0 ; Pen up

G0 X93.380 Y113.060 F3000 ; Travel to line 148
G0 Z0.0 ; Pen down
G1 X106.640 Y99.800 F1000
G0 Z3.0 ; Pen up

G0 X106.900 Y99.800 F3000 ; Travel to line 149
G0 Z0.0 ; Pen down
G1 X93.900 Y112.800 F1000
G0 Z3.0 ; Pen up

G0 X94.420 Y112.540 F3000 ; Travel to line 150
G0 Z0.0 ; Pen down
G1 X106.900 Y100.060 F1000
G0 Z3.0 ; Pen up

G0 X107.160 Y100.320 F3000 ; Travel to line 151
G0 Z0.0 ; Pen down
G1 X95.460 Y112.020 F1000
G0 Z3.0 ; Pen up

G0 X95.980 Y111.760 F3000 ; Travel to line 152
G0 Z0.0 ; Pen down
G1 X107.160 Y100.580 F1000
G0 Z3.0 ; Pen up

G0 X107.160 Y100.840 F3000 ; Travel to line 153
G0 Z0.0 ; Pen down
G1 X96.500 Y111.500 F1000
G0 Z3.0 ; Pen up

G0 X97.540 Y110.980 F3000 ; Travel to line 154
G0 Z0.0 ; Pen down
G1 X107.420 Y101.100 F1000
G0 Z3.0 ; Pen up

G0 X107.420 Y101.360 F3000 ; Travel to line 155
G0 Z0.0 ; Pen down
G1 X98.060 Y110.720 F1000
G0 Z3.0 ; Pen up

G0 X98.580 Y110.460 F3000 ; Travel to line 156
G0 Z0.0 ; Pen down
G1 X107.680 Y101.360 F1000
G0 Z3.0 ; Pen up

G0 X107.680 Y101.880 F3000 ; Travel to line 157
G0 Z0.0 ; Pen down
G1 X99.620 Y109.940 F1000
G0 Z3.0 ; Pen up

G0 X100.660 Y109.420 F3000 ; Travel to line 158
G0 Z0.0 ; Pen down
G1 X107.940 Y102.140 F1000
G0 Z3.0 ; Pen up

G0 X107.940 Y102.400 F3000 ; Travel to line 159
G0 Z0.0 ; Pen down
G1 X101.180 Y109.160 F1000
G0 Z3.0 ; Pen up

G0 X101.700 Y108.900 F3000 ; Travel to line 160
G0 Z0.0 ; Pen down
G1 X108.200 Y102.400 F1000
G0 Z3.0 ; Pen up

G0 X108.200 Y102.920 F3000 ; Travel to line 161
G0 Z0.0 ; Pen down
G1 X102.740 Y108.380 F1000
G0 Z3.0 ; Pen up

G0 X103.260 Y108.120 F3000 ; Travel to line 162
G0 Z0.0 ; Pen down
G1 X108.460 Y102.920 F1000
G0 Z3.0 ; Pen up

G0 X108.460 Y103.180 F3000 ; Travel to line 163
G0 Z0.0 ; Pen down
G1 X103.780 Y107.860 F1000
G0 Z3.0 ; Pen up

G0 X104.820 Y107.340 F3000 ; Travel to line 164
G0 Z0.0 ; Pen down
G1 X108.720 Y103.440 F1000
G0 Z3.0 ; Pen up

G0 X108.720 Y103.960 F3000 ; Travel to line 165
G0 Z0.0 ; Pen down
G1 X105.860 Y106.820 F1000
G0 Z3.0 ; Pen up

G0 X106.380 Y106.560 F3000 ; Travel to line 166
G0 Z0.0 ; Pen down
G1 X108.980 Y103.960 F1000
G0 Z3.0 ; Pen up

G0 X108.980 Y104.220 F3000 ; Travel to line 167
G0 Z0.0 ; Pen down
G1 X106.900 Y106.300 F1000
G0 Z3.0 ; Pen up

G0 X107.940 Y105.780 F3000 ; Travel to line 168
G0 Z0.0 ; Pen down
G1 X109.240 Y104.480 F1000
G0 Z3.0 ; Pen up

G0 X109.240 Y104.740 F3000 ; Travel to line 169
G0 Z0.0 ; Pen down
G1 X108.460 Y105.520 F1000
G0 Z3.0 ; Pen up

G0 X108.980 Y105.260 F3000 ; Travel to line 170
G0 Z0.0 ; Pen down
G1 X109.240 Y105.000 F1000
G0 Z3.0 ; Pen up

G0 X109.240 Y125.800 F3000 ; Travel to line 171
G0 Z0.0 ; Pen down
G1 X41.120 Y188.200 F1000
G1 X41.120 Y188.200 F1000
G1 X108.980 Y125.800 F1000
G0 Z3.0 ; Pen up

G0 X108.720 Y125.800 F3000 ; Travel to line 172
G0 Z0.0 ; Pen down
G1 X41.120 Y188.200 F1000
G1 X41.120 Y188.200 F1000
G1 X108.460 Y125.800 F1000
G1 X108.460 Y125.800 F1000
G1 X40.860 Y188.200 F1000
G1 X40.860 Y188.200 F1000
G1 X108.200 Y125.800 F1000
G0 Z3.0 ; Pen up

G0 X107.680 Y125.800 F3000 ; Travel to line 173
G0 Z0.0 ; Pen down
G1 X40.860 Y188.200 F1000
G1 X40.860 Y188.200 F1000
G1 X107.940 Y125.800 F1000
G1 X107.940 Y125.800 F1000
G1 X40.860 Y188.200 F1000
G0 Z3.0 ; Pen up

G0 X40.600 Y188.200 F3000 ; Travel to line 174
G0 Z0.0 ; Pen down
G1 X107.420 Y125.800 F1000
G1 X107.420 Y125.800 F1000
G1 X40.600 Y188.200 F1000
G1 X40.600 Y188.200 F1000
G1 X106.900 Y125.800 F1000
G1 X106.900 Y125.800 F1000
G1 X40.600 Y188.200 F1000
G0 Z3.0 ; Pen up

G0 X40.340 Y188.200 F3000 ; Travel to line 175
G0 Z0.0 ; Pen down
G1 X106.120 Y125.800 F1000
G1 X106.120 Y125.800 F1000
G1 X40.340 Y188.200 F1000
G1 X40.340 Y188.200 F1000
G1 X105.600 Y125.800 F1000
G1 X105.600 Y125.800 F1000
G1 X40.340 Y188.200 F1000
G1 X40.340 Y188.200 F1000
G1 X105.860 Y125.800 F1000
G0 Z3.0 ; Pen up

G0 X105.340 Y125.800 F3000 ; Travel to line 176
G0 Z0.0 ; Pen down
G1 X40.080 Y188.200 F1000
G1 X40.080 Y188.200 F1000
G1 X105.080 Y125.800 F1000
G0 Z3.0 ; Pen up

G0 X104.560 Y125.800 F3000 ; Travel to line 177
G0 Z0.0 ; Pen down
G1 X40.080 Y188.200 F1000
G1 X40.080 Y188.200 F1000
G1 X104.300 Y125.800 F1000
G1 X104.300 Y125.800 F1000
G1 X39.820 Y188.200 F1000
G1 X39.820 Y188.200 F1000
G1 X104.040 Y125.800 F1000
G0 Z3.0 ; Pen up

G0 X103.780 Y125.800 F3000 ; Travel to line 178
G0 Z0.0 ; Pen down
G1 X39.820 Y188.200 F1000
G1 X39.820 Y188.200 F1000
G1 X103.520 Y125.800 F1000
G1 X103.520 Y125.800 F1000
G1 X39.820 Y188.200 F1000
G0 Z3.0 ; Pen up

G0 X40.080 Y188.200 F3000 ; Travel to line 179
G0 Z0.0 ; Pen down
G1 X104.820 Y125.800 F1000
G1 X104.820 Y125.800 F1000
G1 X40.080 Y188.200 F1000
G0 Z3.0 ; Pen up

G0 X39.560 Y188.200 F3000 ; Travel to line 180
G0 Z0.0 ; Pen down
G1 X102.740 Y125.800 F1000
G1 X102.740 Y125.800 F1000
G1 X39.560 Y188.200 F1000
G0 Z3.0 ; Pen up

G0 X39.300 Y188.200 F3000 ; Travel to line 181
G0 Z0.0 ; Pen down
G1 X101.960 Y125.800 F1000
G1 X101.960 Y125.800 F1000
G1 X39.300 Y188.200 F1000
G1 X39.300 Y188.200 F1000
G1 X101.700 Y125.800 F1000
G1 X101.700 Y125.800 F1000
G1 X39.300 Y188.200 F1000
G0 Z3.0 ; Pen up

G0 X39.300 Y187.680 F3000 ; Travel to line 182
G0 Z0.0 ; Pen down
G1 X99.880 Y125.800 F1000
G1 X99.880 Y125.800 F1000
G1 X39.300 Y187.680 F1000
G1 X39.300 Y187.680 F1000
G1 X99.360 Y125.800 F1000
G1 X99.360 Y125.800 F1000
G1 X39.300 Y187.680 F1000
G1 X39.300 Y187.680 F1000
G1 X99.620 Y125.800 F1000
G0 Z3.0 ; Pen up

G0 X100.140 Y125.800 F3000 ; Travel to line 183
G0 Z0.0 ; Pen down
G1 X39.300 Y187.940 F1000
G1 X39.300 Y187.940 F1000
G1 X100.400 Y125.800 F1000
G1 X100.400 Y125.800 F1000
G1 X39.300 Y187.940 F1000
G1 X39.300 Y187.940 F1000
G1 X100.660 Y125.800 F1000
G0 Z3.0 ; Pen up

G0 X100.920 Y125.800 F3000 ; Travel to line 184
G0 Z0.0 ; Pen down
G1 X39.300 Y187.940 F1000
G1 X39.300 Y187.940 F1000
G1 X101.180 Y125.800 F1000
G1 X101.180 Y125.800 F1000
G1 X39.300 Y188.200 F1000
G1 X39.300 Y188.200 F1000
G1 X101.440 Y125.800 F1000
G0 Z3.0 ; Pen up

G0 X102.220 Y125.800 F3000 ; Travel to line 185
G0 Z0.0 ; Pen down
G1 X39.560 Y188.200 F1000
G1 X39.560 Y188.200 F1000
G1 X102.480 Y125.800 F1000
G0 Z3.0 ; Pen up

G0 X103.000 Y125.800 F3000 ; Travel to line 186
G0 Z0.0 ; Pen down
G1 X39.560 Y188.200 F1000
G1 X39.560 Y188.200 F1000
G1 X103.260 Y125.800 F1000
G0 Z3.0 ; Pen up

G0 X106.380 Y125.800 F3000 ; Travel to line 187
G0 Z0.0 ; Pen down
G1 X40.600 Y188.200 F1000
G1 X40.600 Y188.200 F1000
G1 X106.640 Y125.800 F1000
G0 Z3.0 ; Pen up

G0 X109.760 Y125.800 F3000 ; Travel to line 188
G0 Z0.0 ; Pen down
G1 X41.380 Y188.200 F1000
G1 X41.380 Y188.200 F1000
G1 X110.020 Y125.800 F1000
G0 Z3.0 ; Pen up

G0 X111.060 Y125.800 F3000 ; Travel to line 189
G0 Z0.0 ; Pen down
G1 X41.640 Y188.200 F1000
G1 X41.640 Y188.200 F1000
G1 X111.320 Y125.800 F1000
G1 X111.320 Y125.800 F1000
G1 X41.640 Y188.200 F1000
G1 X41.640 Y188.200 F1000
G1 X111.580 Y125.800 F1000
G0 Z3.0 ; Pen up

G0 X112.620 Y125.800 F3000 ; Travel to line 190
G0 Z0.0 ; Pen down
G1 X41.900 Y188.200 F1000
G1 X41.900 Y188.200 F1000
G1 X112.360 Y125.800 F1000
G1 X112.360 Y125.800 F1000
G1 X41.900 Y188.200 F1000
G1 X41.900 Y188.200 F1000
G1 X111.840 Y125.800 F1000
G1 X111.840 Y125.800 F1000
G1 X41.900 Y188.200 F1000
G0 Z3.0 ; Pen up

G0 X42.160 Y188.200 F3000 ; Travel to line 191
G0 Z0.0 ; Pen down
G1 X112.880 Y125.800 F1000
G1 X112.880 Y125.800 F1000
G1 X42.160 Y188.200 F1000
G1 X42.160 Y188.200 F1000
G1 X113.400 Y125.800 F1000
G1 X113.400 Y125.800 F1000
G1 X42.160 Y188.200 F1000
G1 X42.160 Y188.200 F1000
G1 X113.660 Y125.800 F1000
G0 Z3.0 ; Pen up

G0 X113.920 Y125.800 F3000 ; Travel to line 192
G0 Z0.0 ; Pen down
G1 X42.420 Y188.200 F1000
G0 Z3.0 ; Pen up

G0 X42.680 Y188.200 F3000 ; Travel to line 193
G0 Z0.0 ; Pen down
G1 X115.740 Y125.800 F1000
G1 X115.740 Y125.800 F1000
G1 X42.680 Y188.200 F1000
G1 X42.680 Y188.200 F1000
G1 X114.960 Y125.800 F1000
G0 Z3.0 ; Pen up

G0 X115.220 Y125.800 F3000 ; Travel to line 194
G0 Z0.0 ; Pen down
G1 X42.680 Y188.200 F1000
G1 X42.680 Y188.200 F1000
G1 X115.480 Y125.800 F1000
G0 Z3.0 ; Pen up

G0 X116.000 Y125.800 F3000 ; Travel to line 195
G0 Z0.0 ; Pen down
G1 X42.940 Y188.200 F1000
G1 X42.940 Y188.200 F1000
G1 X116.260 Y125.800 F1000
G0 Z3.0 ; Pen up

G0 X116.780 Y125.800 F3000 ; Travel to line 196
G0 Z0.0 ; Pen down
G1 X43.200 Y188.200 F1000
G0 Z3.0 ; Pen up

G0 X43.460 Y188.200 F3000 ; Travel to line 197
G0 Z0.0 ; Pen down
G1 X118.080 Y125.800 F1000
G1 X118.080 Y125.800 F1000
G1 X43.460 Y188.200 F1000
G1 X43.460 Y188.200 F1000
G1 X118.340 Y125.800 F1000
G0 Z3.0 ; Pen up

G0 X118.600 Y125.800 F3000 ; Travel to line 198
G0 Z0.0 ; Pen down
G1 X43.460 Y188.200 F1000
G1 X43.460 Y188.200 F1000
G1 X118.860 Y125.800 F1000
G0 Z3.0 ; Pen up

G0 X119.120 Y125.800 F3000 ; Travel to line 199
G0 Z0.0 ; Pen down
G1 X43.720 Y188.200 F1000
G0 Z3.0 ; Pen up

G0 X43.980 Y188.200 F3000 ; Travel to line 200
G0 Z0.0 ; Pen down
G1 X120.680 Y125.800 F1000
G1 X120.680 Y125.800 F1000
G1 X43.980 Y188.200 F1000
G0 Z3.0 ; Pen up

G0 X44.240 Y188.200 F3000 ; Travel to line 201
G0 Z0.0 ; Pen down
G1 X121.200 Y125.800 F1000
G1 X121.200 Y125.800 F1000
G1 X44.240 Y188.200 F1000
G1 X44.240 Y188.200 F1000
G1 X121.720 Y125.800 F1000
G1 X121.720 Y125.800 F1000
G1 X44.240 Y188.200 F1000
G1 X44.240 Y188.200 F1000
G1 X121.980 Y125.800 F1000
G0 Z3.0 ; Pen up

G0 X122.240 Y125.800 F3000 ; Travel to line 202
G0 Z0.0 ; Pen down
G1 X44.500 Y188.200 F1000
G1 X44.500 Y188.200 F1000
G1 X122.500 Y125.800 F1000
G0 Z3.0 ; Pen up

G0 X122.760 Y125.800 F3000 ; Travel to line 203
G0 Z0.0 ; Pen down
G1 X44.500 Y188.200 F1000
G1 X44.500 Y188.200 F1000
G1 X123.020 Y125.800 F1000
G0 Z3.0 ; Pen up

G0 X123.540 Y125.800 F3000 ; Travel to line 204
G0 Z0.0 ; Pen down
G1 X44.760 Y188.200 F1000
G1 X44.760 Y188.200 F1000
G1 X123.280 Y125.800 F1000
G1 X123.280 Y125.800 F1000
G1 X44.760 Y188.200 F1000
G0 Z3.0 ; Pen up

G0 X45.020 Y188.200 F3000 ; Travel to line 205
G0 Z0.0 ; Pen down
G1 X124.320 Y125.800 F1000
G0 Z3.0 ; Pen up

G0 X124.580 Y125.800 F3000 ; Travel to line 206
G0 Z0.0 ; Pen down
G1 X45.020 Y188.200 F1000
G1 X45.020 Y188.200 F1000
G1 X124.840 Y125.800 F1000
G0 Z3.0 ; Pen up

G0 X125.100 Y125.800 F3000 ; Travel to line 207
G0 Z0.0 ; Pen down
G1 X45.020 Y188.200 F1000
G1 X45.020 Y188.200 F1000
G1 X125.360 Y125.800 F1000
G0 Z3.0 ; Pen up

G0 X125.880 Y125.800 F3000 ; Travel to line 208
G0 Z0.0 ; Pen down
G1 X45.280 Y188.200 F1000
G1 X45.280 Y188.200 F1000
G1 X126.140 Y125.800 F1000
G0 Z3.0 ; Pen up

G0 X126.400 Y125.800 F3000 ; Travel to line 209
G0 Z0.0 ; Pen down
G1 X45.540 Y188.200 F1000
G1 X45.540 Y188.200 F1000
G1 X126.660 Y125.800 F1000
G0 Z3.0 ; Pen up

G0 X126.920 Y125.800 F3000 ; Travel to line 210
G0 Z0.0 ; Pen down
G1 X45.540 Y188.200 F1000
G1 X45.540 Y188.200 F1000
G1 X127.180 Y125.800 F1000
G0 Z3.0 ; Pen up

G0 X127.440 Y125.800 F3000 ; Travel to line 211
G0 Z0.0 ; Pen down
G1 X45.800 Y188.200 F1000
G1 X45.800 Y188.200 F1000
G1 X127.700 Y125.800 F1000
G0 Z3.0 ; Pen up

G0 X127.700 Y126.320 F3000 ; Travel to line 212
G0 Z0.0 ; Pen down
G1 X46.060 Y188.200 F1000
G0 Z3.0 ; Pen up

G0 X46.320 Y188.200 F3000 ; Travel to line 213
G0 Z0.0 ; Pen down
G1 X127.700 Y127.360 F1000
G1 X127.700 Y127.360 F1000
G1 X46.320 Y188.200 F1000
G0 Z3.0 ; Pen up

G0 X46.840 Y188.200 F3000 ; Travel to line 214
G0 Z0.0 ; Pen down
G1 X127.700 Y129.180 F1000
G1 X127.700 Y129.180 F1000
G1 X46.840 Y188.200 F1000
G0 Z3.0 ; Pen up

G0 X47.100 Y188.200 F3000 ; Travel to line 215
G0 Z0.0 ; Pen down
G1 X127.700 Y129.960 F1000
G1 X127.700 Y129.960 F1000
G1 X47.100 Y188.200 F1000
G0 Z3.0 ; Pen up

G0 X47.360 Y188.200 F3000 ; Travel to line 216
G0 Z0.0 ; Pen down
G1 X127.700 Y130.480 F1000
G1 X127.700 Y130.480 F1000
G1 X47.360 Y188.200 F1000
G0 Z3.0 ; Pen up

G0 X47.620 Y188.200 F3000 ; Travel to line 217
G0 Z0.0 ; Pen down
G1 X127.700 Y131.260 F1000
G1 X127.700 Y131.260 F1000
G1 X47.620 Y188.200 F1000
G0 Z3.0 ; Pen up

G0 X47.880 Y188.200 F3000 ; Travel to line 218
G0 Z0.0 ; Pen down
G1 X127.700 Y132.300 F1000
G1 X127.700 Y132.300 F1000
G1 X48.140 Y188.200 F1000
G0 Z3.0 ; Pen up

G0 X48.400 Y188.200 F3000 ; Travel to line 219
G0 Z0.0 ; Pen down
G1 X127.700 Y133.340 F1000
G1 X127.700 Y133.340 F1000
G1 X48.400 Y188.200 F1000
G0 Z3.0 ; Pen up

G0 X48.660 Y188.200 F3000 ; Travel to line 220
G0 Z0.0 ; Pen down
G1 X127.700 Y134.120 F1000
G1 X127.700 Y134.120 F1000
G1 X48.660 Y188.200 F1000
G0 Z3.0 ; Pen up

G0 X48.920 Y188.200 F3000 ; Travel to line 221
G0 Z0.0 ; Pen down
G1 X127.700 Y134.640 F1000
G1 X127.700 Y134.640 F1000
G1 X48.920 Y188.200 F1000
G1 X48.920 Y188.200 F1000
G1 X127.700 Y134.380 F1000
G1 X127.700 Y134.380 F1000
G1 X48.920 Y188.200 F1000
G0 Z3.0 ; Pen up

G0 X49.180 Y188.200 F3000 ; Travel to line 222
G0 Z0.0 ; Pen down
G1 X127.700 Y134.900 F1000
G0 Z3.0 ; Pen up

G0 X127.700 Y135.160 F3000 ; Travel to line 223
G0 Z0.0 ; Pen down
G1 X49.180 Y188.200 F1000
G1 X49.180 Y188.200 F1000
G1 X127.700 Y135.420 F1000
G1 X127.700 Y135.420 F1000
G1 X49.440 Y188.200 F1000
G1 X49.440 Y188.200 F1000
G1 X127.700 Y135.680 F1000
G1 X127.700 Y135.680 F1000
G1 X49.440 Y188.200 F1000
G1 X49.440 Y188.200 F1000
G1 X127.700 Y135.940 F1000
G0 Z3.0 ; Pen up

G0 X127.700 Y136.460 F3000 ; Travel to line 224
G0 Z0.0 ; Pen down
G1 X49.700 Y188.200 F1000
G1 X49.700 Y188.200 F1000
G1 X127.700 Y136.200 F1000
G1 X127.700 Y136.200 F1000
G1 X49.700 Y188.200 F1000
G0 Z3.0 ; Pen up

G0 X49.960 Y188.200 F3000 ; Travel to line 225
G0 Z0.0 ; Pen down
G1 X127.700 Y136.720 F1000
G0 Z3.0 ; Pen up

G0 X127.700 Y137.240 F3000 ; Travel to line 226
G0 Z0.0 ; Pen down
G1 X50.740 Y188.200 F1000
G0 Z3.0 ; Pen up

G0 X51.000 Y188.200 F3000 ; Travel to line 227
G0 Z0.0 ; Pen down
G1 X127.700 Y137.760 F1000
G1 X127.700 Y137.760 F1000
G1 X51.000 Y188.200 F1000
G0 Z3.0 ; Pen up

G0 X51.260 Y188.200 F3000 ; Travel to line 228
G0 Z0.0 ; Pen down
G1 X127.700 Y138.020 F1000
G0 Z3.0 ; Pen up

G0 X127.700 Y138.540 F3000 ; Travel to line 229
G0 Z0.0 ; Pen down
G1 X52.040 Y188.200 F1000
G0 Z3.0 ; Pen up

G0 X51.780 Y188.200 F3000 ; Travel to line 230
G0 Z0.0 ; Pen down
G1 X127.700 Y138.280 F1000
G1 X127.700 Y138.280 F1000
G1 X51.520 Y188.200 F1000
G0 Z3.0 ; Pen up

G0 X52.300 Y188.200 F3000 ; Travel to line 231
G0 Z0.0 ; Pen down
G1 X127.700 Y138.800 F1000
G0 Z3.0 ; Pen up

G0 X127.700 Y139.060 F3000 ; Travel to line 232
G0 Z0.0 ; Pen down
G1 X52.560 Y188.200 F1000
G1 X52.560 Y188.200 F1000
G1 X127.700 Y139.320 F1000
G0 Z3.0 ; Pen up

G0 X127.700 Y139.580 F3000 ; Travel to line 233
G0 Z0.0 ; Pen down
G1 X52.820 Y188.200 F1000
G0 Z3.0 ; Pen up

G0 X53.340 Y188.200 F3000 ; Travel to line 234
G0 Z0.0 ; Pen down
G1 X127.700 Y139.840 F1000
G1 X127.700 Y139.840 F1000
G1 X53.340 Y188.200 F1000
G0 Z3.0 ; Pen up

G0 X53.600 Y188.200 F3000 ; Travel to line 235
G0 Z0.0 ; Pen down
G1 X127.700 Y140.100 F1000
G0 Z3.0 ; Pen up

G0 X127.700 Y140.360 F3000 ; Travel to line 236
G0 Z0.0 ; Pen down
G1 X53.860 Y188.200 F1000
G0 Z3.0 ; Pen up

G0 X54.120 Y188.200 F3000 ; Travel to line 237
G0 Z0.0 ; Pen down
G1 X127.700 Y140.620 F1000
G0 Z3.0 ; Pen up

G0 X127.700 Y140.880 F3000 ; Travel to line 238
G0 Z0.0 ; Pen down
G1 X54.380 Y188.200 F1000
G0 Z3.0 ; Pen up

G0 X54.640 Y188.200 F3000 ; Travel to line 239
G0 Z0.0 ; Pen down
G1 X127.700 Y141.140 F1000
G0 Z3.0 ; Pen up

G0 X127.700 Y141.660 F3000 ; Travel to line 240
G0 Z0.0 ; Pen down
G1 X55.160 Y188.200 F1000
G0 Z3.0 ; Pen up

G0 X55.420 Y188.200 F3000 ; Travel to line 241
G0 Z0.0 ; Pen down
G1 X127.700 Y141.920 F1000
G0 Z3.0 ; Pen up

G0 X127.700 Y142.180 F3000 ; Travel to line 242
G0 Z0.0 ; Pen down
G1 X55.940 Y188.200 F1000
G1 X55.940 Y188.200 F1000
G1 X127.700 Y142.440 F1000
G1 X127.700 Y142.440 F1000
G1 X56.200 Y188.200 F1000
G0 Z3.0 ; Pen up

G0 X56.720 Y188.200 F3000 ; Travel to line 243
G0 Z0.0 ; Pen down
G1 X127.700 Y143.220 F1000
G0 Z3.0 ; Pen up

G0 X127.700 Y142.960 F3000 ; Travel to line 244
G0 Z0.0 ; Pen down
G1 X56.460 Y188.200 F1000
G1 X56.460 Y188.200 F1000
G1 X127.700 Y142.700 F1000
G0 Z3.0 ; Pen up

G0 X127.700 Y143.740 F3000 ; Travel to line 245
G0 Z0.0 ; Pen down
G1 X57.500 Y188.200 F1000
G0 Z3.0 ; Pen up

G0 X57.760 Y188.200 F3000 ; Travel to line 246
G0 Z0.0 ; Pen down
G1 X127.700 Y144.000 F1000
G0 Z3.0 ; Pen up

G0 X127.700 Y144.260 F3000 ; Travel to line 247
G0 Z0.0 ; Pen down
G1 X58.020 Y188.200 F1000
G0 Z3.0 ; Pen up

G0 X58.280 Y188.200 F3000 ; Travel to line 248
G0 Z0.0 ; Pen down
G1 X127.700 Y144.520 F1000
G1 X127.700 Y144.520 F1000
G1 X58.540 Y188.200 F1000
G0 Z3.0 ; Pen up

G0 X59.060 Y188.200 F3000 ; Travel to line 249
G0 Z0.0 ; Pen down
G1 X127.700 Y145.300 F1000
G0 Z3.0 ; Pen up

G0 X127.700 Y145.560 F3000 ; Travel to line 250
G0 Z0.0 ; Pen down
G1 X59.320 Y188.200 F1000
G0 Z3.0 ; Pen up

G0 X59.840 Y188.200 F3000 ; Travel to line 251
G0 Z0.0 ; Pen down
G1 X127.700 Y145.820 F1000
G1 X127.700 Y145.820 F1000
G1 X59.840 Y188.200 F1000
G0 Z3.0 ; Pen up

G0 X60.100 Y188.200 F3000 ; Travel to line 252
G0 Z0.0 ; Pen down
G1 X127.700 Y146.080 F1000
G0 Z3.0 ; Pen up

G0 X127.700 Y146.600 F3000 ; Travel to line 253
G0 Z0.0 ; Pen down
G1 X60.620 Y188.200 F1000
G0 Z3.0 ; Pen up

G0 X60.360 Y188.200 F3000 ; Travel to line 254
G0 Z0.0 ; Pen down
G1 X127.700 Y146.340 F1000
G1 X127.700 Y146.340 F1000
G1 X60.360 Y188.200 F1000
G0 Z3.0 ; Pen up

G0 X61.400 Y188.200 F3000 ; Travel to line 255
G0 Z0.0 ; Pen down
G1 X127.700 Y147.380 F1000
G0 Z3.0 ; Pen up

G0 X127.700 Y147.120 F3000 ; Travel to line 256
G0 Z0.0 ; Pen down
G1 X61.140 Y188.200 F1000
G1 X61.140 Y188.200 F1000
G1 X127.700 Y146.860 F1000
G0 Z3.0 ; Pen up

G0 X127.700 Y147.640 F3000 ; Travel to line 257
G0 Z0.0 ; Pen down
G1 X61.660 Y188.200 F1000
G0 Z3.0 ; Pen up

G0 X62.180 Y188.200 F3000 ; Travel to line 258
G0 Z0.0 ; Pen down
G1 X127.700 Y147.900 F1000
G1 X127.700 Y147.900 F1000
G1 X62.180 Y188.200 F1000
G0 Z3.0 ; Pen up

G0 X62.440 Y188.200 F3000 ; Travel to line 259
G0 Z0.0 ; Pen down
G1 X127.700 Y148.160 F1000
G0 Z3.0 ; Pen up

G0 X127.700 Y148.680 F3000 ; Travel to line 260
G0 Z0.0 ; Pen down
G1 X63.220 Y188.200 F1000
G0 Z3.0 ; Pen up

G0 X63.480 Y188.200 F3000 ; Travel to line 261
G0 Z0.0 ; Pen down
G1 X127.700 Y148.940 F1000
G0 Z3.0 ; Pen up

G0 X127.700 Y149.200 F3000 ; Travel to line 262
G0 Z0.0 ; Pen down
G1 X63.740 Y188.200 F1000
G1 X63.740 Y188.200 F1000
G1 X127.700 Y149.460 F1000
G1 X127.700 Y149.460 F1000
G1 X64.000 Y188.200 F1000
G0 Z3.0 ; Pen up

G0 X64.260 Y188.200 F3000 ; Travel to line 263
G0 Z0.0 ; Pen down
G1 X127.700 Y149.720 F1000
G0 Z3.0 ; Pen up

G0 X127.700 Y150.500 F3000 ; Travel to line 264
G0 Z0.0 ; Pen down
G1 X65.040 Y188.200 F1000
G0 Z3.0 ; Pen up

G0 X64.780 Y188.200 F3000 ; Travel to line 265
G0 Z0.0 ; Pen down
G1 X127.700 Y149.980 F1000
G1 X127.700 Y149.980 F1000
G1 X64.520 Y188.200 F1000
G0 Z3.0 ; Pen up

G0 X65.300 Y188.200 F3000 ; Travel to line 266
G0 Z0.0 ; Pen down
G1 X127.700 Y150.760 F1000
G1 X127.700 Y150.760 F1000
G1 X65.300 Y188.200 F1000
G0 Z3.0 ; Pen up

G0 X65.820 Y188.200 F3000 ; Travel to line 267
G0 Z0.0 ; Pen down
G1 X127.700 Y151.020 F1000
G0 Z3.0 ; Pen up

G0 X127.700 Y151.540 F3000 ; Travel to line 268
G0 Z0.0 ; Pen down
G1 X66.340 Y188.200 F1000
G0 Z3.0 ; Pen up

G0 X66.600 Y188.200 F3000 ; Travel to line 269
G0 Z0.0 ; Pen down
G1 X127.700 Y151.800 F1000
G1 X127.700 Y151.800 F1000
G1 X66.860 Y188.200 F1000
G0 Z3.0 ; Pen up

G0 X67.120 Y188.200 F3000 ; Travel to line 270
G0 Z0.0 ; Pen down
G1 X127.700 Y152.060 F1000
G0 Z3.0 ; Pen up

G0 X127.700 Y152.320 F3000 ; Travel to line 271
G0 Z0.0 ; Pen down
G1 X67.380 Y188.200 F1000
G0 Z3.0 ; Pen up

G0 X67.640 Y188.200 F3000 ; Travel to line 272
G0 Z0.0 ; Pen down
G1 X127.700 Y152.580 F1000
G1 X127.700 Y152.580 F1000
G1 X67.640 Y188.200 F1000
G0 Z3.0 ; Pen up

G0 X68.160 Y188.200 F3000 ; Travel to line 273
G0 Z0.0 ; Pen down
G1 X127.700 Y152.840 F1000
G0 Z3.0 ; Pen up

G0 X127.700 Y153.100 F3000 ; Travel to line 274
G0 Z0.0 ; Pen down
G1 X68.420 Y188.200 F1000
G1 X68.420 Y188.200 F1000
G1 X127.700 Y153.360 F1000
G0 Z3.0 ; Pen up

G0 X127.700 Y153.880 F3000 ; Travel to line 275
G0 Z0.0 ; Pen down
G1 X69.460 Y188.200 F1000
G1 X69.460 Y188.200 F1000
G1 X127.700 Y154.140 F1000
G0 Z3.0 ; Pen up

G0 X127.700 Y154.400 F3000 ; Travel to line 276
G0 Z0.0 ; Pen down
G1 X69.720 Y188.200 F1000
G0 Z3.0 ; Pen up

G0 X69.980 Y188.200 F3000 ; Travel to line 277
G0 Z0.0 ; Pen down
G1 X127.700 Y154.660 F1000
G1 X127.700 Y154.660 F1000
G1 X70.240 Y188.200 F1000
G0 Z3.0 ; Pen up

G0 X70.500 Y188.200 F3000 ; Travel to line 278
G0 Z0.0 ; Pen down
G1 X127.700 Y154.920 F1000
G0 Z3.0 ; Pen up

G0 X127.700 Y155.440 F3000 ; Travel to line 279
G0 Z0.0 ; Pen down
G1 X71.020 Y188.200 F1000
G0 Z3.0 ; Pen up

G0 X70.760 Y188.200 F3000 ; Travel to line 280
G0 Z0.0 ; Pen down
G1 X127.700 Y155.180 F1000
G1 X127.700 Y155.180 F1000
G1 X70.760 Y188.200 F1000
G0 Z3.0 ; Pen up

G0 X71.540 Y188.200 F3000 ; Travel to line 281
G0 Z0.0 ; Pen down
G1 X128.220 Y155.440 F1000
G0 Z3.0 ; Pen up

G0 X128.480 Y155.700 F3000 ; Travel to line 282
G0 Z0.0 ; Pen down
G1 X130.040 Y154.920 F1000
G0 Z3.0 ; Pen up

G0 X130.300 Y155.180 F3000 ; Travel to line 283
G0 Z0.0 ; Pen down
G1 X131.860 Y154.400 F1000
G0 Z3.0 ; Pen up

G0 X132.380 Y154.400 F3000 ; Travel to line 284
G0 Z0.0 ; Pen down
G1 X130.820 Y155.180 F1000
G0 Z3.0 ; Pen up

G0 X130.820 Y154.660 F3000 ; Travel to line 285
G0 Z0.0 ; Pen down
G1 X129.260 Y155.440 F1000
G0 Z3.0 ; Pen up

G0 X129.260 Y155.180 F3000 ; Travel to line 286
G0 Z0.0 ; Pen down
G1 X71.800 Y188.200 F1000
G1 X71.800 Y188.200 F1000
G1 X129.000 Y155.180 F1000
G0 Z3.0 ; Pen up

G0 X129.520 Y155.440 F3000 ; Travel to line 287
G0 Z0.0 ; Pen down
G1 X131.080 Y154.660 F1000
G0 Z3.0 ; Pen up

G0 X131.600 Y154.920 F3000 ; Travel to line 288
G0 Z0.0 ; Pen down
G1 X133.160 Y154.140 F1000
G0 Z3.0 ; Pen up

G0 X133.420 Y154.140 F3000 ; Travel to line 289
G0 Z0.0 ; Pen down
G1 X131.860 Y154.920 F1000
G0 Z3.0 ; Pen up

G0 X132.640 Y154.660 F3000 ; Travel to line 290
G0 Z0.0 ; Pen down
G1 X134.200 Y153.880 F1000
G0 Z3.0 ; Pen up

G0 X133.940 Y154.400 F3000 ; Travel to line 291
G0 Z0.0 ; Pen down
G1 X136.020 Y153.360 F1000
G0 Z3.0 ; Pen up

G0 X136.020 Y153.880 F3000 ; Travel to line 292
G0 Z0.0 ; Pen down
G1 X138.100 Y152.840 F1000
G0 Z3.0 ; Pen up

G0 X138.360 Y152.840 F3000 ; Travel to line 293
G0 Z0.0 ; Pen down
G1 X136.800 Y153.620 F1000
G0 Z3.0 ; Pen up

G0 X137.840 Y153.360 F3000 ; Travel to line 294
G0 Z0.0 ; Pen down
G1 X139.400 Y152.580 F1000
G1 X139.400 Y152.580 F1000
G1 X137.840 Y153.360 F1000
G0 Z3.0 ; Pen up

G0 X138.100 Y153.360 F3000 ; Travel to line 295
G0 Z0.0 ; Pen down
G1 X140.180 Y152.320 F1000
G0 Z3.0 ; Pen up

G0 X140.180 Y152.840 F3000 ; Travel to line 296
G0 Z0.0 ; Pen down
G1 X142.260 Y151.800 F1000
G0 Z3.0 ; Pen up

G0 X142.260 Y152.320 F3000 ; Travel to line 297
G0 Z0.0 ; Pen down
G1 X144.340 Y151.280 F1000
G0 Z3.0 ; Pen up

G0 X144.600 Y151.280 F3000 ; Travel to line 298
G0 Z0.0 ; Pen down
G1 X143.040 Y152.060 F1000
G0 Z3.0 ; Pen up

G0 X142.780 Y151.800 F3000 ; Travel to line 299
G0 Z0.0 ; Pen down
G1 X141.220 Y152.580 F1000
G0 Z3.0 ; Pen up

G0 X141.220 Y152.060 F3000 ; Travel to line 300
G0 Z0.0 ; Pen down
G1 X139.140 Y153.100 F1000
G0 Z3.0 ; Pen up

G0 X139.660 Y152.840 F3000 ; Travel to line 301
G0 Z0.0 ; Pen down
G1 X141.480 Y152.060 F1000
G0 Z3.0 ; Pen up

G0 X142.000 Y152.320 F3000 ; Travel to line 302
G0 Z0.0 ; Pen down
G1 X143.560 Y151.540 F1000
G0 Z3.0 ; Pen up

G0 X144.080 Y151.800 F3000 ; Travel to line 303
G0 Z0.0 ; Pen down
G1 X145.640 Y151.020 F1000
G1 X145.640 Y151.020 F1000
G1 X144.080 Y151.800 F1000
G0 Z3.0 ; Pen up

G0 X145.120 Y151.540 F3000 ; Travel to line 304
G0 Z0.0 ; Pen down
G1 X146.680 Y150.760 F1000
G0 Z3.0 ; Pen up

G0 X146.940 Y151.020 F3000 ; Travel to line 305
G0 Z0.0 ; Pen down
G1 X148.500 Y150.240 F1000
G1 X148.500 Y150.240 F1000
G1 X146.420 Y151.280 F1000
G0 Z3.0 ; Pen up

G0 X147.460 Y151.020 F3000 ; Travel to line 306
G0 Z0.0 ; Pen down
G1 X148.500 Y150.500 F1000
G0 Z3.0 ; Pen up

G0 X147.460 Y150.500 F3000 ; Travel to line 307
G0 Z0.0 ; Pen down
G1 X145.380 Y151.540 F1000
G0 Z3.0 ; Pen up

G0 X135.240 Y153.620 F3000 ; Travel to line 308
G0 Z0.0 ; Pen down
G1 X133.680 Y154.400 F1000
G0 Z3.0 ; Pen up

G0 X133.420 Y154.400 F3000 ; Travel to line 309
G0 Z0.0 ; Pen down
G1 X134.980 Y153.620 F1000
G0 Z3.0 ; Pen up

G0 X134.980 Y154.140 F3000 ; Travel to line 310
G0 Z0.0 ; Pen down
G1 X137.060 Y153.100 F1000
G1 X137.060 Y153.100 F1000
G1 X134.980 Y154.140 F1000
G0 Z3.0 ; Pen up

G0 X127.700 Y156.220 F3000 ; Travel to line 311
G0 Z0.0 ; Pen down
G1 X72.060 Y188.200 F1000
G0 Z3.0 ; Pen up

G0 X72.580 Y188.200 F3000 ; Travel to line 312
G0 Z0.0 ; Pen down
G1 X127.700 Y156.480 F1000
G1 X127.700 Y156.480 F1000
G1 X72.580 Y188.200 F1000
G0 Z3.0 ; Pen up

G0 X72.840 Y188.200 F3000 ; Travel to line 313
G0 Z0.0 ; Pen down
G1 X127.700 Y156.740 F1000
G0 Z3.0 ; Pen up

G0 X127.700 Y157.000 F3000 ; Travel to line 314
G0 Z0.0 ; Pen down
G1 X73.100 Y188.200 F1000
G0 Z3.0 ; Pen up

G0 X73.360 Y188.200 F3000 ; Travel to line 315
G0 Z0.0 ; Pen down
G1 X127.700 Y157.260 F1000
G1 X127.700 Y157.260 F1000
G1 X73.620 Y188.200 F1000
G0 Z3.0 ; Pen up

G0 X73.880 Y188.200 F3000 ; Travel to line 316
G0 Z0.0 ; Pen down
G1 X127.700 Y157.520 F1000
G0 Z3.0 ; Pen up

G0 X127.700 Y158.040 F3000 ; Travel to line 317
G0 Z0.0 ; Pen down
G1 X74.400 Y188.200 F1000
G0 Z3.0 ; Pen up

G0 X74.140 Y188.200 F3000 ; Travel to line 318
G0 Z0.0 ; Pen down
G1 X127.700 Y157.780 F1000
G1 X127.700 Y157.780 F1000
G1 X74.140 Y188.200 F1000
G0 Z3.0 ; Pen up

G0 X74.920 Y188.200 F3000 ; Travel to line 319
G0 Z0.0 ; Pen down
G1 X127.700 Y158.300 F1000
G1 X127.700 Y158.300 F1000
G1 X74.920 Y188.200 F1000
G0 Z3.0 ; Pen up

G0 X75.180 Y188.200 F3000 ; Travel to line 320
G0 Z0.0 ; Pen down
G1 X127.700 Y158.560 F1000
G0 Z3.0 ; Pen up

G0 X127.700 Y158.820 F3000 ; Travel to line 321
G0 Z0.0 ; Pen down
G1 X75.440 Y188.200 F1000
G0 Z3.0 ; Pen up

G0 X75.960 Y188.200 F3000 ; Travel to line 322
G0 Z0.0 ; Pen down
G1 X127.700 Y159.080 F1000
G1 X127.700 Y159.080 F1000
G1 X75.960 Y188.200 F1000
G0 Z3.0 ; Pen up

G0 X76.220 Y188.200 F3000 ; Travel to line 323
G0 Z0.0 ; Pen down
G1 X127.700 Y159.340 F1000
G0 Z3.0 ; Pen up

G0 X127.700 Y159.860 F3000 ; Travel to line 324
G0 Z0.0 ; Pen down
G1 X77.000 Y188.200 F1000
G0 Z3.0 ; Pen up

G0 X76.740 Y188.200 F3000 ; Travel to line 325
G0 Z0.0 ; Pen down
G1 X127.700 Y159.600 F1000
G1 X127.700 Y159.600 F1000
G1 X76.480 Y188.200 F1000
G0 Z3.0 ; Pen up

G0 X77.260 Y188.200 F3000 ; Travel to line 326
G0 Z0.0 ; Pen down
G1 X127.700 Y160.120 F1000
G0 Z3.0 ; Pen up

G0 X127.700 Y160.640 F3000 ; Travel to line 327
G0 Z0.0 ; Pen down
G1 X78.040 Y188.200 F1000
G0 Z3.0 ; Pen up

G0 X77.520 Y188.200 F3000 ; Travel to line 328
G0 Z0.0 ; Pen down
G1 X127.700 Y160.380 F1000
G1 X127.700 Y160.380 F1000
G1 X77.520 Y188.200 F1000
G0 Z3.0 ; Pen up

G0 X78.560 Y188.200 F3000 ; Travel to line 329
G0 Z0.0 ; Pen down
G1 X128.220 Y160.900 F1000
G0 Z3.0 ; Pen up

G0 X128.220 Y161.160 F3000 ; Travel to line 330
G0 Z0.0 ; Pen down
G1 X79.080 Y188.200 F1000
G0 Z3.0 ; Pen up

G0 X79.340 Y188.200 F3000 ; Travel to line 331
G0 Z0.0 ; Pen down
G1 X128.740 Y161.160 F1000
G1 X128.740 Y161.160 F1000
G1 X79.340 Y188.200 F1000
G0 Z3.0 ; Pen up

G0 X79.600 Y188.200 F3000 ; Travel to line 332
G0 Z0.0 ; Pen down
G1 X128.740 Y161.420 F1000
G0 Z3.0 ; Pen up

G0 X128.480 Y161.680 F3000 ; Travel to line 333
G0 Z0.0 ; Pen down
G1 X129.000 Y161.420 F1000
G1 X129.000 Y161.420 F1000
G1 X128.480 Y161.680 F1000
G0 Z3.0 ; Pen up

G0 X128.480 Y161.940 F3000 ; Travel to line 334
G0 Z0.0 ; Pen down
G1 X129.260 Y161.680 F1000
G1 X129.260 Y161.680 F1000
G1 X128.740 Y162.200 F1000
G1 X128.740 Y162.200 F1000
G1 X129.260 Y161.940 F1000
G0 Z3.0 ; Pen up

G0 X129.260 Y162.200 F3000 ; Travel to line 335
G0 Z0.0 ; Pen down
G1 X129.780 Y161.940 F1000
G1 X129.780 Y161.940 F1000
G1 X129.000 Y162.200 F1000
G0 Z3.0 ; Pen up

G0 X129.260 Y162.460 F3000 ; Travel to line 336
G0 Z0.0 ; Pen down
G1 X130.040 Y162.200 F1000
G1 X130.040 Y162.200 F1000
G1 X129.520 Y162.460 F1000
G0 Z3.0 ; Pen up

G0 X129.520 Y162.720 F3000 ; Travel to line 337
G0 Z0.0 ; Pen down
G1 X130.040 Y162.460 F1000
G0 Z3.0 ; Pen up

G0 X129.780 Y162.720 F3000 ; Travel to line 338
G0 Z0.0 ; Pen down
G1 X130.300 Y162.460 F1000
G1 X130.300 Y162.460 F1000
G1 X129.780 Y162.720 F1000
G0 Z3.0 ; Pen up

G0 X129.780 Y162.980 F3000 ; Travel to line 339
G0 Z0.0 ; Pen down
G1 X130.560 Y162.720 F1000
G0 Z3.0 ; Pen up

G0 X130.820 Y162.720 F3000 ; Travel to line 340
G0 Z0.0 ; Pen down
G1 X130.300 Y162.980 F1000
G0 Z3.0 ; Pen up

G0 X130.560 Y163.240 F3000 ; Travel to line 341
G0 Z0.0 ; Pen down
G1 X131.080 Y162.980 F1000
G1 X131.080 Y162.980 F1000
G1 X130.300 Y163.240 F1000
G1 X130.300 Y163.240 F1000
G1 X130.820 Y162.980 F1000
G0 Z3.0 ; Pen up

G0 X130.820 Y163.500 F3000 ; Travel to line 342
G0 Z0.0 ; Pen down
G1 X131.340 Y163.240 F1000
G1 X131.340 Y163.240 F1000
G1 X130.560 Y163.500 F1000
G0 Z3.0 ; Pen up

G0 X130.820 Y163.760 F3000 ; Travel to line 343
G0 Z0.0 ; Pen down
G1 X131.340 Y163.500 F1000
G0 Z3.0 ; Pen up

G0 X131.340 Y163.760 F3000 ; Travel to line 344
G0 Z0.0 ; Pen down
G1 X131.860 Y163.500 F1000
G1 X131.860 Y163.500 F1000
G1 X131.080 Y163.760 F1000
G0 Z3.0 ; Pen up

G0 X131.340 Y164.020 F3000 ; Travel to line 345
G0 Z0.0 ; Pen down
G1 X131.860 Y163.760 F1000
G0 Z3.0 ; Pen up

G0 X132.120 Y163.760 F3000 ; Travel to line 346
G0 Z0.0 ; Pen down
G1 X131.600 Y164.020 F1000
G0 Z3.0 ; Pen up

G0 X131.860 Y164.280 F3000 ; Travel to line 347
G0 Z0.0 ; Pen down
G1 X132.380 Y164.020 F1000
G1 X132.380 Y164.020 F1000
G1 X131.600 Y164.280 F1000
G1 X131.600 Y164.280 F1000
G1 X132.120 Y164.020 F1000
G0 Z3.0 ; Pen up

G0 X132.120 Y164.540 F3000 ; Travel to line 348
G0 Z0.0 ; Pen down
G1 X132.900 Y164.280 F1000
G0 Z3.0 ; Pen up

G0 X132.900 Y164.540 F3000 ; Travel to line 349
G0 Z0.0 ; Pen down
G1 X132.380 Y164.800 F1000
G1 X132.380 Y164.800 F1000
G1 X133.160 Y164.540 F1000
G0 Z3.0 ; Pen up

G0 X133.420 Y164.800 F3000 ; Travel to line 350
G0 Z0.0 ; Pen down
G1 X132.900 Y165.060 F1000
G0 Z3.0 ; Pen up

G0 X132.900 Y165.320 F3000 ; Travel to line 351
G0 Z0.0 ; Pen down
G1 X133.680 Y165.060 F1000
G1 X133.680 Y165.060 F1000
G1 X132.900 Y165.320 F1000
G0 Z3.0 ; Pen up

G0 X133.160 Y165.320 F3000 ; Travel to line 352
G0 Z0.0 ; Pen down
G1 X133.940 Y165.060 F1000
G0 Z3.0 ; Pen up

G0 X133.940 Y165.320 F3000 ; Travel to line 353
G0 Z0.0 ; Pen down
G1 X133.420 Y165.580 F1000
G0 Z3.0 ; Pen up

G0 X133.680 Y165.580 F3000 ; Travel to line 354
G0 Z0.0 ; Pen down
G1 X134.200 Y165.320 F1000
G0 Z3.0 ; Pen up

G0 X134.200 Y165.580 F3000 ; Travel to line 355
G0 Z0.0 ; Pen down
G1 X133.680 Y165.840 F1000
G1 X133.680 Y165.840 F1000
G1 X134.460 Y165.580 F1000
G0 Z3.0 ; Pen up

G0 X134.460 Y166.100 F3000 ; Travel to line 356
G0 Z0.0 ; Pen down
G1 X134.980 Y165.840 F1000
G1 X134.980 Y165.840 F1000
G1 X134.200 Y166.100 F1000
G0 Z3.0 ; Pen up

G0 X133.940 Y166.100 F3000 ; Travel to line 357
G0 Z0.0 ; Pen down
G1 X134.460 Y165.840 F1000
G1 X134.460 Y165.840 F1000
G1 X133.940 Y166.100 F1000
G0 Z3.0 ; Pen up

G0 X134.460 Y166.360 F3000 ; Travel to line 358
G0 Z0.0 ; Pen down
G1 X134.980 Y166.100 F1000
G0 Z3.0 ; Pen up

G0 X135.240 Y166.100 F3000 ; Travel to line 359
G0 Z0.0 ; Pen down
G1 X134.720 Y166.360 F1000
G0 Z3.0 ; Pen up

G0 X134.720 Y166.620 F3000 ; Travel to line 360
G0 Z0.0 ; Pen down
G1 X135.240 Y166.360 F1000
G0 Z3.0 ; Pen up

G0 X134.980 Y166.620 F3000 ; Travel to line 361
G0 Z0.0 ; Pen down
G1 X135.500 Y166.360 F1000
G1 X135.500 Y166.360 F1000
G1 X134.980 Y166.620 F1000
G0 Z3.0 ; Pen up

G0 X134.980 Y166.880 F3000 ; Travel to line 362
G0 Z0.0 ; Pen down
G1 X135.760 Y166.620 F1000
G0 Z3.0 ; Pen up

G0 X135.500 Y166.880 F3000 ; Travel to line 363
G0 Z0.0 ; Pen down
G1 X136.020 Y166.620 F1000
G1 X136.020 Y166.620 F1000
G1 X135.500 Y166.880 F1000
G0 Z3.0 ; Pen up

G0 X135.500 Y167.140 F3000 ; Travel to line 364
G0 Z0.0 ; Pen down
G1 X136.280 Y166.880 F1000
G1 X136.280 Y166.880 F1000
G1 X135.760 Y167.140 F1000
G0 Z3.0 ; Pen up

G0 X135.760 Y167.400 F3000 ; Travel to line 365
G0 Z0.0 ; Pen down
G1 X136.540 Y167.140 F1000
G1 X136.540 Y167.140 F1000
G1 X136.020 Y167.400 F1000
G0 Z3.0 ; Pen up

G0 X136.020 Y167.660 F3000 ; Travel to line 366
G0 Z0.0 ; Pen down
G1 X136.540 Y167.400 F1000
G0 Z3.0 ; Pen up

G0 X136.280 Y167.660 F3000 ; Travel to line 367
G0 Z0.0 ; Pen down
G1 X137.060 Y167.400 F1000
G1 X137.060 Y167.400 F1000
G1 X136.280 Y167.660 F1000
G0 Z3.0 ; Pen up

G0 X136.800 Y167.920 F3000 ; Travel to line 368
G0 Z0.0 ; Pen down
G1 X137.320 Y167.660 F1000
G1 X137.320 Y167.660 F1000
G1 X136.540 Y167.920 F1000
G1 X136.540 Y167.920 F1000
G1 X137.060 Y167.660 F1000
G0 Z3.0 ; Pen up

G0 X137.060 Y168.180 F3000 ; Travel to line 369
G0 Z0.0 ; Pen down
G1 X137.580 Y167.920 F1000
G1 X137.580 Y167.920 F1000
G1 X136.800 Y168.180 F1000
G0 Z3.0 ; Pen up

G0 X137.060 Y168.440 F3000 ; Travel to line 370
G0 Z0.0 ; Pen down
G1 X137.840 Y168.180 F1000
G1 X137.840 Y168.180 F1000
G1 X137.060 Y168.440 F1000
G0 Z3.0 ; Pen up

G0 X137.580 Y168.440 F3000 ; Travel to line 371
G0 Z0.0 ; Pen down
G1 X138.100 Y168.180 F1000
G0 Z3.0 ; Pen up

G0 X138.360 Y168.700 F3000 ; Travel to line 372
G0 Z0.0 ; Pen down
G1 X137.840 Y168.960 F1000
G1 X137.840 Y168.960 F1000
G1 X138.620 Y168.700 F1000
G0 Z3.0 ; Pen up

G0 X138.360 Y169.220 F3000 ; Travel to line 373
G0 Z0.0 ; Pen down
G1 X139.140 Y168.960 F1000
G0 Z3.0 ; Pen up

G0 X139.400 Y169.220 F3000 ; Travel to line 374
G0 Z0.0 ; Pen down
G1 X138.620 Y169.480 F1000
G1 X138.620 Y169.480 F1000
G1 X139.140 Y169.220 F1000
G1 X139.140 Y169.220 F1000
G1 X138.620 Y169.480 F1000
G0 Z3.0 ; Pen up

G0 X138.880 Y169.740 F3000 ; Travel to line 375
G0 Z0.0 ; Pen down
G1 X139.400 Y169.480 F1000
G0 Z3.0 ; Pen up

G0 X139.660 Y169.480 F3000 ; Travel to line 376
G0 Z0.0 ; Pen down
G1 X139.140 Y169.740 F1000
G1 X139.140 Y169.740 F1000
G1 X139.660 Y169.740 F1000
G0 Z3.0 ; Pen up

G0 X139.660 Y170.000 F3000 ; Travel to line 377
G0 Z0.0 ; Pen down
G1 X140.180 Y169.740 F1000
G1 X140.180 Y169.740 F1000
G1 X139.660 Y170.000 F1000
G0 Z3.0 ; Pen up

G0 X139.660 Y170.260 F3000 ; Travel to line 378
G0 Z0.0 ; Pen down
G1 X140.440 Y170.000 F1000
G1 X140.440 Y170.000 F1000
G1 X139.920 Y170.260 F1000
G0 Z3.0 ; Pen up

G0 X140.440 Y170.260 F3000 ; Travel to line 379
G0 Z0.0 ; Pen down
G1 X139.920 Y170.520 F1000
G1 X139.920 Y170.520 F1000
G1 X140.700 Y170.260 F1000
G0 Z3.0 ; Pen up

G0 X140.700 Y170.520 F3000 ; Travel to line 380
G0 Z0.0 ; Pen down
G1 X140.180 Y170.780 F1000
G0 Z3.0 ; Pen up

G0 X140.440 Y170.780 F3000 ; Travel to line 381
G0 Z0.0 ; Pen down
G1 X141.220 Y170.520 F1000
G1 X141.220 Y170.520 F1000
G1 X140.440 Y170.780 F1000
G0 Z3.0 ; Pen up

G0 X140.700 Y170.780 F3000 ; Travel to line 382
G0 Z0.0 ; Pen down
G1 X141.220 Y170.780 F1000
G0 Z3.0 ; Pen up

G0 X140.960 Y171.040 F3000 ; Travel to line 383
G0 Z0.0 ; Pen down
G1 X141.480 Y170.780 F1000
G1 X141.480 Y170.780 F1000
G1 X140.700 Y171.040 F1000
G0 Z3.0 ; Pen up

G0 X140.960 Y171.300 F3000 ; Travel to line 384
G0 Z0.0 ; Pen down
G1 X141.740 Y171.040 F1000
G1 X141.740 Y171.040 F1000
G1 X141.220 Y171.300 F1000
G0 Z3.0 ; Pen up

G0 X141.220 Y171.560 F3000 ; Travel to line 385
G0 Z0.0 ; Pen down
G1 X142.000 Y171.300 F1000
G1 X142.000 Y171.300 F1000
G1 X141.220 Y171.560 F1000
G0 Z3.0 ; Pen up

G0 X141.480 Y171.560 F3000 ; Travel to line 386
G0 Z0.0 ; Pen down
G1 X142.260 Y171.300 F1000
G0 Z3.0 ; Pen up

G0 X142.260 Y171.560 F3000 ; Travel to line 387
G0 Z0.0 ; Pen down
G1 X141.740 Y171.820 F1000
G1 X141.740 Y171.820 F1000
G1 X142.520 Y171.560 F1000
G1 X142.520 Y171.560 F1000
G1 X142.000 Y171.820 F1000
G0 Z3.0 ; Pen up

G0 X142.000 Y172.080 F3000 ; Travel to line 388
G0 Z0.0 ; Pen down
G1 X142.780 Y171.820 F1000
G1 X142.780 Y171.820 F1000
G1 X142.000 Y172.080 F1000
G0 Z3.0 ; Pen up

G0 X142.780 Y172.080 F3000 ; Travel to line 389
G0 Z0.0 ; Pen down
G1 X142.260 Y172.340 F1000
G1 X142.260 Y172.340 F1000
G1 X143.300 Y172.080 F1000
G1 X143.300 Y172.080 F1000
G1 X142.780 Y172.340 F1000
G1 X142.780 Y172.340 F1000
G1 X143.300 Y172.340 F1000
G0 Z3.0 ; Pen up

G0 X143.560 Y172.340 F3000 ; Travel to line 390
G0 Z0.0 ; Pen down
G1 X142.780 Y172.600 F1000
G0 Z3.0 ; Pen up

G0 X143.040 Y172.860 F3000 ; Travel to line 391
G0 Z0.0 ; Pen down
G1 X143.560 Y172.600 F1000
G1 X143.560 Y172.600 F1000
G1 X143.040 Y172.860 F1000
G0 Z3.0 ; Pen up

G0 X143.300 Y172.860 F3000 ; Travel to line 392
G0 Z0.0 ; Pen down
G1 X143.820 Y172.600 F1000
G0 Z3.0 ; Pen up

G0 X143.820 Y172.860 F3000 ; Travel to line 393
G0 Z0.0 ; Pen down
G1 X143.300 Y173.120 F1000
G0 Z3.0 ; Pen up

G0 X143.560 Y173.120 F3000 ; Travel to line 394
G0 Z0.0 ; Pen down
G1 X144.340 Y172.860 F1000
G1 X144.340 Y172.860 F1000
G1 X143.560 Y173.120 F1000
G0 Z3.0 ; Pen up

G0 X144.080 Y173.380 F3000 ; Travel to line 395
G0 Z0.0 ; Pen down
G1 X144.600 Y173.120 F1000
G1 X144.600 Y173.120 F1000
G1 X143.820 Y173.380 F1000
G1 X143.820 Y173.380 F1000
G1 X144.340 Y173.120 F1000
G0 Z3.0 ; Pen up

G0 X144.600 Y173.380 F3000 ; Travel to line 396
G0 Z0.0 ; Pen down
G1 X144.080 Y173.640 F1000
G0 Z3.0 ; Pen up

G0 X144.340 Y173.900 F3000 ; Travel to line 397
G0 Z0.0 ; Pen down
G1 X145.120 Y173.640 F1000
G0 Z3.0 ; Pen up

G0 X145.380 Y173.640 F3000 ; Travel to line 398
G0 Z0.0 ; Pen down
G1 X144.600 Y173.900 F1000
G0 Z3.0 ; Pen up

G0 X144.860 Y173.640 F3000 ; Travel to line 399
G0 Z0.0 ; Pen down
G1 X144.340 Y173.640 F1000
G1 X144.340 Y173.640 F1000
G1 X144.860 Y173.380 F1000
G0 Z3.0 ; Pen up

G0 X145.120 Y174.160 F3000 ; Travel to line 400
G0 Z0.0 ; Pen down
G1 X145.640 Y173.900 F1000
G1 X145.640 Y173.900 F1000
G1 X144.860 Y174.160 F1000
G1 X144.860 Y174.160 F1000
G1 X145.640 Y173.900 F1000
G0 Z3.0 ; Pen up

G0 X145.900 Y174.420 F3000 ; Travel to line 401
G0 Z0.0 ; Pen down
G1 X145.380 Y174.680 F1000
G1 X145.380 Y174.680 F1000
G1 X146.420 Y174.420 F1000
G1 X146.420 Y174.420 F1000
G1 X145.900 Y174.680 F1000
G1 X145.900 Y174.680 F1000
G1 X146.420 Y174.680 F1000
G0 Z3.0 ; Pen up

G0 X146.680 Y174.680 F3000 ; Travel to line 402
G0 Z0.0 ; Pen down
G1 X145.900 Y174.940 F1000
G0 Z3.0 ; Pen up

G0 X146.160 Y174.940 F3000 ; Travel to line 403
G0 Z0.0 ; Pen down
G1 X146.680 Y174.940 F1000
G1 X146.680 Y174.940 F1000
G1 X146.160 Y175.200 F1000
G1 X146.160 Y175.200 F1000
G1 X146.940 Y174.940 F1000
G0 Z3.0 ; Pen up

G0 X146.940 Y175.200 F3000 ; Travel to line 404
G0 Z0.0 ; Pen down
G1 X146.420 Y175.460 F1000
G0 Z3.0 ; Pen up

G0 X146.680 Y175.460 F3000 ; Travel to line 405
G0 Z0.0 ; Pen down
G1 X147.460 Y175.200 F1000
G1 X147.460 Y175.200 F1000
G1 X146.680 Y175.460 F1000
G0 Z3.0 ; Pen up

G0 X146.940 Y175.460 F3000 ; Travel to line 406
G0 Z0.0 ; Pen down
G1 X147.460 Y175.460 F1000
G0 Z3.0 ; Pen up

G0 X147.720 Y175.720 F3000 ; Travel to line 407
G0 Z0.0 ; Pen down
G1 X147.200 Y175.980 F1000
G1 X147.200 Y175.980 F1000
G1 X158.900 Y171.300 F1000
G1 X158.900 Y171.300 F1000
G1 X147.460 Y175.980 F1000
G0 Z3.0 ; Pen up

G0 X147.460 Y176.240 F3000 ; Travel to line 408
G0 Z0.0 ; Pen down
G1 X158.900 Y171.560 F1000
G0 Z3.0 ; Pen up

G0 X159.160 Y171.560 F3000 ; Travel to line 409
G0 Z0.0 ; Pen down
G1 X147.720 Y176.240 F1000
G0 Z3.0 ; Pen up

G0 X147.980 Y176.500 F3000 ; Travel to line 410
G0 Z0.0 ; Pen down
G1 X159.420 Y171.820 F1000
G1 X159.420 Y171.820 F1000
G1 X147.980 Y176.500 F1000
G1 X147.980 Y176.500 F1000
G1 X159.160 Y171.820 F1000
G0 Z3.0 ; Pen up

G0 X159.680 Y172.340 F3000 ; Travel to line 411
G0 Z0.0 ; Pen down
G1 X148.500 Y176.760 F1000
G0 Z3.0 ; Pen up

G0 X148.500 Y177.020 F3000 ; Travel to line 412
G0 Z0.0 ; Pen down
G1 X159.940 Y172.340 F1000
G0 Z3.0 ; Pen up

G0 X160.200 Y172.600 F3000 ; Travel to line 413
G0 Z0.0 ; Pen down
G1 X148.500 Y177.280 F1000
G1 X148.500 Y177.280 F1000
G1 X160.200 Y172.600 F1000
G1 X160.200 Y172.600 F1000
G1 X148.500 Y177.540 F1000
G1 X148.500 Y177.540 F1000
G1 X160.460 Y172.860 F1000
G1 X160.460 Y172.860 F1000
G1 X148.760 Y177.540 F1000
G0 Z3.0 ; Pen up

G0 X148.760 Y177.800 F3000 ; Travel to line 414
G0 Z0.0 ; Pen down
G1 X160.460 Y173.120 F1000
G1 X160.460 Y173.120 F1000
G1 X148.760 Y178.060 F1000
G1 X148.760 Y178.060 F1000
G1 X160.460 Y173.380 F1000
G0 Z3.0 ; Pen up

G0 X160.720 Y173.380 F3000 ; Travel to line 415
G0 Z0.0 ; Pen down
G1 X148.760 Y178.320 F1000
G1 X148.760 Y178.320 F1000
G1 X160.720 Y173.640 F1000
G0 Z3.0 ; Pen up

G0 X160.980 Y173.900 F3000 ; Travel to line 416
G0 Z0.0 ; Pen down
G1 X149.020 Y178.580 F1000
G0 Z3.0 ; Pen up

G0 X149.020 Y178.840 F3000 ; Travel to line 417
G0 Z0.0 ; Pen down
G1 X160.980 Y174.160 F1000
G1 X160.980 Y174.160 F1000
G1 X149.020 Y178.840 F1000
G0 Z3.0 ; Pen up

G0 X149.020 Y179.100 F3000 ; Travel to line 418
G0 Z0.0 ; Pen down
G1 X160.980 Y174.420 F1000
G0 Z3.0 ; Pen up

G0 X161.240 Y174.420 F3000 ; Travel to line 419
G0 Z0.0 ; Pen down
G1 X149.280 Y179.100 F1000
G0 Z3.0 ; Pen up

G0 X149.280 Y179.360 F3000 ; Travel to line 420
G0 Z0.0 ; Pen down
G1 X161.240 Y174.680 F1000
G1 X161.240 Y174.680 F1000
G1 X149.280 Y179.360 F1000
G0 Z3.0 ; Pen up

G0 X149.280 Y179.620 F3000 ; Travel to line 421
G0 Z0.0 ; Pen down
G1 X161.240 Y174.940 F1000
G0 Z3.0 ; Pen up

G0 X161.240 Y175.200 F3000 ; Travel to line 422
G0 Z0.0 ; Pen down
G1 X149.540 Y179.620 F1000
G1 X149.540 Y179.620 F1000
G1 X161.240 Y175.200 F1000
G1 X161.240 Y175.200 F1000
G1 X149.540 Y179.880 F1000
G0 Z3.0 ; Pen up

G0 X149.800 Y180.140 F3000 ; Travel to line 423
G0 Z0.0 ; Pen down
G1 X161.500 Y175.720 F1000
G1 X161.500 Y175.720 F1000
G1 X149.540 Y180.140 F1000
G1 X149.540 Y180.140 F1000
G1 X161.500 Y175.460 F1000
G0 Z3.0 ; Pen up

G0 X161.500 Y175.980 F3000 ; Travel to line 424
G0 Z0.0 ; Pen down
G1 X149.800 Y180.400 F1000
G0 Z3.0 ; Pen up

G0 X150.060 Y180.400 F3000 ; Travel to line 425
G0 Z0.0 ; Pen down
G1 X161.500 Y175.980 F1000
G1 X161.500 Y175.980 F1000
G1 X150.060 Y180.400 F1000
G0 Z3.0 ; Pen up

G0 X150.060 Y180.660 F3000 ; Travel to line 426
G0 Z0.0 ; Pen down
G1 X161.500 Y176.240 F1000
G0 Z3.0 ; Pen up

G0 X161.500 Y176.760 F3000 ; Travel to line 427
G0 Z0.0 ; Pen down
G1 X150.320 Y180.920 F1000
G0 Z3.0 ; Pen up

G0 X150.580 Y180.920 F3000 ; Travel to line 428
G0 Z0.0 ; Pen down
G1 X161.500 Y177.020 F1000
G0 Z3.0 ; Pen up

G0 X161.500 Y177.280 F3000 ; Travel to line 429
G0 Z0.0 ; Pen down
G1 X150.840 Y181.440 F1000
G1 X150.840 Y181.440 F1000
G1 X161.500 Y177.540 F1000
G0 Z3.0 ; Pen up

G0 X161.240 Y177.800 F3000 ; Travel to line 430
G0 Z0.0 ; Pen down
G1 X151.100 Y181.700 F1000
G1 X151.100 Y181.700 F1000
G1 X161.240 Y178.060 F1000
G0 Z3.0 ; Pen up

G0 X161.240 Y178.580 F3000 ; Travel to line 431
G0 Z0.0 ; Pen down
G1 X151.880 Y182.220 F1000
G1 X151.880 Y182.220 F1000
G1 X160.980 Y178.840 F1000
G0 Z3.0 ; Pen up

G0 X160.980 Y179.100 F3000 ; Travel to line 432
G0 Z0.0 ; Pen down
G1 X152.140 Y182.220 F1000
G0 Z3.0 ; Pen up

G0 X151.880 Y182.220 F3000 ; Travel to line 433
G0 Z0.0 ; Pen down
G1 X161.240 Y178.580 F1000
G1 X161.240 Y178.580 F1000
G1 X151.620 Y181.960 F1000
G0 Z3.0 ; Pen up

G0 X151.360 Y181.960 F3000 ; Travel to line 434
G0 Z0.0 ; Pen down
G1 X161.240 Y178.320 F1000
G1 X161.240 Y178.320 F1000
G1 X151.360 Y181.960 F1000
G0 Z3.0 ; Pen up

G0 X151.360 Y181.700 F3000 ; Travel to line 435
G0 Z0.0 ; Pen down
G1 X161.240 Y178.060 F1000
G1 X161.240 Y178.060 F1000
G1 X151.100 Y181.700 F1000
G0 Z3.0 ; Pen up

G0 X150.840 Y181.440 F3000 ; Travel to line 436
G0 Z0.0 ; Pen down
G1 X161.500 Y177.280 F1000
G1 X161.500 Y177.280 F1000
G1 X150.840 Y181.180 F1000
G0 Z3.0 ; Pen up

G0 X150.580 Y181.180 F3000 ; Travel to line 437
G0 Z0.0 ; Pen down
G1 X161.500 Y177.020 F1000
G1 X161.500 Y177.020 F1000
G1 X150.580 Y181.180 F1000
G0 Z3.0 ; Pen up

G0 X150.320 Y180.660 F3000 ; Travel to line 438
G0 Z0.0 ; Pen down
G1 X161.500 Y176.500 F1000
G1 X161.500 Y176.500 F1000
G1 X150.320 Y180.660 F1000
G0 Z3.0 ; Pen up

G0 X148.760 Y178.580 F3000 ; Travel to line 439
G0 Z0.0 ; Pen down
G1 X160.720 Y173.900 F1000
G1 X160.720 Y173.900 F1000
G1 X148.760 Y178.580 F1000
G0 Z3.0 ; Pen up

G0 X148.240 Y176.760 F3000 ; Travel to line 440
G0 Z0.0 ; Pen down
G1 X159.680 Y172.080 F1000
G1 X159.680 Y172.080 F1000
G1 X148.240 Y176.760 F1000
G0 Z3.0 ; Pen up

G0 X148.500 Y175.460 F3000 ; Travel to line 441
G0 Z0.0 ; Pen down
G1 X158.640 Y171.040 F1000
G1 X158.640 Y171.040 F1000
G1 X148.760 Y175.200 F1000
G0 Z3.0 ; Pen up

G0 X148.760 Y174.420 F3000 ; Travel to line 442
G0 Z0.0 ; Pen down
G1 X157.600 Y170.520 F1000
G1 X157.600 Y170.520 F1000
G1 X149.020 Y174.160 F1000
G0 Z3.0 ; Pen up

G0 X149.020 Y173.900 F3000 ; Travel to line 443
G0 Z0.0 ; Pen down
G1 X157.080 Y170.520 F1000
G1 X157.080 Y170.520 F1000
G1 X149.020 Y173.900 F1000
G0 Z3.0 ; Pen up

G0 X149.280 Y173.640 F3000 ; Travel to line 444
G0 Z0.0 ; Pen down
G1 X157.080 Y170.260 F1000
G0 Z3.0 ; Pen up

G0 X157.860 Y170.780 F3000 ; Travel to line 445
G0 Z0.0 ; Pen down
G1 X148.760 Y174.680 F1000
G1 X148.760 Y174.680 F1000
G1 X158.120 Y170.780 F1000
G1 X158.120 Y170.780 F1000
G1 X148.760 Y174.940 F1000
G1 X148.760 Y174.940 F1000
G1 X158.380 Y171.040 F1000
G0 Z3.0 ; Pen up

G0 X156.040 Y170.260 F3000 ; Travel to line 446
G0 Z0.0 ; Pen down
G1 X149.540 Y172.860 F1000
G1 X149.540 Y172.860 F1000
G1 X156.040 Y170.000 F1000
G0 Z3.0 ; Pen up

G0 X155.780 Y170.000 F3000 ; Travel to line 447
G0 Z0.0 ; Pen down
G1 X150.060 Y172.340 F1000
G1 X150.060 Y172.340 F1000
G1 X155.520 Y170.000 F1000
G0 Z3.0 ; Pen up

G0 X155.000 Y170.000 F3000 ; Travel to line 448
G0 Z0.0 ; Pen down
G1 X150.320 Y172.080 F1000
G0 Z3.0 ; Pen up

G0 X150.840 Y171.560 F3000 ; Travel to line 449
G0 Z0.0 ; Pen down
G1 X154.480 Y170.000 F1000
G1 X154.480 Y170.000 F1000
G1 X150.840 Y171.560 F1000
G0 Z3.0 ; Pen up

G0 X151.100 Y171.300 F3000 ; Travel to line 450
G0 Z0.0 ; Pen down
G1 X153.960 Y170.000 F1000
G0 Z3.0 ; Pen up

G0 X152.920 Y170.260 F3000 ; Travel to line 451
G0 Z0.0 ; Pen down
G1 X151.880 Y170.780 F1000
G0 Z3.0 ; Pen up

G0 X149.280 Y173.380 F3000 ; Travel to line 452
G0 Z0.0 ; Pen down
G1 X156.560 Y170.260 F1000
G1 X156.560 Y170.260 F1000
G1 X149.280 Y173.380 F1000
G0 Z3.0 ; Pen up

G0 X146.940 Y175.720 F3000 ; Travel to line 453
G0 Z0.0 ; Pen down
G1 X147.720 Y175.460 F1000
G1 X147.720 Y175.460 F1000
G1 X146.940 Y175.720 F1000
G0 Z3.0 ; Pen up

G0 X145.120 Y174.420 F3000 ; Travel to line 454
G0 Z0.0 ; Pen down
G1 X145.900 Y174.160 F1000
G1 X145.900 Y174.160 F1000
G1 X145.120 Y174.420 F1000
G0 Z3.0 ; Pen up

G0 X139.920 Y169.740 F3000 ; Travel to line 455
G0 Z0.0 ; Pen down
G1 X139.140 Y170.000 F1000
G0 Z3.0 ; Pen up

G0 X138.100 Y169.220 F3000 ; Travel to line 456
G0 Z0.0 ; Pen down
G1 X138.620 Y168.960 F1000
G1 X138.620 Y168.960 F1000
G1 X138.100 Y169.220 F1000
G0 Z3.0 ; Pen up

G0 X137.580 Y168.700 F3000 ; Travel to line 457
G0 Z0.0 ; Pen down
G1 X138.360 Y168.440 F1000
G1 X138.360 Y168.440 F1000
G1 X137.580 Y168.700 F1000
G0 Z3.0 ; Pen up

G0 X132.640 Y165.060 F3000 ; Travel to line 458
G0 Z0.0 ; Pen down
G1 X133.160 Y164.800 F1000
G1 X133.160 Y164.800 F1000
G1 X132.640 Y165.060 F1000
G0 Z3.0 ; Pen up

G0 X132.640 Y164.280 F3000 ; Travel to line 459
G0 Z0.0 ; Pen down
G1 X131.860 Y164.540 F1000
G0 Z3.0 ; Pen up

G0 X127.700 Y164.540 F3000 ; Travel to line 460
G0 Z0.0 ; Pen down
G1 X83.500 Y188.200 F1000
G1 X83.500 Y188.200 F1000
G1 X127.700 Y164.800 F1000
G1 X127.700 Y164.800 F1000
G1 X84.020 Y188.200 F1000
G0 Z3.0 ; Pen up

G0 X84.540 Y188.200 F3000 ; Travel to line 461
G0 Z0.0 ; Pen down
G1 X127.700 Y165.320 F1000
G1 X127.700 Y165.320 F1000
G1 X84.280 Y188.200 F1000
G1 X84.280 Y188.200 F1000
G1 X127.700 Y165.060 F1000
G0 Z3.0 ; Pen up

G0 X127.700 Y165.840 F3000 ; Travel to line 462
G0 Z0.0 ; Pen down
G1 X85.320 Y188.200 F1000
G0 Z3.0 ; Pen up

G0 X85.580 Y188.200 F3000 ; Travel to line 463
G0 Z0.0 ; Pen down
G1 X127.700 Y166.100 F1000
G0 Z3.0 ; Pen up

G0 X127.700 Y166.620 F3000 ; Travel to line 464
G0 Z0.0 ; Pen down
G1 X86.360 Y188.200 F1000
G0 Z3.0 ; Pen up

G0 X86.100 Y188.200 F3000 ; Travel to line 465
G0 Z0.0 ; Pen down
G1 X127.700 Y166.360 F1000
G1 X127.700 Y166.360 F1000
G1 X86.100 Y188.200 F1000
G0 Z3.0 ; Pen up

G0 X86.620 Y188.200 F3000 ; Travel to line 466
G0 Z0.0 ; Pen down
G1 X127.700 Y166.880 F1000
G1 X127.700 Y166.880 F1000
G1 X86.880 Y188.200 F1000
G0 Z3.0 ; Pen up

G0 X87.140 Y188.200 F3000 ; Travel to line 467
G0 Z0.0 ; Pen down
G1 X127.700 Y167.140 F1000
G0 Z3.0 ; Pen up

G0 X127.700 Y167.400 F3000 ; Travel to line 468
G0 Z0.0 ; Pen down
G1 X87.400 Y188.200 F1000
G0 Z3.0 ; Pen up

G0 X88.180 Y188.200 F3000 ; Travel to line 469
G0 Z0.0 ; Pen down
G1 X127.700 Y167.660 F1000
G1 X127.700 Y167.660 F1000
G1 X87.920 Y188.200 F1000
G1 X87.920 Y188.200 F1000
G1 X127.700 Y167.660 F1000
G0 Z3.0 ; Pen up

G0 X127.700 Y167.920 F3000 ; Travel to line 470
G0 Z0.0 ; Pen down
G1 X88.440 Y188.200 F1000
G0 Z3.0 ; Pen up

G0 X88.700 Y188.200 F3000 ; Travel to line 471
G0 Z0.0 ; Pen down
G1 X127.700 Y168.180 F1000
G1 X127.700 Y168.180 F1000
G1 X88.960 Y188.200 F1000
G0 Z3.0 ; Pen up

G0 X89.220 Y188.200 F3000 ; Travel to line 472
G0 Z0.0 ; Pen down
G1 X127.700 Y168.440 F1000
G0 Z3.0 ; Pen up

G0 X127.700 Y168.960 F3000 ; Travel to line 473
G0 Z0.0 ; Pen down
G1 X90.000 Y188.200 F1000
G0 Z3.0 ; Pen up

G0 X89.740 Y188.200 F3000 ; Travel to line 474
G0 Z0.0 ; Pen down
G1 X127.700 Y168.700 F1000
G1 X127.700 Y168.700 F1000
G1 X89.740 Y188.200 F1000
G0 Z3.0 ; Pen up

G0 X90.260 Y188.200 F3000 ; Travel to line 475
G0 Z0.0 ; Pen down
G1 X127.700 Y169.220 F1000
G1 X127.700 Y169.220 F1000
G1 X90.260 Y188.200 F1000
G0 Z3.0 ; Pen up

G0 X90.780 Y188.200 F3000 ; Travel to line 476
G0 Z0.0 ; Pen down
G1 X127.700 Y169.480 F1000
G0 Z3.0 ; Pen up

G0 X127.700 Y170.260 F3000 ; Travel to line 477
G0 Z0.0 ; Pen down
G1 X92.080 Y188.200 F1000
G1 X92.080 Y188.200 F1000
G1 X127.700 Y170.520 F1000
G1 X127.700 Y170.520 F1000
G1 X92.600 Y188.200 F1000
G0 Z3.0 ; Pen up

G0 X92.860 Y188.200 F3000 ; Travel to line 478
G0 Z0.0 ; Pen down
G1 X127.700 Y170.780 F1000
G1 X127.700 Y170.780 F1000
G1 X92.860 Y188.200 F1000
G0 Z3.0 ; Pen up

G0 X93.380 Y188.200 F3000 ; Travel to line 479
G0 Z0.0 ; Pen down
G1 X127.700 Y171.040 F1000
G0 Z3.0 ; Pen up

G0 X127.700 Y171.300 F3000 ; Travel to line 480
G0 Z0.0 ; Pen down
G1 X93.640 Y188.200 F1000
G0 Z3.0 ; Pen up

G0 X93.900 Y188.200 F3000 ; Travel to line 481
G0 Z0.0 ; Pen down
G1 X127.700 Y171.560 F1000
G1 X127.700 Y171.560 F1000
G1 X94.160 Y188.200 F1000
G0 Z3.0 ; Pen up

G0 X94.420 Y188.200 F3000 ; Travel to line 482
G0 Z0.0 ; Pen down
G1 X127.700 Y171.820 F1000
G1 X127.700 Y171.820 F1000
G1 X94.680 Y188.200 F1000
G1 X94.680 Y188.200 F1000
G1 X127.700 Y172.080 F1000
G1 X127.700 Y172.080 F1000
G1 X95.200 Y188.200 F1000
G0 Z3.0 ; Pen up

G0 X95.460 Y188.200 F3000 ; Travel to line 483
G0 Z0.0 ; Pen down
G1 X127.700 Y172.340 F1000
G1 X127.700 Y172.340 F1000
G1 X95.460 Y188.200 F1000
G0 Z3.0 ; Pen up

G0 X95.980 Y188.200 F3000 ; Travel to line 484
G0 Z0.0 ; Pen down
G1 X127.700 Y172.600 F1000
G0 Z3.0 ; Pen up

G0 X127.700 Y172.860 F3000 ; Travel to line 485
G0 Z0.0 ; Pen down
G1 X96.240 Y188.200 F1000
G0 Z3.0 ; Pen up

G0 X96.500 Y188.200 F3000 ; Travel to line 486
G0 Z0.0 ; Pen down
G1 X127.700 Y173.120 F1000
G1 X127.700 Y173.120 F1000
G1 X96.500 Y188.200 F1000
G0 Z3.0 ; Pen up

G0 X97.020 Y188.200 F3000 ; Travel to line 487
G0 Z0.0 ; Pen down
G1 X127.700 Y173.380 F1000
G1 X127.700 Y173.380 F1000
G1 X97.280 Y188.200 F1000
G1 X97.280 Y188.200 F1000
G1 X127.700 Y173.640 F1000
G0 Z3.0 ; Pen up

G0 X127.700 Y174.420 F3000 ; Travel to line 488
G0 Z0.0 ; Pen down
G1 X98.840 Y188.200 F1000
G0 Z3.0 ; Pen up

G0 X99.100 Y188.200 F3000 ; Travel to line 489
G0 Z0.0 ; Pen down
G1 X127.700 Y174.680 F1000
G1 X127.700 Y174.680 F1000
G1 X99.360 Y188.200 F1000
G0 Z3.0 ; Pen up

G0 X99.620 Y188.200 F3000 ; Travel to line 490
G0 Z0.0 ; Pen down
G1 X127.700 Y174.940 F1000
G1 X127.700 Y174.940 F1000
G1 X99.880 Y188.200 F1000
G0 Z3.0 ; Pen up

G0 X100.400 Y188.200 F3000 ; Travel to line 491
G0 Z0.0 ; Pen down
G1 X127.700 Y175.200 F1000
G1 X127.700 Y175.200 F1000
G1 X100.400 Y188.200 F1000
G0 Z3.0 ; Pen up

G0 X100.660 Y188.200 F3000 ; Travel to line 492
G0 Z0.0 ; Pen down
G1 X127.700 Y175.460 F1000
G0 Z3.0 ; Pen up

G0 X127.700 Y176.500 F3000 ; Travel to line 493
G0 Z0.0 ; Pen down
G1 X102.480 Y188.200 F1000
G0 Z3.0 ; Pen up

G0 X102.220 Y188.200 F3000 ; Travel to line 494
G0 Z0.0 ; Pen down
G1 X127.700 Y176.240 F1000
G1 X127.700 Y176.240 F1000
G1 X101.960 Y188.200 F1000
G1 X101.960 Y188.200 F1000
G1 X127.700 Y175.980 F1000
G1 X127.700 Y175.980 F1000
G1 X101.440 Y188.200 F1000
G0 Z3.0 ; Pen up

G0 X101.180 Y188.200 F3000 ; Travel to line 495
G0 Z0.0 ; Pen down
G1 X127.700 Y175.720 F1000
G1 X127.700 Y175.720 F1000
G1 X101.180 Y188.200 F1000
G0 Z3.0 ; Pen up

G0 X103.000 Y188.200 F3000 ; Travel to line 496
G0 Z0.0 ; Pen down
G1 X127.700 Y176.760 F1000
G1 X127.700 Y176.760 F1000
G1 X103.000 Y188.200 F1000
G0 Z3.0 ; Pen up

G0 X103.260 Y188.200 F3000 ; Travel to line 497
G0 Z0.0 ; Pen down
G1 X127.700 Y177.020 F1000
G0 Z3.0 ; Pen up

G0 X127.700 Y177.280 F3000 ; Travel to line 498
G0 Z0.0 ; Pen down
G1 X103.780 Y188.200 F1000
G1 X103.780 Y188.200 F1000
G1 X127.700 Y177.280 F1000
G1 X127.700 Y177.280 F1000
G1 X104.300 Y188.200 F1000
G0 Z3.0 ; Pen up

G0 X104.560 Y188.200 F3000 ; Travel to line 499
G0 Z0.0 ; Pen down
G1 X127.700 Y177.540 F1000
G0 Z3.0 ; Pen up

G0 X127.700 Y178.060 F3000 ; Travel to line 500
G0 Z0.0 ; Pen down
G1 X105.340 Y188.200 F1000
G0 Z3.0 ; Pen up

G0 X105.600 Y188.200 F3000 ; Travel to line 501
G0 Z0.0 ; Pen down
G1 X127.700 Y178.320 F1000
G0 Z3.0 ; Pen up

G0 X127.700 Y178.840 F3000 ; Travel to line 502
G0 Z0.0 ; Pen down
G1 X106.900 Y188.200 F1000
G0 Z3.0 ; Pen up

G0 X107.160 Y188.200 F3000 ; Travel to line 503
G0 Z0.0 ; Pen down
G1 X127.700 Y179.100 F1000
G1 X127.700 Y179.100 F1000
G1 X107.680 Y188.200 F1000
G1 X107.680 Y188.200 F1000
G1 X127.700 Y179.360 F1000
G1 X127.700 Y179.360 F1000
G1 X107.940 Y188.200 F1000
G0 Z3.0 ; Pen up

G0 X108.460 Y188.200 F3000 ; Travel to line 504
G0 Z0.0 ; Pen down
G1 X127.700 Y179.620 F1000
G1 X127.700 Y179.620 F1000
G1 X108.460 Y188.200 F1000
G0 Z3.0 ; Pen up

G0 X108.980 Y188.200 F3000 ; Travel to line 505
G0 Z0.0 ; Pen down
G1 X127.700 Y179.880 F1000
G0 Z3.0 ; Pen up

G0 X127.700 Y180.140 F3000 ; Travel to line 506
G0 Z0.0 ; Pen down
G1 X109.240 Y188.200 F1000
G0 Z3.0 ; Pen up

G0 X109.500 Y188.200 F3000 ; Travel to line 507
G0 Z0.0 ; Pen down
G1 X127.700 Y180.140 F1000
G1 X127.700 Y180.140 F1000
G1 X109.760 Y188.200 F1000
G0 Z3.0 ; Pen up

G0 X110.020 Y188.200 F3000 ; Travel to line 508
G0 Z0.0 ; Pen down
G1 X127.700 Y180.400 F1000
G0 Z3.0 ; Pen up

G0 X127.700 Y180.920 F3000 ; Travel to line 509
G0 Z0.0 ; Pen down
G1 X110.800 Y188.200 F1000
G0 Z3.0 ; Pen up

G0 X110.540 Y188.200 F3000 ; Travel to line 510
G0 Z0.0 ; Pen down
G1 X127.700 Y180.660 F1000
G1 X127.700 Y180.660 F1000
G1 X110.280 Y188.200 F1000
G0 Z3.0 ; Pen up

G0 X111.060 Y188.200 F3000 ; Travel to line 511
G0 Z0.0 ; Pen down
G1 X127.700 Y180.920 F1000
G1 X127.700 Y180.920 F1000
G1 X111.320 Y188.200 F1000
G0 Z3.0 ; Pen up

G0 X111.580 Y188.200 F3000 ; Travel to line 512
G0 Z0.0 ; Pen down
G1 X127.700 Y181.180 F1000
G0 Z3.0 ; Pen up

G0 X127.700 Y181.440 F3000 ; Travel to line 513
G0 Z0.0 ; Pen down
G1 X111.840 Y188.200 F1000
G0 Z3.0 ; Pen up

G0 X112.880 Y188.200 F3000 ; Travel to line 514
G0 Z0.0 ; Pen down
G1 X127.700 Y181.700 F1000
G1 X127.700 Y181.700 F1000
G1 X112.360 Y188.200 F1000
G1 X112.360 Y188.200 F1000
G1 X127.700 Y181.700 F1000
G0 Z3.0 ; Pen up

G0 X127.700 Y182.220 F3000 ; Travel to line 515
G0 Z0.0 ; Pen down
G1 X113.660 Y188.200 F1000
G0 Z3.0 ; Pen up

G0 X113.920 Y188.200 F3000 ; Travel to line 516
G0 Z0.0 ; Pen down
G1 X127.700 Y182.480 F1000
G0 Z3.0 ; Pen up

G0 X127.700 Y182.740 F3000 ; Travel to line 517
G0 Z0.0 ; Pen down
G1 X114.700 Y188.200 F1000
G0 Z3.0 ; Pen up

G0 X114.440 Y188.200 F3000 ; Travel to line 518
G0 Z0.0 ; Pen down
G1 X127.700 Y182.480 F1000
G1 X127.700 Y182.480 F1000
G1 X114.440 Y188.200 F1000
G0 Z3.0 ; Pen up

G0 X115.220 Y188.200 F3000 ; Travel to line 519
G0 Z0.0 ; Pen down
G1 X127.700 Y183.000 F1000
G1 X127.700 Y183.000 F1000
G1 X115.220 Y188.200 F1000
G0 Z3.0 ; Pen up

G0 X115.740 Y188.200 F3000 ; Travel to line 520
G0 Z0.0 ; Pen down
G1 X127.700 Y183.260 F1000
G1 X127.700 Y183.260 F1000
G1 X116.000 Y188.200 F1000
G0 Z3.0 ; Pen up

G0 X116.520 Y188.200 F3000 ; Travel to line 521
G0 Z0.0 ; Pen down
G1 X127.700 Y183.520 F1000
G1 X127.700 Y183.520 F1000
G1 X116.520 Y188.200 F1000
G0 Z3.0 ; Pen up

G0 X116.780 Y188.200 F3000 ; Travel to line 522
G0 Z0.0 ; Pen down
G1 X127.700 Y183.780 F1000
G1 X127.700 Y183.780 F1000
G1 X117.300 Y188.200 F1000
G1 X117.300 Y188.200 F1000
G1 X127.700 Y184.040 F1000
G1 X127.700 Y184.040 F1000
G1 X117.560 Y188.200 F1000
G0 Z3.0 ; Pen up

G0 X118.080 Y188.200 F3000 ; Travel to line 523
G0 Z0.0 ; Pen down
G1 X127.700 Y184.300 F1000
G1 X127.700 Y184.300 F1000
G1 X118.080 Y188.200 F1000
G0 Z3.0 ; Pen up

G0 X118.600 Y188.200 F3000 ; Travel to line 524
G0 Z0.0 ; Pen down
G1 X127.700 Y184.560 F1000
G1 X127.700 Y184.560 F1000
G1 X118.860 Y188.200 F1000
G0 Z3.0 ; Pen up

G0 X119.380 Y188.200 F3000 ; Travel to line 525
G0 Z0.0 ; Pen down
G1 X127.700 Y184.820 F1000
G1 X127.700 Y184.820 F1000
G1 X119.380 Y188.200 F1000
G0 Z3.0 ; Pen up

G0 X119.640 Y188.200 F3000 ; Travel to line 526
G0 Z0.0 ; Pen down
G1 X127.700 Y185.080 F1000
G0 Z3.0 ; Pen up

G0 X127.700 Y185.340 F3000 ; Travel to line 527
G0 Z0.0 ; Pen down
G1 X120.680 Y188.200 F1000
G0 Z3.0 ; Pen up

G0 X120.940 Y188.200 F3000 ; Travel to line 528
G0 Z0.0 ; Pen down
G1 X127.700 Y185.600 F1000
G1 X127.700 Y185.600 F1000
G1 X121.460 Y188.200 F1000
G1 X121.460 Y188.200 F1000
G1 X127.700 Y185.860 F1000
G1 X127.700 Y185.860 F1000
G1 X121.720 Y188.200 F1000
G0 Z3.0 ; Pen up

G0 X122.760 Y188.200 F3000 ; Travel to line 529
G0 Z0.0 ; Pen down
G1 X127.700 Y186.120 F1000
G1 X127.700 Y186.120 F1000
G1 X122.240 Y188.200 F1000
G1 X122.240 Y188.200 F1000
G1 X127.700 Y186.120 F1000
G0 Z3.0 ; Pen up

G0 X127.700 Y186.640 F3000 ; Travel to line 530
G0 Z0.0 ; Pen down
G1 X123.540 Y188.200 F1000
G0 Z3.0 ; Pen up

G0 X124.060 Y188.200 F3000 ; Travel to line 531
G0 Z0.0 ; Pen down
G1 X127.700 Y186.900 F1000
G0 Z3.0 ; Pen up

G0 X127.700 Y187.160 F3000 ; Travel to line 532
G0 Z0.0 ; Pen down
G1 X124.840 Y188.200 F1000
G0 Z3.0 ; Pen up

G0 X125.100 Y188.200 F3000 ; Travel to line 533
G0 Z0.0 ; Pen down
G1 X127.700 Y187.420 F1000
G0 Z3.0 ; Pen up

G0 X127.700 Y187.680 F3000 ; Travel to line 534
G0 Z0.0 ; Pen down
G1 X126.140 Y188.200 F1000
G0 Z3.0 ; Pen up

G0 X126.400 Y188.200 F3000 ; Travel to line 535
G0 Z0.0 ; Pen down
G1 X127.700 Y187.940 F1000
G0 Z3.0 ; Pen up

G0 X127.440 Y188.200 F3000 ; Travel to line 536
G0 Z0.0 ; Pen down
G1 X127.700 Y188.200 F1000
G1 X127.700 Y188.200 F1000
G1 X127.440 Y188.200 F1000
G0 Z3.0 ; Pen up

G0 X126.920 Y188.200 F3000 ; Travel to line 537
G0 Z0.0 ; Pen down
G1 X127.700 Y187.940 F1000
G1 X127.700 Y187.940 F1000
G1 X126.660 Y188.200 F1000
G0 Z3.0 ; Pen up

G0 X125.620 Y188.200 F3000 ; Travel to line 538
G0 Z0.0 ; Pen down
G1 X127.700 Y187.420 F1000
G1 X127.700 Y187.420 F1000
G1 X125.360 Y188.200 F1000
G0 Z3.0 ; Pen up

G0 X124.320 Y188.200 F3000 ; Travel to line 539
G0 Z0.0 ; Pen down
G1 X127.700 Y186.900 F1000
G1 X127.700 Y186.900 F1000
G1 X124.320 Y188.200 F1000
G0 Z3.0 ; Pen up

G0 X123.020 Y188.200 F3000 ; Travel to line 540
G0 Z0.0 ; Pen down
G1 X127.700 Y186.380 F1000
G1 X127.700 Y186.380 F1000
G1 X123.020 Y188.200 F1000
G0 Z3.0 ; Pen up

G0 X120.160 Y188.200 F3000 ; Travel to line 541
G0 Z0.0 ; Pen down
G1 X127.700 Y185.080 F1000
G1 X127.700 Y185.080 F1000
G1 X120.160 Y188.200 F1000
G0 Z3.0 ; Pen up

G0 X113.140 Y188.200 F3000 ; Travel to line 542
G0 Z0.0 ; Pen down
G1 X127.700 Y181.960 F1000
G1 X127.700 Y181.960 F1000
G1 X113.140 Y188.200 F1000
G0 Z3.0 ; Pen up

G0 X106.380 Y188.200 F3000 ; Travel to line 543
G0 Z0.0 ; Pen down
G1 X127.700 Y178.580 F1000
G1 X127.700 Y178.580 F1000
G1 X106.380 Y188.200 F1000
G0 Z3.0 ; Pen up

G0 X106.120 Y188.200 F3000 ; Travel to line 544
G0 Z0.0 ; Pen down
G1 X127.700 Y178.320 F1000
G1 X127.700 Y178.320 F1000
G1 X105.860 Y188.200 F1000
G0 Z3.0 ; Pen up

G0 X105.080 Y188.200 F3000 ; Travel to line 545
G0 Z0.0 ; Pen down
G1 X127.700 Y177.800 F1000
G1 X127.700 Y177.800 F1000
G1 X104.820 Y188.200 F1000
G0 Z3.0 ; Pen up

G0 X98.580 Y188.200 F3000 ; Travel to line 546
G0 Z0.0 ; Pen down
G1 X127.700 Y174.160 F1000
G1 X127.700 Y174.160 F1000
G1 X98.320 Y188.200 F1000
G0 Z3.0 ; Pen up

G0 X98.060 Y188.200 F3000 ; Travel to line 547
G0 Z0.0 ; Pen down
G1 X127.700 Y173.900 F1000
G1 X127.700 Y173.900 F1000
G1 X97.800 Y188.200 F1000
G0 Z3.0 ; Pen up

G0 X91.820 Y188.200 F3000 ; Travel to line 548
G0 Z0.0 ; Pen down
G1 X127.700 Y170.000 F1000
G1 X127.700 Y170.000 F1000
G1 X91.560 Y188.200 F1000
G0 Z3.0 ; Pen up

G0 X91.040 Y188.200 F3000 ; Travel to line 549
G0 Z0.0 ; Pen down
G1 X127.700 Y169.740 F1000
G1 X127.700 Y169.740 F1000
G1 X91.040 Y188.200 F1000
G0 Z3.0 ; Pen up

G0 X85.060 Y188.200 F3000 ; Travel to line 550
G0 Z0.0 ; Pen down
G1 X127.700 Y165.580 F1000
G1 X127.700 Y165.580 F1000
G1 X85.060 Y188.200 F1000
G0 Z3.0 ; Pen up

G0 X83.240 Y188.200 F3000 ; Travel to line 551
G0 Z0.0 ; Pen down
G1 X127.700 Y164.280 F1000
G1 X127.700 Y164.280 F1000
G1 X82.980 Y188.200 F1000
G0 Z3.0 ; Pen up

G0 X82.460 Y188.200 F3000 ; Travel to line 552
G0 Z0.0 ; Pen down
G1 X127.700 Y164.020 F1000
G1 X127.700 Y164.020 F1000
G1 X82.460 Y188.200 F1000
G0 Z3.0 ; Pen up

G0 X82.200 Y188.200 F3000 ; Travel to line 553
G0 Z0.0 ; Pen down
G1 X127.700 Y163.760 F1000
G0 Z3.0 ; Pen up

G0 X127.700 Y163.240 F3000 ; Travel to line 554
G0 Z0.0 ; Pen down
G1 X81.420 Y188.200 F1000
G0 Z3.0 ; Pen up

G0 X81.680 Y188.200 F3000 ; Travel to line 555
G0 Z0.0 ; Pen down
G1 X127.700 Y163.500 F1000
G1 X127.700 Y163.500 F1000
G1 X81.940 Y188.200 F1000
G0 Z3.0 ; Pen up

G0 X81.160 Y188.200 F3000 ; Travel to line 556
G0 Z0.0 ; Pen down
G1 X127.700 Y162.980 F1000
G0 Z3.0 ; Pen up

G0 X127.700 Y162.460 F3000 ; Travel to line 557
G0 Z0.0 ; Pen down
G1 X80.380 Y188.200 F1000
G0 Z3.0 ; Pen up

G0 X80.120 Y188.200 F3000 ; Travel to line 558
G0 Z0.0 ; Pen down
G1 X127.700 Y162.200 F1000
G1 X127.700 Y162.200 F1000
G1 X80.120 Y188.200 F1000
G0 Z3.0 ; Pen up

G0 X80.640 Y188.200 F3000 ; Travel to line 559
G0 Z0.0 ; Pen down
G1 X127.700 Y162.720 F1000
G1 X127.700 Y162.720 F1000
G1 X80.900 Y188.200 F1000
G0 Z3.0 ; Pen up

G0 X68.940 Y188.200 F3000 ; Travel to line 560
G0 Z0.0 ; Pen down
G1 X127.700 Y153.620 F1000
G1 X127.700 Y153.620 F1000
G1 X68.680 Y188.200 F1000
G0 Z3.0 ; Pen up

G0 X66.080 Y188.200 F3000 ; Travel to line 561
G0 Z0.0 ; Pen down
G1 X127.700 Y151.280 F1000
G1 X127.700 Y151.280 F1000
G1 X66.080 Y188.200 F1000
G0 Z3.0 ; Pen up

G0 X62.700 Y188.200 F3000 ; Travel to line 562
G0 Z0.0 ; Pen down
G1 X127.700 Y148.420 F1000
G1 X127.700 Y148.420 F1000
G1 X62.700 Y188.200 F1000
G0 Z3.0 ; Pen up

G0 X57.240 Y188.200 F3000 ; Travel to line 563
G0 Z0.0 ; Pen down
G1 X127.700 Y143.480 F1000
G1 X127.700 Y143.480 F1000
G1 X57.240 Y188.200 F1000
G0 Z3.0 ; Pen up

G0 X54.900 Y188.200 F3000 ; Travel to line 564
G0 Z0.0 ; Pen down
G1 X127.700 Y141.400 F1000
G1 X127.700 Y141.400 F1000
G1 X54.900 Y188.200 F1000
G0 Z3.0 ; Pen up

G0 X50.480 Y188.200 F3000 ; Travel to line 565
G0 Z0.0 ; Pen down
G1 X127.700 Y136.980 F1000
G1 X127.700 Y136.980 F1000
G1 X50.480 Y188.200 F1000
G0 Z3.0 ; Pen up

G0 X45.800 Y188.200 F3000 ; Travel to line 566
G0 Z0.0 ; Pen down
G1 X127.700 Y126.060 F1000
G1 X127.700 Y126.060 F1000
G1 X45.800 Y188.200 F1000
G0 Z3.0 ; Pen up

G0 X45.280 Y188.200 F3000 ; Travel to line 567
G0 Z0.0 ; Pen down
G1 X125.620 Y125.800 F1000
G1 X125.620 Y125.800 F1000
G1 X45.280 Y188.200 F1000
G0 Z3.0 ; Pen up

G0 X42.940 Y188.200 F3000 ; Travel to line 568
G0 Z0.0 ; Pen down
G1 X116.520 Y125.800 F1000
G1 X116.520 Y125.800 F1000
G1 X42.940 Y188.200 F1000
G0 Z3.0 ; Pen up

G0 X41.640 Y188.200 F3000 ; Travel to line 569
G0 Z0.0 ; Pen down
G1 X110.800 Y125.800 F1000
G1 X110.800 Y125.800 F1000
G1 X41.640 Y188.200 F1000
G0 Z3.0 ; Pen up

G0 X41.380 Y188.200 F3000 ; Travel to line 570
G0 Z0.0 ; Pen down
G1 X110.280 Y125.800 F1000
G1 X110.280 Y125.800 F1000
G1 X41.380 Y188.200 F1000
G0 Z3.0 ; Pen up

G0 X41.120 Y188.200 F3000 ; Travel to line 571
G0 Z0.0 ; Pen down
G1 X109.500 Y125.800 F1000
G1 X109.500 Y125.800 F1000
G1 X41.120 Y188.200 F1000
G0 Z3.0 ; Pen up

G0 X39.300 Y187.420 F3000 ; Travel to line 572
G0 Z0.0 ; Pen down
G1 X98.580 Y125.800 F1000
G1 X98.580 Y125.800 F1000
G1 X39.300 Y187.420 F1000
G1 X39.300 Y187.420 F1000
G1 X98.320 Y125.800 F1000
G0 Z3.0 ; Pen up

G0 X98.840 Y125.800 F3000 ; Travel to line 573
G0 Z0.0 ; Pen down
G1 X39.300 Y187.420 F1000
G1 X39.300 Y187.420 F1000
G1 X99.100 Y125.800 F1000
G0 Z3.0 ; Pen up

G0 X97.540 Y125.800 F3000 ; Travel to line 574
G0 Z0.0 ; Pen down
G1 X39.300 Y187.160 F1000
G1 X39.300 Y187.160 F1000
G1 X97.280 Y125.800 F1000
G1 X97.280 Y125.800 F1000
G1 X39.300 Y186.900 F1000
G1 X39.300 Y186.900 F1000
G1 X97.020 Y125.800 F1000
G0 Z3.0 ; Pen up

G0 X96.500 Y125.800 F3000 ; Travel to line 575
G0 Z0.0 ; Pen down
G1 X39.300 Y186.900 F1000
G1 X39.300 Y186.900 F1000
G1 X96.240 Y125.800 F1000
G0 Z3.0 ; Pen up

G0 X95.460 Y125.800 F3000 ; Travel to line 576
G0 Z0.0 ; Pen down
G1 X39.300 Y186.640 F1000
G1 X39.300 Y186.640 F1000
G1 X95.720 Y125.800 F1000
G1 X95.720 Y125.800 F1000
G1 X39.300 Y186.640 F1000
G1 X39.300 Y186.640 F1000
G1 X95.980 Y125.800 F1000
G1 X95.980 Y125.800 F1000
G1 X39.300 Y186.640 F1000
G0 Z3.0 ; Pen up

G0 X39.300 Y186.900 F3000 ; Travel to line 577
G0 Z0.0 ; Pen down
G1 X96.760 Y125.800 F1000
G1 X96.760 Y125.800 F1000
G1 X39.300 Y186.900 F1000
G0 Z3.0 ; Pen up

G0 X39.300 Y187.160 F3000 ; Travel to line 578
G0 Z0.0 ; Pen down
G1 X98.060 Y125.800 F1000
G1 X98.060 Y125.800 F1000
G1 X39.300 Y187.160 F1000
G1 X39.300 Y187.160 F1000
G1 X97.800 Y125.800 F1000
G1 X97.800 Y125.800 F1000
G1 X39.300 Y187.160 F1000
G0 Z3.0 ; Pen up

G0 X39.300 Y186.380 F3000 ; Travel to line 579
G0 Z0.0 ; Pen down
G1 X95.200 Y125.800 F1000
G1 X95.200 Y125.800 F1000
G1 X39.300 Y186.380 F1000
G1 X39.300 Y186.380 F1000
G1 X94.680 Y125.800 F1000
G1 X94.680 Y125.800 F1000
G1 X39.300 Y186.380 F1000
G1 X39.300 Y186.380 F1000
G1 X94.940 Y125.800 F1000
G0 Z3.0 ; Pen up

G0 X94.160 Y125.800 F3000 ; Travel to line 580
G0 Z0.0 ; Pen down
G1 X39.300 Y186.120 F1000
G1 X39.300 Y186.120 F1000
G1 X93.900 Y125.800 F1000
G0 Z3.0 ; Pen up

G0 X93.120 Y125.800 F3000 ; Travel to line 581
G0 Z0.0 ; Pen down
G1 X39.300 Y185.860 F1000
G1 X39.300 Y185.860 F1000
G1 X92.860 Y125.800 F1000
G1 X92.860 Y125.800 F1000
G1 X39.300 Y185.600 F1000
G1 X39.300 Y185.600 F1000
G1 X92.600 Y125.800 F1000
G0 Z3.0 ; Pen up

G0 X91.820 Y125.800 F3000 ; Travel to line 582
G0 Z0.0 ; Pen down
G1 X39.300 Y185.340 F1000
G1 X39.300 Y185.340 F1000
G1 X91.560 Y125.800 F1000
G1 X91.560 Y125.800 F1000
G1 X39.300 Y185.340 F1000
G1 X39.300 Y185.340 F1000
G1 X91.300 Y125.800 F1000
G1 X91.300 Y125.800 F1000
G1 X39.300 Y185.340 F1000
G0 Z3.0 ; Pen up

G0 X39.300 Y185.600 F3000 ; Travel to line 583
G0 Z0.0 ; Pen down
G1 X92.340 Y125.800 F1000
G1 X92.340 Y125.800 F1000
G1 X39.300 Y185.600 F1000
G1 X39.300 Y185.600 F1000
G1 X92.080 Y125.800 F1000
G1 X92.080 Y125.800 F1000
G1 X39.300 Y185.600 F1000
G0 Z3.0 ; Pen up

G0 X39.300 Y185.860 F3000 ; Travel to line 584
G0 Z0.0 ; Pen down
G1 X93.380 Y125.800 F1000
G1 X93.380 Y125.800 F1000
G1 X39.300 Y185.860 F1000
G1 X39.300 Y185.860 F1000
G1 X93.640 Y125.800 F1000
G1 X93.640 Y125.800 F1000
G1 X39.300 Y186.120 F1000
G1 X39.300 Y186.120 F1000
G1 X94.420 Y125.800 F1000
G1 X94.420 Y125.800 F1000
G1 X39.300 Y186.120 F1000
G0 Z3.0 ; Pen up

G0 X39.300 Y185.080 F3000 ; Travel to line 585
G0 Z0.0 ; Pen down
G1 X90.520 Y125.800 F1000
G1 X90.520 Y125.800 F1000
G1 X39.300 Y185.080 F1000
G1 X39.300 Y185.080 F1000
G1 X90.520 Y125.800 F1000
G0 Z3.0 ; Pen up

G0 X90.260 Y125.800 F3000 ; Travel to line 586
G0 Z0.0 ; Pen down
G1 X39.300 Y184.820 F1000
G1 X39.300 Y184.820 F1000
G1 X90.000 Y125.800 F1000
G1 X90.000 Y125.800 F1000
G1 X39.300 Y184.820 F1000
G1 X39.300 Y184.820 F1000
G1 X89.740 Y125.800 F1000
G1 X89.740 Y125.800 F1000
G1 X39.300 Y184.820 F1000
G0 Z3.0 ; Pen up

G0 X39.300 Y184.560 F3000 ; Travel to line 587
G0 Z0.0 ; Pen down
G1 X88.960 Y125.800 F1000
G1 X88.960 Y125.800 F1000
G1 X39.300 Y184.560 F1000
G0 Z3.0 ; Pen up

G0 X39.300 Y184.300 F3000 ; Travel to line 588
G0 Z0.0 ; Pen down
G1 X88.440 Y125.800 F1000
G1 X88.440 Y125.800 F1000
G1 X39.300 Y184.300 F1000
G1 X39.300 Y184.300 F1000
G1 X88.180 Y125.800 F1000
G0 Z3.0 ; Pen up

G0 X88.700 Y125.800 F3000 ; Travel to line 589
G0 Z0.0 ; Pen down
G1 X39.300 Y184.300 F1000
G1 X39.300 Y184.300 F1000
G1 X88.960 Y125.800 F1000
G0 Z3.0 ; Pen up

G0 X89.220 Y125.800 F3000 ; Travel to line 590
G0 Z0.0 ; Pen down
G1 X39.300 Y184.560 F1000
G1 X39.300 Y184.560 F1000
G1 X89.480 Y125.800 F1000
G0 Z3.0 ; Pen up

G0 X90.780 Y125.800 F3000 ; Travel to line 591
G0 Z0.0 ; Pen down
G1 X39.300 Y185.080 F1000
G1 X39.300 Y185.080 F1000
G1 X91.040 Y125.800 F1000
G0 Z3.0 ; Pen up

G0 X87.140 Y125.800 F3000 ; Travel to line 592
G0 Z0.0 ; Pen down
G1 X39.300 Y183.780 F1000
G1 X39.300 Y183.780 F1000
G1 X86.880 Y125.800 F1000
G1 X86.880 Y125.800 F1000
G1 X39.300 Y183.780 F1000
G1 X39.300 Y183.780 F1000
G1 X86.620 Y125.800 F1000
G0 Z3.0 ; Pen up

G0 X86.360 Y125.800 F3000 ; Travel to line 593
G0 Z0.0 ; Pen down
G1 X39.300 Y183.520 F1000
G1 X39.300 Y183.520 F1000
G1 X86.100 Y125.800 F1000
G0 Z3.0 ; Pen up

G0 X85.580 Y125.800 F3000 ; Travel to line 594
G0 Z0.0 ; Pen down
G1 X39.300 Y183.260 F1000
G1 X39.300 Y183.260 F1000
G1 X85.320 Y125.800 F1000
G0 Z3.0 ; Pen up

G0 X85.060 Y125.800 F3000 ; Travel to line 595
G0 Z0.0 ; Pen down
G1 X39.300 Y183.000 F1000
G1 X39.300 Y183.000 F1000
G1 X84.800 Y125.800 F1000
G1 X84.800 Y125.800 F1000
G1 X39.300 Y183.000 F1000
G1 X39.300 Y183.000 F1000
G1 X85.320 Y125.800 F1000
G1 X85.320 Y125.800 F1000
G1 X39.300 Y183.260 F1000
G1 X39.300 Y183.260 F1000
G1 X85.840 Y125.800 F1000
G1 X85.840 Y125.800 F1000
G1 X39.300 Y183.260 F1000
G0 Z3.0 ; Pen up

G0 X39.300 Y183.520 F3000 ; Travel to line 596
G0 Z0.0 ; Pen down
G1 X86.360 Y125.800 F1000
G1 X86.360 Y125.800 F1000
G1 X39.300 Y183.520 F1000
G0 Z3.0 ; Pen up

G0 X39.300 Y183.780 F3000 ; Travel to line 597
G0 Z0.0 ; Pen down
G1 X87.400 Y125.800 F1000
G1 X87.400 Y125.800 F1000
G1 X39.300 Y184.040 F1000
G1 X39.300 Y184.040 F1000
G1 X87.660 Y125.800 F1000
G1 X87.660 Y125.800 F1000
G1 X39.300 Y184.040 F1000
G1 X39.300 Y184.040 F1000
G1 X87.920 Y125.800 F1000
G1 X87.920 Y125.800 F1000
G1 X39.300 Y184.040 F1000
G0 Z3.0 ; Pen up

G0 X39.300 Y182.740 F3000 ; Travel to line 598
G0 Z0.0 ; Pen down
G1 X84.280 Y125.800 F1000
G1 X84.280 Y125.800 F1000
G1 X39.300 Y182.740 F1000
G0 Z3.0 ; Pen up

G0 X39.300 Y182.480 F3000 ; Travel to line 599
G0 Z0.0 ; Pen down
G1 X83.500 Y125.800 F1000
G1 X83.500 Y125.800 F1000
G1 X39.300 Y182.480 F1000
G1 X39.300 Y182.480 F1000
G1 X83.760 Y125.800 F1000
G1 X83.760 Y125.800 F1000
G1 X39.300 Y182.480 F1000
G1 X39.300 Y182.480 F1000
G1 X84.020 Y125.800 F1000
G0 Z3.0 ; Pen up

G0 X84.280 Y125.800 F3000 ; Travel to line 600
G0 Z0.0 ; Pen down
G1 X39.300 Y182.740 F1000
G1 X39.300 Y182.740 F1000
G1 X84.540 Y125.800 F1000
G0 Z3.0 ; Pen up

G0 X82.720 Y125.800 F3000 ; Travel to line 601
G0 Z0.0 ; Pen down
G1 X39.300 Y182.220 F1000
G1 X39.300 Y182.220 F1000
G1 X82.980 Y125.800 F1000
G1 X82.980 Y125.800 F1000
G1 X39.300 Y182.220 F1000
G1 X39.300 Y182.220 F1000
G1 X83.240 Y125.800 F1000
G1 X83.240 Y125.800 F1000
G1 X39.300 Y182.220 F1000
G0 Z3.0 ; Pen up

G0 X39.300 Y181.960 F3000 ; Travel to line 602
G0 Z0.0 ; Pen down
G1 X82.460 Y125.800 F1000
G1 X82.460 Y125.800 F1000
G1 X39.300 Y181.960 F1000
G1 X39.300 Y181.960 F1000
G1 X82.200 Y125.800 F1000
G1 X82.200 Y125.800 F1000
G1 X39.300 Y181.960 F1000
G0 Z3.0 ; Pen up

G0 X39.300 Y181.700 F3000 ; Travel to line 603
G0 Z0.0 ; Pen down
G1 X81.940 Y125.800 F1000
G1 X81.940 Y125.800 F1000
G1 X39.300 Y181.700 F1000
G1 X39.300 Y181.700 F1000
G1 X81.680 Y125.800 F1000
G1 X81.680 Y125.800 F1000
G1 X39.300 Y181.700 F1000
G0 Z3.0 ; Pen up

G0 X39.300 Y181.440 F3000 ; Travel to line 604
G0 Z0.0 ; Pen down
G1 X81.420 Y125.800 F1000
G1 X81.420 Y125.800 F1000
G1 X39.300 Y181.440 F1000
G1 X39.300 Y181.440 F1000
G1 X81.160 Y125.800 F1000
G1 X81.160 Y125.800 F1000
G1 X39.300 Y181.440 F1000
G0 Z3.0 ; Pen up

G0 X39.300 Y181.180 F3000 ; Travel to line 605
G0 Z0.0 ; Pen down
G1 X80.380 Y125.800 F1000
G1 X80.380 Y125.800 F1000
G1 X39.300 Y181.180 F1000
G1 X39.300 Y181.180 F1000
G1 X80.640 Y125.800 F1000
G1 X80.640 Y125.800 F1000
G1 X39.300 Y181.180 F1000
G1 X39.300 Y181.180 F1000
G1 X80.900 Y125.800 F1000
G0 Z3.0 ; Pen up

G0 X79.340 Y125.800 F3000 ; Travel to line 606
G0 Z0.0 ; Pen down
G1 X39.300 Y180.660 F1000
G1 X39.300 Y180.660 F1000
G1 X79.080 Y125.800 F1000
G1 X79.080 Y125.800 F1000
G1 X39.300 Y180.400 F1000
G1 X39.300 Y180.400 F1000
G1 X78.820 Y125.800 F1000
G1 X78.820 Y125.800 F1000
G1 X39.300 Y180.400 F1000
G0 Z3.0 ; Pen up

G0 X39.300 Y180.660 F3000 ; Travel to line 607
G0 Z0.0 ; Pen down
G1 X79.600 Y125.800 F1000
G1 X79.600 Y125.800 F1000
G1 X39.300 Y180.660 F1000
G0 Z3.0 ; Pen up

G0 X39.300 Y180.920 F3000 ; Travel to line 608
G0 Z0.0 ; Pen down
G1 X80.120 Y125.800 F1000
G1 X80.120 Y125.800 F1000
G1 X39.300 Y180.920 F1000
G1 X39.300 Y180.920 F1000
G1 X79.860 Y125.800 F1000
G1 X79.860 Y125.800 F1000
G1 X39.300 Y180.920 F1000
G0 Z3.0 ; Pen up

G0 X39.300 Y180.140 F3000 ; Travel to line 609
G0 Z0.0 ; Pen down
G1 X78.560 Y125.800 F1000
G1 X78.560 Y125.800 F1000
G1 X39.300 Y180.140 F1000
G1 X39.300 Y180.140 F1000
G1 X78.040 Y125.800 F1000
G1 X78.040 Y125.800 F1000
G1 X39.300 Y179.880 F1000
G1 X39.300 Y179.880 F1000
G1 X77.780 Y125.800 F1000
G1 X77.780 Y125.800 F1000
G1 X39.300 Y179.880 F1000
G1 X39.300 Y179.880 F1000
G1 X77.520 Y125.800 F1000
G1 X77.520 Y125.800 F1000
G1 X39.300 Y179.620 F1000
G1 X39.300 Y179.620 F1000
G1 X77.260 Y125.800 F1000
G1 X77.260 Y125.800 F1000
G1 X39.300 Y179.620 F1000
G1 X39.300 Y179.620 F1000
G1 X77.000 Y125.800 F1000
G1 X77.000 Y125.800 F1000
G1 X39.300 Y179.360 F1000
G1 X39.300 Y179.360 F1000
G1 X76.740 Y125.800 F1000
G1 X76.740 Y125.800 F1000
G1 X39.300 Y179.360 F1000
G1 X39.300 Y179.360 F1000
G1 X76.480 Y125.800 F1000
G1 X76.480 Y125.800 F1000
G1 X39.300 Y179.100 F1000
G1 X39.300 Y179.100 F1000
G1 X76.220 Y125.800 F1000
G1 X76.220 Y125.800 F1000
G1 X39.300 Y179.100 F1000
G0 Z3.0 ; Pen up

G0 X39.300 Y178.840 F3000 ; Travel to line 610
G0 Z0.0 ; Pen down
G1 X75.960 Y125.800 F1000
G1 X75.960 Y125.800 F1000
G1 X39.300 Y178.840 F1000
G1 X39.300 Y178.840 F1000
G1 X75.700 Y125.800 F1000
G1 X75.700 Y125.800 F1000
G1 X39.300 Y178.840 F1000
G1 X39.300 Y178.840 F1000
G1 X75.440 Y125.800 F1000
G1 X75.440 Y125.800 F1000
G1 X39.300 Y178.580 F1000
G1 X39.300 Y178.580 F1000
G1 X75.180 Y125.800 F1000
G1 X75.180 Y125.800 F1000
G1 X39.300 Y178.580 F1000
G0 Z3.0 ; Pen up

G0 X39.300 Y178.320 F3000 ; Travel to line 611
G0 Z0.0 ; Pen down
G1 X74.920 Y125.800 F1000
G1 X74.920 Y125.800 F1000
G1 X39.300 Y178.320 F1000
G1 X39.300 Y178.320 F1000
G1 X74.660 Y125.800 F1000
G1 X74.660 Y125.800 F1000
G1 X39.300 Y178.320 F1000
G0 Z3.0 ; Pen up

G0 X39.300 Y178.060 F3000 ; Travel to line 612
G0 Z0.0 ; Pen down
G1 X74.400 Y125.800 F1000
G1 X74.400 Y125.800 F1000
G1 X39.300 Y178.060 F1000
G1 X39.300 Y178.060 F1000
G1 X74.140 Y125.800 F1000
G1 X74.140 Y125.800 F1000
G1 X39.300 Y178.060 F1000
G0 Z3.0 ; Pen up

G0 X39.300 Y177.800 F3000 ; Travel to line 613
G0 Z0.0 ; Pen down
G1 X73.880 Y125.800 F1000
G1 X73.880 Y125.800 F1000
G1 X39.300 Y177.800 F1000
G1 X39.300 Y177.800 F1000
G1 X73.880 Y125.800 F1000
G0 Z3.0 ; Pen up

G0 X73.620 Y125.800 F3000 ; Travel to line 614
G0 Z0.0 ; Pen down
G1 X39.300 Y177.540 F1000
G0 Z3.0 ; Pen up

G0 X39.300 Y177.020 F3000 ; Travel to line 615
G0 Z0.0 ; Pen down
G1 X73.360 Y125.800 F1000
G0 Z3.0 ; Pen up

G0 X73.100 Y125.800 F3000 ; Travel to line 616
G0 Z0.0 ; Pen down
G1 X39.300 Y176.760 F1000
G1 X39.300 Y176.760 F1000
G1 X72.840 Y125.800 F1000
G0 Z3.0 ; Pen up

G0 X72.580 Y125.800 F3000 ; Travel to line 617
G0 Z0.0 ; Pen down
G1 X39.300 Y176.500 F1000
G0 Z3.0 ; Pen up

G0 X39.300 Y176.240 F3000 ; Travel to line 618
G0 Z0.0 ; Pen down
G1 X72.320 Y125.800 F1000
G1 X72.320 Y125.800 F1000
G1 X39.300 Y176.240 F1000
G0 Z3.0 ; Pen up

G0 X39.300 Y175.980 F3000 ; Travel to line 619
G0 Z0.0 ; Pen down
G1 X72.060 Y125.800 F1000
G0 Z3.0 ; Pen up

G0 X71.540 Y125.800 F3000 ; Travel to line 620
G0 Z0.0 ; Pen down
G1 X39.300 Y175.200 F1000
G0 Z3.0 ; Pen up

G0 X39.300 Y175.460 F3000 ; Travel to line 621
G0 Z0.0 ; Pen down
G1 X71.800 Y125.800 F1000
G1 X71.800 Y125.800 F1000
G1 X39.300 Y175.460 F1000
G0 Z3.0 ; Pen up

G0 X39.300 Y174.940 F3000 ; Travel to line 622
G0 Z0.0 ; Pen down
G1 X71.280 Y125.800 F1000
G0 Z3.0 ; Pen up

G0 X70.760 Y125.800 F3000 ; Travel to line 623
G0 Z0.0 ; Pen down
G1 X39.300 Y174.160 F1000
G0 Z3.0 ; Pen up

G0 X39.300 Y173.900 F3000 ; Travel to line 624
G0 Z0.0 ; Pen down
G1 X70.500 Y125.800 F1000
G1 X70.500 Y125.800 F1000
G1 X39.300 Y173.900 F1000
G0 Z3.0 ; Pen up

G0 X39.300 Y173.640 F3000 ; Travel to line 625
G0 Z0.0 ; Pen down
G1 X70.240 Y125.800 F1000
G0 Z3.0 ; Pen up

G0 X69.980 Y125.800 F3000 ; Travel to line 626
G0 Z0.0 ; Pen down
G1 X39.300 Y173.380 F1000
G0 Z3.0 ; Pen up

G0 X39.300 Y172.860 F3000 ; Travel to line 627
G0 Z0.0 ; Pen down
G1 X69.720 Y125.800 F1000
G1 X69.720 Y125.800 F1000
G1 X39.300 Y172.860 F1000
G0 Z3.0 ; Pen up

G0 X39.300 Y172.600 F3000 ; Travel to line 628
G0 Z0.0 ; Pen down
G1 X69.460 Y125.800 F1000
G0 Z3.0 ; Pen up

G0 X68.940 Y125.800 F3000 ; Travel to line 629
G0 Z0.0 ; Pen down
G1 X39.300 Y172.080 F1000
G0 Z3.0 ; Pen up

G0 X39.300 Y172.340 F3000 ; Travel to line 630
G0 Z0.0 ; Pen down
G1 X69.200 Y125.800 F1000
G1 X69.200 Y125.800 F1000
G1 X39.300 Y172.340 F1000
G0 Z3.0 ; Pen up

G0 X39.300 Y171.560 F3000 ; Travel to line 631
G0 Z0.0 ; Pen down
G1 X68.680 Y125.800 F1000
G1 X68.680 Y125.800 F1000
G1 X39.300 Y171.560 F1000
G0 Z3.0 ; Pen up

G0 X39.300 Y171.300 F3000 ; Travel to line 632
G0 Z0.0 ; Pen down
G1 X68.420 Y125.800 F1000
G0 Z3.0 ; Pen up

G0 X68.160 Y125.800 F3000 ; Travel to line 633
G0 Z0.0 ; Pen down
G1 X39.300 Y171.040 F1000
G0 Z3.0 ; Pen up

G0 X39.300 Y170.780 F3000 ; Travel to line 634
G0 Z0.0 ; Pen down
G1 X67.900 Y125.800 F1000
G0 Z3.0 ; Pen up

G0 X67.120 Y125.800 F3000 ; Travel to line 635
G0 Z0.0 ; Pen down
G1 X39.300 Y169.740 F1000
G0 Z3.0 ; Pen up

G0 X39.300 Y170.000 F3000 ; Travel to line 636
G0 Z0.0 ; Pen down
G1 X67.380 Y125.800 F1000
G1 X67.380 Y125.800 F1000
G1 X39.300 Y170.000 F1000
G0 Z3.0 ; Pen up

G0 X39.300 Y170.260 F3000 ; Travel to line 637
G0 Z0.0 ; Pen down
G1 X67.640 Y125.800 F1000
G1 X67.640 Y125.800 F1000
G1 X39.300 Y170.520 F1000
G0 Z3.0 ; Pen up

G0 X39.300 Y169.480 F3000 ; Travel to line 638
G0 Z0.0 ; Pen down
G1 X66.860 Y125.800 F1000
G1 X66.860 Y125.800 F1000
G1 X39.300 Y169.220 F1000
G1 X39.300 Y169.220 F1000
G1 X66.860 Y125.800 F1000
G0 Z3.0 ; Pen up

G0 X66.600 Y125.800 F3000 ; Travel to line 639
G0 Z0.0 ; Pen down
G1 X39.300 Y168.960 F1000
G0 Z3.0 ; Pen up

G0 X39.300 Y168.700 F3000 ; Travel to line 640
G0 Z0.0 ; Pen down
G1 X66.340 Y125.800 F1000
G1 X66.340 Y125.800 F1000
G1 X39.300 Y168.700 F1000
G0 Z3.0 ; Pen up

G0 X39.300 Y168.440 F3000 ; Travel to line 641
G0 Z0.0 ; Pen down
G1 X66.080 Y125.800 F1000
G1 X66.080 Y125.800 F1000
G1 X39.300 Y168.180 F1000
G0 Z3.0 ; Pen up

G0 X39.300 Y167.920 F3000 ; Travel to line 642
G0 Z0.0 ; Pen down
G1 X65.820 Y125.800 F1000
G1 X65.820 Y125.800 F1000
G1 X39.300 Y167.920 F1000
G0 Z3.0 ; Pen up

G0 X39.300 Y167.400 F3000 ; Travel to line 643
G0 Z0.0 ; Pen down
G1 X65.560 Y125.800 F1000
G0 Z3.0 ; Pen up

G0 X65.040 Y125.800 F3000 ; Travel to line 644
G0 Z0.0 ; Pen down
G1 X39.300 Y166.620 F1000
G1 X39.300 Y166.620 F1000
G1 X65.040 Y125.800 F1000
G1 X65.040 Y125.800 F1000
G1 X39.300 Y166.880 F1000
G0 Z3.0 ; Pen up

G0 X39.300 Y167.140 F3000 ; Travel to line 645
G0 Z0.0 ; Pen down
G1 X65.300 Y125.800 F1000
G1 X65.300 Y125.800 F1000
G1 X39.300 Y167.140 F1000
G0 Z3.0 ; Pen up

G0 X39.300 Y166.360 F3000 ; Travel to line 646
G0 Z0.0 ; Pen down
G1 X64.780 Y125.800 F1000
G0 Z3.0 ; Pen up

G0 X64.520 Y125.800 F3000 ; Travel to line 647
G0 Z0.0 ; Pen down
G1 X39.300 Y166.100 F1000
G0 Z3.0 ; Pen up

G0 X39.300 Y165.840 F3000 ; Travel to line 648
G0 Z0.0 ; Pen down
G1 X64.260 Y125.800 F1000
G1 X64.260 Y125.800 F1000
G1 X39.300 Y165.840 F1000
G0 Z3.0 ; Pen up

G0 X39.300 Y165.580 F3000 ; Travel to line 649
G0 Z0.0 ; Pen down
G1 X64.260 Y125.800 F1000
G0 Z3.0 ; Pen up

G0 X63.740 Y125.800 F3000 ; Travel to line 650
G0 Z0.0 ; Pen down
G1 X39.300 Y165.060 F1000
G0 Z3.0 ; Pen up

G0 X39.300 Y165.320 F3000 ; Travel to line 651
G0 Z0.0 ; Pen down
G1 X64.000 Y125.800 F1000
G1 X64.000 Y125.800 F1000
G1 X39.300 Y165.320 F1000
G0 Z3.0 ; Pen up

G0 X39.300 Y164.540 F3000 ; Travel to line 652
G0 Z0.0 ; Pen down
G1 X63.480 Y125.800 F1000
G1 X63.480 Y125.800 F1000
G1 X39.300 Y164.280 F1000
G1 X39.300 Y164.280 F1000
G1 X63.480 Y125.800 F1000
G0 Z3.0 ; Pen up

G0 X63.220 Y125.800 F3000 ; Travel to line 653
G0 Z0.0 ; Pen down
G1 X39.300 Y164.020 F1000
G0 Z3.0 ; Pen up

G0 X39.300 Y163.760 F3000 ; Travel to line 654
G0 Z0.0 ; Pen down
G1 X62.960 Y125.800 F1000
G1 X62.960 Y125.800 F1000
G1 X39.300 Y163.760 F1000
G0 Z3.0 ; Pen up

G0 X39.300 Y163.500 F3000 ; Travel to line 655
G0 Z0.0 ; Pen down
G1 X62.700 Y125.800 F1000
G1 X62.700 Y125.800 F1000
G1 X39.300 Y163.240 F1000
G1 X39.300 Y163.240 F1000
G1 X62.700 Y125.800 F1000
G0 Z3.0 ; Pen up

G0 X62.440 Y125.800 F3000 ; Travel to line 656
G0 Z0.0 ; Pen down
G1 X39.300 Y162.980 F1000
G0 Z3.0 ; Pen up

G0 X39.300 Y162.720 F3000 ; Travel to line 657
G0 Z0.0 ; Pen down
G1 X62.180 Y125.800 F1000
G0 Z3.0 ; Pen up

G0 X61.660 Y125.800 F3000 ; Travel to line 658
G0 Z0.0 ; Pen down
G1 X39.300 Y161.680 F1000
G1 X39.300 Y161.680 F1000
G1 X61.660 Y125.800 F1000
G1 X61.660 Y125.800 F1000
G1 X39.300 Y162.200 F1000
G0 Z3.0 ; Pen up

G0 X39.300 Y162.460 F3000 ; Travel to line 659
G0 Z0.0 ; Pen down
G1 X61.920 Y125.800 F1000
G1 X61.920 Y125.800 F1000
G1 X39.300 Y162.460 F1000
G0 Z3.0 ; Pen up

G0 X39.300 Y161.420 F3000 ; Travel to line 660
G0 Z0.0 ; Pen down
G1 X61.400 Y125.800 F1000
G0 Z3.0 ; Pen up

G0 X61.140 Y125.800 F3000 ; Travel to line 661
G0 Z0.0 ; Pen down
G1 X39.300 Y161.160 F1000
G0 Z3.0 ; Pen up

G0 X39.300 Y160.900 F3000 ; Travel to line 662
G0 Z0.0 ; Pen down
G1 X60.880 Y125.800 F1000
G1 X60.880 Y125.800 F1000
G1 X39.300 Y160.900 F1000
G0 Z3.0 ; Pen up

G0 X39.300 Y160.640 F3000 ; Travel to line 663
G0 Z0.0 ; Pen down
G1 X60.880 Y125.800 F1000
G0 Z3.0 ; Pen up

G0 X60.360 Y125.800 F3000 ; Travel to line 664
G0 Z0.0 ; Pen down
G1 X39.300 Y160.120 F1000
G0 Z3.0 ; Pen up

G0 X39.300 Y160.380 F3000 ; Travel to line 665
G0 Z0.0 ; Pen down
G1 X60.620 Y125.800 F1000
G1 X60.620 Y125.800 F1000
G1 X39.300 Y160.380 F1000
G0 Z3.0 ; Pen up

G0 X39.300 Y159.860 F3000 ; Travel to line 666
G0 Z0.0 ; Pen down
G1 X60.100 Y125.800 F1000
G1 X60.100 Y125.800 F1000
G1 X39.300 Y159.860 F1000
G0 Z3.0 ; Pen up

G0 X39.300 Y159.600 F3000 ; Travel to line 667
G0 Z0.0 ; Pen down
G1 X60.100 Y125.800 F1000
G0 Z3.0 ; Pen up

G0 X59.840 Y125.800 F3000 ; Travel to line 668
G0 Z0.0 ; Pen down
G1 X39.300 Y159.080 F1000
G0 Z3.0 ; Pen up

G0 X39.300 Y158.820 F3000 ; Travel to line 669
G0 Z0.0 ; Pen down
G1 X59.580 Y125.800 F1000
G1 X59.580 Y125.800 F1000
G1 X39.300 Y158.820 F1000
G0 Z3.0 ; Pen up

G0 X39.300 Y158.560 F3000 ; Travel to line 670
G0 Z0.0 ; Pen down
G1 X59.320 Y125.800 F1000
G1 X59.320 Y125.800 F1000
G1 X39.300 Y158.300 F1000
G1 X39.300 Y158.300 F1000
G1 X59.320 Y125.800 F1000
G0 Z3.0 ; Pen up

G0 X59.060 Y125.800 F3000 ; Travel to line 671
G0 Z0.0 ; Pen down
G1 X39.300 Y158.040 F1000
G0 Z3.0 ; Pen up

G0 X39.300 Y157.780 F3000 ; Travel to line 672
G0 Z0.0 ; Pen down
G1 X58.800 Y125.800 F1000
G0 Z3.0 ; Pen up

G0 X58.540 Y125.800 F3000 ; Travel to line 673
G0 Z0.0 ; Pen down
G1 X39.300 Y157.260 F1000
G0 Z3.0 ; Pen up

G0 X39.300 Y157.520 F3000 ; Travel to line 674
G0 Z0.0 ; Pen down
G1 X58.540 Y125.800 F1000
G1 X58.540 Y125.800 F1000
