; Blueprint to G-code
; Input: test_images_solid/test_fine_details.png
; Generated with blueprint2gcode.py

G21 ; Set units to millimeters
G90 ; Absolute positioning
G0 Z3.0 ; Pen up
G0 X0 Y0 ; Move to origin

G0 X27.167 Y42.600 F3000 ; Travel to line 1
G0 Z0.0 ; Pen down
G1 X27.167 Y70.333 F1000
G0 Z3.0 ; Pen up

G0 X27.860 Y70.333 F3000 ; Travel to line 2
G0 Z0.0 ; Pen down
G1 X27.860 Y42.600 F1000
G0 Z3.0 ; Pen up

G0 X28.553 Y42.600 F3000 ; Travel to line 3
G0 Z0.0 ; Pen down
G1 X28.553 Y70.333 F1000
G0 Z3.0 ; Pen up

G0 X29.247 Y70.333 F3000 ; Travel to line 4
G0 Z0.0 ; Pen down
G1 X29.247 Y42.600 F1000
G0 Z3.0 ; Pen up

G0 X29.940 Y42.600 F3000 ; Travel to line 5
G0 Z0.0 ; Pen down
G1 X29.940 Y70.333 F1000
G0 Z3.0 ; Pen up

G0 X30.633 Y70.333 F3000 ; Travel to line 6
G0 Z0.0 ; Pen down
G1 X30.633 Y42.600 F1000
G0 Z3.0 ; Pen up

G0 X31.327 Y42.600 F3000 ; Travel to line 7
G0 Z0.0 ; Pen down
G1 X31.327 Y70.333 F1000
G0 Z3.0 ; Pen up

G0 X32.020 Y70.333 F3000 ; Travel to line 8
G0 Z0.0 ; Pen down
G1 X32.020 Y42.600 F1000
G0 Z3.0 ; Pen up

G0 X32.713 Y42.600 F3000 ; Travel to line 9
G0 Z0.0 ; Pen down
G1 X32.713 Y70.333 F1000
G0 Z3.0 ; Pen up

G0 X33.407 Y70.333 F3000 ; Travel to line 10
G0 Z0.0 ; Pen down
G1 X33.407 Y42.600 F1000
G0 Z3.0 ; Pen up

G0 X34.100 Y42.600 F3000 ; Travel to line 11
G0 Z0.0 ; Pen down
G1 X34.100 Y70.333 F1000
G0 Z3.0 ; Pen up

G0 X34.793 Y70.333 F3000 ; Travel to line 12
G0 Z0.0 ; Pen down
G1 X34.793 Y42.600 F1000
G0 Z3.0 ; Pen up

G0 X35.487 Y42.600 F3000 ; Travel to line 13
G0 Z0.0 ; Pen down
G1 X35.487 Y70.333 F1000
G0 Z3.0 ; Pen up

G0 X36.180 Y70.333 F3000 ; Travel to line 14
G0 Z0.0 ; Pen down
G1 X36.180 Y42.600 F1000
G0 Z3.0 ; Pen up

G0 X36.873 Y42.600 F3000 ; Travel to line 15
G0 Z0.0 ; Pen down
G1 X36.873 Y70.333 F1000
G0 Z3.0 ; Pen up

G0 X37.567 Y70.333 F3000 ; Travel to line 16
G0 Z0.0 ; Pen down
G1 X37.567 Y42.600 F1000
G0 Z3.0 ; Pen up

G0 X38.260 Y42.600 F3000 ; Travel to line 17
G0 Z0.0 ; Pen down
G1 X38.260 Y70.333 F1000
G0 Z3.0 ; Pen up

G0 X38.953 Y70.333 F3000 ; Travel to line 18
G0 Z0.0 ; Pen down
G1 X38.953 Y42.600 F1000
G0 Z3.0 ; Pen up

G0 X39.647 Y42.600 F3000 ; Travel to line 19
G0 Z0.0 ; Pen down
G1 X39.647 Y70.333 F1000
G0 Z3.0 ; Pen up

G0 X40.340 Y70.333 F3000 ; Travel to line 20
G0 Z0.0 ; Pen down
G1 X40.340 Y42.600 F1000
G0 Z3.0 ; Pen up

G0 X41.033 Y42.600 F3000 ; Travel to line 21
G0 Z0.0 ; Pen down
G1 X41.033 Y70.333 F1000
G0 Z3.0 ; Pen up

G0 X41.727 Y70.333 F3000 ; Travel to line 22
G0 Z0.0 ; Pen down
G1 X41.727 Y42.600 F1000
G0 Z3.0 ; Pen up

G0 X42.420 Y42.600 F3000 ; Travel to line 23
G0 Z0.0 ; Pen down
G1 X42.420 Y70.333 F1000
G0 Z3.0 ; Pen up

G0 X43.113 Y70.333 F3000 ; Travel to line 24
G0 Z0.0 ; Pen down
G1 X43.113 Y42.600 F1000
G0 Z3.0 ; Pen up

G0 X43.807 Y42.600 F3000 ; Travel to line 25
G0 Z0.0 ; Pen down
G1 X43.807 Y70.333 F1000
G0 Z3.0 ; Pen up

G0 X44.500 Y70.333 F3000 ; Travel to line 26
G0 Z0.0 ; Pen down
G1 X44.500 Y42.600 F1000
G0 Z3.0 ; Pen up

G0 X45.193 Y42.600 F3000 ; Travel to line 27
G0 Z0.0 ; Pen down
G1 X45.193 Y70.333 F1000
G0 Z3.0 ; Pen up

G0 X45.887 Y70.333 F3000 ; Travel to line 28
G0 Z0.0 ; Pen down
G1 X45.887 Y42.600 F1000
G0 Z3.0 ; Pen up

G0 X46.580 Y42.600 F3000 ; Travel to line 29
G0 Z0.0 ; Pen down
G1 X46.580 Y70.333 F1000
G0 Z3.0 ; Pen up

G0 X47.273 Y70.333 F3000 ; Travel to line 30
G0 Z0.0 ; Pen down
G1 X47.273 Y42.600 F1000
G0 Z3.0 ; Pen up

G0 X47.967 Y42.600 F3000 ; Travel to line 31
G0 Z0.0 ; Pen down
G1 X47.967 Y70.333 F1000
G0 Z3.0 ; Pen up

G0 X48.660 Y70.333 F3000 ; Travel to line 32
G0 Z0.0 ; Pen down
G1 X48.660 Y42.600 F1000
G0 Z3.0 ; Pen up

G0 X49.353 Y42.600 F3000 ; Travel to line 33
G0 Z0.0 ; Pen down
G1 X49.353 Y70.333 F1000
G0 Z3.0 ; Pen up

G0 X50.047 Y70.333 F3000 ; Travel to line 34
G0 Z0.0 ; Pen down
G1 X50.047 Y42.600 F1000
G0 Z3.0 ; Pen up

G0 X50.740 Y42.600 F3000 ; Travel to line 35
G0 Z0.0 ; Pen down
G1 X50.740 Y70.333 F1000
G0 Z3.0 ; Pen up

G0 X51.433 Y70.333 F3000 ; Travel to line 36
G0 Z0.0 ; Pen down
G1 X51.433 Y42.600 F1000
G0 Z3.0 ; Pen up

G0 X52.127 Y42.600 F3000 ; Travel to line 37
G0 Z0.0 ; Pen down
G1 X52.127 Y70.333 F1000
G0 Z3.0 ; Pen up

G0 X52.820 Y70.333 F3000 ; Travel to line 38
G0 Z0.0 ; Pen down
G1 X52.820 Y42.600 F1000
G0 Z3.0 ; Pen up

G0 X53.513 Y42.600 F3000 ; Travel to line 39
G0 Z0.0 ; Pen down
G1 X53.513 Y70.333 F1000
G0 Z3.0 ; Pen up

G0 X54.207 Y70.333 F3000 ; Travel to line 40
G0 Z0.0 ; Pen down
G1 X54.207 Y42.600 F1000
G0 Z3.0 ; Pen up

G0 X54.900 Y42.600 F3000 ; Travel to line 41
G0 Z0.0 ; Pen down
G1 X54.900 Y70.333 F1000
G0 Z3.0 ; Pen up

G0 X55.593 Y70.333 F3000 ; Travel to line 42
G0 Z0.0 ; Pen down
G1 X55.593 Y42.600 F1000
G0 Z3.0 ; Pen up

G0 X56.287 Y42.600 F3000 ; Travel to line 43
G0 Z0.0 ; Pen down
G1 X56.287 Y70.333 F1000
G0 Z3.0 ; Pen up

G0 X56.980 Y70.333 F3000 ; Travel to line 44
G0 Z0.0 ; Pen down
G1 X56.980 Y42.600 F1000
G0 Z3.0 ; Pen up

G0 X57.673 Y42.600 F3000 ; Travel to line 45
G0 Z0.0 ; Pen down
G1 X57.673 Y70.333 F1000
G0 Z3.0 ; Pen up

G0 X58.367 Y70.333 F3000 ; Travel to line 46
G0 Z0.0 ; Pen down
G1 X58.367 Y42.600 F1000
G0 Z3.0 ; Pen up

G0 X59.060 Y42.600 F3000 ; Travel to line 47
G0 Z0.0 ; Pen down
G1 X59.060 Y70.333 F1000
G0 Z3.0 ; Pen up

G0 X59.753 Y70.333 F3000 ; Travel to line 48
G0 Z0.0 ; Pen down
G1 X59.753 Y42.600 F1000
G0 Z3.0 ; Pen up

G0 X60.447 Y42.600 F3000 ; Travel to line 49
G0 Z0.0 ; Pen down
G1 X60.447 Y70.333 F1000
G0 Z3.0 ; Pen up

G0 X61.140 Y70.333 F3000 ; Travel to line 50
G0 Z0.0 ; Pen down
G1 X61.140 Y42.600 F1000
G0 Z3.0 ; Pen up

G0 X68.073 Y73.800 F3000 ; Travel to line 51
G0 Z0.0 ; Pen down
G1 X68.420 Y73.453 F1000
G1 X69.113 Y73.453 F1000
G1 X69.460 Y73.800 F1000
G1 X69.460 Y74.147 F1000
G1 X69.113 Y74.493 F1000
G1 X68.420 Y74.493 F1000
G1 X68.073 Y74.147 F1000
G0 Z3.0 ; Pen up

G0 X68.073 Y75.533 F3000 ; Travel to line 52
G0 Z0.0 ; Pen down
G1 X69.113 Y75.533 F1000
G1 X69.460 Y75.187 F1000
G1 X69.460 Y74.840 F1000
G1 X69.113 Y74.493 F1000
G1 X68.420 Y74.493 F1000
G1 X68.073 Y74.147 F1000
G1 X68.073 Y73.453 F1000
G1 X69.460 Y73.453 F1000
G1 X69.460 Y75.187 F1000
G1 X69.113 Y75.533 F1000
G0 Z3.0 ; Pen up

G0 X67.033 Y75.533 F3000 ; Travel to line 53
G0 Z0.0 ; Pen down
G1 X67.380 Y75.187 F1000
G1 X67.380 Y73.800 F1000
G1 X67.033 Y73.453 F1000
G1 X66.340 Y73.453 F1000
G1 X65.993 Y73.800 F1000
G1 X65.647 Y73.453 F1000
G1 X65.647 Y72.413 F1000
G1 X65.647 Y75.187 F1000
G1 X65.993 Y75.187 F1000
G1 X66.340 Y75.533 F1000
G1 X66.340 Y75.533 F1000
G1 X66.687 Y75.533 F1000
G1 X67.380 Y74.840 F1000
G1 X67.380 Y74.147 F1000
G1 X66.687 Y73.453 F1000
G1 X66.340 Y73.453 F1000
G1 X65.647 Y74.147 F1000
G1 X65.647 Y74.840 F1000
G0 Z3.0 ; Pen up

G0 X64.260 Y75.533 F3000 ; Travel to line 54
G0 Z0.0 ; Pen down
G1 X63.567 Y75.533 F1000
G1 X63.220 Y75.187 F1000
G1 X63.220 Y74.840 F1000
G1 X63.567 Y74.493 F1000
G1 X64.260 Y74.493 F1000
G1 X64.260 Y73.453 F1000
G1 X63.220 Y73.453 F1000
G1 X63.913 Y73.453 F1000
G1 X64.260 Y73.800 F1000
G1 X64.260 Y74.147 F1000
G1 X63.913 Y74.493 F1000
G1 X63.567 Y74.493 F1000
G1 X63.220 Y74.840 F1000
G1 X63.220 Y75.533 F1000
G0 Z3.0 ; Pen up

G0 X60.100 Y74.840 F3000 ; Travel to line 55
G0 Z0.0 ; Pen down
G1 X60.100 Y74.147 F1000
G1 X60.100 Y74.493 F1000
G1 X59.753 Y74.840 F1000
G1 X59.753 Y75.187 F1000
G1 X59.407 Y75.533 F1000
G0 Z3.0 ; Pen up

G0 X58.367 Y75.533 F3000 ; Travel to line 56
G0 Z0.0 ; Pen down
G1 X58.713 Y75.187 F1000
G1 X58.713 Y73.800 F1000
G1 X58.367 Y73.453 F1000
G1 X57.673 Y73.453 F1000
G1 X57.327 Y73.800 F1000
G1 X56.980 Y73.453 F1000
G1 X56.980 Y72.413 F1000
G1 X56.980 Y75.187 F1000
G1 X57.327 Y75.187 F1000
G1 X57.673 Y75.533 F1000
G1 X57.673 Y75.533 F1000
G1 X58.020 Y75.533 F1000
G1 X58.713 Y74.840 F1000
G1 X58.713 Y74.147 F1000
G1 X58.020 Y73.453 F1000
G1 X57.673 Y73.453 F1000
G1 X56.980 Y74.147 F1000
G1 X56.980 Y74.840 F1000
G0 Z3.0 ; Pen up

G0 X55.247 Y76.227 F3000 ; Travel to line 57
G0 Z0.0 ; Pen down
G1 X55.593 Y75.880 F1000
G1 X55.593 Y74.840 F1000
G1 X54.553 Y73.800 F1000
G1 X54.900 Y73.453 F1000
G1 X55.593 Y73.453 F1000
G1 X54.553 Y73.453 F1000
G1 X54.553 Y74.147 F1000
G1 X55.593 Y75.187 F1000
G1 X55.593 Y75.880 F1000
G1 X55.247 Y76.227 F1000
G1 X54.553 Y76.227 F1000
G1 X54.207 Y75.880 F1000
G1 X54.553 Y76.227 F1000
G0 Z3.0 ; Pen up

G0 X52.820 Y76.573 F3000 ; Travel to line 58
G0 Z0.0 ; Pen down
G1 X52.820 Y75.880 F1000
G1 X52.473 Y75.533 F1000
G1 X52.473 Y74.147 F1000
G1 X52.820 Y73.800 F1000
G1 X52.820 Y73.107 F1000
G1 X52.820 Y73.800 F1000
G1 X52.473 Y74.147 F1000
G1 X52.473 Y75.533 F1000
G1 X52.820 Y75.880 F1000
G0 Z3.0 ; Pen up

G0 X50.047 Y75.533 F3000 ; Travel to line 59
G0 Z0.0 ; Pen down
G1 X49.353 Y75.533 F1000
G1 X49.007 Y75.187 F1000
G1 X49.007 Y74.840 F1000
G1 X49.353 Y74.493 F1000
G1 X50.047 Y74.493 F1000
G1 X50.047 Y73.453 F1000
G1 X49.007 Y73.453 F1000
G1 X49.700 Y73.453 F1000
G1 X50.047 Y73.800 F1000
G1 X50.047 Y74.147 F1000
G1 X49.700 Y74.493 F1000
G1 X49.353 Y74.493 F1000
G1 X49.007 Y74.840 F1000
G1 X49.007 Y75.533 F1000
G0 Z3.0 ; Pen up

G0 X47.620 Y75.533 F3000 ; Travel to line 60
G0 Z0.0 ; Pen down
G1 X48.313 Y74.840 F1000
G1 X48.313 Y74.493 F1000
G1 X46.927 Y74.493 F1000
G1 X46.580 Y74.147 F1000
G1 X47.273 Y73.453 F1000
G1 X47.967 Y73.453 F1000
G1 X46.927 Y73.453 F1000
G1 X46.580 Y73.800 F1000
G1 X46.580 Y75.187 F1000
G1 X46.927 Y75.533 F1000
G0 Z3.0 ; Pen up

G0 X47.273 Y75.533 F3000 ; Travel to line 61
G0 Z0.0 ; Pen down
G1 X47.620 Y75.533 F1000
G1 X48.313 Y74.840 F1000
G1 X47.967 Y74.493 F1000
G1 X46.927 Y74.493 F1000
G1 X46.580 Y74.840 F1000
G0 Z3.0 ; Pen up

G0 X45.193 Y75.533 F3000 ; Travel to line 62
G0 Z0.0 ; Pen down
G1 X45.540 Y75.187 F1000
G1 X45.540 Y73.800 F1000
G1 X45.193 Y73.453 F1000
G1 X44.500 Y73.453 F1000
G1 X44.153 Y73.800 F1000
G1 X43.807 Y73.453 F1000
G1 X43.807 Y72.413 F1000
G1 X43.807 Y75.187 F1000
G1 X44.153 Y75.187 F1000
G1 X44.500 Y75.533 F1000
G1 X44.500 Y75.533 F1000
G1 X44.847 Y75.533 F1000
G1 X45.540 Y74.840 F1000
G1 X45.540 Y74.147 F1000
G1 X44.847 Y73.453 F1000
G1 X44.500 Y73.453 F1000
G1 X43.807 Y74.147 F1000
G1 X43.807 Y74.840 F1000
G0 Z3.0 ; Pen up

G0 X42.767 Y75.533 F3000 ; Travel to line 63
G0 Z0.0 ; Pen down
G1 X42.767 Y73.453 F1000
G0 Z3.0 ; Pen up

G0 X42.073 Y75.533 F3000 ; Travel to line 64
G0 Z0.0 ; Pen down
G1 X41.727 Y75.533 F1000
G1 X41.033 Y74.840 F1000
G1 X41.033 Y73.453 F1000
G1 X41.033 Y75.187 F1000
G1 X41.380 Y75.187 F1000
G1 X41.727 Y75.533 F1000
G0 Z3.0 ; Pen up

G0 X39.300 Y75.880 F3000 ; Travel to line 65
G0 Z0.0 ; Pen down
G1 X39.647 Y75.533 F1000
G1 X39.993 Y75.533 F1000
G1 X39.647 Y75.533 F1000
G1 X39.300 Y75.187 F1000
G1 X39.300 Y73.800 F1000
G1 X39.647 Y73.453 F1000
G1 X39.993 Y73.453 F1000
G1 X39.647 Y73.453 F1000
G1 X39.300 Y73.800 F1000
G1 X39.300 Y76.227 F1000
G0 Z3.0 ; Pen up

G0 X38.260 Y75.533 F3000 ; Travel to line 66
G0 Z0.0 ; Pen down
G1 X37.567 Y75.533 F1000
G1 X37.220 Y75.187 F1000
G1 X37.220 Y74.840 F1000
G1 X37.567 Y74.493 F1000
G1 X38.260 Y74.493 F1000
G1 X38.260 Y73.453 F1000
G1 X37.220 Y73.453 F1000
G1 X37.913 Y73.453 F1000
G1 X38.260 Y73.800 F1000
G1 X38.260 Y74.147 F1000
G1 X37.913 Y74.493 F1000
G1 X37.567 Y74.493 F1000
G1 X37.220 Y74.840 F1000
G1 X37.220 Y75.533 F1000
G0 Z3.0 ; Pen up

G0 X34.447 Y75.533 F3000 ; Travel to line 67
G0 Z0.0 ; Pen down
G1 X35.140 Y74.840 F1000
G1 X35.140 Y74.493 F1000
G1 X33.753 Y74.493 F1000
G1 X33.407 Y74.147 F1000
G1 X34.100 Y73.453 F1000
G1 X34.793 Y73.453 F1000
G1 X33.753 Y73.453 F1000
G1 X33.407 Y73.800 F1000
G1 X33.407 Y75.187 F1000
G1 X33.753 Y75.533 F1000
G0 Z3.0 ; Pen up

G0 X34.100 Y75.533 F3000 ; Travel to line 68
G0 Z0.0 ; Pen down
G1 X34.447 Y75.533 F1000
G1 X35.140 Y74.840 F1000
G1 X34.793 Y74.493 F1000
G1 X33.753 Y74.493 F1000
G1 X33.407 Y74.840 F1000
G0 Z3.0 ; Pen up

G0 X32.020 Y75.533 F3000 ; Travel to line 69
G0 Z0.0 ; Pen down
G1 X32.020 Y73.800 F1000
G1 X32.020 Y75.187 F1000
G1 X31.673 Y75.533 F1000
G1 X31.327 Y75.533 F1000
G1 X30.633 Y74.840 F1000
G1 X30.633 Y73.453 F1000
G1 X30.633 Y75.187 F1000
G1 X30.980 Y75.187 F1000
G1 X31.327 Y75.533 F1000
G0 Z3.0 ; Pen up

G0 X29.593 Y75.533 F3000 ; Travel to line 70
G0 Z0.0 ; Pen down
G1 X29.593 Y73.453 F1000
G0 Z3.0 ; Pen up

G0 X28.900 Y76.227 F3000 ; Travel to line 71
G0 Z0.0 ; Pen down
G1 X27.860 Y76.227 F1000
G1 X27.513 Y75.880 F1000
G1 X27.513 Y75.187 F1000
G1 X27.860 Y74.840 F1000
G1 X28.900 Y74.840 F1000
G1 X27.860 Y74.840 F1000
G1 X27.513 Y74.493 F1000
G1 X27.513 Y73.453 F1000
G1 X27.513 Y76.227 F1000
G0 Z3.0 ; Pen up

G0 X27.167 Y103.613 F3000 ; Travel to line 72
G0 Z0.0 ; Pen down
G1 X27.513 Y103.267 F1000
G1 X27.513 Y100.147 F1000
G1 X27.860 Y99.800 F1000
G1 X27.860 Y96.680 F1000
G1 X28.207 Y96.333 F1000
G1 X28.207 Y93.213 F1000
G1 X28.553 Y92.867 F1000
G1 X28.553 Y89.747 F1000
G1 X28.900 Y89.400 F1000
G1 X28.900 Y87.667 F1000
G1 X28.900 Y89.400 F1000
G1 X28.553 Y89.747 F1000
G1 X28.553 Y92.867 F1000
G1 X28.207 Y93.213 F1000
G1 X28.207 Y96.333 F1000
G1 X27.860 Y96.680 F1000
G1 X27.860 Y99.800 F1000
G1 X27.513 Y100.147 F1000
G1 X27.513 Y103.267 F1000
G1 X27.167 Y103.613 F1000
G1 X27.167 Y105.000 F1000
G0 Z3.0 ; Pen up

G0 X29.940 Y105.000 F3000 ; Travel to line 73
G0 Z0.0 ; Pen down
G1 X29.940 Y103.613 F1000
G1 X30.287 Y103.267 F1000
G1 X30.287 Y100.147 F1000
G1 X30.633 Y99.800 F1000
G1 X30.633 Y96.680 F1000
G1 X30.980 Y96.333 F1000
G1 X30.980 Y93.213 F1000
G1 X31.327 Y92.867 F1000
G1 X31.327 Y89.747 F1000
G1 X31.673 Y89.400 F1000
G1 X31.673 Y87.667 F1000
G1 X31.673 Y89.400 F1000
G1 X31.327 Y89.747 F1000
G1 X31.327 Y92.867 F1000
G1 X30.980 Y93.213 F1000
G1 X30.980 Y96.333 F1000
G1 X30.633 Y96.680 F1000
G1 X30.633 Y99.800 F1000
G1 X30.287 Y100.147 F1000
G1 X30.287 Y103.267 F1000
G1 X29.940 Y103.613 F1000
G0 Z3.0 ; Pen up

G0 X32.713 Y103.613 F3000 ; Travel to line 74
G0 Z0.0 ; Pen down
G1 X33.060 Y103.267 F1000
G1 X33.060 Y100.147 F1000
G1 X33.407 Y99.800 F1000
G1 X33.407 Y96.680 F1000
G1 X33.753 Y96.333 F1000
G1 X33.753 Y93.213 F1000
G1 X34.100 Y92.867 F1000
G1 X34.100 Y89.747 F1000
G1 X34.447 Y89.400 F1000
G1 X34.447 Y87.667 F1000
G1 X34.447 Y89.400 F1000
G1 X34.100 Y89.747 F1000
G1 X34.100 Y92.867 F1000
G1 X33.753 Y93.213 F1000
G1 X33.753 Y96.333 F1000
G1 X33.407 Y96.680 F1000
G1 X33.407 Y99.800 F1000
G1 X33.060 Y100.147 F1000
G1 X33.060 Y103.267 F1000
G1 X32.713 Y103.613 F1000
G1 X32.713 Y105.000 F1000
G0 Z3.0 ; Pen up

G0 X35.487 Y105.000 F3000 ; Travel to line 75
G0 Z0.0 ; Pen down
G1 X35.487 Y103.613 F1000
G1 X35.833 Y103.267 F1000
G1 X35.833 Y100.147 F1000
G1 X36.180 Y99.800 F1000
G1 X36.180 Y96.680 F1000
G1 X36.527 Y96.333 F1000
G1 X36.527 Y93.213 F1000
G1 X36.873 Y92.867 F1000
G1 X36.873 Y89.747 F1000
G1 X37.220 Y89.400 F1000
G1 X37.220 Y87.667 F1000
G1 X37.220 Y89.400 F1000
G1 X36.873 Y89.747 F1000
G1 X36.873 Y92.867 F1000
G1 X36.527 Y93.213 F1000
G1 X36.527 Y96.333 F1000
G1 X36.180 Y96.680 F1000
G1 X36.180 Y99.800 F1000
G1 X35.833 Y100.147 F1000
G1 X35.833 Y103.267 F1000
G1 X35.487 Y103.613 F1000
G0 Z3.0 ; Pen up

G0 X38.260 Y103.613 F3000 ; Travel to line 76
G0 Z0.0 ; Pen down
G1 X38.607 Y103.267 F1000
G1 X38.607 Y100.147 F1000
G1 X38.953 Y99.800 F1000
G1 X38.953 Y96.680 F1000
G1 X39.300 Y96.333 F1000
G1 X39.300 Y93.213 F1000
G1 X39.647 Y92.867 F1000
G1 X39.647 Y89.747 F1000
G1 X39.993 Y89.400 F1000
G1 X39.993 Y87.667 F1000
G1 X39.993 Y89.400 F1000
G1 X39.647 Y89.747 F1000
G1 X39.647 Y92.867 F1000
G1 X39.300 Y93.213 F1000
G1 X39.300 Y96.333 F1000
G1 X38.953 Y96.680 F1000
G1 X38.953 Y99.800 F1000
G1 X38.607 Y100.147 F1000
G1 X38.607 Y103.267 F1000
G1 X38.260 Y103.613 F1000
G1 X38.260 Y105.000 F1000
G0 Z3.0 ; Pen up

G0 X41.033 Y105.000 F3000 ; Travel to line 77
G0 Z0.0 ; Pen down
G1 X41.033 Y103.613 F1000
G1 X41.380 Y103.267 F1000
G1 X41.380 Y100.147 F1000
G1 X41.727 Y99.800 F1000
G1 X41.727 Y96.680 F1000
G1 X42.073 Y96.333 F1000
G1 X42.073 Y93.213 F1000
G1 X42.420 Y92.867 F1000
G1 X42.420 Y89.747 F1000
G1 X42.767 Y89.400 F1000
G1 X42.767 Y87.667 F1000
G1 X42.767 Y89.400 F1000
G1 X42.420 Y89.747 F1000
G1 X42.420 Y92.867 F1000
G1 X42.073 Y93.213 F1000
G1 X42.073 Y96.333 F1000
G1 X41.727 Y96.680 F1000
G1 X41.727 Y99.800 F1000
G1 X41.380 Y100.147 F1000
G1 X41.380 Y103.267 F1000
G1 X41.033 Y103.613 F1000
G0 Z3.0 ; Pen up

G0 X43.807 Y103.613 F3000 ; Travel to line 78
G0 Z0.0 ; Pen down
G1 X44.153 Y103.267 F1000
G1 X44.153 Y100.147 F1000
G1 X44.500 Y99.800 F1000
G1 X44.500 Y96.680 F1000
G1 X44.847 Y96.333 F1000
G1 X44.847 Y93.213 F1000
G1 X45.193 Y92.867 F1000
G1 X45.193 Y89.747 F1000
G1 X45.540 Y89.400 F1000
G1 X45.540 Y87.667 F1000
G1 X45.540 Y89.400 F1000
G1 X45.193 Y89.747 F1000
G1 X45.193 Y92.867 F1000
G1 X44.847 Y93.213 F1000
G1 X44.847 Y96.333 F1000
G1 X44.500 Y96.680 F1000
G1 X44.500 Y99.800 F1000
G1 X44.153 Y100.147 F1000
G1 X44.153 Y103.267 F1000
G1 X43.807 Y103.613 F1000
G1 X43.807 Y105.000 F1000
G0 Z3.0 ; Pen up

G0 X46.580 Y105.000 F3000 ; Travel to line 79
G0 Z0.0 ; Pen down
G1 X46.580 Y103.613 F1000
G1 X46.927 Y103.267 F1000
G1 X46.927 Y100.147 F1000
G1 X47.273 Y99.800 F1000
G1 X47.273 Y96.680 F1000
G1 X47.620 Y96.333 F1000
G1 X47.620 Y93.213 F1000
G1 X47.967 Y92.867 F1000
G1 X47.967 Y89.747 F1000
G1 X48.313 Y89.400 F1000
G1 X48.313 Y87.667 F1000
G1 X48.313 Y89.400 F1000
G1 X47.967 Y89.747 F1000
G1 X47.967 Y92.867 F1000
G1 X47.620 Y93.213 F1000
G1 X47.620 Y96.333 F1000
G1 X47.273 Y96.680 F1000
G1 X47.273 Y99.800 F1000
G1 X46.927 Y100.147 F1000
G1 X46.927 Y103.267 F1000
G1 X46.580 Y103.613 F1000
G0 Z3.0 ; Pen up

G0 X49.353 Y103.613 F3000 ; Travel to line 80
G0 Z0.0 ; Pen down
G1 X49.700 Y103.267 F1000
G1 X49.700 Y100.147 F1000
G1 X50.047 Y99.800 F1000
G1 X50.047 Y96.680 F1000
G1 X50.393 Y96.333 F1000
G1 X50.393 Y93.213 F1000
G1 X50.740 Y92.867 F1000
G1 X50.740 Y89.747 F1000
G1 X51.087 Y89.400 F1000
G1 X51.087 Y87.667 F1000
G1 X51.087 Y89.400 F1000
G1 X50.740 Y89.747 F1000
G1 X50.740 Y92.867 F1000
G1 X50.393 Y93.213 F1000
G1 X50.393 Y96.333 F1000
G1 X50.047 Y96.680 F1000
G1 X50.047 Y99.800 F1000
G1 X49.700 Y100.147 F1000
G1 X49.700 Y103.267 F1000
G1 X49.353 Y103.613 F1000
G1 X49.353 Y105.000 F1000
G0 Z3.0 ; Pen up

G0 X52.127 Y105.000 F3000 ; Travel to line 81
G0 Z0.0 ; Pen down
G1 X52.127 Y103.613 F1000
G1 X52.473 Y103.267 F1000
G1 X52.473 Y100.147 F1000
G1 X52.820 Y99.800 F1000
G1 X52.820 Y96.680 F1000
G1 X53.167 Y96.333 F1000
G1 X53.167 Y93.213 F1000
G1 X53.513 Y92.867 F1000
G1 X53.513 Y89.747 F1000
G1 X53.860 Y89.400 F1000
G1 X53.860 Y87.667 F1000
G1 X53.860 Y89.400 F1000
G1 X53.513 Y89.747 F1000
G1 X53.513 Y92.867 F1000
G1 X53.167 Y93.213 F1000
G1 X53.167 Y96.333 F1000
G1 X52.820 Y96.680 F1000
G1 X52.820 Y99.800 F1000
G1 X52.473 Y100.147 F1000
G1 X52.473 Y103.267 F1000
G1 X52.127 Y103.613 F1000
G0 Z3.0 ; Pen up

G0 X54.900 Y103.613 F3000 ; Travel to line 82
G0 Z0.0 ; Pen down
G1 X55.247 Y103.267 F1000
G1 X55.247 Y100.147 F1000
G1 X55.593 Y99.800 F1000
G1 X55.593 Y96.680 F1000
G1 X55.940 Y96.333 F1000
G1 X55.940 Y93.213 F1000
G1 X56.287 Y92.867 F1000
G1 X56.287 Y89.747 F1000
G1 X56.633 Y89.400 F1000
G1 X56.633 Y87.667 F1000
G1 X56.633 Y89.400 F1000
G1 X56.287 Y89.747 F1000
G1 X56.287 Y92.867 F1000
G1 X55.940 Y93.213 F1000
G1 X55.940 Y96.333 F1000
G1 X55.593 Y96.680 F1000
G1 X55.593 Y99.800 F1000
G1 X55.247 Y100.147 F1000
G1 X55.247 Y103.267 F1000
G1 X54.900 Y103.613 F1000
G1 X54.900 Y105.000 F1000
G0 Z3.0 ; Pen up

G0 X57.673 Y105.000 F3000 ; Travel to line 83
G0 Z0.0 ; Pen down
G1 X57.673 Y103.613 F1000
G1 X58.020 Y103.267 F1000
G1 X58.020 Y100.147 F1000
G1 X58.367 Y99.800 F1000
G1 X58.367 Y96.680 F1000
G1 X58.713 Y96.333 F1000
G1 X58.713 Y93.213 F1000
G1 X59.060 Y92.867 F1000
G1 X59.060 Y89.747 F1000
G1 X59.407 Y89.400 F1000
G1 X59.407 Y87.667 F1000
G1 X59.407 Y89.400 F1000
G1 X59.060 Y89.747 F1000
G1 X59.060 Y92.867 F1000
G1 X58.713 Y93.213 F1000
G1 X58.713 Y96.333 F1000
G1 X58.367 Y96.680 F1000
G1 X58.367 Y99.800 F1000
G1 X58.020 Y100.147 F1000
G1 X58.020 Y103.267 F1000
G1 X57.673 Y103.613 F1000
G0 Z3.0 ; Pen up

G0 X60.447 Y103.613 F3000 ; Travel to line 84
G0 Z0.0 ; Pen down
G1 X60.793 Y103.267 F1000
G1 X60.793 Y100.147 F1000
G1 X61.140 Y99.800 F1000
G1 X61.140 Y96.680 F1000
G1 X61.487 Y96.333 F1000
G1 X61.487 Y93.213 F1000
G1 X61.833 Y92.867 F1000
G1 X61.833 Y89.747 F1000
G1 X62.180 Y89.400 F1000
G1 X62.180 Y87.667 F1000
G1 X62.180 Y89.400 F1000
G1 X61.833 Y89.747 F1000
G1 X61.833 Y92.867 F1000
G1 X61.487 Y93.213 F1000
G1 X61.487 Y96.333 F1000
G1 X61.140 Y96.680 F1000
G1 X61.140 Y99.800 F1000
G1 X60.793 Y100.147 F1000
G1 X60.793 Y103.267 F1000
G1 X60.447 Y103.613 F1000
G1 X60.447 Y105.000 F1000
G0 Z3.0 ; Pen up

G0 X63.220 Y105.000 F3000 ; Travel to line 85
G0 Z0.0 ; Pen down
G1 X63.220 Y103.613 F1000
G1 X63.567 Y103.267 F1000
G1 X63.567 Y100.147 F1000
G1 X63.913 Y99.800 F1000
G1 X63.913 Y96.680 F1000
G1 X64.260 Y96.333 F1000
G1 X64.260 Y93.213 F1000
G1 X64.607 Y92.867 F1000
G1 X64.607 Y89.747 F1000
G1 X64.953 Y89.400 F1000
G1 X64.953 Y87.667 F1000
G1 X64.953 Y89.400 F1000
G1 X64.607 Y89.747 F1000
G1 X64.607 Y92.867 F1000
G1 X64.260 Y93.213 F1000
G1 X64.260 Y96.333 F1000
G1 X63.913 Y96.680 F1000
G1 X63.913 Y99.800 F1000
G1 X63.567 Y100.147 F1000
G1 X63.567 Y103.267 F1000
G1 X63.220 Y103.613 F1000
G0 Z3.0 ; Pen up

G0 X65.993 Y103.613 F3000 ; Travel to line 86
G0 Z0.0 ; Pen down
G1 X66.340 Y103.267 F1000
G1 X66.340 Y100.147 F1000
G1 X66.687 Y99.800 F1000
G1 X66.687 Y96.680 F1000
G1 X67.033 Y96.333 F1000
G1 X67.033 Y93.213 F1000
G1 X67.380 Y92.867 F1000
G1 X67.380 Y89.747 F1000
G1 X67.727 Y89.400 F1000
G1 X67.727 Y87.667 F1000
G1 X67.727 Y89.400 F1000
G1 X67.380 Y89.747 F1000
G1 X67.380 Y92.867 F1000
G1 X67.033 Y93.213 F1000
G1 X67.033 Y96.333 F1000
G1 X66.687 Y96.680 F1000
G1 X66.687 Y99.800 F1000
G1 X66.340 Y100.147 F1000
G1 X66.340 Y103.267 F1000
G1 X65.993 Y103.613 F1000
G1 X65.993 Y105.000 F1000
G0 Z3.0 ; Pen up

G0 X58.367 Y110.200 F3000 ; Travel to line 87
G0 Z0.0 ; Pen down
G1 X57.673 Y110.200 F1000
G1 X57.327 Y109.853 F1000
G1 X57.327 Y109.507 F1000
G1 X57.673 Y109.160 F1000
G1 X58.367 Y109.160 F1000
G1 X58.367 Y108.120 F1000
G1 X57.327 Y108.120 F1000
G1 X58.020 Y108.120 F1000
G1 X58.367 Y108.467 F1000
G1 X58.367 Y108.813 F1000
G1 X58.020 Y109.160 F1000
G1 X57.673 Y109.160 F1000
G1 X57.327 Y109.507 F1000
G1 X57.327 Y110.200 F1000
G0 Z3.0 ; Pen up

G0 X56.287 Y111.240 F3000 ; Travel to line 88
G0 Z0.0 ; Pen down
G1 X56.287 Y108.120 F1000
G0 Z3.0 ; Pen up

G0 X55.247 Y108.120 F3000 ; Travel to line 89
G0 Z0.0 ; Pen down
G1 X55.247 Y110.200 F1000
G0 Z3.0 ; Pen up

G0 X53.513 Y110.200 F3000 ; Travel to line 90
G0 Z0.0 ; Pen down
G1 X53.860 Y109.853 F1000
G1 X53.860 Y108.120 F1000
G1 X52.473 Y108.120 F1000
G1 X52.473 Y108.813 F1000
G1 X52.820 Y109.160 F1000
G1 X53.513 Y109.160 F1000
G1 X53.860 Y109.507 F1000
G1 X53.860 Y109.853 F1000
G1 X53.513 Y110.200 F1000
G1 X52.473 Y110.200 F1000
G0 Z3.0 ; Pen up

G0 X52.473 Y108.813 F3000 ; Travel to line 91
G0 Z0.0 ; Pen down
G1 X52.820 Y109.160 F1000
G1 X53.513 Y109.160 F1000
G1 X53.860 Y108.813 F1000
G1 X53.860 Y108.467 F1000
G1 X53.513 Y108.120 F1000
G1 X52.820 Y108.120 F1000
G1 X52.473 Y108.467 F1000
G0 Z3.0 ; Pen up

G0 X51.087 Y110.547 F3000 ; Travel to line 92
G0 Z0.0 ; Pen down
G1 X51.433 Y110.200 F1000
G1 X51.780 Y110.200 F1000
G1 X51.433 Y110.200 F1000
G1 X51.087 Y109.853 F1000
G1 X51.087 Y108.467 F1000
G1 X51.433 Y108.120 F1000
G1 X51.780 Y108.120 F1000
G1 X51.433 Y108.120 F1000
G1 X51.087 Y108.467 F1000
G1 X51.087 Y110.893 F1000
G0 Z3.0 ; Pen up

G0 X49.353 Y110.200 F3000 ; Travel to line 93
G0 Z0.0 ; Pen down
G1 X50.047 Y109.507 F1000
G1 X50.047 Y109.160 F1000
G1 X48.660 Y109.160 F1000
G1 X48.313 Y108.813 F1000
G1 X49.007 Y108.120 F1000
G1 X49.700 Y108.120 F1000
G1 X48.660 Y108.120 F1000
G1 X48.313 Y108.467 F1000
G1 X48.313 Y109.853 F1000
G1 X48.660 Y110.200 F1000
G0 Z3.0 ; Pen up

G0 X49.007 Y110.200 F3000 ; Travel to line 94
G0 Z0.0 ; Pen down
G1 X49.353 Y110.200 F1000
G1 X50.047 Y109.507 F1000
G1 X49.700 Y109.160 F1000
G1 X48.660 Y109.160 F1000
G1 X48.313 Y109.507 F1000
G0 Z3.0 ; Pen up

G0 X47.273 Y110.893 F3000 ; Travel to line 95
G0 Z0.0 ; Pen down
G1 X47.273 Y110.547 F1000
G1 X46.927 Y110.200 F1000
G1 X46.233 Y110.200 F1000
G1 X45.887 Y109.853 F1000
G1 X45.887 Y108.467 F1000
G1 X46.233 Y108.120 F1000
G1 X47.273 Y108.120 F1000
G0 Z3.0 ; Pen up

G0 X45.887 Y109.507 F3000 ; Travel to line 96
G0 Z0.0 ; Pen down
G1 X45.887 Y108.813 F1000
G1 X46.580 Y108.120 F1000
G1 X46.927 Y108.120 F1000
G1 X47.273 Y108.467 F1000
G1 X47.273 Y109.853 F1000
G1 X46.927 Y110.200 F1000
G1 X46.580 Y110.200 F1000
G0 Z3.0 ; Pen up

G0 X42.767 Y110.200 F3000 ; Travel to line 97
G0 Z0.0 ; Pen down
G1 X43.460 Y109.507 F1000
G1 X43.460 Y109.160 F1000
G1 X42.073 Y109.160 F1000
G1 X41.727 Y108.813 F1000
G1 X42.420 Y108.120 F1000
G1 X43.113 Y108.120 F1000
G1 X42.073 Y108.120 F1000
G1 X41.727 Y108.467 F1000
G1 X41.727 Y109.853 F1000
G1 X42.073 Y110.200 F1000
G0 Z3.0 ; Pen up

G0 X42.420 Y110.200 F3000 ; Travel to line 98
G0 Z0.0 ; Pen down
G1 X42.767 Y110.200 F1000
G1 X43.460 Y109.507 F1000
G1 X43.113 Y109.160 F1000
G1 X42.073 Y109.160 F1000
G1 X41.727 Y109.507 F1000
G0 Z3.0 ; Pen up

G0 X39.647 Y109.507 F3000 ; Travel to line 99
G0 Z0.0 ; Pen down
G1 X39.993 Y109.160 F1000
G1 X41.033 Y110.200 F1000
G1 X40.340 Y109.507 F1000
G1 X40.340 Y108.813 F1000
G1 X41.033 Y108.120 F1000
G1 X39.993 Y109.160 F1000
G1 X39.647 Y108.813 F1000
G1 X39.647 Y108.120 F1000
G1 X39.647 Y111.240 F1000
G0 Z3.0 ; Pen up

G0 X38.607 Y110.200 F3000 ; Travel to line 100
G0 Z0.0 ; Pen down
G1 X38.607 Y108.120 F1000
G0 Z3.0 ; Pen up

G0 X37.220 Y108.120 F3000 ; Travel to line 101
G0 Z0.0 ; Pen down
G1 X37.220 Y111.240 F1000
G0 Z3.0 ; Pen up

G0 X35.487 Y110.200 F3000 ; Travel to line 102
G0 Z0.0 ; Pen down
G1 X35.140 Y110.200 F1000
G1 X34.447 Y109.507 F1000
G1 X34.447 Y108.120 F1000
G1 X34.447 Y109.853 F1000
G1 X34.793 Y109.853 F1000
G1 X35.140 Y110.200 F1000
G0 Z3.0 ; Pen up

G0 X35.833 Y109.160 F3000 ; Travel to line 103
G0 Z0.0 ; Pen down
G1 X36.527 Y109.160 F1000
G0 Z3.0 ; Pen up

G0 X33.060 Y108.120 F3000 ; Travel to line 104
G0 Z0.0 ; Pen down
G1 X33.060 Y110.200 F1000
G0 Z3.0 ; Pen up

G0 X31.673 Y110.200 F3000 ; Travel to line 105
G0 Z0.0 ; Pen down
G1 X32.020 Y109.853 F1000
G1 X32.020 Y108.120 F1000
G1 X30.633 Y108.120 F1000
G1 X30.633 Y108.813 F1000
G1 X30.980 Y109.160 F1000
G1 X31.673 Y109.160 F1000
G1 X32.020 Y109.507 F1000
G1 X32.020 Y109.853 F1000
G1 X31.673 Y110.200 F1000
G1 X30.633 Y110.200 F1000
G0 Z3.0 ; Pen up

G0 X30.633 Y108.813 F3000 ; Travel to line 106
G0 Z0.0 ; Pen down
G1 X30.980 Y109.160 F1000
G1 X31.673 Y109.160 F1000
G1 X32.020 Y108.813 F1000
G1 X32.020 Y108.467 F1000
G1 X31.673 Y108.120 F1000
G1 X30.980 Y108.120 F1000
G1 X30.633 Y108.467 F1000
G0 Z3.0 ; Pen up

G0 X27.513 Y109.853 F3000 ; Travel to line 107
G0 Z0.0 ; Pen down
G1 X27.860 Y109.507 F1000
G1 X29.247 Y109.507 F1000
G1 X29.593 Y109.853 F1000
G1 X29.593 Y110.893 F1000
G1 X29.593 Y109.160 F1000
G1 X29.247 Y109.507 F1000
G1 X27.860 Y109.507 F1000
G1 X27.513 Y109.160 F1000
G1 X27.513 Y108.120 F1000
G1 X27.513 Y110.893 F1000
G0 Z3.0 ; Pen up

G0 X27.167 Y125.800 F3000 ; Travel to line 108
G0 Z0.0 ; Pen down
G1 X96.500 Y125.800 F1000
G0 Z3.0 ; Pen up

G0 X96.500 Y127.533 F3000 ; Travel to line 109
G0 Z0.0 ; Pen down
G1 X27.167 Y127.533 F1000
G0 Z3.0 ; Pen up

G0 X27.167 Y129.267 F3000 ; Travel to line 110
G0 Z0.0 ; Pen down
G1 X96.500 Y129.267 F1000
G0 Z3.0 ; Pen up

G0 X96.500 Y131.000 F3000 ; Travel to line 111
G0 Z0.0 ; Pen down
G1 X27.167 Y131.000 F1000
G0 Z3.0 ; Pen up

G0 X27.167 Y132.733 F3000 ; Travel to line 112
G0 Z0.0 ; Pen down
G1 X96.500 Y132.733 F1000
G0 Z3.0 ; Pen up

G0 X113.833 Y132.733 F3000 ; Travel to line 113
G0 Z0.0 ; Pen down
G1 X113.833 Y118.867 F1000
G0 Z3.0 ; Pen up

G0 X117.300 Y118.867 F3000 ; Travel to line 114
G0 Z0.0 ; Pen down
G1 X117.300 Y132.733 F1000
G0 Z3.0 ; Pen up

G0 X120.767 Y132.733 F3000 ; Travel to line 115
G0 Z0.0 ; Pen down
G1 X120.767 Y118.867 F1000
G0 Z3.0 ; Pen up

G0 X124.233 Y118.867 F3000 ; Travel to line 116
G0 Z0.0 ; Pen down
G1 X124.233 Y132.733 F1000
G0 Z3.0 ; Pen up

G0 X127.700 Y132.733 F3000 ; Travel to line 117
G0 Z0.0 ; Pen down
G1 X127.700 Y118.867 F1000
G0 Z3.0 ; Pen up

G0 X148.500 Y140.360 F3000 ; Travel to line 118
G0 Z0.0 ; Pen down
G1 X148.847 Y140.013 F1000
G1 X151.620 Y140.013 F1000
G1 X151.967 Y140.360 F1000
G1 X151.967 Y142.787 F1000
G1 X151.620 Y143.133 F1000
G1 X148.847 Y143.133 F1000
G1 X148.500 Y142.787 F1000
G0 Z3.0 ; Pen up

G0 X148.500 Y143.480 F3000 ; Travel to line 119
G0 Z0.0 ; Pen down
G1 X148.847 Y143.133 F1000
G1 X151.620 Y143.133 F1000
G1 X151.967 Y143.480 F1000
G1 X151.967 Y146.253 F1000
G1 X151.620 Y146.600 F1000
G1 X148.847 Y146.600 F1000
G1 X148.500 Y146.253 F1000
G0 Z3.0 ; Pen up

G0 X148.500 Y146.947 F3000 ; Travel to line 120
G0 Z0.0 ; Pen down
G1 X148.847 Y146.600 F1000
G1 X151.620 Y146.600 F1000
G1 X151.967 Y146.947 F1000
G1 X151.967 Y149.720 F1000
G1 X151.620 Y150.067 F1000
G1 X148.847 Y150.067 F1000
G1 X148.500 Y149.720 F1000
G0 Z3.0 ; Pen up

G0 X148.500 Y150.413 F3000 ; Travel to line 121
G0 Z0.0 ; Pen down
G1 X148.847 Y150.067 F1000
G1 X151.620 Y150.067 F1000
G1 X151.967 Y150.413 F1000
G1 X151.967 Y153.187 F1000
G1 X151.620 Y153.533 F1000
G1 X148.847 Y153.533 F1000
G1 X148.500 Y153.187 F1000
G0 Z3.0 ; Pen up

G0 X148.500 Y153.880 F3000 ; Travel to line 122
G0 Z0.0 ; Pen down
G1 X148.847 Y153.533 F1000
G1 X151.620 Y153.533 F1000
G1 X151.967 Y153.880 F1000
G1 X151.967 Y156.653 F1000
G1 X151.620 Y157.000 F1000
G1 X148.847 Y157.000 F1000
G1 X148.500 Y156.653 F1000
G0 Z3.0 ; Pen up

G0 X148.500 Y157.347 F3000 ; Travel to line 123
G0 Z0.0 ; Pen down
G1 X148.847 Y157.000 F1000
G1 X151.620 Y157.000 F1000
G1 X151.967 Y157.347 F1000
G1 X151.967 Y160.120 F1000
G1 X151.620 Y160.467 F1000
G1 X148.847 Y160.467 F1000
G1 X148.500 Y160.120 F1000
G0 Z3.0 ; Pen up

G0 X148.500 Y160.813 F3000 ; Travel to line 124
G0 Z0.0 ; Pen down
G1 X148.847 Y160.467 F1000
G1 X151.620 Y160.467 F1000
G1 X151.967 Y160.813 F1000
G1 X151.967 Y163.587 F1000
G1 X151.620 Y163.933 F1000
G1 X148.847 Y163.933 F1000
G1 X148.500 Y163.587 F1000
G0 Z3.0 ; Pen up

G0 X148.500 Y164.280 F3000 ; Travel to line 125
G0 Z0.0 ; Pen down
G1 X148.847 Y163.933 F1000
G1 X151.620 Y163.933 F1000
G1 X151.967 Y164.280 F1000
G1 X151.967 Y167.053 F1000
G1 X151.620 Y167.400 F1000
G1 X148.847 Y167.400 F1000
G1 X148.500 Y167.053 F1000
G0 Z3.0 ; Pen up

G0 X148.500 Y167.747 F3000 ; Travel to line 126
G0 Z0.0 ; Pen down
G1 X148.847 Y167.400 F1000
G1 X151.620 Y167.400 F1000
G1 X151.967 Y167.747 F1000
G1 X151.967 Y170.520 F1000
G1 X151.620 Y170.867 F1000
G1 X148.847 Y170.867 F1000
G1 X148.500 Y170.520 F1000
G0 Z3.0 ; Pen up

G0 X148.500 Y171.213 F3000 ; Travel to line 127
G0 Z0.0 ; Pen down
G1 X148.847 Y170.867 F1000
G1 X151.620 Y170.867 F1000
G1 X151.967 Y171.213 F1000
G1 X151.967 Y173.987 F1000
G1 X151.620 Y174.333 F1000
G1 X148.847 Y174.333 F1000
G1 X148.500 Y173.987 F1000
G0 Z3.0 ; Pen up

G0 X148.500 Y174.680 F3000 ; Travel to line 128
G0 Z0.0 ; Pen down
G1 X148.847 Y174.333 F1000
G1 X151.620 Y174.333 F1000
G1 X151.967 Y174.680 F1000
G1 X151.967 Y177.453 F1000
G1 X151.620 Y177.800 F1000
G1 X148.847 Y177.800 F1000
G1 X148.500 Y177.453 F1000
G0 Z3.0 ; Pen up

G0 X148.500 Y178.147 F3000 ; Travel to line 129
G0 Z0.0 ; Pen down
G1 X148.847 Y177.800 F1000
G1 X151.620 Y177.800 F1000
G1 X151.967 Y178.147 F1000
G1 X151.967 Y180.920 F1000
G1 X151.620 Y181.267 F1000
G1 X148.847 Y181.267 F1000
G1 X148.500 Y180.920 F1000
G0 Z3.0 ; Pen up

G0 X148.500 Y181.613 F3000 ; Travel to line 130
G0 Z0.0 ; Pen down
G1 X148.847 Y181.267 F1000
G1 X151.620 Y181.267 F1000
G1 X151.967 Y181.613 F1000
G1 X151.967 Y184.387 F1000
G1 X151.620 Y184.733 F1000
G1 X148.847 Y184.733 F1000
G1 X148.500 Y184.387 F1000
G0 Z3.0 ; Pen up

G0 X148.500 Y185.080 F3000 ; Travel to line 131
G0 Z0.0 ; Pen down
G1 X148.847 Y184.733 F1000
G1 X151.620 Y184.733 F1000
G1 X151.967 Y185.080 F1000
G1 X151.967 Y187.853 F1000
G1 X151.620 Y188.200 F1000
G1 X148.847 Y188.200 F1000
G1 X148.500 Y187.853 F1000
G0 Z3.0 ; Pen up

G0 X148.500 Y190.973 F3000 ; Travel to line 132
G0 Z0.0 ; Pen down
G1 X148.500 Y188.547 F1000
G1 X148.847 Y188.200 F1000
G1 X151.620 Y188.200 F1000
G1 X151.967 Y188.547 F1000
G1 X151.967 Y191.320 F1000
G1 X151.620 Y191.667 F1000
G1 X149.193 Y191.667 F1000
G0 Z3.0 ; Pen up

G0 X148.847 Y191.667 F3000 ; Travel to line 133
G0 Z0.0 ; Pen down
G1 X148.500 Y191.320 F1000
G1 X148.500 Y140.013 F1000
G1 X200.153 Y140.013 F1000
G1 X200.153 Y191.667 F1000
G0 Z3.0 ; Pen up

G0 X197.033 Y191.320 F3000 ; Travel to line 134
G0 Z0.0 ; Pen down
G1 X197.380 Y191.667 F1000
G1 X199.807 Y191.667 F1000
G1 X200.153 Y191.320 F1000
G1 X200.153 Y188.547 F1000
G1 X199.807 Y188.200 F1000
G1 X197.380 Y188.200 F1000
G1 X197.033 Y188.547 F1000
G0 Z3.0 ; Pen up

G0 X197.033 Y187.853 F3000 ; Travel to line 135
G0 Z0.0 ; Pen down
G1 X197.380 Y188.200 F1000
G1 X199.807 Y188.200 F1000
G1 X200.153 Y187.853 F1000
G1 X200.153 Y185.080 F1000
G1 X199.807 Y184.733 F1000
G1 X197.380 Y184.733 F1000
G1 X197.033 Y185.080 F1000
G0 Z3.0 ; Pen up

G0 X197.033 Y184.387 F3000 ; Travel to line 136
G0 Z0.0 ; Pen down
G1 X197.380 Y184.733 F1000
G1 X199.807 Y184.733 F1000
G1 X200.153 Y184.387 F1000
G1 X200.153 Y181.613 F1000
G1 X199.807 Y181.267 F1000
G1 X197.380 Y181.267 F1000
G1 X197.033 Y181.613 F1000
G0 Z3.0 ; Pen up

G0 X197.033 Y180.920 F3000 ; Travel to line 137
G0 Z0.0 ; Pen down
G1 X197.380 Y181.267 F1000
G1 X199.807 Y181.267 F1000
G1 X200.153 Y180.920 F1000
G1 X200.153 Y178.147 F1000
G1 X199.807 Y177.800 F1000
G1 X197.380 Y177.800 F1000
G1 X197.033 Y178.147 F1000
G0 Z3.0 ; Pen up

G0 X197.033 Y177.453 F3000 ; Travel to line 138
G0 Z0.0 ; Pen down
G1 X197.380 Y177.800 F1000
G1 X199.807 Y177.800 F1000
G1 X200.153 Y177.453 F1000
G1 X200.153 Y174.680 F1000
G1 X199.807 Y174.333 F1000
G1 X197.380 Y174.333 F1000
G1 X197.033 Y174.680 F1000
G0 Z3.0 ; Pen up

G0 X197.033 Y173.987 F3000 ; Travel to line 139
G0 Z0.0 ; Pen down
G1 X197.380 Y174.333 F1000
G1 X199.807 Y174.333 F1000
G1 X200.153 Y173.987 F1000
G1 X200.153 Y171.213 F1000
G1 X199.807 Y170.867 F1000
G1 X197.380 Y170.867 F1000
G1 X197.033 Y171.213 F1000
G0 Z3.0 ; Pen up

G0 X197.033 Y170.520 F3000 ; Travel to line 140
G0 Z0.0 ; Pen down
G1 X197.380 Y170.867 F1000
G1 X199.807 Y170.867 F1000
G1 X200.153 Y170.520 F1000
G1 X200.153 Y167.747 F1000
G1 X199.807 Y167.400 F1000
G1 X197.380 Y167.400 F1000
G1 X197.033 Y167.747 F1000
G0 Z3.0 ; Pen up

G0 X197.033 Y167.053 F3000 ; Travel to line 141
G0 Z0.0 ; Pen down
G1 X197.380 Y167.400 F1000
G1 X199.807 Y167.400 F1000
G1 X200.153 Y167.053 F1000
G1 X200.153 Y164.280 F1000
G1 X199.807 Y163.933 F1000
G1 X197.380 Y163.933 F1000
G1 X197.033 Y164.280 F1000
G0 Z3.0 ; Pen up

G0 X197.033 Y163.587 F3000 ; Travel to line 142
G0 Z0.0 ; Pen down
G1 X197.380 Y163.933 F1000
G1 X199.807 Y163.933 F1000
G1 X200.153 Y163.587 F1000
G1 X200.153 Y160.813 F1000
G1 X199.807 Y160.467 F1000
G1 X197.380 Y160.467 F1000
G1 X197.033 Y160.813 F1000
G0 Z3.0 ; Pen up

G0 X197.033 Y160.120 F3000 ; Travel to line 143
G0 Z0.0 ; Pen down
G1 X197.380 Y160.467 F1000
G1 X199.807 Y160.467 F1000
G1 X200.153 Y160.120 F1000
G1 X200.153 Y157.347 F1000
G1 X199.807 Y157.000 F1000
G1 X197.380 Y157.000 F1000
G1 X197.033 Y157.347 F1000
G0 Z3.0 ; Pen up

G0 X197.033 Y156.653 F3000 ; Travel to line 144
G0 Z0.0 ; Pen down
G1 X197.380 Y157.000 F1000
G1 X199.807 Y157.000 F1000
G1 X200.153 Y156.653 F1000
G1 X200.153 Y153.880 F1000
G1 X199.807 Y153.533 F1000
G1 X197.380 Y153.533 F1000
G1 X197.033 Y153.880 F1000
G0 Z3.0 ; Pen up

G0 X197.033 Y153.187 F3000 ; Travel to line 145
G0 Z0.0 ; Pen down
G1 X197.380 Y153.533 F1000
G1 X199.807 Y153.533 F1000
G1 X200.153 Y153.187 F1000
G1 X200.153 Y150.413 F1000
G1 X199.807 Y150.067 F1000
G1 X197.380 Y150.067 F1000
G1 X197.033 Y150.413 F1000
G0 Z3.0 ; Pen up

G0 X197.033 Y149.720 F3000 ; Travel to line 146
G0 Z0.0 ; Pen down
G1 X197.380 Y150.067 F1000
G1 X199.807 Y150.067 F1000
G1 X200.153 Y149.720 F1000
G1 X200.153 Y146.947 F1000
G1 X199.807 Y146.600 F1000
G1 X197.380 Y146.600 F1000
G1 X197.033 Y146.947 F1000
G0 Z3.0 ; Pen up

G0 X197.033 Y146.253 F3000 ; Travel to line 147
G0 Z0.0 ; Pen down
G1 X197.380 Y146.600 F1000
G1 X199.807 Y146.600 F1000
G1 X200.153 Y146.253 F1000
G1 X200.153 Y143.480 F1000
G1 X199.807 Y143.133 F1000
G1 X197.380 Y143.133 F1000
G1 X197.033 Y143.480 F1000
G0 Z3.0 ; Pen up

G0 X197.033 Y142.787 F3000 ; Travel to line 148
G0 Z0.0 ; Pen down
G1 X197.380 Y143.133 F1000
G1 X199.807 Y143.133 F1000
G1 X200.153 Y142.787 F1000
G1 X200.153 Y140.360 F1000
G1 X199.807 Y140.013 F1000
G1 X197.380 Y140.013 F1000
G1 X197.033 Y140.360 F1000
G0 Z3.0 ; Pen up

G0 X193.567 Y140.360 F3000 ; Travel to line 149
G0 Z0.0 ; Pen down
G1 X193.913 Y140.013 F1000
G1 X196.687 Y140.013 F1000
G1 X197.033 Y140.360 F1000
G1 X197.033 Y142.787 F1000
G1 X196.687 Y143.133 F1000
G1 X193.913 Y143.133 F1000
G1 X193.567 Y142.787 F1000
G0 Z3.0 ; Pen up

G0 X193.567 Y143.480 F3000 ; Travel to line 150
G0 Z0.0 ; Pen down
G1 X193.913 Y143.133 F1000
G1 X196.687 Y143.133 F1000
G1 X197.033 Y143.480 F1000
G1 X197.033 Y146.253 F1000
G1 X196.687 Y146.600 F1000
G1 X193.913 Y146.600 F1000
G1 X193.567 Y146.253 F1000
G0 Z3.0 ; Pen up

G0 X193.567 Y146.947 F3000 ; Travel to line 151
G0 Z0.0 ; Pen down
G1 X193.913 Y146.600 F1000
G1 X196.687 Y146.600 F1000
G1 X197.033 Y146.947 F1000
G1 X197.033 Y149.720 F1000
G1 X196.687 Y150.067 F1000
G1 X193.913 Y150.067 F1000
G1 X193.567 Y149.720 F1000
G0 Z3.0 ; Pen up

G0 X193.567 Y150.413 F3000 ; Travel to line 152
G0 Z0.0 ; Pen down
G1 X193.913 Y150.067 F1000
G1 X196.687 Y150.067 F1000
G1 X197.033 Y150.413 F1000
G1 X197.033 Y153.187 F1000
G1 X196.687 Y153.533 F1000
G1 X193.913 Y153.533 F1000
G1 X193.567 Y153.187 F1000
G0 Z3.0 ; Pen up

G0 X193.567 Y153.880 F3000 ; Travel to line 153
G0 Z0.0 ; Pen down
G1 X193.913 Y153.533 F1000
G1 X196.687 Y153.533 F1000
G1 X197.033 Y153.880 F1000
G1 X197.033 Y156.653 F1000
G1 X196.687 Y157.000 F1000
G1 X193.913 Y157.000 F1000
G1 X193.567 Y156.653 F1000
G0 Z3.0 ; Pen up

G0 X193.567 Y157.347 F3000 ; Travel to line 154
G0 Z0.0 ; Pen down
G1 X193.913 Y157.000 F1000
G1 X196.687 Y157.000 F1000
G1 X197.033 Y157.347 F1000
G1 X197.033 Y160.120 F1000
G1 X196.687 Y160.467 F1000
G1 X193.913 Y160.467 F1000
G1 X193.567 Y160.120 F1000
G0 Z3.0 ; Pen up

G0 X193.567 Y160.813 F3000 ; Travel to line 155
G0 Z0.0 ; Pen down
G1 X193.913 Y160.467 F1000
G1 X196.687 Y160.467 F1000
G1 X197.033 Y160.813 F1000
G1 X197.033 Y163.587 F1000
G1 X196.687 Y163.933 F1000
G1 X193.913 Y163.933 F1000
G1 X193.567 Y163.587 F1000
G0 Z3.0 ; Pen up

G0 X193.567 Y164.280 F3000 ; Travel to line 156
G0 Z0.0 ; Pen down
G1 X193.913 Y163.933 F1000
G1 X196.687 Y163.933 F1000
G1 X197.033 Y164.280 F1000
G1 X197.033 Y167.053 F1000
G1 X196.687 Y167.400 F1000
G1 X193.913 Y167.400 F1000
G1 X193.567 Y167.053 F1000
G0 Z3.0 ; Pen up

G0 X193.567 Y167.747 F3000 ; Travel to line 157
G0 Z0.0 ; Pen down
G1 X193.913 Y167.400 F1000
G1 X196.687 Y167.400 F1000
G1 X197.033 Y167.747 F1000
G1 X197.033 Y170.520 F1000
G1 X196.687 Y170.867 F1000
G1 X193.913 Y170.867 F1000
G1 X193.567 Y170.520 F1000
G0 Z3.0 ; Pen up

G0 X193.567 Y171.213 F3000 ; Travel to line 158
G0 Z0.0 ; Pen down
G1 X193.913 Y170.867 F1000
G1 X196.687 Y170.867 F1000
G1 X197.033 Y171.213 F1000
G1 X197.033 Y173.987 F1000
G1 X196.687 Y174.333 F1000
G1 X193.913 Y174.333 F1000
G1 X193.567 Y173.987 F1000
G0 Z3.0 ; Pen up

G0 X193.567 Y174.680 F3000 ; Travel to line 159
G0 Z0.0 ; Pen down
G1 X193.913 Y174.333 F1000
G1 X196.687 Y174.333 F1000
G1 X197.033 Y174.680 F1000
G1 X197.033 Y177.453 F1000
G1 X196.687 Y177.800 F1000
G1 X193.913 Y177.800 F1000
G1 X193.567 Y177.453 F1000
G0 Z3.0 ; Pen up

G0 X193.567 Y178.147 F3000 ; Travel to line 160
G0 Z0.0 ; Pen down
G1 X193.913 Y177.800 F1000
G1 X196.687 Y177.800 F1000
G1 X197.033 Y178.147 F1000
G1 X197.033 Y180.920 F1000
G1 X196.687 Y181.267 F1000
G1 X193.913 Y181.267 F1000
G1 X193.567 Y180.920 F1000
G0 Z3.0 ; Pen up

G0 X193.567 Y181.613 F3000 ; Travel to line 161
G0 Z0.0 ; Pen down
G1 X193.913 Y181.267 F1000
G1 X196.687 Y181.267 F1000
G1 X197.033 Y181.613 F1000
G1 X197.033 Y184.387 F1000
G1 X196.687 Y184.733 F1000
G1 X193.913 Y184.733 F1000
G1 X193.567 Y184.387 F1000
G0 Z3.0 ; Pen up

G0 X193.567 Y185.080 F3000 ; Travel to line 162
G0 Z0.0 ; Pen down
G1 X193.913 Y184.733 F1000
G1 X196.687 Y184.733 F1000
G1 X197.033 Y185.080 F1000
G1 X197.033 Y187.853 F1000
G1 X196.687 Y188.200 F1000
G1 X193.913 Y188.200 F1000
G1 X193.567 Y187.853 F1000
G0 Z3.0 ; Pen up

G0 X193.567 Y188.547 F3000 ; Travel to line 163
G0 Z0.0 ; Pen down
G1 X193.913 Y188.200 F1000
G1 X196.687 Y188.200 F1000
G1 X197.033 Y188.547 F1000
G1 X197.033 Y191.320 F1000
G1 X196.687 Y191.667 F1000
G1 X193.913 Y191.667 F1000
G1 X193.567 Y191.320 F1000
G0 Z3.0 ; Pen up

G0 X190.100 Y191.320 F3000 ; Travel to line 164
G0 Z0.0 ; Pen down
G1 X190.447 Y191.667 F1000
G1 X193.220 Y191.667 F1000
G1 X193.567 Y191.320 F1000
G1 X193.567 Y188.547 F1000
G1 X193.220 Y188.200 F1000
G1 X190.447 Y188.200 F1000
G1 X190.100 Y188.547 F1000
G0 Z3.0 ; Pen up

G0 X190.100 Y187.853 F3000 ; Travel to line 165
G0 Z0.0 ; Pen down
G1 X190.447 Y188.200 F1000
G1 X193.220 Y188.200 F1000
G1 X193.567 Y187.853 F1000
G1 X193.567 Y185.080 F1000
G1 X193.220 Y184.733 F1000
G1 X190.447 Y184.733 F1000
G1 X190.100 Y185.080 F1000
G0 Z3.0 ; Pen up

G0 X190.100 Y184.387 F3000 ; Travel to line 166
G0 Z0.0 ; Pen down
G1 X190.447 Y184.733 F1000
G1 X193.220 Y184.733 F1000
G1 X193.567 Y184.387 F1000
G1 X193.567 Y181.613 F1000
G1 X193.220 Y181.267 F1000
G1 X190.447 Y181.267 F1000
G1 X190.100 Y181.613 F1000
G0 Z3.0 ; Pen up

G0 X190.100 Y180.920 F3000 ; Travel to line 167
G0 Z0.0 ; Pen down
G1 X190.447 Y181.267 F1000
G1 X193.220 Y181.267 F1000
G1 X193.567 Y180.920 F1000
G1 X193.567 Y178.147 F1000
G1 X193.220 Y177.800 F1000
G1 X190.447 Y177.800 F1000
G1 X190.100 Y178.147 F1000
G0 Z3.0 ; Pen up

G0 X190.100 Y177.453 F3000 ; Travel to line 168
G0 Z0.0 ; Pen down
G1 X190.447 Y177.800 F1000
G1 X193.220 Y177.800 F1000
G1 X193.567 Y177.453 F1000
G1 X193.567 Y174.680 F1000
G1 X193.220 Y174.333 F1000
G1 X190.447 Y174.333 F1000
G1 X190.100 Y174.680 F1000
G0 Z3.0 ; Pen up

G0 X190.100 Y173.987 F3000 ; Travel to line 169
G0 Z0.0 ; Pen down
G1 X190.447 Y174.333 F1000
G1 X193.220 Y174.333 F1000
G1 X193.567 Y173.987 F1000
G1 X193.567 Y171.213 F1000
G1 X193.220 Y170.867 F1000
G1 X190.447 Y170.867 F1000
G1 X190.100 Y171.213 F1000
G0 Z3.0 ; Pen up

G0 X190.100 Y170.520 F3000 ; Travel to line 170
G0 Z0.0 ; Pen down
G1 X190.447 Y170.867 F1000
G1 X193.220 Y170.867 F1000
G1 X193.567 Y170.520 F1000
G1 X193.567 Y167.747 F1000
G1 X193.220 Y167.400 F1000
G1 X190.447 Y167.400 F1000
G1 X190.100 Y167.747 F1000
G0 Z3.0 ; Pen up

G0 X190.100 Y167.053 F3000 ; Travel to line 171
G0 Z0.0 ; Pen down
G1 X190.447 Y167.400 F1000
G1 X193.220 Y167.400 F1000
G1 X193.567 Y167.053 F1000
G1 X193.567 Y164.280 F1000
G1 X193.220 Y163.933 F1000
G1 X190.447 Y163.933 F1000
G1 X190.100 Y164.280 F1000
G0 Z3.0 ; Pen up

G0 X190.100 Y163.587 F3000 ; Travel to line 172
G0 Z0.0 ; Pen down
G1 X190.447 Y163.933 F1000
G1 X193.220 Y163.933 F1000
G1 X193.567 Y163.587 F1000
G1 X193.567 Y160.813 F1000
G1 X193.220 Y160.467 F1000
G1 X190.447 Y160.467 F1000
G1 X190.100 Y160.813 F1000
G0 Z3.0 ; Pen up

G0 X190.100 Y160.120 F3000 ; Travel to line 173
G0 Z0.0 ; Pen down
G1 X190.447 Y160.467 F1000
G1 X193.220 Y160.467 F1000
G1 X193.567 Y160.120 F1000
G1 X193.567 Y157.347 F1000
G1 X193.220 Y157.000 F1000
G1 X190.447 Y157.000 F1000
G1 X190.100 Y157.347 F1000
G0 Z3.0 ; Pen up

G0 X190.100 Y156.653 F3000 ; Travel to line 174
G0 Z0.0 ; Pen down
G1 X190.447 Y157.000 F1000
G1 X193.220 Y157.000 F1000
G1 X193.567 Y156.653 F1000
G1 X193.567 Y153.880 F1000
G1 X193.220 Y153.533 F1000
G1 X190.447 Y153.533 F1000
G1 X190.100 Y153.880 F1000
G0 Z3.0 ; Pen up

G0 X190.100 Y153.187 F3000 ; Travel to line 175
G0 Z0.0 ; Pen down
G1 X190.447 Y153.533 F1000
G1 X193.220 Y153.533 F1000
G1 X193.567 Y153.187 F1000
G1 X193.567 Y150.413 F1000
G1 X193.220 Y150.067 F1000
G1 X190.447 Y150.067 F1000
G1 X190.100 Y150.413 F1000
G0 Z3.0 ; Pen up

G0 X190.100 Y149.720 F3000 ; Travel to line 176
G0 Z0.0 ; Pen down
G1 X190.447 Y150.067 F1000
G1 X193.220 Y150.067 F1000
G1 X193.567 Y149.720 F1000
G1 X193.567 Y146.947 F1000
G1 X193.220 Y146.600 F1000
G1 X190.447 Y146.600 F1000
G1 X190.100 Y146.947 F1000
G0 Z3.0 ; Pen up

G0 X190.100 Y146.253 F3000 ; Travel to line 177
G0 Z0.0 ; Pen down
G1 X190.447 Y146.600 F1000
G1 X193.220 Y146.600 F1000
G1 X193.567 Y146.253 F1000
G1 X193.567 Y143.480 F1000
G1 X193.220 Y143.133 F1000
G1 X190.447 Y143.133 F1000
G1 X190.100 Y143.480 F1000
G0 Z3.0 ; Pen up

G0 X190.100 Y142.787 F3000 ; Travel to line 178
G0 Z0.0 ; Pen down
G1 X190.447 Y143.133 F1000
G1 X193.220 Y143.133 F1000
G1 X193.567 Y142.787 F1000
G1 X193.567 Y140.360 F1000
G1 X193.220 Y140.013 F1000
G1 X190.447 Y140.013 F1000
G1 X190.100 Y140.360 F1000
G0 Z3.0 ; Pen up

G0 X186.633 Y140.360 F3000 ; Travel to line 179
G0 Z0.0 ; Pen down
G1 X186.980 Y140.013 F1000
G1 X189.753 Y140.013 F1000
G1 X190.100 Y140.360 F1000
G1 X190.100 Y142.787 F1000
G1 X189.753 Y143.133 F1000
G1 X186.980 Y143.133 F1000
G1 X186.633 Y142.787 F1000
G0 Z3.0 ; Pen up

G0 X186.633 Y143.480 F3000 ; Travel to line 180
G0 Z0.0 ; Pen down
G1 X186.980 Y143.133 F1000
G1 X189.753 Y143.133 F1000
G1 X190.100 Y143.480 F1000
G1 X190.100 Y146.253 F1000
G1 X189.753 Y146.600 F1000
G1 X186.980 Y146.600 F1000
G1 X186.633 Y146.253 F1000
G0 Z3.0 ; Pen up

G0 X186.633 Y146.947 F3000 ; Travel to line 181
G0 Z0.0 ; Pen down
G1 X186.980 Y146.600 F1000
G1 X189.753 Y146.600 F1000
G1 X190.100 Y146.947 F1000
G1 X190.100 Y149.720 F1000
G1 X189.753 Y150.067 F1000
G1 X186.980 Y150.067 F1000
G1 X186.633 Y149.720 F1000
G0 Z3.0 ; Pen up

G0 X186.633 Y150.413 F3000 ; Travel to line 182
G0 Z0.0 ; Pen down
G1 X186.980 Y150.067 F1000
G1 X189.753 Y150.067 F1000
G1 X190.100 Y150.413 F1000
G1 X190.100 Y153.187 F1000
G1 X189.753 Y153.533 F1000
G1 X186.980 Y153.533 F1000
G1 X186.633 Y153.187 F1000
G0 Z3.0 ; Pen up

G0 X186.633 Y153.880 F3000 ; Travel to line 183
G0 Z0.0 ; Pen down
G1 X186.980 Y153.533 F1000
G1 X189.753 Y153.533 F1000
G1 X190.100 Y153.880 F1000
G1 X190.100 Y156.653 F1000
G1 X189.753 Y157.000 F1000
G1 X186.980 Y157.000 F1000
G1 X186.633 Y156.653 F1000
G0 Z3.0 ; Pen up

G0 X186.633 Y157.347 F3000 ; Travel to line 184
G0 Z0.0 ; Pen down
G1 X186.980 Y157.000 F1000
G1 X189.753 Y157.000 F1000
G1 X190.100 Y157.347 F1000
G1 X190.100 Y160.120 F1000
G1 X189.753 Y160.467 F1000
G1 X186.980 Y160.467 F1000
G1 X186.633 Y160.120 F1000
G0 Z3.0 ; Pen up

G0 X186.633 Y160.813 F3000 ; Travel to line 185
G0 Z0.0 ; Pen down
G1 X186.980 Y160.467 F1000
G1 X189.753 Y160.467 F1000
G1 X190.100 Y160.813 F1000
G1 X190.100 Y163.587 F1000
G1 X189.753 Y163.933 F1000
G1 X186.980 Y163.933 F1000
G1 X186.633 Y163.587 F1000
G0 Z3.0 ; Pen up

G0 X186.633 Y164.280 F3000 ; Travel to line 186
G0 Z0.0 ; Pen down
G1 X186.980 Y163.933 F1000
G1 X189.753 Y163.933 F1000
G1 X190.100 Y164.280 F1000
G1 X190.100 Y167.053 F1000
G1 X189.753 Y167.400 F1000
G1 X186.980 Y167.400 F1000
G1 X186.633 Y167.053 F1000
G0 Z3.0 ; Pen up

G0 X186.633 Y167.747 F3000 ; Travel to line 187
G0 Z0.0 ; Pen down
G1 X186.980 Y167.400 F1000
G1 X189.753 Y167.400 F1000
G1 X190.100 Y167.747 F1000
G1 X190.100 Y170.520 F1000
G1 X189.753 Y170.867 F1000
G1 X186.980 Y170.867 F1000
G1 X186.633 Y170.520 F1000
G0 Z3.0 ; Pen up

G0 X186.633 Y171.213 F3000 ; Travel to line 188
G0 Z0.0 ; Pen down
G1 X186.980 Y170.867 F1000
G1 X189.753 Y170.867 F1000
G1 X190.100 Y171.213 F1000
G1 X190.100 Y173.987 F1000
G1 X189.753 Y174.333 F1000
G1 X186.980 Y174.333 F1000
G1 X186.633 Y173.987 F1000
G0 Z3.0 ; Pen up

G0 X186.633 Y174.680 F3000 ; Travel to line 189
G0 Z0.0 ; Pen down
G1 X186.980 Y174.333 F1000
G1 X189.753 Y174.333 F1000
G1 X190.100 Y174.680 F1000
G1 X190.100 Y177.453 F1000
G1 X189.753 Y177.800 F1000
G1 X186.980 Y177.800 F1000
G1 X186.633 Y177.453 F1000
G0 Z3.0 ; Pen up

G0 X186.633 Y178.147 F3000 ; Travel to line 190
G0 Z0.0 ; Pen down
G1 X186.980 Y177.800 F1000
G1 X189.753 Y177.800 F1000
G1 X190.100 Y178.147 F1000
G1 X190.100 Y180.920 F1000
G1 X189.753 Y181.267 F1000
G1 X186.980 Y181.267 F1000
G1 X186.633 Y180.920 F1000
G0 Z3.0 ; Pen up

G0 X186.633 Y181.613 F3000 ; Travel to line 191
G0 Z0.0 ; Pen down
G1 X186.980 Y181.267 F1000
G1 X189.753 Y181.267 F1000
G1 X190.100 Y181.613 F1000
G1 X190.100 Y184.387 F1000
G1 X189.753 Y184.733 F1000
G1 X186.980 Y184.733 F1000
G1 X186.633 Y184.387 F1000
G0 Z3.0 ; Pen up

G0 X186.633 Y185.080 F3000 ; Travel to line 192
G0 Z0.0 ; Pen down
G1 X186.980 Y184.733 F1000
G1 X189.753 Y184.733 F1000
G1 X190.100 Y185.080 F1000
G1 X190.100 Y187.853 F1000
G1 X189.753 Y188.200 F1000
G1 X186.980 Y188.200 F1000
G1 X186.633 Y187.853 F1000
G0 Z3.0 ; Pen up

G0 X186.633 Y188.547 F3000 ; Travel to line 193
G0 Z0.0 ; Pen down
G1 X186.980 Y188.200 F1000
G1 X189.753 Y188.200 F1000
G1 X190.100 Y188.547 F1000
G1 X190.100 Y191.320 F1000
G1 X189.753 Y191.667 F1000
G1 X186.980 Y191.667 F1000
G1 X186.633 Y191.320 F1000
G0 Z3.0 ; Pen up

G0 X183.167 Y191.320 F3000 ; Travel to line 194
G0 Z0.0 ; Pen down
G1 X183.513 Y191.667 F1000
G1 X186.287 Y191.667 F1000
G1 X186.633 Y191.320 F1000
G1 X186.633 Y188.547 F1000
G1 X186.287 Y188.200 F1000
G1 X183.513 Y188.200 F1000
G1 X183.167 Y188.547 F1000
G0 Z3.0 ; Pen up

G0 X183.167 Y187.853 F3000 ; Travel to line 195
G0 Z0.0 ; Pen down
G1 X183.513 Y188.200 F1000
G1 X186.287 Y188.200 F1000
G1 X186.633 Y187.853 F1000
G1 X186.633 Y185.080 F1000
G1 X186.287 Y184.733 F1000
G1 X183.513 Y184.733 F1000
G1 X183.167 Y185.080 F1000
G0 Z3.0 ; Pen up

G0 X183.167 Y184.387 F3000 ; Travel to line 196
G0 Z0.0 ; Pen down
G1 X183.513 Y184.733 F1000
G1 X186.287 Y184.733 F1000
G1 X186.633 Y184.387 F1000
G1 X186.633 Y181.613 F1000
G1 X186.287 Y181.267 F1000
G1 X183.513 Y181.267 F1000
G1 X183.167 Y181.613 F1000
G0 Z3.0 ; Pen up

G0 X183.167 Y180.920 F3000 ; Travel to line 197
G0 Z0.0 ; Pen down
G1 X183.513 Y181.267 F1000
G1 X186.287 Y181.267 F1000
G1 X186.633 Y180.920 F1000
G1 X186.633 Y178.147 F1000
G1 X186.287 Y177.800 F1000
G1 X183.513 Y177.800 F1000
G1 X183.167 Y178.147 F1000
G0 Z3.0 ; Pen up

G0 X183.167 Y177.453 F3000 ; Travel to line 198
G0 Z0.0 ; Pen down
G1 X183.513 Y177.800 F1000
G1 X186.287 Y177.800 F1000
G1 X186.633 Y177.453 F1000
G1 X186.633 Y174.680 F1000
G1 X186.287 Y174.333 F1000
G1 X183.513 Y174.333 F1000
G1 X183.167 Y174.680 F1000
G0 Z3.0 ; Pen up

G0 X183.167 Y173.987 F3000 ; Travel to line 199
G0 Z0.0 ; Pen down
G1 X183.513 Y174.333 F1000
G1 X186.287 Y174.333 F1000
G1 X186.633 Y173.987 F1000
G1 X186.633 Y171.213 F1000
G1 X186.287 Y170.867 F1000
G1 X183.513 Y170.867 F1000
G1 X183.167 Y171.213 F1000
G0 Z3.0 ; Pen up

G0 X183.167 Y170.520 F3000 ; Travel to line 200
G0 Z0.0 ; Pen down
G1 X183.513 Y170.867 F1000
G1 X186.287 Y170.867 F1000
G1 X186.633 Y170.520 F1000
G1 X186.633 Y167.747 F1000
G1 X186.287 Y167.400 F1000
G1 X183.513 Y167.400 F1000
G1 X183.167 Y167.747 F1000
G0 Z3.0 ; Pen up

G0 X183.167 Y167.053 F3000 ; Travel to line 201
G0 Z0.0 ; Pen down
G1 X183.513 Y167.400 F1000
G1 X186.287 Y167.400 F1000
G1 X186.633 Y167.053 F1000
G1 X186.633 Y164.280 F1000
G1 X186.287 Y163.933 F1000
G1 X183.513 Y163.933 F1000
G1 X183.167 Y164.280 F1000
G0 Z3.0 ; Pen up

G0 X183.167 Y163.587 F3000 ; Travel to line 202
G0 Z0.0 ; Pen down
G1 X183.513 Y163.933 F1000
G1 X186.287 Y163.933 F1000
G1 X186.633 Y163.587 F1000
G1 X186.633 Y160.813 F1000
G1 X186.287 Y160.467 F1000
G1 X183.513 Y160.467 F1000
G1 X183.167 Y160.813 F1000
G0 Z3.0 ; Pen up

G0 X183.167 Y160.120 F3000 ; Travel to line 203
G0 Z0.0 ; Pen down
G1 X183.513 Y160.467 F1000
G1 X186.287 Y160.467 F1000
G1 X186.633 Y160.120 F1000
G1 X186.633 Y157.347 F1000
G1 X186.287 Y157.000 F1000
G1 X183.513 Y157.000 F1000
G1 X183.167 Y157.347 F1000
G0 Z3.0 ; Pen up

G0 X183.167 Y156.653 F3000 ; Travel to line 204
G0 Z0.0 ; Pen down
G1 X183.513 Y157.000 F1000
G1 X186.287 Y157.000 F1000
G1 X186.633 Y156.653 F1000
G1 X186.633 Y153.880 F1000
G1 X186.287 Y153.533 F1000
G1 X183.513 Y153.533 F1000
G1 X183.167 Y153.880 F1000
G0 Z3.0 ; Pen up

G0 X183.167 Y153.187 F3000 ; Travel to line 205
G0 Z0.0 ; Pen down
G1 X183.513 Y153.533 F1000
G1 X186.287 Y153.533 F1000
G1 X186.633 Y153.187 F1000
G1 X186.633 Y150.413 F1000
G1 X186.287 Y150.067 F1000
G1 X183.513 Y150.067 F1000
G1 X183.167 Y150.413 F1000
G0 Z3.0 ; Pen up

G0 X183.167 Y149.720 F3000 ; Travel to line 206
G0 Z0.0 ; Pen down
G1 X183.513 Y150.067 F1000
G1 X186.287 Y150.067 F1000
G1 X186.633 Y149.720 F1000
G1 X186.633 Y146.947 F1000
G1 X186.287 Y146.600 F1000
G1 X183.513 Y146.600 F1000
G1 X183.167 Y146.947 F1000
G0 Z3.0 ; Pen up

G0 X183.167 Y146.253 F3000 ; Travel to line 207
G0 Z0.0 ; Pen down
G1 X183.513 Y146.600 F1000
G1 X186.287 Y146.600 F1000
G1 X186.633 Y146.253 F1000
G1 X186.633 Y143.480 F1000
G1 X186.287 Y143.133 F1000
G1 X183.513 Y143.133 F1000
G1 X183.167 Y143.480 F1000
G0 Z3.0 ; Pen up

G0 X183.167 Y142.787 F3000 ; Travel to line 208
G0 Z0.0 ; Pen down
G1 X183.513 Y143.133 F1000
G1 X186.287 Y143.133 F1000
G1 X186.633 Y142.787 F1000
G1 X186.633 Y140.360 F1000
G1 X186.287 Y140.013 F1000
G1 X183.513 Y140.013 F1000
G1 X183.167 Y140.360 F1000
G0 Z3.0 ; Pen up

G0 X179.700 Y140.360 F3000 ; Travel to line 209
G0 Z0.0 ; Pen down
G1 X180.047 Y140.013 F1000
G1 X182.820 Y140.013 F1000
G1 X183.167 Y140.360 F1000
G1 X183.167 Y142.787 F1000
G1 X182.820 Y143.133 F1000
G1 X180.047 Y143.133 F1000
G1 X179.700 Y142.787 F1000
G0 Z3.0 ; Pen up

G0 X179.700 Y143.480 F3000 ; Travel to line 210
G0 Z0.0 ; Pen down
G1 X180.047 Y143.133 F1000
G1 X182.820 Y143.133 F1000
G1 X183.167 Y143.480 F1000
G1 X183.167 Y146.253 F1000
G1 X182.820 Y146.600 F1000
G1 X180.047 Y146.600 F1000
G1 X179.700 Y146.253 F1000
G0 Z3.0 ; Pen up

G0 X179.700 Y146.947 F3000 ; Travel to line 211
G0 Z0.0 ; Pen down
G1 X180.047 Y146.600 F1000
G1 X182.820 Y146.600 F1000
G1 X183.167 Y146.947 F1000
G1 X183.167 Y149.720 F1000
G1 X182.820 Y150.067 F1000
G1 X180.047 Y150.067 F1000
G1 X179.700 Y149.720 F1000
G0 Z3.0 ; Pen up

G0 X179.700 Y150.413 F3000 ; Travel to line 212
G0 Z0.0 ; Pen down
G1 X180.047 Y150.067 F1000
G1 X182.820 Y150.067 F1000
G1 X183.167 Y150.413 F1000
G1 X183.167 Y153.187 F1000
G1 X182.820 Y153.533 F1000
G1 X180.047 Y153.533 F1000
G1 X179.700 Y153.187 F1000
G0 Z3.0 ; Pen up

G0 X179.700 Y153.880 F3000 ; Travel to line 213
G0 Z0.0 ; Pen down
G1 X180.047 Y153.533 F1000
G1 X182.820 Y153.533 F1000
G1 X183.167 Y153.880 F1000
G1 X183.167 Y156.653 F1000
G1 X182.820 Y157.000 F1000
G1 X180.047 Y157.000 F1000
G1 X179.700 Y156.653 F1000
G0 Z3.0 ; Pen up

G0 X179.700 Y157.347 F3000 ; Travel to line 214
G0 Z0.0 ; Pen down
G1 X180.047 Y157.000 F1000
G1 X182.820 Y157.000 F1000
G1 X183.167 Y157.347 F1000
G1 X183.167 Y160.120 F1000
G1 X182.820 Y160.467 F1000
G1 X180.047 Y160.467 F1000
G1 X179.700 Y160.120 F1000
G0 Z3.0 ; Pen up

G0 X179.700 Y160.813 F3000 ; Travel to line 215
G0 Z0.0 ; Pen down
G1 X180.047 Y160.467 F1000
G1 X182.820 Y160.467 F1000
G1 X183.167 Y160.813 F1000
G1 X183.167 Y163.587 F1000
G1 X182.820 Y163.933 F1000
G1 X180.047 Y163.933 F1000
G1 X179.700 Y163.587 F1000
G0 Z3.0 ; Pen up

G0 X179.700 Y164.280 F3000 ; Travel to line 216
G0 Z0.0 ; Pen down
G1 X180.047 Y163.933 F1000
G1 X182.820 Y163.933 F1000
G1 X183.167 Y164.280 F1000
G1 X183.167 Y167.053 F1000
G1 X182.820 Y167.400 F1000
G1 X180.047 Y167.400 F1000
G1 X179.700 Y167.053 F1000
G0 Z3.0 ; Pen up

G0 X179.700 Y167.747 F3000 ; Travel to line 217
G0 Z0.0 ; Pen down
G1 X180.047 Y167.400 F1000
G1 X182.820 Y167.400 F1000
G1 X183.167 Y167.747 F1000
G1 X183.167 Y170.520 F1000
G1 X182.820 Y170.867 F1000
G1 X180.047 Y170.867 F1000
G1 X179.700 Y170.520 F1000
G0 Z3.0 ; Pen up

G0 X179.700 Y171.213 F3000 ; Travel to line 218
G0 Z0.0 ; Pen down
G1 X180.047 Y170.867 F1000
G1 X182.820 Y170.867 F1000
G1 X183.167 Y171.213 F1000
G1 X183.167 Y173.987 F1000
G1 X182.820 Y174.333 F1000
G1 X180.047 Y174.333 F1000
G1 X179.700 Y173.987 F1000
G0 Z3.0 ; Pen up

G0 X179.700 Y174.680 F3000 ; Travel to line 219
G0 Z0.0 ; Pen down
G1 X180.047 Y174.333 F1000
G1 X182.820 Y174.333 F1000
G1 X183.167 Y174.680 F1000
G1 X183.167 Y177.453 F1000
G1 X182.820 Y177.800 F1000
G1 X180.047 Y177.800 F1000
G1 X179.700 Y177.453 F1000
G0 Z3.0 ; Pen up

G0 X179.700 Y178.147 F3000 ; Travel to line 220
G0 Z0.0 ; Pen down
G1 X180.047 Y177.800 F1000
G1 X182.820 Y177.800 F1000
G1 X183.167 Y178.147 F1000
G1 X183.167 Y180.920 F1000
G1 X182.820 Y181.267 F1000
G1 X180.047 Y181.267 F1000
G1 X179.700 Y180.920 F1000
G0 Z3.0 ; Pen up

G0 X179.700 Y181.613 F3000 ; Travel to line 221
G0 Z0.0 ; Pen down
G1 X180.047 Y181.267 F1000
G1 X182.820 Y181.267 F1000
G1 X183.167 Y181.613 F1000
G1 X183.167 Y184.387 F1000
G1 X182.820 Y184.733 F1000
G1 X180.047 Y184.733 F1000
G1 X179.700 Y184.387 F1000
G0 Z3.0 ; Pen up

G0 X179.700 Y185.080 F3000 ; Travel to line 222
G0 Z0.0 ; Pen down
G1 X180.047 Y184.733 F1000
G1 X182.820 Y184.733 F1000
G1 X183.167 Y185.080 F1000
G1 X183.167 Y187.853 F1000
G1 X182.820 Y188.200 F1000
G1 X180.047 Y188.200 F1000
G1 X179.700 Y187.853 F1000
G0 Z3.0 ; Pen up

G0 X179.700 Y188.547 F3000 ; Travel to line 223
G0 Z0.0 ; Pen down
G1 X180.047 Y188.200 F1000
G1 X182.820 Y188.200 F1000
G1 X183.167 Y188.547 F1000
G1 X183.167 Y191.320 F1000
G1 X182.820 Y191.667 F1000
G1 X180.047 Y191.667 F1000
G1 X179.700 Y191.320 F1000
G0 Z3.0 ; Pen up

G0 X176.233 Y191.320 F3000 ; Travel to line 224
G0 Z0.0 ; Pen down
G1 X176.580 Y191.667 F1000
G1 X179.353 Y191.667 F1000
G1 X179.700 Y191.320 F1000
G1 X179.700 Y188.547 F1000
G1 X179.353 Y188.200 F1000
G1 X176.580 Y188.200 F1000
G1 X176.233 Y188.547 F1000
G0 Z3.0 ; Pen up

G0 X176.233 Y187.853 F3000 ; Travel to line 225
G0 Z0.0 ; Pen down
G1 X176.580 Y188.200 F1000
G1 X179.353 Y188.200 F1000
G1 X179.700 Y187.853 F1000
G1 X179.700 Y185.080 F1000
G1 X179.353 Y184.733 F1000
G1 X176.580 Y184.733 F1000
G1 X176.233 Y185.080 F1000
G0 Z3.0 ; Pen up

G0 X176.233 Y184.387 F3000 ; Travel to line 226
G0 Z0.0 ; Pen down
G1 X176.580 Y184.733 F1000
G1 X179.353 Y184.733 F1000
G1 X179.700 Y184.387 F1000
G1 X179.700 Y181.613 F1000
G1 X179.353 Y181.267 F1000
G1 X176.580 Y181.267 F1000
G1 X176.233 Y181.613 F1000
G0 Z3.0 ; Pen up

G0 X176.233 Y180.920 F3000 ; Travel to line 227
G0 Z0.0 ; Pen down
G1 X176.580 Y181.267 F1000
G1 X179.353 Y181.267 F1000
G1 X179.700 Y180.920 F1000
G1 X179.700 Y178.147 F1000
G1 X179.353 Y177.800 F1000
G1 X176.580 Y177.800 F1000
G1 X176.233 Y178.147 F1000
G0 Z3.0 ; Pen up

G0 X176.233 Y177.453 F3000 ; Travel to line 228
G0 Z0.0 ; Pen down
G1 X176.580 Y177.800 F1000
G1 X179.353 Y177.800 F1000
G1 X179.700 Y177.453 F1000
G1 X179.700 Y174.680 F1000
G1 X179.353 Y174.333 F1000
G1 X176.580 Y174.333 F1000
G1 X176.233 Y174.680 F1000
G0 Z3.0 ; Pen up

G0 X176.233 Y173.987 F3000 ; Travel to line 229
G0 Z0.0 ; Pen down
G1 X176.580 Y174.333 F1000
G1 X179.353 Y174.333 F1000
G1 X179.700 Y173.987 F1000
G1 X179.700 Y171.213 F1000
G1 X179.353 Y170.867 F1000
G1 X176.580 Y170.867 F1000
G1 X176.233 Y171.213 F1000
G0 Z3.0 ; Pen up

G0 X176.233 Y170.520 F3000 ; Travel to line 230
G0 Z0.0 ; Pen down
G1 X176.580 Y170.867 F1000
G1 X179.353 Y170.867 F1000
G1 X179.700 Y170.520 F1000
G1 X179.700 Y167.747 F1000
G1 X179.353 Y167.400 F1000
G1 X176.580 Y167.400 F1000
G1 X176.233 Y167.747 F1000
G0 Z3.0 ; Pen up

G0 X176.233 Y167.053 F3000 ; Travel to line 231
G0 Z0.0 ; Pen down
G1 X176.580 Y167.400 F1000
G1 X179.353 Y167.400 F1000
G1 X179.700 Y167.053 F1000
G1 X179.700 Y164.280 F1000
G1 X179.353 Y163.933 F1000
G1 X176.580 Y163.933 F1000
G1 X176.233 Y164.280 F1000
G0 Z3.0 ; Pen up

G0 X176.233 Y163.587 F3000 ; Travel to line 232
G0 Z0.0 ; Pen down
G1 X176.580 Y163.933 F1000
G1 X179.353 Y163.933 F1000
G1 X179.700 Y163.587 F1000
G1 X179.700 Y160.813 F1000
G1 X179.353 Y160.467 F1000
G1 X176.580 Y160.467 F1000
G1 X176.233 Y160.813 F1000
G0 Z3.0 ; Pen up

G0 X176.233 Y160.120 F3000 ; Travel to line 233
G0 Z0.0 ; Pen down
G1 X176.580 Y160.467 F1000
G1 X179.353 Y160.467 F1000
G1 X179.700 Y160.120 F1000
G1 X179.700 Y157.347 F1000
G1 X179.353 Y157.000 F1000
G1 X176.580 Y157.000 F1000
G1 X176.233 Y157.347 F1000
G0 Z3.0 ; Pen up

G0 X176.233 Y156.653 F3000 ; Travel to line 234
G0 Z0.0 ; Pen down
G1 X176.580 Y157.000 F1000
G1 X179.353 Y157.000 F1000
G1 X179.700 Y156.653 F1000
G1 X179.700 Y153.880 F1000
G1 X179.353 Y153.533 F1000
G1 X176.580 Y153.533 F1000
G1 X176.233 Y153.880 F1000
G0 Z3.0 ; Pen up

G0 X176.233 Y153.187 F3000 ; Travel to line 235
G0 Z0.0 ; Pen down
G1 X176.580 Y153.533 F1000
G1 X179.353 Y153.533 F1000
G1 X179.700 Y153.187 F1000
G1 X179.700 Y150.413 F1000
G1 X179.353 Y150.067 F1000
G1 X176.580 Y150.067 F1000
G1 X176.233 Y150.413 F1000
G0 Z3.0 ; Pen up

G0 X176.233 Y149.720 F3000 ; Travel to line 236
G0 Z0.0 ; Pen down
G1 X176.580 Y150.067 F1000
G1 X179.353 Y150.067 F1000
G1 X179.700 Y149.720 F1000
G1 X179.700 Y146.947 F1000
G1 X179.353 Y146.600 F1000
G1 X176.580 Y146.600 F1000
G1 X176.233 Y146.947 F1000
G0 Z3.0 ; Pen up

G0 X176.233 Y146.253 F3000 ; Travel to line 237
G0 Z0.0 ; Pen down
G1 X176.580 Y146.600 F1000
G1 X179.353 Y146.600 F1000
G1 X179.700 Y146.253 F1000
G1 X179.700 Y143.480 F1000
G1 X179.353 Y143.133 F1000
G1 X176.580 Y143.133 F1000
G1 X176.233 Y143.480 F1000
G0 Z3.0 ; Pen up

G0 X176.233 Y142.787 F3000 ; Travel to line 238
G0 Z0.0 ; Pen down
G1 X176.580 Y143.133 F1000
G1 X179.353 Y143.133 F1000
G1 X179.700 Y142.787 F1000
G1 X179.700 Y140.360 F1000
G1 X179.353 Y140.013 F1000
G1 X176.580 Y140.013 F1000
G1 X176.233 Y140.360 F1000
G0 Z3.0 ; Pen up

G0 X172.767 Y140.360 F3000 ; Travel to line 239
G0 Z0.0 ; Pen down
G1 X173.113 Y140.013 F1000
G1 X175.887 Y140.013 F1000
G1 X176.233 Y140.360 F1000
G1 X176.233 Y142.787 F1000
G1 X175.887 Y143.133 F1000
G1 X173.113 Y143.133 F1000
G1 X172.767 Y142.787 F1000
G0 Z3.0 ; Pen up

G0 X172.767 Y143.480 F3000 ; Travel to line 240
G0 Z0.0 ; Pen down
G1 X173.113 Y143.133 F1000
G1 X175.887 Y143.133 F1000
G1 X176.233 Y143.480 F1000
G1 X176.233 Y146.253 F1000
G1 X175.887 Y146.600 F1000
G1 X173.113 Y146.600 F1000
G1 X172.767 Y146.253 F1000
G0 Z3.0 ; Pen up

G0 X172.767 Y146.947 F3000 ; Travel to line 241
G0 Z0.0 ; Pen down
G1 X173.113 Y146.600 F1000
G1 X175.887 Y146.600 F1000
G1 X176.233 Y146.947 F1000
G1 X176.233 Y149.720 F1000
G1 X175.887 Y150.067 F1000
G1 X173.113 Y150.067 F1000
G1 X172.767 Y149.720 F1000
G0 Z3.0 ; Pen up

G0 X172.767 Y150.413 F3000 ; Travel to line 242
G0 Z0.0 ; Pen down
G1 X173.113 Y150.067 F1000
G1 X175.887 Y150.067 F1000
G1 X176.233 Y150.413 F1000
G1 X176.233 Y153.187 F1000
G1 X175.887 Y153.533 F1000
G1 X173.113 Y153.533 F1000
G1 X172.767 Y153.187 F1000
G0 Z3.0 ; Pen up

G0 X172.767 Y153.880 F3000 ; Travel to line 243
G0 Z0.0 ; Pen down
G1 X173.113 Y153.533 F1000
G1 X175.887 Y153.533 F1000
G1 X176.233 Y153.880 F1000
G1 X176.233 Y156.653 F1000
G1 X175.887 Y157.000 F1000
G1 X173.113 Y157.000 F1000
G1 X172.767 Y156.653 F1000
G0 Z3.0 ; Pen up

G0 X172.767 Y157.347 F3000 ; Travel to line 244
G0 Z0.0 ; Pen down
G1 X173.113 Y157.000 F1000
G1 X175.887 Y157.000 F1000
G1 X176.233 Y157.347 F1000
G1 X176.233 Y160.120 F1000
G1 X175.887 Y160.467 F1000
G1 X173.113 Y160.467 F1000
G1 X172.767 Y160.120 F1000
G0 Z3.0 ; Pen up

G0 X172.767 Y160.813 F3000 ; Travel to line 245
G0 Z0.0 ; Pen down
G1 X173.113 Y160.467 F1000
G1 X175.887 Y160.467 F1000
G1 X176.233 Y160.813 F1000
G1 X176.233 Y163.587 F1000
G1 X175.887 Y163.933 F1000
G1 X173.113 Y163.933 F1000
G1 X172.767 Y163.587 F1000
G0 Z3.0 ; Pen up

G0 X172.767 Y164.280 F3000 ; Travel to line 246
G0 Z0.0 ; Pen down
G1 X173.113 Y163.933 F1000
G1 X175.887 Y163.933 F1000
G1 X176.233 Y164.280 F1000
G1 X176.233 Y167.053 F1000
G1 X175.887 Y167.400 F1000
G1 X173.113 Y167.400 F1000
G1 X172.767 Y167.053 F1000
G0 Z3.0 ; Pen up

G0 X172.767 Y167.747 F3000 ; Travel to line 247
G0 Z0.0 ; Pen down
G1 X173.113 Y167.400 F1000
G1 X175.887 Y167.400 F1000
G1 X176.233 Y167.747 F1000
G1 X176.233 Y170.520 F1000
G1 X175.887 Y170.867 F1000
G1 X173.113 Y170.867 F1000
G1 X172.767 Y170.520 F1000
G0 Z3.0 ; Pen up

G0 X172.767 Y171.213 F3000 ; Travel to line 248
G0 Z0.0 ; Pen down
G1 X173.113 Y170.867 F1000
G1 X175.887 Y170.867 F1000
G1 X176.233 Y171.213 F1000
G1 X176.233 Y173.987 F1000
G1 X175.887 Y174.333 F1000
G1 X173.113 Y174.333 F1000
G1 X172.767 Y173.987 F1000
G0 Z3.0 ; Pen up

G0 X172.767 Y174.680 F3000 ; Travel to line 249
G0 Z0.0 ; Pen down
G1 X173.113 Y174.333 F1000
G1 X175.887 Y174.333 F1000
G1 X176.233 Y174.680 F1000
G1 X176.233 Y177.453 F1000
G1 X175.887 Y177.800 F1000
G1 X173.113 Y177.800 F1000
G1 X172.767 Y177.453 F1000
G0 Z3.0 ; Pen up

G0 X172.767 Y178.147 F3000 ; Travel to line 250
G0 Z0.0 ; Pen down
G1 X173.113 Y177.800 F1000
G1 X175.887 Y177.800 F1000
G1 X176.233 Y178.147 F1000
G1 X176.233 Y180.920 F1000
G1 X175.887 Y181.267 F1000
G1 X173.113 Y181.267 F1000
G1 X172.767 Y180.920 F1000
G0 Z3.0 ; Pen up

G0 X172.767 Y181.613 F3000 ; Travel to line 251
G0 Z0.0 ; Pen down
G1 X173.113 Y181.267 F1000
G1 X175.887 Y181.267 F1000
G1 X176.233 Y181.613 F1000
G1 X176.233 Y184.387 F1000
G1 X175.887 Y184.733 F1000
G1 X173.113 Y184.733 F1000
G1 X172.767 Y184.387 F1000
G0 Z3.0 ; Pen up

G0 X172.767 Y185.080 F3000 ; Travel to line 252
G0 Z0.0 ; Pen down
G1 X173.113 Y184.733 F1000
G1 X175.887 Y184.733 F1000
G1 X176.233 Y185.080 F1000
G1 X176.233 Y187.853 F1000
G1 X175.887 Y188.200 F1000
G1 X173.113 Y188.200 F1000
G1 X172.767 Y187.853 F1000
G0 Z3.0 ; Pen up

G0 X172.767 Y188.547 F3000 ; Travel to line 253
G0 Z0.0 ; Pen down
G1 X173.113 Y188.200 F1000
G1 X175.887 Y188.200 F1000
G1 X176.233 Y188.547 F1000
G1 X176.233 Y191.320 F1000
G1 X175.887 Y191.667 F1000
G1 X173.113 Y191.667 F1000
G1 X172.767 Y191.320 F1000
G0 Z3.0 ; Pen up

G0 X169.300 Y191.320 F3000 ; Travel to line 254
G0 Z0.0 ; Pen down
G1 X169.647 Y191.667 F1000
G1 X172.420 Y191.667 F1000
G1 X172.767 Y191.320 F1000
G1 X172.767 Y188.547 F1000
G1 X172.420 Y188.200 F1000
G1 X169.647 Y188.200 F1000
G1 X169.300 Y188.547 F1000
G0 Z3.0 ; Pen up

G0 X169.300 Y187.853 F3000 ; Travel to line 255
G0 Z0.0 ; Pen down
G1 X169.647 Y188.200 F1000
G1 X172.420 Y188.200 F1000
G1 X172.767 Y187.853 F1000
G1 X172.767 Y185.080 F1000
G1 X172.420 Y184.733 F1000
G1 X169.647 Y184.733 F1000
G1 X169.300 Y185.080 F1000
G0 Z3.0 ; Pen up

G0 X169.300 Y184.387 F3000 ; Travel to line 256
G0 Z0.0 ; Pen down
G1 X169.647 Y184.733 F1000
G1 X172.420 Y184.733 F1000
G1 X172.767 Y184.387 F1000
G1 X172.767 Y181.613 F1000
G1 X172.420 Y181.267 F1000
G1 X169.647 Y181.267 F1000
G1 X169.300 Y181.613 F1000
G0 Z3.0 ; Pen up

G0 X169.300 Y180.920 F3000 ; Travel to line 257
G0 Z0.0 ; Pen down
G1 X169.647 Y181.267 F1000
G1 X172.420 Y181.267 F1000
G1 X172.767 Y180.920 F1000
G1 X172.767 Y178.147 F1000
G1 X172.420 Y177.800 F1000
G1 X169.647 Y177.800 F1000
G1 X169.300 Y178.147 F1000
G0 Z3.0 ; Pen up

G0 X169.300 Y177.453 F3000 ; Travel to line 258
G0 Z0.0 ; Pen down
G1 X169.647 Y177.800 F1000
G1 X172.420 Y177.800 F1000
G1 X172.767 Y177.453 F1000
G1 X172.767 Y174.680 F1000
G1 X172.420 Y174.333 F1000
G1 X169.647 Y174.333 F1000
G1 X169.300 Y174.680 F1000
G0 Z3.0 ; Pen up

G0 X169.300 Y173.987 F3000 ; Travel to line 259
G0 Z0.0 ; Pen down
G1 X169.647 Y174.333 F1000
G1 X172.420 Y174.333 F1000
G1 X172.767 Y173.987 F1000
G1 X172.767 Y171.213 F1000
G1 X172.420 Y170.867 F1000
G1 X169.647 Y170.867 F1000
G1 X169.300 Y171.213 F1000
G0 Z3.0 ; Pen up

G0 X169.300 Y170.520 F3000 ; Travel to line 260
G0 Z0.0 ; Pen down
G1 X169.647 Y170.867 F1000
G1 X172.420 Y170.867 F1000
G1 X172.767 Y170.520 F1000
G1 X172.767 Y167.747 F1000
G1 X172.420 Y167.400 F1000
G1 X169.647 Y167.400 F1000
G1 X169.300 Y167.747 F1000
G0 Z3.0 ; Pen up

G0 X169.300 Y167.053 F3000 ; Travel to line 261
G0 Z0.0 ; Pen down
G1 X169.647 Y167.400 F1000
G1 X172.420 Y167.400 F1000
G1 X172.767 Y167.053 F1000
G1 X172.767 Y164.280 F1000
G1 X172.420 Y163.933 F1000
G1 X169.647 Y163.933 F1000
G1 X169.300 Y164.280 F1000
G0 Z3.0 ; Pen up

G0 X169.300 Y163.587 F3000 ; Travel to line 262
G0 Z0.0 ; Pen down
G1 X169.647 Y163.933 F1000
G1 X172.420 Y163.933 F1000
G1 X172.767 Y163.587 F1000
G1 X172.767 Y160.813 F1000
G1 X172.420 Y160.467 F1000
G1 X169.647 Y160.467 F1000
G1 X169.300 Y160.813 F1000
G0 Z3.0 ; Pen up

G0 X169.300 Y160.120 F3000 ; Travel to line 263
G0 Z0.0 ; Pen down
G1 X169.647 Y160.467 F1000
G1 X172.420 Y160.467 F1000
G1 X172.767 Y160.120 F1000
G1 X172.767 Y157.347 F1000
G1 X172.420 Y157.000 F1000
G1 X169.647 Y157.000 F1000
G1 X169.300 Y157.347 F1000
G0 Z3.0 ; Pen up

G0 X169.300 Y156.653 F3000 ; Travel to line 264
G0 Z0.0 ; Pen down
G1 X169.647 Y157.000 F1000
G1 X172.420 Y157.000 F1000
G1 X172.767 Y156.653 F1000
G1 X172.767 Y153.880 F1000
G1 X172.420 Y153.533 F1000
G1 X169.647 Y153.533 F1000
G1 X169.300 Y153.880 F1000
G0 Z3.0 ; Pen up

G0 X169.300 Y153.187 F3000 ; Travel to line 265
G0 Z0.0 ; Pen down
G1 X169.647 Y153.533 F1000
G1 X172.420 Y153.533 F1000
G1 X172.767 Y153.187 F1000
G1 X172.767 Y150.413 F1000
G1 X172.420 Y150.067 F1000
G1 X169.647 Y150.067 F1000
G1 X169.300 Y150.413 F1000
G0 Z3.0 ; Pen up

G0 X169.300 Y149.720 F3000 ; Travel to line 266
G0 Z0.0 ; Pen down
G1 X169.647 Y150.067 F1000
G1 X172.420 Y150.067 F1000
G1 X172.767 Y149.720 F1000
G1 X172.767 Y146.947 F1000
G1 X172.420 Y146.600 F1000
G1 X169.647 Y146.600 F1000
G1 X169.300 Y146.947 F1000
G0 Z3.0 ; Pen up

G0 X169.300 Y146.253 F3000 ; Travel to line 267
G0 Z0.0 ; Pen down
G1 X169.647 Y146.600 F1000
G1 X172.420 Y146.600 F1000
G1 X172.767 Y146.253 F1000
G1 X172.767 Y143.480 F1000
G1 X172.420 Y143.133 F1000
G1 X169.647 Y143.133 F1000
G1 X169.300 Y143.480 F1000
G0 Z3.0 ; Pen up

G0 X169.300 Y142.787 F3000 ; Travel to line 268
G0 Z0.0 ; Pen down
G1 X169.647 Y143.133 F1000
G1 X172.420 Y143.133 F1000
G1 X172.767 Y142.787 F1000
G1 X172.767 Y140.360 F1000
G1 X172.420 Y140.013 F1000
G1 X169.647 Y140.013 F1000
G1 X169.300 Y140.360 F1000
G0 Z3.0 ; Pen up

G0 X165.833 Y140.360 F3000 ; Travel to line 269
G0 Z0.0 ; Pen down
G1 X166.180 Y140.013 F1000
G1 X168.953 Y140.013 F1000
G1 X169.300 Y140.360 F1000
G1 X169.300 Y142.787 F1000
G1 X168.953 Y143.133 F1000
G1 X166.180 Y143.133 F1000
G1 X165.833 Y142.787 F1000
G0 Z3.0 ; Pen up

G0 X165.833 Y143.480 F3000 ; Travel to line 270
G0 Z0.0 ; Pen down
G1 X166.180 Y143.133 F1000
G1 X168.953 Y143.133 F1000
G1 X169.300 Y143.480 F1000
G1 X169.300 Y146.253 F1000
G1 X168.953 Y146.600 F1000
G1 X166.180 Y146.600 F1000
G1 X165.833 Y146.253 F1000
G0 Z3.0 ; Pen up

G0 X165.833 Y146.947 F3000 ; Travel to line 271
G0 Z0.0 ; Pen down
G1 X166.180 Y146.600 F1000
G1 X168.953 Y146.600 F1000
G1 X169.300 Y146.947 F1000
G1 X169.300 Y149.720 F1000
G1 X168.953 Y150.067 F1000
G1 X166.180 Y150.067 F1000
G1 X165.833 Y149.720 F1000
G0 Z3.0 ; Pen up

G0 X165.833 Y150.413 F3000 ; Travel to line 272
G0 Z0.0 ; Pen down
G1 X166.180 Y150.067 F1000
G1 X168.953 Y150.067 F1000
G1 X169.300 Y150.413 F1000
G1 X169.300 Y153.187 F1000
G1 X168.953 Y153.533 F1000
G1 X166.180 Y153.533 F1000
G1 X165.833 Y153.187 F1000
G0 Z3.0 ; Pen up

G0 X165.833 Y153.880 F3000 ; Travel to line 273
G0 Z0.0 ; Pen down
G1 X166.180 Y153.533 F1000
G1 X168.953 Y153.533 F1000
G1 X169.300 Y153.880 F1000
G1 X169.300 Y156.653 F1000
G1 X168.953 Y157.000 F1000
G1 X166.180 Y157.000 F1000
G1 X165.833 Y156.653 F1000
G0 Z3.0 ; Pen up

G0 X165.833 Y157.347 F3000 ; Travel to line 274
G0 Z0.0 ; Pen down
G1 X166.180 Y157.000 F1000
G1 X168.953 Y157.000 F1000
G1 X169.300 Y157.347 F1000
G1 X169.300 Y160.120 F1000
G1 X168.953 Y160.467 F1000
G1 X166.180 Y160.467 F1000
G1 X165.833 Y160.120 F1000
G0 Z3.0 ; Pen up

G0 X165.833 Y160.813 F3000 ; Travel to line 275
G0 Z0.0 ; Pen down
G1 X166.180 Y160.467 F1000
G1 X168.953 Y160.467 F1000
G1 X169.300 Y160.813 F1000
G1 X169.300 Y163.587 F1000
G1 X168.953 Y163.933 F1000
G1 X166.180 Y163.933 F1000
G1 X165.833 Y163.587 F1000
G0 Z3.0 ; Pen up

G0 X165.833 Y164.280 F3000 ; Travel to line 276
G0 Z0.0 ; Pen down
G1 X166.180 Y163.933 F1000
G1 X168.953 Y163.933 F1000
G1 X169.300 Y164.280 F1000
G1 X169.300 Y167.053 F1000
G1 X168.953 Y167.400 F1000
G1 X166.180 Y167.400 F1000
G1 X165.833 Y167.053 F1000
G0 Z3.0 ; Pen up

G0 X165.833 Y167.747 F3000 ; Travel to line 277
G0 Z0.0 ; Pen down
G1 X166.180 Y167.400 F1000
G1 X168.953 Y167.400 F1000
G1 X169.300 Y167.747 F1000
G1 X169.300 Y170.520 F1000
G1 X168.953 Y170.867 F1000
G1 X166.180 Y170.867 F1000
G1 X165.833 Y170.520 F1000
G0 Z3.0 ; Pen up

G0 X165.833 Y171.213 F3000 ; Travel to line 278
G0 Z0.0 ; Pen down
G1 X166.180 Y170.867 F1000
G1 X168.953 Y170.867 F1000
G1 X169.300 Y171.213 F1000
G1 X169.300 Y173.987 F1000
G1 X168.953 Y174.333 F1000
G1 X166.180 Y174.333 F1000
G1 X165.833 Y173.987 F1000
G0 Z3.0 ; Pen up

G0 X165.833 Y174.680 F3000 ; Travel to line 279
G0 Z0.0 ; Pen down
G1 X166.180 Y174.333 F1000
G1 X168.953 Y174.333 F1000
G1 X169.300 Y174.680 F1000
G1 X169.300 Y177.453 F1000
G1 X168.953 Y177.800 F1000
G1 X166.180 Y177.800 F1000
G1 X165.833 Y177.453 F1000
G0 Z3.0 ; Pen up

G0 X165.833 Y178.147 F3000 ; Travel to line 280
G0 Z0.0 ; Pen down
G1 X166.180 Y177.800 F1000
G1 X168.953 Y177.800 F1000
G1 X169.300 Y178.147 F1000
G1 X169.300 Y180.920 F1000
G1 X168.953 Y181.267 F1000
G1 X166.180 Y181.267 F1000
G1 X165.833 Y180.920 F1000
G0 Z3.0 ; Pen up

G0 X165.833 Y181.613 F3000 ; Travel to line 281
G0 Z0.0 ; Pen down
G1 X166.180 Y181.267 F1000
G1 X168.953 Y181.267 F1000
G1 X169.300 Y181.613 F1000
G1 X169.300 Y184.387 F1000
G1 X168.953 Y184.733 F1000
G1 X166.180 Y184.733 F1000
G1 X165.833 Y184.387 F1000
G0 Z3.0 ; Pen up

G0 X165.833 Y185.080 F3000 ; Travel to line 282
G0 Z0.0 ; Pen down
G1 X166.180 Y184.733 F1000
G1 X168.953 Y184.733 F1000
G1 X169.300 Y185.080 F1000
G1 X169.300 Y187.853 F1000
G1 X168.953 Y188.200 F1000
G1 X166.180 Y188.200 F1000
G1 X165.833 Y187.853 F1000
G0 Z3.0 ; Pen up

G0 X165.833 Y188.547 F3000 ; Travel to line 283
G0 Z0.0 ; Pen down
G1 X166.180 Y188.200 F1000
G1 X168.953 Y188.200 F1000
G1 X169.300 Y188.547 F1000
G1 X169.300 Y191.320 F1000
G1 X168.953 Y191.667 F1000
G1 X166.180 Y191.667 F1000
G1 X165.833 Y191.320 F1000
G0 Z3.0 ; Pen up

G0 X162.367 Y191.320 F3000 ; Travel to line 284
G0 Z0.0 ; Pen down
G1 X162.713 Y191.667 F1000
G1 X165.487 Y191.667 F1000
G1 X165.833 Y191.320 F1000
G1 X165.833 Y188.547 F1000
G1 X165.487 Y188.200 F1000
G1 X162.713 Y188.200 F1000
G1 X162.367 Y188.547 F1000
G0 Z3.0 ; Pen up

G0 X162.367 Y187.853 F3000 ; Travel to line 285
G0 Z0.0 ; Pen down
G1 X162.713 Y188.200 F1000
G1 X165.487 Y188.200 F1000
G1 X165.833 Y187.853 F1000
G1 X165.833 Y185.080 F1000
G1 X165.487 Y184.733 F1000
G1 X162.713 Y184.733 F1000
G1 X162.367 Y185.080 F1000
G0 Z3.0 ; Pen up

G0 X162.367 Y184.387 F3000 ; Travel to line 286
G0 Z0.0 ; Pen down
G1 X162.713 Y184.733 F1000
G1 X165.487 Y184.733 F1000
G1 X165.833 Y184.387 F1000
G1 X165.833 Y181.613 F1000
G1 X165.487 Y181.267 F1000
G1 X162.713 Y181.267 F1000
G1 X162.367 Y181.613 F1000
G0 Z3.0 ; Pen up

G0 X162.367 Y180.920 F3000 ; Travel to line 287
G0 Z0.0 ; Pen down
G1 X162.713 Y181.267 F1000
G1 X165.487 Y181.267 F1000
G1 X165.833 Y180.920 F1000
G1 X165.833 Y178.147 F1000
G1 X165.487 Y177.800 F1000
G1 X162.713 Y177.800 F1000
G1 X162.367 Y178.147 F1000
G0 Z3.0 ; Pen up

G0 X162.367 Y177.453 F3000 ; Travel to line 288
G0 Z0.0 ; Pen down
G1 X162.713 Y177.800 F1000
G1 X165.487 Y177.800 F1000
G1 X165.833 Y177.453 F1000
G1 X165.833 Y174.680 F1000
G1 X165.487 Y174.333 F1000
G1 X162.713 Y174.333 F1000
G1 X162.367 Y174.680 F1000
G0 Z3.0 ; Pen up

G0 X162.367 Y173.987 F3000 ; Travel to line 289
G0 Z0.0 ; Pen down
G1 X162.713 Y174.333 F1000
G1 X165.487 Y174.333 F1000
G1 X165.833 Y173.987 F1000
G1 X165.833 Y171.213 F1000
G1 X165.487 Y170.867 F1000
G1 X162.713 Y170.867 F1000
G1 X162.367 Y171.213 F1000
G0 Z3.0 ; Pen up

G0 X162.367 Y170.520 F3000 ; Travel to line 290
G0 Z0.0 ; Pen down
G1 X162.713 Y170.867 F1000
G1 X165.487 Y170.867 F1000
G1 X165.833 Y170.520 F1000
G1 X165.833 Y167.747 F1000
G1 X165.487 Y167.400 F1000
G1 X162.713 Y167.400 F1000
G1 X162.367 Y167.747 F1000
G0 Z3.0 ; Pen up

G0 X162.367 Y167.053 F3000 ; Travel to line 291
G0 Z0.0 ; Pen down
G1 X162.713 Y167.400 F1000
G1 X165.487 Y167.400 F1000
G1 X165.833 Y167.053 F1000
G1 X165.833 Y164.280 F1000
G1 X165.487 Y163.933 F1000
G1 X162.713 Y163.933 F1000
G1 X162.367 Y164.280 F1000
G0 Z3.0 ; Pen up

G0 X162.367 Y163.587 F3000 ; Travel to line 292
G0 Z0.0 ; Pen down
G1 X162.713 Y163.933 F1000
G1 X165.487 Y163.933 F1000
G1 X165.833 Y163.587 F1000
G1 X165.833 Y160.813 F1000
G1 X165.487 Y160.467 F1000
G1 X162.713 Y160.467 F1000
G1 X162.367 Y160.813 F1000
G0 Z3.0 ; Pen up

G0 X162.367 Y160.120 F3000 ; Travel to line 293
G0 Z0.0 ; Pen down
G1 X162.713 Y160.467 F1000
G1 X165.487 Y160.467 F1000
G1 X165.833 Y160.120 F1000
G1 X165.833 Y157.347 F1000
G1 X165.487 Y157.000 F1000
G1 X162.713 Y157.000 F1000
G1 X162.367 Y157.347 F1000
G0 Z3.0 ; Pen up

G0 X162.367 Y156.653 F3000 ; Travel to line 294
G0 Z0.0 ; Pen down
G1 X162.713 Y157.000 F1000
G1 X165.487 Y157.000 F1000
G1 X165.833 Y156.653 F1000
G1 X165.833 Y153.880 F1000
G1 X165.487 Y153.533 F1000
G1 X162.713 Y153.533 F1000
G1 X162.367 Y153.880 F1000
G0 Z3.0 ; Pen up

G0 X162.367 Y153.187 F3000 ; Travel to line 295
G0 Z0.0 ; Pen down
G1 X162.713 Y153.533 F1000
G1 X165.487 Y153.533 F1000
G1 X165.833 Y153.187 F1000
G1 X165.833 Y150.413 F1000
G1 X165.487 Y150.067 F1000
G1 X162.713 Y150.067 F1000
G1 X162.367 Y150.413 F1000
G0 Z3.0 ; Pen up

G0 X162.367 Y149.720 F3000 ; Travel to line 296
G0 Z0.0 ; Pen down
G1 X162.713 Y150.067 F1000
G1 X165.487 Y150.067 F1000
G1 X165.833 Y149.720 F1000
G1 X165.833 Y146.947 F1000
G1 X165.487 Y146.600 F1000
G1 X162.713 Y146.600 F1000
G1 X162.367 Y146.947 F1000
G0 Z3.0 ; Pen up

G0 X162.367 Y146.253 F3000 ; Travel to line 297
G0 Z0.0 ; Pen down
G1 X162.713 Y146.600 F1000
G1 X165.487 Y146.600 F1000
G1 X165.833 Y146.253 F1000
G1 X165.833 Y143.480 F1000
G1 X165.487 Y143.133 F1000
G1 X162.713 Y143.133 F1000
G1 X162.367 Y143.480 F1000
G0 Z3.0 ; Pen up

G0 X162.367 Y142.787 F3000 ; Travel to line 298
G0 Z0.0 ; Pen down
G1 X162.713 Y143.133 F1000
G1 X165.487 Y143.133 F1000
G1 X165.833 Y142.787 F1000
G1 X165.833 Y140.360 F1000
G1 X165.487 Y140.013 F1000
G1 X162.713 Y140.013 F1000
G1 X162.367 Y140.360 F1000
G0 Z3.0 ; Pen up

G0 X158.900 Y140.360 F3000 ; Travel to line 299
G0 Z0.0 ; Pen down
G1 X159.247 Y140.013 F1000
G1 X162.020 Y140.013 F1000
G1 X162.367 Y140.360 F1000
G1 X162.367 Y142.787 F1000
G1 X162.020 Y143.133 F1000
G1 X159.247 Y143.133 F1000
G1 X158.900 Y142.787 F1000
G0 Z3.0 ; Pen up

G0 X158.900 Y143.480 F3000 ; Travel to line 300
G0 Z0.0 ; Pen down
G1 X159.247 Y143.133 F1000
G1 X162.020 Y143.133 F1000
G1 X162.367 Y143.480 F1000
G1 X162.367 Y146.253 F1000
G1 X162.020 Y146.600 F1000
G1 X159.247 Y146.600 F1000
G1 X158.900 Y146.253 F1000
G0 Z3.0 ; Pen up

G0 X158.900 Y146.947 F3000 ; Travel to line 301
G0 Z0.0 ; Pen down
G1 X159.247 Y146.600 F1000
G1 X162.020 Y146.600 F1000
G1 X162.367 Y146.947 F1000
G1 X162.367 Y149.720 F1000
G1 X162.020 Y150.067 F1000
G1 X159.247 Y150.067 F1000
G1 X158.900 Y149.720 F1000
G0 Z3.0 ; Pen up

G0 X158.900 Y150.413 F3000 ; Travel to line 302
G0 Z0.0 ; Pen down
G1 X159.247 Y150.067 F1000
G1 X162.020 Y150.067 F1000
G1 X162.367 Y150.413 F1000
G1 X162.367 Y153.187 F1000
G1 X162.020 Y153.533 F1000
G1 X159.247 Y153.533 F1000
G1 X158.900 Y153.187 F1000
G0 Z3.0 ; Pen up

G0 X158.900 Y153.880 F3000 ; Travel to line 303
G0 Z0.0 ; Pen down
G1 X159.247 Y153.533 F1000
G1 X162.020 Y153.533 F1000
G1 X162.367 Y153.880 F1000
G1 X162.367 Y156.653 F1000
G1 X162.020 Y157.000 F1000
G1 X159.247 Y157.000 F1000
G1 X158.900 Y156.653 F1000
G0 Z3.0 ; Pen up

G0 X158.900 Y157.347 F3000 ; Travel to line 304
G0 Z0.0 ; Pen down
G1 X159.247 Y157.000 F1000
G1 X162.020 Y157.000 F1000
G1 X162.367 Y157.347 F1000
G1 X162.367 Y160.120 F1000
G1 X162.020 Y160.467 F1000
G1 X159.247 Y160.467 F1000
G1 X158.900 Y160.120 F1000
G0 Z3.0 ; Pen up

G0 X158.900 Y160.813 F3000 ; Travel to line 305
G0 Z0.0 ; Pen down
G1 X159.247 Y160.467 F1000
G1 X162.020 Y160.467 F1000
G1 X162.367 Y160.813 F1000
G1 X162.367 Y163.587 F1000
G1 X162.020 Y163.933 F1000
G1 X159.247 Y163.933 F1000
G1 X158.900 Y163.587 F1000
G0 Z3.0 ; Pen up

G0 X158.900 Y164.280 F3000 ; Travel to line 306
G0 Z0.0 ; Pen down
G1 X159.247 Y163.933 F1000
G1 X162.020 Y163.933 F1000
G1 X162.367 Y164.280 F1000
G1 X162.367 Y167.053 F1000
G1 X162.020 Y167.400 F1000
G1 X159.247 Y167.400 F1000
G1 X158.900 Y167.053 F1000
G0 Z3.0 ; Pen up

G0 X158.900 Y167.747 F3000 ; Travel to line 307
G0 Z0.0 ; Pen down
G1 X159.247 Y167.400 F1000
G1 X162.020 Y167.400 F1000
G1 X162.367 Y167.747 F1000
G1 X162.367 Y170.520 F1000
G1 X162.020 Y170.867 F1000
G1 X159.247 Y170.867 F1000
G1 X158.900 Y170.520 F1000
G0 Z3.0 ; Pen up

G0 X158.900 Y171.213 F3000 ; Travel to line 308
G0 Z0.0 ; Pen down
G1 X159.247 Y170.867 F1000
G1 X162.020 Y170.867 F1000
G1 X162.367 Y171.213 F1000
G1 X162.367 Y173.987 F1000
G1 X162.020 Y174.333 F1000
G1 X159.247 Y174.333 F1000
G1 X158.900 Y173.987 F1000
G0 Z3.0 ; Pen up

G0 X158.900 Y174.680 F3000 ; Travel to line 309
G0 Z0.0 ; Pen down
G1 X159.247 Y174.333 F1000
G1 X162.020 Y174.333 F1000
G1 X162.367 Y174.680 F1000
G1 X162.367 Y177.453 F1000
G1 X162.020 Y177.800 F1000
G1 X159.247 Y177.800 F1000
G1 X158.900 Y177.453 F1000
G0 Z3.0 ; Pen up

G0 X158.900 Y178.147 F3000 ; Travel to line 310
G0 Z0.0 ; Pen down
G1 X159.247 Y177.800 F1000
G1 X162.020 Y177.800 F1000
G1 X162.367 Y178.147 F1000
G1 X162.367 Y180.920 F1000
G1 X162.020 Y181.267 F1000
G1 X159.247 Y181.267 F1000
G1 X158.900 Y180.920 F1000
G0 Z3.0 ; Pen up

G0 X158.900 Y181.613 F3000 ; Travel to line 311
G0 Z0.0 ; Pen down
G1 X159.247 Y181.267 F1000
G1 X162.020 Y181.267 F1000
G1 X162.367 Y181.613 F1000
G1 X162.367 Y184.387 F1000
G1 X162.020 Y184.733 F1000
G1 X159.247 Y184.733 F1000
G1 X158.900 Y184.387 F1000
G0 Z3.0 ; Pen up

G0 X158.900 Y185.080 F3000 ; Travel to line 312
G0 Z0.0 ; Pen down
G1 X159.247 Y184.733 F1000
G1 X162.020 Y184.733 F1000
G1 X162.367 Y185.080 F1000
G1 X162.367 Y187.853 F1000
G1 X162.020 Y188.200 F1000
G1 X159.247 Y188.200 F1000
G1 X158.900 Y187.853 F1000
G0 Z3.0 ; Pen up

G0 X158.900 Y188.547 F3000 ; Travel to line 313
G0 Z0.0 ; Pen down
G1 X159.247 Y188.200 F1000
G1 X162.020 Y188.200 F1000
G1 X162.367 Y188.547 F1000
G1 X162.367 Y191.320 F1000
G1 X162.020 Y191.667 F1000
G1 X159.247 Y191.667 F1000
G1 X158.900 Y191.320 F1000
G0 Z3.0 ; Pen up

G0 X155.433 Y191.320 F3000 ; Travel to line 314
G0 Z0.0 ; Pen down
G1 X155.780 Y191.667 F1000
G1 X158.553 Y191.667 F1000
G1 X158.900 Y191.320 F1000
G1 X158.900 Y188.547 F1000
G1 X158.553 Y188.200 F1000
G1 X155.780 Y188.200 F1000
G1 X155.433 Y188.547 F1000
G0 Z3.0 ; Pen up

G0 X155.433 Y187.853 F3000 ; Travel to line 315
G0 Z0.0 ; Pen down
G1 X155.780 Y188.200 F1000
G1 X158.553 Y188.200 F1000
G1 X158.900 Y187.853 F1000
G1 X158.900 Y185.080 F1000
G1 X158.553 Y184.733 F1000
G1 X155.780 Y184.733 F1000
G1 X155.433 Y185.080 F1000
G0 Z3.0 ; Pen up

G0 X155.433 Y184.387 F3000 ; Travel to line 316
G0 Z0.0 ; Pen down
G1 X155.780 Y184.733 F1000
G1 X158.553 Y184.733 F1000
G1 X158.900 Y184.387 F1000
G1 X158.900 Y181.613 F1000
G1 X158.553 Y181.267 F1000
G1 X155.780 Y181.267 F1000
G1 X155.433 Y181.613 F1000
G0 Z3.0 ; Pen up

G0 X155.433 Y180.920 F3000 ; Travel to line 317
G0 Z0.0 ; Pen down
G1 X155.780 Y181.267 F1000
G1 X158.553 Y181.267 F1000
G1 X158.900 Y180.920 F1000
G1 X158.900 Y178.147 F1000
G1 X158.553 Y177.800 F1000
G1 X155.780 Y177.800 F1000
G1 X155.433 Y178.147 F1000
G0 Z3.0 ; Pen up

G0 X155.433 Y177.453 F3000 ; Travel to line 318
G0 Z0.0 ; Pen down
G1 X155.780 Y177.800 F1000
G1 X158.553 Y177.800 F1000
G1 X158.900 Y177.453 F1000
G1 X158.900 Y174.680 F1000
G1 X158.553 Y174.333 F1000
G1 X155.780 Y174.333 F1000
G1 X155.433 Y174.680 F1000
G0 Z3.0 ; Pen up

G0 X155.433 Y173.987 F3000 ; Travel to line 319
G0 Z0.0 ; Pen down
G1 X155.780 Y174.333 F1000
G1 X158.553 Y174.333 F1000
G1 X158.900 Y173.987 F1000
G1 X158.900 Y171.213 F1000
G1 X158.553 Y170.867 F1000
G1 X155.780 Y170.867 F1000
G1 X155.433 Y171.213 F1000
G0 Z3.0 ; Pen up

G0 X155.433 Y170.520 F3000 ; Travel to line 320
G0 Z0.0 ; Pen down
G1 X155.780 Y170.867 F1000
G1 X158.553 Y170.867 F1000
G1 X158.900 Y170.520 F1000
G1 X158.900 Y167.747 F1000
G1 X158.553 Y167.400 F1000
G1 X155.780 Y167.400 F1000
G1 X155.433 Y167.747 F1000
G0 Z3.0 ; Pen up

G0 X155.433 Y167.053 F3000 ; Travel to line 321
G0 Z0.0 ; Pen down
G1 X155.780 Y167.400 F1000
G1 X158.553 Y167.400 F1000
G1 X158.900 Y167.053 F1000
G1 X158.900 Y164.280 F1000
G1 X158.553 Y163.933 F1000
G1 X155.780 Y163.933 F1000
G1 X155.433 Y164.280 F1000
G0 Z3.0 ; Pen up

G0 X155.433 Y163.587 F3000 ; Travel to line 322
G0 Z0.0 ; Pen down
G1 X155.780 Y163.933 F1000
G1 X158.553 Y163.933 F1000
G1 X158.900 Y163.587 F1000
G1 X158.900 Y160.813 F1000
G1 X158.553 Y160.467 F1000
G1 X155.780 Y160.467 F1000
G1 X155.433 Y160.813 F1000
G0 Z3.0 ; Pen up

G0 X155.433 Y160.120 F3000 ; Travel to line 323
G0 Z0.0 ; Pen down
G1 X155.780 Y160.467 F1000
G1 X158.553 Y160.467 F1000
G1 X158.900 Y160.120 F1000
G1 X158.900 Y157.347 F1000
G1 X158.553 Y157.000 F1000
G1 X155.780 Y157.000 F1000
G1 X155.433 Y157.347 F1000
G0 Z3.0 ; Pen up

G0 X155.433 Y156.653 F3000 ; Travel to line 324
G0 Z0.0 ; Pen down
G1 X155.780 Y157.000 F1000
G1 X158.553 Y157.000 F1000
G1 X158.900 Y156.653 F1000
G1 X158.900 Y153.880 F1000
G1 X158.553 Y153.533 F1000
G1 X155.780 Y153.533 F1000
G1 X155.433 Y153.880 F1000
G0 Z3.0 ; Pen up

G0 X155.433 Y153.187 F3000 ; Travel to line 325
G0 Z0.0 ; Pen down
G1 X155.780 Y153.533 F1000
G1 X158.553 Y153.533 F1000
G1 X158.900 Y153.187 F1000
G1 X158.900 Y150.413 F1000
G1 X158.553 Y150.067 F1000
G1 X155.780 Y150.067 F1000
G1 X155.433 Y150.413 F1000
G0 Z3.0 ; Pen up

G0 X155.433 Y149.720 F3000 ; Travel to line 326
G0 Z0.0 ; Pen down
G1 X155.780 Y150.067 F1000
G1 X158.553 Y150.067 F1000
G1 X158.900 Y149.720 F1000
G1 X158.900 Y146.947 F1000
G1 X158.553 Y146.600 F1000
G1 X155.780 Y146.600 F1000
G1 X155.433 Y146.947 F1000
G0 Z3.0 ; Pen up

G0 X155.433 Y146.253 F3000 ; Travel to line 327
G0 Z0.0 ; Pen down
G1 X155.780 Y146.600 F1000
G1 X158.553 Y146.600 F1000
G1 X158.900 Y146.253 F1000
G1 X158.900 Y143.480 F1000
G1 X158.553 Y143.133 F1000
G1 X155.780 Y143.133 F1000
G1 X155.433 Y143.480 F1000
G0 Z3.0 ; Pen up

G0 X155.433 Y142.787 F3000 ; Travel to line 328
G0 Z0.0 ; Pen down
G1 X155.780 Y143.133 F1000
G1 X158.553 Y143.133 F1000
G1 X158.900 Y142.787 F1000
G1 X158.900 Y140.360 F1000
G1 X158.553 Y140.013 F1000
G1 X155.780 Y140.013 F1000
G1 X155.433 Y140.360 F1000
G0 Z3.0 ; Pen up

G0 X151.967 Y140.360 F3000 ; Travel to line 329
G0 Z0.0 ; Pen down
G1 X152.313 Y140.013 F1000
G1 X155.087 Y140.013 F1000
G1 X155.433 Y140.360 F1000
G1 X155.433 Y142.787 F1000
G1 X155.087 Y143.133 F1000
G1 X152.313 Y143.133 F1000
G1 X151.967 Y142.787 F1000
G0 Z3.0 ; Pen up

G0 X151.967 Y143.480 F3000 ; Travel to line 330
G0 Z0.0 ; Pen down
G1 X152.313 Y143.133 F1000
G1 X155.087 Y143.133 F1000
G1 X155.433 Y143.480 F1000
G1 X155.433 Y146.253 F1000
G1 X155.087 Y146.600 F1000
G1 X152.313 Y146.600 F1000
G1 X151.967 Y146.253 F1000
G0 Z3.0 ; Pen up

G0 X151.967 Y146.947 F3000 ; Travel to line 331
G0 Z0.0 ; Pen down
G1 X152.313 Y146.600 F1000
G1 X155.087 Y146.600 F1000
G1 X155.433 Y146.947 F1000
G1 X155.433 Y149.720 F1000
G1 X155.087 Y150.067 F1000
G1 X152.313 Y150.067 F1000
G1 X151.967 Y149.720 F1000
G0 Z3.0 ; Pen up

G0 X151.967 Y150.413 F3000 ; Travel to line 332
G0 Z0.0 ; Pen down
G1 X152.313 Y150.067 F1000
G1 X155.087 Y150.067 F1000
G1 X155.433 Y150.413 F1000
G1 X155.433 Y153.187 F1000
G1 X155.087 Y153.533 F1000
G1 X152.313 Y153.533 F1000
G1 X151.967 Y153.187 F1000
G0 Z3.0 ; Pen up

G0 X151.967 Y153.880 F3000 ; Travel to line 333
G0 Z0.0 ; Pen down
G1 X152.313 Y153.533 F1000
G1 X155.087 Y153.533 F1000
G1 X155.433 Y153.880 F1000
G1 X155.433 Y156.653 F1000
G1 X155.087 Y157.000 F1000
G1 X152.313 Y157.000 F1000
G1 X151.967 Y156.653 F1000
G0 Z3.0 ; Pen up

G0 X151.967 Y157.347 F3000 ; Travel to line 334
G0 Z0.0 ; Pen down
G1 X152.313 Y157.000 F1000
G1 X155.087 Y157.000 F1000
G1 X155.433 Y157.347 F1000
G1 X155.433 Y160.120 F1000
G1 X155.087 Y160.467 F1000
G1 X152.313 Y160.467 F1000
G1 X151.967 Y160.120 F1000
G0 Z3.0 ; Pen up

G0 X151.967 Y160.813 F3000 ; Travel to line 335
G0 Z0.0 ; Pen down
G1 X152.313 Y160.467 F1000
G1 X155.087 Y160.467 F1000
G1 X155.433 Y160.813 F1000
G1 X155.433 Y163.587 F1000
G1 X155.087 Y163.933 F1000
G1 X152.313 Y163.933 F1000
G1 X151.967 Y163.587 F1000
G0 Z3.0 ; Pen up

G0 X151.967 Y164.280 F3000 ; Travel to line 336
G0 Z0.0 ; Pen down
G1 X152.313 Y163.933 F1000
G1 X155.087 Y163.933 F1000
G1 X155.433 Y164.280 F1000
G1 X155.433 Y167.053 F1000
G1 X155.087 Y167.400 F1000
G1 X152.313 Y167.400 F1000
G1 X151.967 Y167.053 F1000
G0 Z3.0 ; Pen up

G0 X151.967 Y167.747 F3000 ; Travel to line 337
G0 Z0.0 ; Pen down
G1 X152.313 Y167.400 F1000
G1 X155.087 Y167.400 F1000
G1 X155.433 Y167.747 F1000
G1 X155.433 Y170.520 F1000
G1 X155.087 Y170.867 F1000
G1 X152.313 Y170.867 F1000
G1 X151.967 Y170.520 F1000
G0 Z3.0 ; Pen up

G0 X151.967 Y171.213 F3000 ; Travel to line 338
G0 Z0.0 ; Pen down
G1 X152.313 Y170.867 F1000
G1 X155.087 Y170.867 F1000
G1 X155.433 Y171.213 F1000
G1 X155.433 Y173.987 F1000
G1 X155.087 Y174.333 F1000
G1 X152.313 Y174.333 F1000
G1 X151.967 Y173.987 F1000
G0 Z3.0 ; Pen up

G0 X151.967 Y174.680 F3000 ; Travel to line 339
G0 Z0.0 ; Pen down
G1 X152.313 Y174.333 F1000
G1 X155.087 Y174.333 F1000
G1 X155.433 Y174.680 F1000
G1 X155.433 Y177.453 F1000
G1 X155.087 Y177.800 F1000
G1 X152.313 Y177.800 F1000
G1 X151.967 Y177.453 F1000
G0 Z3.0 ; Pen up

G0 X151.967 Y178.147 F3000 ; Travel to line 340
G0 Z0.0 ; Pen down
G1 X152.313 Y177.800 F1000
G1 X155.087 Y177.800 F1000
G1 X155.433 Y178.147 F1000
G1 X155.433 Y180.920 F1000
G1 X155.087 Y181.267 F1000
G1 X152.313 Y181.267 F1000
G1 X151.967 Y180.920 F1000
G0 Z3.0 ; Pen up

G0 X151.967 Y181.613 F3000 ; Travel to line 341
G0 Z0.0 ; Pen down
G1 X152.313 Y181.267 F1000
G1 X155.087 Y181.267 F1000
G1 X155.433 Y181.613 F1000
G1 X155.433 Y184.387 F1000
G1 X155.087 Y184.733 F1000
G1 X152.313 Y184.733 F1000
G1 X151.967 Y184.387 F1000
G0 Z3.0 ; Pen up

G0 X151.967 Y185.080 F3000 ; Travel to line 342
G0 Z0.0 ; Pen down
G1 X152.313 Y184.733 F1000
G1 X155.087 Y184.733 F1000
G1 X155.433 Y185.080 F1000
G1 X155.433 Y187.853 F1000
G1 X155.087 Y188.200 F1000
G1 X152.313 Y188.200 F1000
G1 X151.967 Y187.853 F1000
G0 Z3.0 ; Pen up

G0 X151.967 Y188.547 F3000 ; Travel to line 343
G0 Z0.0 ; Pen down
G1 X152.313 Y188.200 F1000
G1 X155.087 Y188.200 F1000
G1 X155.433 Y188.547 F1000
G1 X155.433 Y191.320 F1000
G1 X155.087 Y191.667 F1000
G1 X152.313 Y191.667 F1000
G1 X151.967 Y191.320 F1000
G0 Z3.0 ; Pen up

G0 X153.700 Y194.787 F3000 ; Travel to line 344
G0 Z0.0 ; Pen down
G1 X153.700 Y196.867 F1000
G0 Z3.0 ; Pen up

G0 X153.007 Y196.867 F3000 ; Travel to line 345
G0 Z0.0 ; Pen down
G1 X152.660 Y196.867 F1000
G1 X151.967 Y196.173 F1000
G1 X151.967 Y194.787 F1000
G1 X151.967 Y196.520 F1000
G1 X152.313 Y196.520 F1000
G1 X152.660 Y196.867 F1000
G0 Z3.0 ; Pen up

G0 X150.580 Y197.560 F3000 ; Travel to line 346
G0 Z0.0 ; Pen down
G1 X150.927 Y197.213 F1000
G1 X150.580 Y197.560 F1000
G1 X149.540 Y197.560 F1000
G1 X148.847 Y196.867 F1000
G1 X148.847 Y195.480 F1000
G1 X149.540 Y194.787 F1000
G1 X150.580 Y194.787 F1000
G1 X150.927 Y195.133 F1000
G1 X150.927 Y195.827 F1000
G1 X150.580 Y196.173 F1000
G1 X150.233 Y196.173 F1000
G1 X150.927 Y196.173 F1000
G1 X150.927 Y195.133 F1000
G1 X150.580 Y194.787 F1000
G1 X149.540 Y194.787 F1000
G1 X148.847 Y195.480 F1000
G1 X148.847 Y196.867 F1000
G1 X149.540 Y197.560 F1000
G0 Z3.0 ; Pen up

G0 X155.087 Y196.173 F3000 ; Travel to line 347
G0 Z0.0 ; Pen down
G1 X155.087 Y195.480 F1000
G1 X155.780 Y194.787 F1000
G1 X156.127 Y194.787 F1000
G1 X156.473 Y195.133 F1000
G1 X156.473 Y196.520 F1000
G1 X156.127 Y196.867 F1000
G1 X155.780 Y196.867 F1000
G0 Z3.0 ; Pen up

G0 X156.473 Y197.560 F3000 ; Travel to line 348
G0 Z0.0 ; Pen down
G1 X156.473 Y197.213 F1000
G1 X156.127 Y196.867 F1000
G1 X155.433 Y196.867 F1000
G1 X155.087 Y196.520 F1000
G1 X155.087 Y195.133 F1000
G1 X155.433 Y194.787 F1000
G1 X156.473 Y194.787 F1000
G0 Z3.0 ; Pen up

G0 X158.900 Y196.173 F3000 ; Travel to line 349
G0 Z0.0 ; Pen down
G1 X158.900 Y195.480 F1000
G1 X159.593 Y194.787 F1000
G1 X159.940 Y194.787 F1000
G1 X160.633 Y195.480 F1000
G1 X160.633 Y196.173 F1000
G1 X159.940 Y196.867 F1000
G1 X159.593 Y196.867 F1000
G1 X159.593 Y196.867 F1000
G1 X159.247 Y196.520 F1000
G1 X158.900 Y196.520 F1000
G1 X158.900 Y193.747 F1000
G1 X158.900 Y194.787 F1000
G1 X159.247 Y195.133 F1000
G1 X159.593 Y194.787 F1000
G1 X160.287 Y194.787 F1000
G1 X160.633 Y195.133 F1000
G1 X160.633 Y196.520 F1000
G1 X160.287 Y196.867 F1000
G0 Z3.0 ; Pen up

G0 X161.673 Y196.867 F3000 ; Travel to line 350
G0 Z0.0 ; Pen down
G1 X162.713 Y196.867 F1000
G1 X163.060 Y196.520 F1000
G1 X163.060 Y196.173 F1000
G1 X162.713 Y195.827 F1000
G1 X162.020 Y195.827 F1000
G1 X161.673 Y195.480 F1000
G1 X161.673 Y194.787 F1000
G1 X163.060 Y194.787 F1000
G1 X163.060 Y196.520 F1000
G1 X162.713 Y196.867 F1000
G0 Z3.0 ; Pen up

G0 X164.100 Y197.213 F3000 ; Travel to line 351
G0 Z0.0 ; Pen down
G1 X164.447 Y196.867 F1000
G1 X164.793 Y196.867 F1000
G1 X164.447 Y196.867 F1000
G1 X164.100 Y196.520 F1000
G1 X164.100 Y195.133 F1000
G1 X164.447 Y194.787 F1000
G1 X164.793 Y194.787 F1000
G1 X164.447 Y194.787 F1000
G1 X164.100 Y195.133 F1000
G1 X164.100 Y197.560 F1000
G0 Z3.0 ; Pen up

G0 X165.833 Y197.560 F3000 ; Travel to line 352
G0 Z0.0 ; Pen down
G1 X165.833 Y195.133 F1000
G1 X166.180 Y194.787 F1000
G1 X166.527 Y194.787 F1000
G1 X166.180 Y194.787 F1000
G1 X165.833 Y195.133 F1000
G1 X165.833 Y196.520 F1000
G1 X166.180 Y196.867 F1000
G1 X166.527 Y196.867 F1000
G1 X166.180 Y196.867 F1000
G1 X165.833 Y197.213 F1000
G0 Z3.0 ; Pen up

G0 X167.220 Y196.173 F3000 ; Travel to line 353
G0 Z0.0 ; Pen down
G1 X167.567 Y195.827 F1000
G1 X168.607 Y195.827 F1000
G1 X168.953 Y196.173 F1000
G1 X168.260 Y196.867 F1000
G1 X167.913 Y196.867 F1000
G0 Z3.0 ; Pen up

G0 X167.567 Y196.867 F3000 ; Travel to line 354
G0 Z0.0 ; Pen down
G1 X167.220 Y196.520 F1000
G1 X167.220 Y195.133 F1000
G1 X167.567 Y194.787 F1000
G1 X168.607 Y194.787 F1000
G1 X167.913 Y194.787 F1000
G1 X167.220 Y195.480 F1000
G1 X167.567 Y195.827 F1000
G1 X168.953 Y195.827 F1000
G1 X168.953 Y196.173 F1000
G1 X168.260 Y196.867 F1000
G0 Z3.0 ; Pen up

G0 X170.687 Y196.867 F3000 ; Travel to line 355
G0 Z0.0 ; Pen down
G1 X170.340 Y196.520 F1000
G1 X169.993 Y196.520 F1000
G1 X169.993 Y194.787 F1000
G1 X169.993 Y196.173 F1000
G1 X170.687 Y196.867 F1000
G1 X171.033 Y196.867 F1000
G0 Z3.0 ; Pen up

G0 X172.420 Y196.867 F3000 ; Travel to line 356
G0 Z0.0 ; Pen down
G1 X172.073 Y196.520 F1000
G1 X171.727 Y196.520 F1000
G1 X171.727 Y194.787 F1000
G1 X171.727 Y196.173 F1000
G1 X172.420 Y196.867 F1000
G1 X172.767 Y196.867 F1000
G1 X173.113 Y196.520 F1000
G1 X173.113 Y195.133 F1000
G1 X173.113 Y196.867 F1000
G0 Z3.0 ; Pen up

G0 X161.673 Y195.480 F3000 ; Travel to line 357
G0 Z0.0 ; Pen down
G1 X162.020 Y195.827 F1000
G1 X162.713 Y195.827 F1000
G1 X163.060 Y195.480 F1000
G1 X163.060 Y195.133 F1000
G1 X162.713 Y194.787 F1000
G1 X162.020 Y194.787 F1000
G1 X161.673 Y195.133 F1000
G0 Z3.0 ; Pen up

G0 X108.633 Y186.813 F3000 ; Travel to line 358
G0 Z0.0 ; Pen down
G1 X108.633 Y185.080 F1000
G1 X108.287 Y184.733 F1000
G1 X107.593 Y184.733 F1000
G1 X108.287 Y184.733 F1000
G1 X108.633 Y184.387 F1000
G1 X108.633 Y178.147 F1000
G1 X108.980 Y177.800 F1000
G1 X108.980 Y177.453 F1000
G1 X109.327 Y177.107 F1000
G1 X111.753 Y177.107 F1000
G1 X109.673 Y177.107 F1000
G1 X108.633 Y178.147 F1000
G1 X108.633 Y184.387 F1000
G1 X108.980 Y184.733 F1000
G1 X111.753 Y184.733 F1000
G1 X108.980 Y184.733 F1000
G1 X108.633 Y185.080 F1000
G0 Z3.0 ; Pen up

G0 X104.473 Y185.080 F3000 ; Travel to line 359
G0 Z0.0 ; Pen down
G1 X103.433 Y184.040 F1000
G1 X103.433 Y183.693 F1000
G1 X102.393 Y182.653 F1000
G1 X102.393 Y182.307 F1000
G1 X101.353 Y181.267 F1000
G1 X101.007 Y181.267 F1000
G1 X100.660 Y181.613 F1000
G1 X100.660 Y181.960 F1000
G1 X99.620 Y183.000 F1000
G1 X99.620 Y183.347 F1000
G1 X98.580 Y184.387 F1000
G1 X98.580 Y184.733 F1000
G1 X98.580 Y184.387 F1000
G1 X98.927 Y184.040 F1000
G1 X98.927 Y183.693 F1000
G1 X99.967 Y182.653 F1000
G1 X99.967 Y182.307 F1000
G1 X101.353 Y180.920 F1000
G1 X99.620 Y179.187 F1000
G1 X99.620 Y178.840 F1000
G1 X98.580 Y177.800 F1000
G1 X98.580 Y177.107 F1000
G1 X98.580 Y177.453 F1000
G1 X99.620 Y178.493 F1000
G1 X99.620 Y178.840 F1000
G1 X101.353 Y180.573 F1000
G1 X102.047 Y179.880 F1000
G1 X102.047 Y179.533 F1000
G1 X103.087 Y178.493 F1000
G1 X103.087 Y178.147 F1000
G1 X104.127 Y177.107 F1000
G1 X104.127 Y176.760 F1000
G1 X104.127 Y177.107 F1000
G1 X103.780 Y177.453 F1000
G1 X103.780 Y177.800 F1000
G1 X102.740 Y178.840 F1000
G1 X102.740 Y179.187 F1000
G1 X101.353 Y180.573 F1000
G1 X101.353 Y180.920 F1000
G1 X102.047 Y181.613 F1000
G1 X102.047 Y181.960 F1000
G1 X103.087 Y183.000 F1000
G1 X103.087 Y183.347 F1000
G1 X104.127 Y184.387 F1000
G1 X104.127 Y184.733 F1000
G0 Z3.0 ; Pen up

G0 X92.340 Y185.080 F3000 ; Travel to line 360
G0 Z0.0 ; Pen down
G1 X92.687 Y184.733 F1000
G1 X93.380 Y184.733 F1000
G1 X93.727 Y184.387 F1000
G1 X94.073 Y184.387 F1000
G1 X94.767 Y183.693 F1000
G1 X94.767 Y183.000 F1000
G1 X95.113 Y182.653 F1000
G1 X95.113 Y181.267 F1000
G1 X88.527 Y181.267 F1000
G1 X88.180 Y180.920 F1000
G1 X88.180 Y179.533 F1000
G1 X88.527 Y179.187 F1000
G1 X88.527 Y178.840 F1000
G1 X90.607 Y176.760 F1000
G1 X94.420 Y176.760 F1000
G1 X94.767 Y177.107 F1000
G1 X95.113 Y177.107 F1000
G1 X94.767 Y177.107 F1000
G1 X94.420 Y176.760 F1000
G1 X90.607 Y176.760 F1000
G1 X90.260 Y177.107 F1000
G1 X89.913 Y177.107 F1000
G1 X88.873 Y178.147 F1000
G1 X88.873 Y178.493 F1000
G1 X88.527 Y178.840 F1000
G1 X88.527 Y179.187 F1000
G1 X88.180 Y179.533 F1000
G1 X88.180 Y180.920 F1000
G1 X88.527 Y181.267 F1000
G1 X88.527 Y182.653 F1000
G1 X88.873 Y183.000 F1000
G1 X88.873 Y183.347 F1000
G1 X90.260 Y184.733 F1000
G1 X91.300 Y184.733 F1000
G1 X91.647 Y185.080 F1000
G0 Z3.0 ; Pen up

G0 X91.300 Y184.733 F3000 ; Travel to line 361
G0 Z0.0 ; Pen down
G1 X91.647 Y185.080 F1000
G1 X92.340 Y185.080 F1000
G1 X92.687 Y184.733 F1000
G1 X93.380 Y184.733 F1000
G1 X94.767 Y183.347 F1000
G1 X94.767 Y183.000 F1000
G1 X95.113 Y182.653 F1000
G1 X95.113 Y181.613 F1000
G1 X94.767 Y181.267 F1000
G1 X88.873 Y181.267 F1000
G1 X88.527 Y181.613 F1000
G1 X88.527 Y182.653 F1000
G1 X88.873 Y183.000 F1000
G1 X88.873 Y183.347 F1000
G1 X89.913 Y184.387 F1000
G1 X90.260 Y184.387 F1000
G1 X90.607 Y184.733 F1000
G0 Z3.0 ; Pen up

G0 X83.673 Y187.853 F3000 ; Travel to line 362
G0 Z0.0 ; Pen down
G1 X84.020 Y187.507 F1000
G1 X84.367 Y187.853 F1000
G1 X88.180 Y187.853 F1000
G1 X84.367 Y187.853 F1000
G1 X84.020 Y187.507 F1000
G1 X84.020 Y177.453 F1000
G1 X84.020 Y187.507 F1000
G1 X83.673 Y187.853 F1000
G1 X79.860 Y187.853 F1000
G0 Z3.0 ; Pen up

G0 X69.460 Y185.080 F3000 ; Travel to line 363
G0 Z0.0 ; Pen down
G1 X69.807 Y184.733 F1000
G1 X70.500 Y184.733 F1000
G1 X70.847 Y184.387 F1000
G1 X71.193 Y184.387 F1000
G1 X71.887 Y183.693 F1000
G1 X71.887 Y183.000 F1000
G1 X72.233 Y182.653 F1000
G1 X72.233 Y181.267 F1000
G1 X65.647 Y181.267 F1000
G1 X65.300 Y180.920 F1000
G1 X65.300 Y179.533 F1000
G1 X65.647 Y179.187 F1000
G1 X65.647 Y178.840 F1000
G1 X67.727 Y176.760 F1000
G1 X71.540 Y176.760 F1000
G1 X71.887 Y177.107 F1000
G1 X72.233 Y177.107 F1000
G1 X71.887 Y177.107 F1000
G1 X71.540 Y176.760 F1000
G1 X67.727 Y176.760 F1000
G1 X67.380 Y177.107 F1000
G1 X67.033 Y177.107 F1000
G1 X65.993 Y178.147 F1000
G1 X65.993 Y178.493 F1000
G1 X65.647 Y178.840 F1000
G1 X65.647 Y179.187 F1000
G1 X65.300 Y179.533 F1000
G1 X65.300 Y180.920 F1000
G1 X65.647 Y181.267 F1000
G1 X65.647 Y182.653 F1000
G1 X65.993 Y183.000 F1000
G1 X65.993 Y183.347 F1000
G1 X67.380 Y184.733 F1000
G1 X68.420 Y184.733 F1000
G1 X68.767 Y185.080 F1000
G0 Z3.0 ; Pen up

G0 X68.420 Y184.733 F3000 ; Travel to line 364
G0 Z0.0 ; Pen down
G1 X68.767 Y185.080 F1000
G1 X69.460 Y185.080 F1000
G1 X69.807 Y184.733 F1000
G1 X70.500 Y184.733 F1000
G1 X71.887 Y183.347 F1000
G1 X71.887 Y183.000 F1000
G1 X72.233 Y182.653 F1000
G1 X72.233 Y181.613 F1000
G1 X71.887 Y181.267 F1000
G1 X65.993 Y181.267 F1000
G1 X65.647 Y181.613 F1000
G1 X65.647 Y182.653 F1000
G1 X65.993 Y183.000 F1000
G1 X65.993 Y183.347 F1000
G1 X67.033 Y184.387 F1000
G1 X67.380 Y184.387 F1000
G1 X67.727 Y184.733 F1000
G0 Z3.0 ; Pen up

G0 X58.020 Y185.080 F3000 ; Travel to line 365
G0 Z0.0 ; Pen down
G1 X58.367 Y184.733 F1000
G1 X59.060 Y184.733 F1000
G1 X59.407 Y184.387 F1000
G1 X59.753 Y184.387 F1000
G1 X60.447 Y183.693 F1000
G1 X60.793 Y183.693 F1000
G1 X61.140 Y184.040 F1000
G1 X61.140 Y184.387 F1000
G1 X61.140 Y175.720 F1000
G1 X60.793 Y175.373 F1000
G1 X60.793 Y174.680 F1000
G1 X60.100 Y173.987 F1000
G1 X59.753 Y173.987 F1000
G1 X59.407 Y173.640 F1000
G1 X55.940 Y173.640 F1000
