; Blueprint to G-code
; Input: test_clock_face.png
; Generated with blueprint2gcode.py

G21 ; Set units to millimeters
G90 ; Absolute positioning
G0 Z3.0 ; Pen up
G0 X0 Y0 ; Move to origin

G0 X31.256 Y37.306 F3000 ; Travel to line 1
G0 Z0.0 ; Pen down
G1 X31.256 Y37.435 F1000
G1 X31.385 Y37.564 F1000
G1 X31.385 Y37.693 F1000
G1 X31.514 Y37.821 F1000
G1 X31.514 Y37.950 F1000
G1 X31.771 Y38.207 F1000
G1 X31.771 Y38.336 F1000
G1 X31.900 Y38.465 F1000
G1 X31.900 Y38.594 F1000
G1 X32.029 Y38.722 F1000
G1 X32.029 Y38.851 F1000
G1 X32.286 Y39.109 F1000
G1 X32.286 Y39.237 F1000
G1 X32.286 Y39.109 F1000
G1 X32.029 Y38.851 F1000
G1 X32.029 Y38.722 F1000
G1 X31.900 Y38.594 F1000
G1 X31.900 Y38.465 F1000
G1 X31.643 Y38.207 F1000
G1 X31.643 Y38.079 F1000
G1 X31.514 Y37.950 F1000
G1 X31.514 Y37.821 F1000
G1 X31.385 Y37.693 F1000
G1 X31.385 Y37.564 F1000
G1 X31.256 Y37.435 F1000
G0 Z3.0 ; Pen up

G0 X52.500 Y36.405 F3000 ; Travel to line 2
G0 Z0.0 ; Pen down
G1 X52.500 Y31.641 F1000
G0 Z3.0 ; Pen up

G0 X72.585 Y39.109 F3000 ; Travel to line 3
G0 Z0.0 ; Pen down
G1 X72.714 Y38.980 F1000
G1 X72.714 Y38.851 F1000
G1 X72.843 Y38.722 F1000
G1 X72.843 Y38.594 F1000
G1 X72.971 Y38.465 F1000
G1 X72.971 Y38.336 F1000
G1 X73.229 Y38.079 F1000
G1 X73.229 Y37.950 F1000
G1 X73.358 Y37.821 F1000
G1 X73.358 Y37.693 F1000
G1 X73.615 Y37.435 F1000
G1 X73.615 Y37.306 F1000
G1 X73.615 Y37.435 F1000
G1 X73.358 Y37.693 F1000
G1 X73.358 Y37.821 F1000
G1 X73.229 Y37.950 F1000
G1 X73.229 Y38.079 F1000
G1 X73.100 Y38.207 F1000
G1 X73.100 Y38.336 F1000
G1 X72.843 Y38.594 F1000
G1 X72.843 Y38.722 F1000
G1 X72.714 Y38.851 F1000
G1 X72.714 Y38.980 F1000
G1 X72.585 Y39.109 F1000
G1 X72.585 Y39.237 F1000
G0 Z3.0 ; Pen up

G0 X72.328 Y50.825 F3000 ; Travel to line 4
G0 Z0.0 ; Pen down
G1 X84.688 Y63.185 F1000
G0 Z3.0 ; Pen up

G0 X84.688 Y63.443 F3000 ; Travel to line 5
G0 Z0.0 ; Pen down
G1 X72.070 Y50.825 F1000
G0 Z3.0 ; Pen up

G0 X71.684 Y50.825 F3000 ; Travel to line 6
G0 Z0.0 ; Pen down
G1 X84.559 Y63.700 F1000
G0 Z3.0 ; Pen up

G0 X84.172 Y63.700 F3000 ; Travel to line 7
G0 Z0.0 ; Pen down
G1 X71.297 Y50.825 F1000
G0 Z3.0 ; Pen up

G0 X71.040 Y50.825 F3000 ; Travel to line 8
G0 Z0.0 ; Pen down
G1 X83.915 Y63.700 F1000
G0 Z3.0 ; Pen up

G0 X83.400 Y63.700 F3000 ; Travel to line 9
G0 Z0.0 ; Pen down
G1 X70.525 Y50.825 F1000
G0 Z3.0 ; Pen up

G0 X70.267 Y50.825 F3000 ; Travel to line 10
G0 Z0.0 ; Pen down
G1 X83.142 Y63.700 F1000
G0 Z3.0 ; Pen up

G0 X82.756 Y63.700 F3000 ; Travel to line 11
G0 Z0.0 ; Pen down
G1 X69.881 Y50.825 F1000
G0 Z3.0 ; Pen up

G0 X69.495 Y50.825 F3000 ; Travel to line 12
G0 Z0.0 ; Pen down
G1 X82.370 Y63.700 F1000
G0 Z3.0 ; Pen up

G0 X81.984 Y63.700 F3000 ; Travel to line 13
G0 Z0.0 ; Pen down
G1 X69.109 Y50.825 F1000
G0 Z3.0 ; Pen up

G0 X68.722 Y50.825 F3000 ; Travel to line 14
G0 Z0.0 ; Pen down
G1 X81.597 Y63.700 F1000
G0 Z3.0 ; Pen up

G0 X81.340 Y63.700 F3000 ; Travel to line 15
G0 Z0.0 ; Pen down
G1 X68.465 Y50.825 F1000
G0 Z3.0 ; Pen up

G0 X68.079 Y50.825 F3000 ; Travel to line 16
G0 Z0.0 ; Pen down
G1 X80.954 Y63.700 F1000
G0 Z3.0 ; Pen up

G0 X80.567 Y63.700 F3000 ; Travel to line 17
G0 Z0.0 ; Pen down
G1 X67.692 Y50.825 F1000
G0 Z3.0 ; Pen up

G0 X67.306 Y50.825 F3000 ; Travel to line 18
G0 Z0.0 ; Pen down
G1 X80.181 Y63.700 F1000
G0 Z3.0 ; Pen up

G0 X79.795 Y63.700 F3000 ; Travel to line 19
G0 Z0.0 ; Pen down
G1 X66.920 Y50.825 F1000
G0 Z3.0 ; Pen up

G0 X66.663 Y50.825 F3000 ; Travel to line 20
G0 Z0.0 ; Pen down
G1 X79.538 Y63.700 F1000
G0 Z3.0 ; Pen up

G0 X79.023 Y63.700 F3000 ; Travel to line 21
G0 Z0.0 ; Pen down
G1 X66.148 Y50.825 F1000
G0 Z3.0 ; Pen up

G0 X65.890 Y50.825 F3000 ; Travel to line 22
G0 Z0.0 ; Pen down
G1 X78.765 Y63.700 F1000
G0 Z3.0 ; Pen up

G0 X78.379 Y63.700 F3000 ; Travel to line 23
G0 Z0.0 ; Pen down
G1 X65.504 Y50.825 F1000
G0 Z3.0 ; Pen up

G0 X65.375 Y51.082 F3000 ; Travel to line 24
G0 Z0.0 ; Pen down
G1 X77.993 Y63.700 F1000
G0 Z3.0 ; Pen up

G0 X77.735 Y63.700 F3000 ; Travel to line 25
G0 Z0.0 ; Pen down
G1 X65.375 Y51.340 F1000
G0 Z3.0 ; Pen up

G0 X65.375 Y51.855 F3000 ; Travel to line 26
G0 Z0.0 ; Pen down
G1 X77.220 Y63.700 F1000
G0 Z3.0 ; Pen up

G0 X76.576 Y63.700 F3000 ; Travel to line 27
G0 Z0.0 ; Pen down
G1 X65.375 Y52.499 F1000
G0 Z3.0 ; Pen up

G0 X65.375 Y52.885 F3000 ; Travel to line 28
G0 Z0.0 ; Pen down
G1 X76.190 Y63.700 F1000
G0 Z3.0 ; Pen up

G0 X75.804 Y63.700 F3000 ; Travel to line 29
G0 Z0.0 ; Pen down
G1 X65.375 Y53.271 F1000
G0 Z3.0 ; Pen up

G0 X65.375 Y53.657 F3000 ; Travel to line 30
G0 Z0.0 ; Pen down
G1 X75.418 Y63.700 F1000
G0 Z3.0 ; Pen up

G0 X75.160 Y63.700 F3000 ; Travel to line 31
G0 Z0.0 ; Pen down
G1 X65.375 Y53.915 F1000
G0 Z3.0 ; Pen up

G0 X65.375 Y54.430 F3000 ; Travel to line 32
G0 Z0.0 ; Pen down
G1 X74.645 Y63.700 F1000
G0 Z3.0 ; Pen up

G0 X74.388 Y63.700 F3000 ; Travel to line 33
G0 Z0.0 ; Pen down
G1 X65.375 Y54.688 F1000
G0 Z3.0 ; Pen up

G0 X65.375 Y55.074 F3000 ; Travel to line 34
G0 Z0.0 ; Pen down
G1 X74.001 Y63.700 F1000
G0 Z3.0 ; Pen up

G0 X73.615 Y63.700 F3000 ; Travel to line 35
G0 Z0.0 ; Pen down
G1 X65.375 Y55.460 F1000
G0 Z3.0 ; Pen up

G0 X65.375 Y55.718 F3000 ; Travel to line 36
G0 Z0.0 ; Pen down
G1 X73.358 Y63.700 F1000
G0 Z3.0 ; Pen up

G0 X73.100 Y63.700 F3000 ; Travel to line 37
G0 Z0.0 ; Pen down
G1 X65.375 Y63.700 F1000
G1 X65.375 Y63.700 F1000
G1 X65.375 Y55.975 F1000
G0 Z3.0 ; Pen up

G0 X65.375 Y56.233 F3000 ; Travel to line 38
G0 Z0.0 ; Pen down
G1 X72.843 Y63.700 F1000
G0 Z3.0 ; Pen up

G0 X72.585 Y63.700 F3000 ; Travel to line 39
G0 Z0.0 ; Pen down
G1 X65.375 Y56.490 F1000
G0 Z3.0 ; Pen up

G0 X65.375 Y56.876 F3000 ; Travel to line 40
G0 Z0.0 ; Pen down
G1 X72.199 Y63.700 F1000
G0 Z3.0 ; Pen up

G0 X71.812 Y63.700 F3000 ; Travel to line 41
G0 Z0.0 ; Pen down
G1 X65.375 Y57.263 F1000
G0 Z3.0 ; Pen up

G0 X65.375 Y57.649 F3000 ; Travel to line 42
G0 Z0.0 ; Pen down
G1 X71.426 Y63.700 F1000
G0 Z3.0 ; Pen up

G0 X71.040 Y63.700 F3000 ; Travel to line 43
G0 Z0.0 ; Pen down
G1 X65.375 Y58.035 F1000
G0 Z3.0 ; Pen up

G0 X65.375 Y58.293 F3000 ; Travel to line 44
G0 Z0.0 ; Pen down
G1 X70.782 Y63.700 F1000
G0 Z3.0 ; Pen up

G0 X70.267 Y63.700 F3000 ; Travel to line 45
G0 Z0.0 ; Pen down
G1 X65.375 Y58.807 F1000
G0 Z3.0 ; Pen up

G0 X65.375 Y58.550 F3000 ; Travel to line 46
G0 Z0.0 ; Pen down
G1 X65.375 Y50.825 F1000
G1 X65.375 Y50.825 F1000
G1 X73.100 Y50.825 F1000
G1 X73.100 Y50.825 F1000
G1 X84.688 Y62.413 F1000
G0 Z3.0 ; Pen up

G0 X84.688 Y62.670 F3000 ; Travel to line 47
G0 Z0.0 ; Pen down
G1 X72.843 Y50.825 F1000
G0 Z3.0 ; Pen up

G0 X73.486 Y50.825 F3000 ; Travel to line 48
G0 Z0.0 ; Pen down
G1 X84.688 Y62.026 F1000
G0 Z3.0 ; Pen up

G0 X84.688 Y61.640 F3000 ; Travel to line 49
G0 Z0.0 ; Pen down
G1 X73.873 Y50.825 F1000
G0 Z3.0 ; Pen up

G0 X74.259 Y50.825 F3000 ; Travel to line 50
G0 Z0.0 ; Pen down
G1 X84.688 Y61.254 F1000
G0 Z3.0 ; Pen up

G0 X84.688 Y60.867 F3000 ; Travel to line 51
G0 Z0.0 ; Pen down
G1 X74.645 Y50.825 F1000
G0 Z3.0 ; Pen up

G0 X74.903 Y50.825 F3000 ; Travel to line 52
G0 Z0.0 ; Pen down
G1 X84.688 Y60.610 F1000
G0 Z3.0 ; Pen up

G0 X84.688 Y60.095 F3000 ; Travel to line 53
G0 Z0.0 ; Pen down
G1 X75.418 Y50.825 F1000
G0 Z3.0 ; Pen up

G0 X75.675 Y50.825 F3000 ; Travel to line 54
G0 Z0.0 ; Pen down
G1 X84.688 Y59.837 F1000
G0 Z3.0 ; Pen up

G0 X84.688 Y59.451 F3000 ; Travel to line 55
G0 Z0.0 ; Pen down
G1 X76.061 Y50.825 F1000
G0 Z3.0 ; Pen up

G0 X76.448 Y50.825 F3000 ; Travel to line 56
G0 Z0.0 ; Pen down
G1 X84.688 Y59.065 F1000
G0 Z3.0 ; Pen up

G0 X84.688 Y58.807 F3000 ; Travel to line 57
G0 Z0.0 ; Pen down
G1 X76.705 Y50.825 F1000
G0 Z3.0 ; Pen up

G0 X76.963 Y50.825 F3000 ; Travel to line 58
G0 Z0.0 ; Pen down
G1 X84.688 Y50.825 F1000
G1 X84.688 Y50.825 F1000
G1 X84.688 Y58.550 F1000
G0 Z3.0 ; Pen up

G0 X84.688 Y58.293 F3000 ; Travel to line 59
G0 Z0.0 ; Pen down
G1 X77.220 Y50.825 F1000
G0 Z3.0 ; Pen up

G0 X77.478 Y50.825 F3000 ; Travel to line 60
G0 Z0.0 ; Pen down
G1 X84.688 Y58.035 F1000
G0 Z3.0 ; Pen up

G0 X84.688 Y57.649 F3000 ; Travel to line 61
G0 Z0.0 ; Pen down
G1 X77.864 Y50.825 F1000
G0 Z3.0 ; Pen up

G0 X78.250 Y50.825 F3000 ; Travel to line 62
G0 Z0.0 ; Pen down
G1 X84.688 Y57.263 F1000
G0 Z3.0 ; Pen up

G0 X84.688 Y56.876 F3000 ; Travel to line 63
G0 Z0.0 ; Pen down
G1 X78.636 Y50.825 F1000
G0 Z3.0 ; Pen up

G0 X79.023 Y50.825 F3000 ; Travel to line 64
G0 Z0.0 ; Pen down
G1 X84.688 Y56.490 F1000
G0 Z3.0 ; Pen up

G0 X84.688 Y56.233 F3000 ; Travel to line 65
G0 Z0.0 ; Pen down
G1 X79.280 Y50.825 F1000
G0 Z3.0 ; Pen up

G0 X79.795 Y50.825 F3000 ; Travel to line 66
G0 Z0.0 ; Pen down
G1 X84.688 Y55.718 F1000
G0 Z3.0 ; Pen up

G0 X84.688 Y55.975 F3000 ; Travel to line 67
G0 Z0.0 ; Pen down
G1 X84.688 Y63.700 F1000
G1 X84.688 Y63.700 F1000
G1 X76.963 Y63.700 F1000
G1 X76.963 Y63.700 F1000
G1 X65.375 Y52.112 F1000
G0 Z3.0 ; Pen up

G0 X65.375 Y59.065 F3000 ; Travel to line 68
G0 Z0.0 ; Pen down
G1 X70.010 Y63.700 F1000
G0 Z3.0 ; Pen up

G0 X69.624 Y63.700 F3000 ; Travel to line 69
G0 Z0.0 ; Pen down
G1 X65.375 Y59.451 F1000
G0 Z3.0 ; Pen up

G0 X65.375 Y59.837 F3000 ; Travel to line 70
G0 Z0.0 ; Pen down
G1 X69.237 Y63.700 F1000
G0 Z3.0 ; Pen up

G0 X68.980 Y63.700 F3000 ; Travel to line 71
G0 Z0.0 ; Pen down
G1 X65.375 Y60.095 F1000
G0 Z3.0 ; Pen up

G0 X65.375 Y60.610 F3000 ; Travel to line 72
G0 Z0.0 ; Pen down
G1 X68.465 Y63.700 F1000
G0 Z3.0 ; Pen up

G0 X68.207 Y63.700 F3000 ; Travel to line 73
G0 Z0.0 ; Pen down
G1 X65.375 Y60.867 F1000
G0 Z3.0 ; Pen up

G0 X65.375 Y61.254 F3000 ; Travel to line 74
G0 Z0.0 ; Pen down
G1 X67.821 Y63.700 F1000
G0 Z3.0 ; Pen up

G0 X67.435 Y63.700 F3000 ; Travel to line 75
G0 Z0.0 ; Pen down
G1 X65.375 Y61.640 F1000
G0 Z3.0 ; Pen up

G0 X65.375 Y61.898 F3000 ; Travel to line 76
G0 Z0.0 ; Pen down
G1 X67.177 Y63.700 F1000
G0 Z3.0 ; Pen up

G0 X66.663 Y63.700 F3000 ; Travel to line 77
G0 Z0.0 ; Pen down
G1 X65.375 Y62.413 F1000
G0 Z3.0 ; Pen up

G0 X65.375 Y62.670 F3000 ; Travel to line 78
G0 Z0.0 ; Pen down
G1 X66.405 Y63.700 F1000
G0 Z3.0 ; Pen up

G0 X66.019 Y63.700 F3000 ; Travel to line 79
G0 Z0.0 ; Pen down
G1 X65.375 Y63.056 F1000
G0 Z3.0 ; Pen up

G0 X65.375 Y63.443 F3000 ; Travel to line 80
G0 Z0.0 ; Pen down
G1 X65.633 Y63.700 F1000
G0 Z3.0 ; Pen up

G0 X68.465 Y68.464 F3000 ; Travel to line 81
G0 Z0.0 ; Pen down
G1 X77.349 Y77.347 F1000
G0 Z3.0 ; Pen up

G0 X77.091 Y77.476 F3000 ; Travel to line 82
G0 Z0.0 ; Pen down
G1 X68.336 Y68.721 F1000
G0 Z3.0 ; Pen up

G0 X68.079 Y68.721 F3000 ; Travel to line 83
G0 Z0.0 ; Pen down
G1 X77.091 Y77.734 F1000
G0 Z3.0 ; Pen up

G0 X76.834 Y77.991 F3000 ; Travel to line 84
G0 Z0.0 ; Pen down
G1 X67.821 Y68.979 F1000
G0 Z3.0 ; Pen up

G0 X67.692 Y69.108 F3000 ; Travel to line 85
G0 Z0.0 ; Pen down
G1 X76.705 Y78.120 F1000
G0 Z3.0 ; Pen up

G0 X76.448 Y78.377 F3000 ; Travel to line 86
G0 Z0.0 ; Pen down
G1 X67.435 Y69.365 F1000
G0 Z3.0 ; Pen up

G0 X67.306 Y69.494 F3000 ; Travel to line 87
G0 Z0.0 ; Pen down
G1 X76.319 Y78.506 F1000
G0 Z3.0 ; Pen up

G0 X76.190 Y78.635 F3000 ; Travel to line 88
G0 Z0.0 ; Pen down
G1 X67.177 Y69.623 F1000
G0 Z3.0 ; Pen up

G0 X66.920 Y69.880 F3000 ; Travel to line 89
G0 Z0.0 ; Pen down
G1 X75.933 Y78.892 F1000
G0 Z3.0 ; Pen up

G0 X75.804 Y79.021 F3000 ; Travel to line 90
G0 Z0.0 ; Pen down
G1 X66.791 Y70.009 F1000
G0 Z3.0 ; Pen up

G0 X66.534 Y70.266 F3000 ; Travel to line 91
G0 Z0.0 ; Pen down
G1 X75.546 Y79.279 F1000
G0 Z3.0 ; Pen up

G0 X75.289 Y79.279 F3000 ; Travel to line 92
G0 Z0.0 ; Pen down
G1 X66.534 Y70.524 F1000
G0 Z3.0 ; Pen up

G0 X66.276 Y70.653 F3000 ; Travel to line 93
G0 Z0.0 ; Pen down
G1 X75.160 Y79.536 F1000
G0 Z3.0 ; Pen up

G0 X74.903 Y79.665 F3000 ; Travel to line 94
G0 Z0.0 ; Pen down
G1 X66.148 Y70.910 F1000
G0 Z3.0 ; Pen up

G0 X66.148 Y71.168 F3000 ; Travel to line 95
G0 Z0.0 ; Pen down
G1 X74.645 Y79.665 F1000
G0 Z3.0 ; Pen up

G0 X74.388 Y79.922 F3000 ; Travel to line 96
G0 Z0.0 ; Pen down
G1 X65.890 Y71.425 F1000
G0 Z3.0 ; Pen up

G0 X65.890 Y71.683 F3000 ; Travel to line 97
G0 Z0.0 ; Pen down
G1 X74.130 Y79.922 F1000
G0 Z3.0 ; Pen up

G0 X73.744 Y80.051 F3000 ; Travel to line 98
G0 Z0.0 ; Pen down
G1 X65.761 Y72.069 F1000
G0 Z3.0 ; Pen up

G0 X65.633 Y72.197 F3000 ; Travel to line 99
G0 Z0.0 ; Pen down
G1 X73.615 Y80.180 F1000
G0 Z3.0 ; Pen up

G0 X73.358 Y80.180 F3000 ; Travel to line 100
G0 Z0.0 ; Pen down
G1 X65.633 Y72.455 F1000
G0 Z3.0 ; Pen up

G0 X65.504 Y72.841 F3000 ; Travel to line 101
G0 Z0.0 ; Pen down
G1 X72.971 Y80.309 F1000
G0 Z3.0 ; Pen up

G0 X72.714 Y80.309 F3000 ; Travel to line 102
G0 Z0.0 ; Pen down
G1 X65.504 Y73.099 F1000
G0 Z3.0 ; Pen up

G0 X65.375 Y73.485 F3000 ; Travel to line 103
G0 Z0.0 ; Pen down
G1 X72.328 Y80.438 F1000
G0 Z3.0 ; Pen up

G0 X72.070 Y80.438 F3000 ; Travel to line 104
G0 Z0.0 ; Pen down
G1 X65.375 Y73.743 F1000
G0 Z3.0 ; Pen up

G0 X65.375 Y74.129 F3000 ; Travel to line 105
G0 Z0.0 ; Pen down
G1 X71.684 Y80.438 F1000
G0 Z3.0 ; Pen up

G0 X71.297 Y80.438 F3000 ; Travel to line 106
G0 Z0.0 ; Pen down
G1 X65.375 Y74.515 F1000
G0 Z3.0 ; Pen up

G0 X65.375 Y74.773 F3000 ; Travel to line 107
G0 Z0.0 ; Pen down
G1 X71.040 Y80.438 F1000
G0 Z3.0 ; Pen up

G0 X70.396 Y80.309 F3000 ; Travel to line 108
G0 Z0.0 ; Pen down
G1 X65.504 Y75.416 F1000
G0 Z3.0 ; Pen up

G0 X65.633 Y75.803 F3000 ; Travel to line 109
G0 Z0.0 ; Pen down
G1 X70.010 Y80.180 F1000
G0 Z3.0 ; Pen up

G0 X69.495 Y80.051 F3000 ; Travel to line 110
G0 Z0.0 ; Pen down
G1 X65.761 Y76.317 F1000
G0 Z3.0 ; Pen up

G0 X66.148 Y77.090 F3000 ; Travel to line 111
G0 Z0.0 ; Pen down
G1 X68.722 Y79.665 F1000
G0 Z3.0 ; Pen up

G0 X68.079 Y79.279 F3000 ; Travel to line 112
G0 Z0.0 ; Pen down
G1 X66.534 Y77.734 F1000
G0 Z3.0 ; Pen up

G0 X66.663 Y84.300 F3000 ; Travel to line 113
G0 Z0.0 ; Pen down
G1 X79.538 Y97.175 F1000
G0 Z3.0 ; Pen up

G0 X79.795 Y97.175 F3000 ; Travel to line 114
G0 Z0.0 ; Pen down
G1 X66.920 Y84.300 F1000
G0 Z3.0 ; Pen up

G0 X67.306 Y84.300 F3000 ; Travel to line 115
G0 Z0.0 ; Pen down
G1 X80.181 Y97.175 F1000
G0 Z3.0 ; Pen up

G0 X80.567 Y97.175 F3000 ; Travel to line 116
G0 Z0.0 ; Pen down
G1 X67.692 Y84.300 F1000
G0 Z3.0 ; Pen up

G0 X68.079 Y84.300 F3000 ; Travel to line 117
G0 Z0.0 ; Pen down
G1 X80.954 Y97.175 F1000
G0 Z3.0 ; Pen up

G0 X81.340 Y97.175 F3000 ; Travel to line 118
G0 Z0.0 ; Pen down
G1 X68.465 Y84.300 F1000
G0 Z3.0 ; Pen up

G0 X68.722 Y84.300 F3000 ; Travel to line 119
G0 Z0.0 ; Pen down
G1 X81.597 Y97.175 F1000
G0 Z3.0 ; Pen up

G0 X81.984 Y97.175 F3000 ; Travel to line 120
G0 Z0.0 ; Pen down
G1 X69.109 Y84.300 F1000
G0 Z3.0 ; Pen up

G0 X69.495 Y84.300 F3000 ; Travel to line 121
G0 Z0.0 ; Pen down
G1 X82.370 Y97.175 F1000
G0 Z3.0 ; Pen up

G0 X82.756 Y97.175 F3000 ; Travel to line 122
G0 Z0.0 ; Pen down
G1 X69.881 Y84.300 F1000
G0 Z3.0 ; Pen up

G0 X70.267 Y84.300 F3000 ; Travel to line 123
G0 Z0.0 ; Pen down
G1 X83.142 Y97.175 F1000
G0 Z3.0 ; Pen up

G0 X83.400 Y97.175 F3000 ; Travel to line 124
G0 Z0.0 ; Pen down
G1 X70.525 Y84.300 F1000
G0 Z3.0 ; Pen up

G0 X71.040 Y84.300 F3000 ; Travel to line 125
G0 Z0.0 ; Pen down
G1 X83.915 Y97.175 F1000
G0 Z3.0 ; Pen up

G0 X84.172 Y97.175 F3000 ; Travel to line 126
G0 Z0.0 ; Pen down
G1 X71.297 Y84.300 F1000
G0 Z3.0 ; Pen up

G0 X71.684 Y84.300 F3000 ; Travel to line 127
G0 Z0.0 ; Pen down
G1 X84.559 Y97.175 F1000
G0 Z3.0 ; Pen up

G0 X84.688 Y96.918 F3000 ; Travel to line 128
G0 Z0.0 ; Pen down
G1 X72.070 Y84.300 F1000
G0 Z3.0 ; Pen up

G0 X72.328 Y84.300 F3000 ; Travel to line 129
G0 Z0.0 ; Pen down
G1 X84.688 Y96.660 F1000
G0 Z3.0 ; Pen up

G0 X84.688 Y96.145 F3000 ; Travel to line 130
G0 Z0.0 ; Pen down
G1 X72.843 Y84.300 F1000
G0 Z3.0 ; Pen up

G0 X73.486 Y84.300 F3000 ; Travel to line 131
G0 Z0.0 ; Pen down
G1 X84.688 Y95.501 F1000
G0 Z3.0 ; Pen up

G0 X84.688 Y95.888 F3000 ; Travel to line 132
G0 Z0.0 ; Pen down
G1 X73.100 Y84.300 F1000
G1 X73.100 Y84.300 F1000
G1 X65.375 Y84.300 F1000
G1 X65.375 Y84.300 F1000
G1 X65.375 Y92.025 F1000
G0 Z3.0 ; Pen up

G0 X65.375 Y92.282 F3000 ; Travel to line 133
G0 Z0.0 ; Pen down
G1 X70.267 Y97.175 F1000
G0 Z3.0 ; Pen up

G0 X70.010 Y97.175 F3000 ; Travel to line 134
G0 Z0.0 ; Pen down
G1 X65.375 Y92.540 F1000
G0 Z3.0 ; Pen up

G0 X65.375 Y92.926 F3000 ; Travel to line 135
G0 Z0.0 ; Pen down
G1 X69.624 Y97.175 F1000
G0 Z3.0 ; Pen up

G0 X69.237 Y97.175 F3000 ; Travel to line 136
G0 Z0.0 ; Pen down
G1 X65.375 Y93.312 F1000
G0 Z3.0 ; Pen up

G0 X65.375 Y93.570 F3000 ; Travel to line 137
G0 Z0.0 ; Pen down
G1 X68.980 Y97.175 F1000
G0 Z3.0 ; Pen up

G0 X68.465 Y97.175 F3000 ; Travel to line 138
G0 Z0.0 ; Pen down
G1 X65.375 Y94.085 F1000
G0 Z3.0 ; Pen up

G0 X65.375 Y94.343 F3000 ; Travel to line 139
G0 Z0.0 ; Pen down
G1 X68.207 Y97.175 F1000
G0 Z3.0 ; Pen up

G0 X67.821 Y97.175 F3000 ; Travel to line 140
G0 Z0.0 ; Pen down
G1 X65.375 Y94.729 F1000
G0 Z3.0 ; Pen up

G0 X65.375 Y95.115 F3000 ; Travel to line 141
G0 Z0.0 ; Pen down
G1 X67.435 Y97.175 F1000
G0 Z3.0 ; Pen up

G0 X67.177 Y97.175 F3000 ; Travel to line 142
G0 Z0.0 ; Pen down
G1 X65.375 Y95.373 F1000
G0 Z3.0 ; Pen up

G0 X65.375 Y95.888 F3000 ; Travel to line 143
G0 Z0.0 ; Pen down
G1 X66.663 Y97.175 F1000
G0 Z3.0 ; Pen up

G0 X66.405 Y97.175 F3000 ; Travel to line 144
G0 Z0.0 ; Pen down
G1 X65.375 Y96.145 F1000
G0 Z3.0 ; Pen up

G0 X65.375 Y96.531 F3000 ; Travel to line 145
G0 Z0.0 ; Pen down
G1 X66.019 Y97.175 F1000
G0 Z3.0 ; Pen up

G0 X65.633 Y97.175 F3000 ; Travel to line 146
G0 Z0.0 ; Pen down
G1 X65.375 Y96.918 F1000
G0 Z3.0 ; Pen up

G0 X65.375 Y91.767 F3000 ; Travel to line 147
G0 Z0.0 ; Pen down
G1 X70.782 Y97.175 F1000
G0 Z3.0 ; Pen up

G0 X71.040 Y97.175 F3000 ; Travel to line 148
G0 Z0.0 ; Pen down
G1 X65.375 Y91.510 F1000
G0 Z3.0 ; Pen up

G0 X65.375 Y91.124 F3000 ; Travel to line 149
G0 Z0.0 ; Pen down
G1 X71.426 Y97.175 F1000
G0 Z3.0 ; Pen up

G0 X71.812 Y97.175 F3000 ; Travel to line 150
G0 Z0.0 ; Pen down
G1 X65.375 Y90.737 F1000
G0 Z3.0 ; Pen up

G0 X65.375 Y90.351 F3000 ; Travel to line 151
G0 Z0.0 ; Pen down
G1 X72.199 Y97.175 F1000
G0 Z3.0 ; Pen up

G0 X72.585 Y97.175 F3000 ; Travel to line 152
G0 Z0.0 ; Pen down
G1 X65.375 Y89.965 F1000
G0 Z3.0 ; Pen up

G0 X65.375 Y89.707 F3000 ; Travel to line 153
G0 Z0.0 ; Pen down
G1 X72.843 Y97.175 F1000
G0 Z3.0 ; Pen up

G0 X73.100 Y97.175 F3000 ; Travel to line 154
G0 Z0.0 ; Pen down
G1 X65.375 Y97.175 F1000
G1 X65.375 Y97.175 F1000
G1 X65.375 Y89.450 F1000
G0 Z3.0 ; Pen up

G0 X65.375 Y89.192 F3000 ; Travel to line 155
G0 Z0.0 ; Pen down
G1 X73.358 Y97.175 F1000
G0 Z3.0 ; Pen up

G0 X73.615 Y97.175 F3000 ; Travel to line 156
G0 Z0.0 ; Pen down
G1 X65.375 Y88.935 F1000
G0 Z3.0 ; Pen up

G0 X65.375 Y88.549 F3000 ; Travel to line 157
G0 Z0.0 ; Pen down
G1 X74.001 Y97.175 F1000
G0 Z3.0 ; Pen up

G0 X74.388 Y97.175 F3000 ; Travel to line 158
G0 Z0.0 ; Pen down
G1 X65.375 Y88.163 F1000
G0 Z3.0 ; Pen up

G0 X65.375 Y87.905 F3000 ; Travel to line 159
G0 Z0.0 ; Pen down
G1 X74.645 Y97.175 F1000
G0 Z3.0 ; Pen up

G0 X75.160 Y97.175 F3000 ; Travel to line 160
G0 Z0.0 ; Pen down
G1 X65.375 Y87.390 F1000
G0 Z3.0 ; Pen up

G0 X65.375 Y87.133 F3000 ; Travel to line 161
G0 Z0.0 ; Pen down
G1 X75.418 Y97.175 F1000
G0 Z3.0 ; Pen up

G0 X75.804 Y97.175 F3000 ; Travel to line 162
G0 Z0.0 ; Pen down
G1 X65.375 Y86.746 F1000
G0 Z3.0 ; Pen up

G0 X65.375 Y86.360 F3000 ; Travel to line 163
G0 Z0.0 ; Pen down
G1 X76.190 Y97.175 F1000
G0 Z3.0 ; Pen up

G0 X76.576 Y97.175 F3000 ; Travel to line 164
G0 Z0.0 ; Pen down
G1 X65.375 Y85.974 F1000
G0 Z3.0 ; Pen up

G0 X65.375 Y85.588 F3000 ; Travel to line 165
G0 Z0.0 ; Pen down
G1 X76.963 Y97.175 F1000
G1 X76.963 Y97.175 F1000
G1 X84.688 Y97.175 F1000
G1 X84.688 Y97.175 F1000
G1 X84.688 Y89.450 F1000
G0 Z3.0 ; Pen up

G0 X84.688 Y89.707 F3000 ; Travel to line 166
G0 Z0.0 ; Pen down
G1 X79.280 Y84.300 F1000
G0 Z3.0 ; Pen up

G0 X79.023 Y84.300 F3000 ; Travel to line 167
G0 Z0.0 ; Pen down
G1 X84.688 Y89.965 F1000
G0 Z3.0 ; Pen up

G0 X84.688 Y90.351 F3000 ; Travel to line 168
G0 Z0.0 ; Pen down
G1 X78.636 Y84.300 F1000
G0 Z3.0 ; Pen up

G0 X78.250 Y84.300 F3000 ; Travel to line 169
G0 Z0.0 ; Pen down
G1 X84.688 Y90.737 F1000
G0 Z3.0 ; Pen up

G0 X84.688 Y91.124 F3000 ; Travel to line 170
G0 Z0.0 ; Pen down
G1 X77.864 Y84.300 F1000
G0 Z3.0 ; Pen up

G0 X77.478 Y84.300 F3000 ; Travel to line 171
G0 Z0.0 ; Pen down
G1 X84.688 Y91.510 F1000
G0 Z3.0 ; Pen up

G0 X84.688 Y91.767 F3000 ; Travel to line 172
G0 Z0.0 ; Pen down
G1 X77.220 Y84.300 F1000
G0 Z3.0 ; Pen up

G0 X76.963 Y84.300 F3000 ; Travel to line 173
G0 Z0.0 ; Pen down
G1 X84.688 Y84.300 F1000
G1 X84.688 Y84.300 F1000
G1 X84.688 Y92.025 F1000
G0 Z3.0 ; Pen up

G0 X84.688 Y92.282 F3000 ; Travel to line 174
G0 Z0.0 ; Pen down
G1 X76.705 Y84.300 F1000
G0 Z3.0 ; Pen up

G0 X76.448 Y84.300 F3000 ; Travel to line 175
G0 Z0.0 ; Pen down
G1 X84.688 Y92.540 F1000
G0 Z3.0 ; Pen up

G0 X84.688 Y92.926 F3000 ; Travel to line 176
G0 Z0.0 ; Pen down
G1 X76.061 Y84.300 F1000
G0 Z3.0 ; Pen up

G0 X75.675 Y84.300 F3000 ; Travel to line 177
G0 Z0.0 ; Pen down
G1 X84.688 Y93.312 F1000
G0 Z3.0 ; Pen up

G0 X84.688 Y93.570 F3000 ; Travel to line 178
G0 Z0.0 ; Pen down
G1 X75.418 Y84.300 F1000
G0 Z3.0 ; Pen up

G0 X74.903 Y84.300 F3000 ; Travel to line 179
G0 Z0.0 ; Pen down
G1 X84.688 Y94.085 F1000
G0 Z3.0 ; Pen up

G0 X84.688 Y94.343 F3000 ; Travel to line 180
G0 Z0.0 ; Pen down
G1 X74.645 Y84.300 F1000
G0 Z3.0 ; Pen up

G0 X74.259 Y84.300 F3000 ; Travel to line 181
G0 Z0.0 ; Pen down
G1 X84.688 Y94.729 F1000
G0 Z3.0 ; Pen up

G0 X84.688 Y95.115 F3000 ; Travel to line 182
G0 Z0.0 ; Pen down
G1 X73.873 Y84.300 F1000
G0 Z3.0 ; Pen up

G0 X79.795 Y84.300 F3000 ; Travel to line 183
G0 Z0.0 ; Pen down
G1 X84.688 Y89.192 F1000
G0 Z3.0 ; Pen up

G0 X84.688 Y88.935 F3000 ; Travel to line 184
G0 Z0.0 ; Pen down
G1 X80.053 Y84.300 F1000
G0 Z3.0 ; Pen up

G0 X80.439 Y84.300 F3000 ; Travel to line 185
G0 Z0.0 ; Pen down
G1 X84.688 Y88.549 F1000
G0 Z3.0 ; Pen up

G0 X84.688 Y88.163 F3000 ; Travel to line 186
G0 Z0.0 ; Pen down
G1 X80.825 Y84.300 F1000
G0 Z3.0 ; Pen up

G0 X81.082 Y84.300 F3000 ; Travel to line 187
G0 Z0.0 ; Pen down
G1 X84.688 Y87.905 F1000
G0 Z3.0 ; Pen up

G0 X84.688 Y87.390 F3000 ; Travel to line 188
G0 Z0.0 ; Pen down
G1 X81.597 Y84.300 F1000
G0 Z3.0 ; Pen up

G0 X81.855 Y84.300 F3000 ; Travel to line 189
G0 Z0.0 ; Pen down
G1 X84.688 Y87.133 F1000
G0 Z3.0 ; Pen up

G0 X84.688 Y86.746 F3000 ; Travel to line 190
G0 Z0.0 ; Pen down
G1 X82.241 Y84.300 F1000
G0 Z3.0 ; Pen up

G0 X82.627 Y84.300 F3000 ; Travel to line 191
G0 Z0.0 ; Pen down
G1 X84.688 Y86.360 F1000
G0 Z3.0 ; Pen up

G0 X84.688 Y86.102 F3000 ; Travel to line 192
G0 Z0.0 ; Pen down
G1 X82.885 Y84.300 F1000
G0 Z3.0 ; Pen up

G0 X83.400 Y84.300 F3000 ; Travel to line 193
G0 Z0.0 ; Pen down
G1 X84.688 Y85.588 F1000
G0 Z3.0 ; Pen up

G0 X84.688 Y85.330 F3000 ; Travel to line 194
G0 Z0.0 ; Pen down
G1 X83.657 Y84.300 F1000
G0 Z3.0 ; Pen up

G0 X84.044 Y84.300 F3000 ; Travel to line 195
G0 Z0.0 ; Pen down
G1 X84.688 Y84.944 F1000
G0 Z3.0 ; Pen up

G0 X84.688 Y84.558 F3000 ; Travel to line 196
G0 Z0.0 ; Pen down
G1 X84.430 Y84.300 F1000
G0 Z3.0 ; Pen up

G0 X77.478 Y77.090 F3000 ; Travel to line 197
G0 Z0.0 ; Pen down
G1 X68.722 Y68.335 F1000
G0 Z3.0 ; Pen up

G0 X68.980 Y68.335 F3000 ; Travel to line 198
G0 Z0.0 ; Pen down
G1 X77.478 Y76.833 F1000
G0 Z3.0 ; Pen up

G0 X77.735 Y76.575 F3000 ; Travel to line 199
G0 Z0.0 ; Pen down
G1 X69.237 Y68.078 F1000
G0 Z3.0 ; Pen up

G0 X69.495 Y68.078 F3000 ; Travel to line 200
G0 Z0.0 ; Pen down
G1 X77.735 Y76.317 F1000
G0 Z3.0 ; Pen up

G0 X77.864 Y75.931 F3000 ; Travel to line 201
G0 Z0.0 ; Pen down
G1 X69.881 Y67.949 F1000
G0 Z3.0 ; Pen up

G0 X70.010 Y67.820 F3000 ; Travel to line 202
G0 Z0.0 ; Pen down
G1 X77.993 Y75.803 F1000
G0 Z3.0 ; Pen up

G0 X77.993 Y75.545 F3000 ; Travel to line 203
G0 Z0.0 ; Pen down
G1 X70.267 Y67.820 F1000
G0 Z3.0 ; Pen up

G0 X70.654 Y67.691 F3000 ; Travel to line 204
G0 Z0.0 ; Pen down
G1 X78.121 Y75.159 F1000
G0 Z3.0 ; Pen up

G0 X78.121 Y74.901 F3000 ; Travel to line 205
G0 Z0.0 ; Pen down
G1 X70.911 Y67.691 F1000
G0 Z3.0 ; Pen up

G0 X71.297 Y67.562 F3000 ; Travel to line 206
G0 Z0.0 ; Pen down
G1 X78.250 Y74.515 F1000
G0 Z3.0 ; Pen up

G0 X78.250 Y74.257 F3000 ; Travel to line 207
G0 Z0.0 ; Pen down
G1 X71.555 Y67.562 F1000
G0 Z3.0 ; Pen up

G0 X71.941 Y67.562 F3000 ; Travel to line 208
G0 Z0.0 ; Pen down
G1 X78.250 Y73.871 F1000
G0 Z3.0 ; Pen up

G0 X78.250 Y73.485 F3000 ; Travel to line 209
G0 Z0.0 ; Pen down
G1 X72.328 Y67.562 F1000
G0 Z3.0 ; Pen up

G0 X72.585 Y67.562 F3000 ; Travel to line 210
G0 Z0.0 ; Pen down
G1 X78.250 Y73.227 F1000
G0 Z3.0 ; Pen up

G0 X78.121 Y72.584 F3000 ; Travel to line 211
G0 Z0.0 ; Pen down
G1 X73.229 Y67.691 F1000
G0 Z3.0 ; Pen up

G0 X73.615 Y67.820 F3000 ; Travel to line 212
G0 Z0.0 ; Pen down
G1 X77.993 Y72.197 F1000
G0 Z3.0 ; Pen up

G0 X77.864 Y71.683 F3000 ; Travel to line 213
G0 Z0.0 ; Pen down
G1 X74.130 Y67.949 F1000
G0 Z3.0 ; Pen up

G0 X74.903 Y68.335 F3000 ; Travel to line 214
G0 Z0.0 ; Pen down
G1 X77.478 Y70.910 F1000
G0 Z3.0 ; Pen up

G0 X77.091 Y70.266 F3000 ; Travel to line 215
G0 Z0.0 ; Pen down
G1 X75.546 Y68.721 F1000
G0 Z3.0 ; Pen up

G0 X89.966 Y74.000 F3000 ; Travel to line 216
G0 Z0.0 ; Pen down
G1 X94.730 Y74.000 F1000
G0 Z3.0 ; Pen up

G0 X84.688 Y55.460 F3000 ; Travel to line 217
G0 Z0.0 ; Pen down
G1 X80.053 Y50.825 F1000
G0 Z3.0 ; Pen up

G0 X80.439 Y50.825 F3000 ; Travel to line 218
G0 Z0.0 ; Pen down
G1 X84.688 Y55.074 F1000
G0 Z3.0 ; Pen up

G0 X84.688 Y54.688 F3000 ; Travel to line 219
G0 Z0.0 ; Pen down
G1 X80.825 Y50.825 F1000
G0 Z3.0 ; Pen up

G0 X81.082 Y50.825 F3000 ; Travel to line 220
G0 Z0.0 ; Pen down
G1 X84.688 Y54.430 F1000
G0 Z3.0 ; Pen up

G0 X84.688 Y53.915 F3000 ; Travel to line 221
G0 Z0.0 ; Pen down
G1 X81.597 Y50.825 F1000
G0 Z3.0 ; Pen up

G0 X81.855 Y50.825 F3000 ; Travel to line 222
G0 Z0.0 ; Pen down
G1 X84.688 Y53.657 F1000
G0 Z3.0 ; Pen up

G0 X84.688 Y53.271 F3000 ; Travel to line 223
G0 Z0.0 ; Pen down
G1 X82.241 Y50.825 F1000
G0 Z3.0 ; Pen up

G0 X82.627 Y50.825 F3000 ; Travel to line 224
G0 Z0.0 ; Pen down
G1 X84.688 Y52.885 F1000
G0 Z3.0 ; Pen up

G0 X84.688 Y52.627 F3000 ; Travel to line 225
G0 Z0.0 ; Pen down
G1 X82.885 Y50.825 F1000
G0 Z3.0 ; Pen up

G0 X83.400 Y50.825 F3000 ; Travel to line 226
G0 Z0.0 ; Pen down
G1 X84.688 Y52.112 F1000
G0 Z3.0 ; Pen up

G0 X84.688 Y51.855 F3000 ; Travel to line 227
G0 Z0.0 ; Pen down
G1 X83.657 Y50.825 F1000
G0 Z3.0 ; Pen up

G0 X84.044 Y50.825 F3000 ; Travel to line 228
G0 Z0.0 ; Pen down
G1 X84.688 Y51.469 F1000
G0 Z3.0 ; Pen up

G0 X84.688 Y51.082 F3000 ; Travel to line 229
G0 Z0.0 ; Pen down
G1 X84.430 Y50.825 F1000
G0 Z3.0 ; Pen up

G0 X87.134 Y53.915 F3000 ; Travel to line 230
G0 Z0.0 ; Pen down
G1 X87.263 Y53.915 F1000
G1 X87.391 Y53.786 F1000
G1 X87.520 Y53.786 F1000
G1 X87.778 Y53.529 F1000
G1 X87.906 Y53.529 F1000
G1 X88.035 Y53.400 F1000
G1 X88.164 Y53.400 F1000
G1 X88.293 Y53.271 F1000
G1 X88.421 Y53.271 F1000
G1 X88.679 Y53.014 F1000
G1 X88.808 Y53.014 F1000
G1 X88.936 Y52.885 F1000
G1 X89.065 Y52.885 F1000
G1 X88.936 Y52.885 F1000
G1 X88.808 Y53.014 F1000
G1 X88.679 Y53.014 F1000
G1 X88.421 Y53.271 F1000
G1 X88.293 Y53.271 F1000
G1 X88.164 Y53.400 F1000
G1 X88.035 Y53.400 F1000
G1 X87.906 Y53.529 F1000
G1 X87.778 Y53.529 F1000
G1 X87.520 Y53.786 F1000
G1 X87.391 Y53.786 F1000
G1 X87.263 Y53.915 F1000
G0 Z3.0 ; Pen up

G0 X66.148 Y84.300 F3000 ; Travel to line 231
G0 Z0.0 ; Pen down
G1 X79.023 Y97.175 F1000
G0 Z3.0 ; Pen up

G0 X78.765 Y97.175 F3000 ; Travel to line 232
G0 Z0.0 ; Pen down
G1 X65.890 Y84.300 F1000
G0 Z3.0 ; Pen up

G0 X65.504 Y84.300 F3000 ; Travel to line 233
G0 Z0.0 ; Pen down
G1 X78.379 Y97.175 F1000
G0 Z3.0 ; Pen up

G0 X77.993 Y97.175 F3000 ; Travel to line 234
G0 Z0.0 ; Pen down
G1 X65.375 Y84.558 F1000
G0 Z3.0 ; Pen up

G0 X65.375 Y84.815 F3000 ; Travel to line 235
G0 Z0.0 ; Pen down
G1 X77.735 Y97.175 F1000
G0 Z3.0 ; Pen up

G0 X77.220 Y97.175 F3000 ; Travel to line 236
G0 Z0.0 ; Pen down
G1 X65.375 Y85.330 F1000
G0 Z3.0 ; Pen up

G0 X87.134 Y94.085 F3000 ; Travel to line 237
G0 Z0.0 ; Pen down
G1 X87.263 Y94.085 F1000
G1 X87.391 Y94.214 F1000
G1 X87.520 Y94.214 F1000
G1 X87.778 Y94.471 F1000
G1 X87.906 Y94.471 F1000
G1 X88.035 Y94.600 F1000
G1 X88.164 Y94.600 F1000
G1 X88.293 Y94.729 F1000
G1 X88.421 Y94.729 F1000
G1 X88.679 Y94.986 F1000
G1 X88.808 Y94.986 F1000
G1 X88.936 Y95.115 F1000
G1 X89.065 Y95.115 F1000
G1 X88.936 Y95.115 F1000
G1 X88.808 Y94.986 F1000
G1 X88.679 Y94.986 F1000
G1 X88.421 Y94.729 F1000
G1 X88.293 Y94.729 F1000
G1 X88.164 Y94.600 F1000
G1 X88.035 Y94.600 F1000
G1 X87.906 Y94.471 F1000
G1 X87.778 Y94.471 F1000
G1 X87.520 Y94.214 F1000
G1 X87.391 Y94.214 F1000
G1 X87.263 Y94.085 F1000
G0 Z3.0 ; Pen up

G0 X72.585 Y108.634 F3000 ; Travel to line 238
G0 Z0.0 ; Pen down
G1 X72.585 Y108.763 F1000
G1 X72.714 Y108.891 F1000
G1 X72.714 Y109.020 F1000
G1 X72.843 Y109.149 F1000
G1 X72.843 Y109.278 F1000
G1 X73.100 Y109.535 F1000
G1 X73.100 Y109.664 F1000
G1 X73.229 Y109.793 F1000
G1 X73.229 Y109.921 F1000
G1 X73.358 Y110.050 F1000
G1 X73.358 Y110.179 F1000
G1 X73.615 Y110.436 F1000
G1 X73.615 Y110.565 F1000
G1 X73.615 Y110.436 F1000
G1 X73.358 Y110.179 F1000
G1 X73.358 Y110.050 F1000
G1 X73.229 Y109.921 F1000
G1 X73.229 Y109.793 F1000
G1 X72.971 Y109.535 F1000
G1 X72.971 Y109.406 F1000
G1 X72.843 Y109.278 F1000
G1 X72.843 Y109.149 F1000
G1 X72.714 Y109.020 F1000
G1 X72.714 Y108.891 F1000
G1 X72.585 Y108.763 F1000
G0 Z3.0 ; Pen up

G0 X52.500 Y111.466 F3000 ; Travel to line 239
G0 Z0.0 ; Pen down
G1 X52.500 Y116.230 F1000
G0 Z3.0 ; Pen up

G0 X31.385 Y110.565 F3000 ; Travel to line 240
G0 Z0.0 ; Pen down
G1 X31.385 Y110.436 F1000
G1 X31.514 Y110.308 F1000
G1 X31.514 Y110.179 F1000
G1 X31.643 Y110.050 F1000
G1 X31.643 Y109.921 F1000
G1 X31.900 Y109.664 F1000
G1 X31.900 Y109.535 F1000
G1 X32.029 Y109.406 F1000
G1 X32.029 Y109.278 F1000
G1 X32.157 Y109.149 F1000
G1 X32.157 Y109.020 F1000
G1 X32.415 Y108.763 F1000
G1 X32.415 Y108.634 F1000
G1 X32.415 Y108.763 F1000
G1 X32.157 Y109.020 F1000
G1 X32.157 Y109.149 F1000
G1 X32.029 Y109.278 F1000
G1 X32.029 Y109.406 F1000
G1 X31.771 Y109.664 F1000
G1 X31.771 Y109.793 F1000
G1 X31.643 Y109.921 F1000
G1 X31.643 Y110.050 F1000
G1 X31.514 Y110.179 F1000
G1 X31.514 Y110.308 F1000
G1 X31.385 Y110.436 F1000
G0 Z3.0 ; Pen up

G0 X15.935 Y95.115 F3000 ; Travel to line 241
G0 Z0.0 ; Pen down
G1 X16.064 Y94.986 F1000
G1 X16.193 Y94.986 F1000
G1 X16.450 Y94.729 F1000
G1 X16.579 Y94.729 F1000
G1 X16.707 Y94.600 F1000
G1 X16.836 Y94.600 F1000
G1 X16.965 Y94.471 F1000
G1 X17.094 Y94.471 F1000
G1 X17.351 Y94.214 F1000
G1 X17.480 Y94.214 F1000
G1 X17.609 Y94.085 F1000
G1 X17.738 Y94.085 F1000
G1 X17.609 Y94.085 F1000
G1 X17.480 Y94.214 F1000
G1 X17.351 Y94.214 F1000
G1 X17.094 Y94.471 F1000
G1 X16.965 Y94.471 F1000
G1 X16.836 Y94.600 F1000
G1 X16.707 Y94.600 F1000
G1 X16.579 Y94.729 F1000
G1 X16.450 Y94.729 F1000
G1 X16.193 Y94.986 F1000
G1 X16.064 Y94.986 F1000
G1 X15.935 Y95.115 F1000
G1 X15.806 Y95.115 F1000
G0 Z3.0 ; Pen up

G0 X27.008 Y78.506 F3000 ; Travel to line 242
G0 Z0.0 ; Pen down
G1 X21.600 Y73.099 F1000
G0 Z3.0 ; Pen up

G0 X21.858 Y72.970 F3000 ; Travel to line 243
G0 Z0.0 ; Pen down
G1 X28.166 Y79.279 F1000
G0 Z3.0 ; Pen up

G0 X29.325 Y80.051 F3000 ; Travel to line 244
G0 Z0.0 ; Pen down
G1 X22.115 Y72.841 F1000
G0 Z3.0 ; Pen up

G0 X22.244 Y72.713 F3000 ; Travel to line 245
G0 Z0.0 ; Pen down
G1 X30.098 Y80.566 F1000
G0 Z3.0 ; Pen up

G0 X31.643 Y81.596 F3000 ; Travel to line 246
G0 Z0.0 ; Pen down
G1 X22.630 Y72.584 F1000
G0 Z3.0 ; Pen up

G0 X22.759 Y72.455 F3000 ; Travel to line 247
G0 Z0.0 ; Pen down
G1 X32.415 Y82.111 F1000
G0 Z3.0 ; Pen up

G0 X33.574 Y82.884 F3000 ; Travel to line 248
G0 Z0.0 ; Pen down
G1 X23.016 Y72.326 F1000
G0 Z3.0 ; Pen up

G0 X23.145 Y72.069 F3000 ; Travel to line 249
G0 Z0.0 ; Pen down
G1 X34.733 Y83.656 F1000
G0 Z3.0 ; Pen up

G0 X35.505 Y84.171 F3000 ; Travel to line 250
G0 Z0.0 ; Pen down
G1 X23.402 Y72.069 F1000
G0 Z3.0 ; Pen up

G0 X23.660 Y71.811 F3000 ; Travel to line 251
G0 Z0.0 ; Pen down
G1 X37.050 Y85.201 F1000
G0 Z3.0 ; Pen up

G0 X37.822 Y85.716 F3000 ; Travel to line 252
G0 Z0.0 ; Pen down
G1 X23.789 Y71.683 F1000
G0 Z3.0 ; Pen up

G0 X24.046 Y71.554 F3000 ; Travel to line 253
G0 Z0.0 ; Pen down
G1 X38.981 Y86.489 F1000
G0 Z3.0 ; Pen up

G0 X39.625 Y86.360 F3000 ; Travel to line 254
G0 Z0.0 ; Pen down
G1 X24.561 Y71.296 F1000
G0 Z3.0 ; Pen up

G0 X24.304 Y71.425 F3000 ; Travel to line 255
G0 Z0.0 ; Pen down
G1 X39.625 Y86.746 F1000
G0 Z3.0 ; Pen up

G0 X39.625 Y86.875 F3000 ; Travel to line 256
G0 Z0.0 ; Pen down
G1 X39.625 Y79.150 F1000
G0 Z3.0 ; Pen up

G0 X39.625 Y79.021 F3000 ; Travel to line 257
G0 Z0.0 ; Pen down
G1 X28.939 Y68.335 F1000
G0 Z3.0 ; Pen up

G0 X29.067 Y68.206 F3000 ; Travel to line 258
G0 Z0.0 ; Pen down
G1 X39.625 Y78.764 F1000
G0 Z3.0 ; Pen up

G0 X39.625 Y78.377 F3000 ; Travel to line 259
G0 Z0.0 ; Pen down
G1 X29.325 Y68.078 F1000
G0 Z3.0 ; Pen up

G0 X29.582 Y67.949 F3000 ; Travel to line 260
G0 Z0.0 ; Pen down
G1 X39.625 Y77.991 F1000
G0 Z3.0 ; Pen up

G0 X39.625 Y77.734 F3000 ; Travel to line 261
G0 Z0.0 ; Pen down
G1 X29.711 Y67.820 F1000
G0 Z3.0 ; Pen up

G0 X29.969 Y67.562 F3000 ; Travel to line 262
G0 Z0.0 ; Pen down
G1 X39.625 Y77.219 F1000
G0 Z3.0 ; Pen up

G0 X39.625 Y76.961 F3000 ; Travel to line 263
G0 Z0.0 ; Pen down
G1 X30.098 Y67.434 F1000
G0 Z3.0 ; Pen up

G0 X30.355 Y67.305 F3000 ; Travel to line 264
G0 Z0.0 ; Pen down
G1 X39.625 Y76.575 F1000
G0 Z3.0 ; Pen up

G0 X39.625 Y76.189 F3000 ; Travel to line 265
G0 Z0.0 ; Pen down
G1 X30.613 Y67.176 F1000
G0 Z3.0 ; Pen up

G0 X30.870 Y67.047 F3000 ; Travel to line 266
G0 Z0.0 ; Pen down
G1 X39.625 Y75.803 F1000
G0 Z3.0 ; Pen up

G0 X39.625 Y75.416 F3000 ; Travel to line 267
G0 Z0.0 ; Pen down
G1 X31.128 Y66.919 F1000
G0 Z3.0 ; Pen up

G0 X31.256 Y66.790 F3000 ; Travel to line 268
G0 Z0.0 ; Pen down
G1 X39.625 Y75.159 F1000
G0 Z3.0 ; Pen up

G0 X39.625 Y74.644 F3000 ; Travel to line 269
G0 Z0.0 ; Pen down
G1 X31.514 Y66.532 F1000
G0 Z3.0 ; Pen up

G0 X31.643 Y66.404 F3000 ; Travel to line 270
G0 Z0.0 ; Pen down
G1 X39.625 Y74.386 F1000
G0 Z3.0 ; Pen up

G0 X39.625 Y74.000 F3000 ; Travel to line 271
G0 Z0.0 ; Pen down
G1 X31.900 Y66.275 F1000
G0 Z3.0 ; Pen up

G0 X32.157 Y66.146 F3000 ; Travel to line 272
G0 Z0.0 ; Pen down
G1 X39.625 Y73.614 F1000
G0 Z3.0 ; Pen up

G0 X39.625 Y73.356 F3000 ; Travel to line 273
G0 Z0.0 ; Pen down
G1 X32.286 Y66.017 F1000
G0 Z3.0 ; Pen up

G0 X32.672 Y65.889 F3000 ; Travel to line 274
G0 Z0.0 ; Pen down
G1 X39.625 Y72.841 F1000
G0 Z3.0 ; Pen up

G0 X39.625 Y72.584 F3000 ; Travel to line 275
G0 Z0.0 ; Pen down
G1 X32.801 Y65.760 F1000
G0 Z3.0 ; Pen up

G0 X33.059 Y65.631 F3000 ; Travel to line 276
G0 Z0.0 ; Pen down
G1 X39.625 Y72.197 F1000
G0 Z3.0 ; Pen up

G0 X39.625 Y71.811 F3000 ; Travel to line 277
G0 Z0.0 ; Pen down
G1 X33.188 Y65.374 F1000
G0 Z3.0 ; Pen up

G0 X33.445 Y65.245 F3000 ; Travel to line 278
G0 Z0.0 ; Pen down
G1 X39.625 Y71.425 F1000
G0 Z3.0 ; Pen up

G0 X39.625 Y71.039 F3000 ; Travel to line 279
G0 Z0.0 ; Pen down
G1 X33.703 Y65.116 F1000
G0 Z3.0 ; Pen up

G0 X33.831 Y64.988 F3000 ; Travel to line 280
G0 Z0.0 ; Pen down
G1 X39.625 Y70.781 F1000
G0 Z3.0 ; Pen up

G0 X39.625 Y70.395 F3000 ; Travel to line 281
G0 Z0.0 ; Pen down
G1 X34.089 Y64.859 F1000
G0 Z3.0 ; Pen up

G0 X34.346 Y64.730 F3000 ; Travel to line 282
G0 Z0.0 ; Pen down
G1 X39.625 Y70.009 F1000
G0 Z3.0 ; Pen up

G0 X39.625 Y69.623 F3000 ; Travel to line 283
G0 Z0.0 ; Pen down
G1 X34.604 Y64.601 F1000
G0 Z3.0 ; Pen up

G0 X34.733 Y64.344 F3000 ; Travel to line 284
G0 Z0.0 ; Pen down
G1 X39.625 Y69.236 F1000
G0 Z3.0 ; Pen up

G0 X39.625 Y68.979 F3000 ; Travel to line 285
G0 Z0.0 ; Pen down
G1 X34.990 Y64.344 F1000
G0 Z3.0 ; Pen up

G0 X35.248 Y64.086 F3000 ; Travel to line 286
G0 Z0.0 ; Pen down
G1 X39.625 Y68.464 F1000
G0 Z3.0 ; Pen up

G0 X39.625 Y68.206 F3000 ; Travel to line 287
G0 Z0.0 ; Pen down
G1 X35.376 Y63.958 F1000
G0 Z3.0 ; Pen up

G0 X35.634 Y63.829 F3000 ; Travel to line 288
G0 Z0.0 ; Pen down
G1 X39.625 Y67.820 F1000
G0 Z3.0 ; Pen up

G0 X39.625 Y67.434 F3000 ; Travel to line 289
G0 Z0.0 ; Pen down
G1 X35.891 Y63.700 F1000
G0 Z3.0 ; Pen up

G0 X36.020 Y63.571 F3000 ; Travel to line 290
G0 Z0.0 ; Pen down
G1 X39.625 Y67.176 F1000
G0 Z3.0 ; Pen up

G0 X39.625 Y66.661 F3000 ; Travel to line 291
G0 Z0.0 ; Pen down
G1 X36.278 Y63.314 F1000
G0 Z3.0 ; Pen up

G0 X36.535 Y63.314 F3000 ; Travel to line 292
G0 Z0.0 ; Pen down
G1 X39.625 Y66.404 F1000
G0 Z3.0 ; Pen up

G0 X39.625 Y66.017 F3000 ; Travel to line 293
G0 Z0.0 ; Pen down
G1 X36.664 Y63.056 F1000
G0 Z3.0 ; Pen up

G0 X36.921 Y62.928 F3000 ; Travel to line 294
G0 Z0.0 ; Pen down
G1 X39.625 Y65.631 F1000
G0 Z3.0 ; Pen up

G0 X39.625 Y65.245 F3000 ; Travel to line 295
G0 Z0.0 ; Pen down
G1 X37.179 Y62.799 F1000
G0 Z3.0 ; Pen up

G0 X37.436 Y62.670 F3000 ; Travel to line 296
G0 Z0.0 ; Pen down
G1 X39.625 Y64.859 F1000
G0 Z3.0 ; Pen up

G0 X39.625 Y64.601 F3000 ; Travel to line 297
G0 Z0.0 ; Pen down
G1 X37.565 Y62.541 F1000
G0 Z3.0 ; Pen up

G0 X37.822 Y62.284 F3000 ; Travel to line 298
G0 Z0.0 ; Pen down
G1 X39.625 Y64.086 F1000
G0 Z3.0 ; Pen up

G0 X39.625 Y63.829 F3000 ; Travel to line 299
G0 Z0.0 ; Pen down
G1 X38.080 Y62.284 F1000
G0 Z3.0 ; Pen up

G0 X38.209 Y62.026 F3000 ; Travel to line 300
G0 Z0.0 ; Pen down
G1 X39.625 Y63.443 F1000
G0 Z3.0 ; Pen up

G0 X39.625 Y63.056 F3000 ; Travel to line 301
G0 Z0.0 ; Pen down
G1 X38.466 Y61.898 F1000
G0 Z3.0 ; Pen up

G0 X38.595 Y61.769 F3000 ; Travel to line 302
G0 Z0.0 ; Pen down
G1 X39.625 Y62.799 F1000
G0 Z3.0 ; Pen up

G0 X39.625 Y62.284 F3000 ; Travel to line 303
G0 Z0.0 ; Pen down
G1 X38.981 Y61.640 F1000
G0 Z3.0 ; Pen up

G0 X39.110 Y61.511 F3000 ; Travel to line 304
G0 Z0.0 ; Pen down
G1 X39.625 Y62.026 F1000
G0 Z3.0 ; Pen up

G0 X39.625 Y61.640 F3000 ; Travel to line 305
G0 Z0.0 ; Pen down
G1 X39.367 Y61.383 F1000
G0 Z3.0 ; Pen up

G0 X39.625 Y61.125 F3000 ; Travel to line 306
G0 Z0.0 ; Pen down
G1 X39.625 Y68.850 F1000
G0 Z3.0 ; Pen up

G0 X39.625 Y79.536 F3000 ; Travel to line 307
G0 Z0.0 ; Pen down
G1 X28.553 Y68.464 F1000
G0 Z3.0 ; Pen up

G0 X28.424 Y68.593 F3000 ; Travel to line 308
G0 Z0.0 ; Pen down
G1 X39.625 Y79.794 F1000
G0 Z3.0 ; Pen up

G0 X39.625 Y80.180 F3000 ; Travel to line 309
G0 Z0.0 ; Pen down
G1 X28.166 Y68.721 F1000
G0 Z3.0 ; Pen up

G0 X28.038 Y68.979 F3000 ; Travel to line 310
G0 Z0.0 ; Pen down
G1 X39.625 Y80.566 F1000
G0 Z3.0 ; Pen up

G0 X39.625 Y80.953 F3000 ; Travel to line 311
G0 Z0.0 ; Pen down
G1 X27.780 Y69.108 F1000
G0 Z3.0 ; Pen up

G0 X27.523 Y69.236 F3000 ; Travel to line 312
G0 Z0.0 ; Pen down
G1 X39.625 Y81.339 F1000
G0 Z3.0 ; Pen up

G0 X39.625 Y81.596 F3000 ; Travel to line 313
G0 Z0.0 ; Pen down
G1 X27.394 Y69.365 F1000
G0 Z3.0 ; Pen up

G0 X27.008 Y69.494 F3000 ; Travel to line 314
G0 Z0.0 ; Pen down
G1 X39.625 Y82.111 F1000
G0 Z3.0 ; Pen up

G0 X39.625 Y82.369 F3000 ; Travel to line 315
G0 Z0.0 ; Pen down
G1 X26.879 Y69.623 F1000
G0 Z3.0 ; Pen up

G0 X26.621 Y69.751 F3000 ; Travel to line 316
G0 Z0.0 ; Pen down
G1 X39.625 Y82.755 F1000
G0 Z3.0 ; Pen up

G0 X39.625 Y83.141 F3000 ; Travel to line 317
G0 Z0.0 ; Pen down
G1 X26.492 Y70.009 F1000
G0 Z3.0 ; Pen up

G0 X26.235 Y70.009 F3000 ; Travel to line 318
G0 Z0.0 ; Pen down
G1 X39.625 Y83.399 F1000
G0 Z3.0 ; Pen up

G0 X39.625 Y83.914 F3000 ; Travel to line 319
G0 Z0.0 ; Pen down
G1 X25.977 Y70.266 F1000
G0 Z3.0 ; Pen up

G0 X25.849 Y70.395 F3000 ; Travel to line 320
G0 Z0.0 ; Pen down
G1 X39.625 Y84.171 F1000
G0 Z3.0 ; Pen up

G0 X39.625 Y84.558 F3000 ; Travel to line 321
G0 Z0.0 ; Pen down
G1 X25.591 Y70.524 F1000
G0 Z3.0 ; Pen up

G0 X25.334 Y70.653 F3000 ; Travel to line 322
G0 Z0.0 ; Pen down
G1 X39.625 Y84.944 F1000
G0 Z3.0 ; Pen up

G0 X39.625 Y85.201 F3000 ; Travel to line 323
G0 Z0.0 ; Pen down
G1 X25.205 Y70.781 F1000
G0 Z3.0 ; Pen up

G0 X24.948 Y71.039 F3000 ; Travel to line 324
G0 Z0.0 ; Pen down
G1 X39.625 Y85.716 F1000
G0 Z3.0 ; Pen up

G0 X39.625 Y85.974 F3000 ; Travel to line 325
G0 Z0.0 ; Pen down
G1 X24.690 Y71.039 F1000
G0 Z3.0 ; Pen up

G0 X21.471 Y73.356 F3000 ; Travel to line 326
G0 Z0.0 ; Pen down
G1 X25.849 Y77.734 F1000
G0 Z3.0 ; Pen up

G0 X24.690 Y76.961 F3000 ; Travel to line 327
G0 Z0.0 ; Pen down
G1 X21.214 Y73.485 F1000
G0 Z3.0 ; Pen up

G0 X21.085 Y73.614 F3000 ; Travel to line 328
G0 Z0.0 ; Pen down
G1 X23.918 Y76.446 F1000
G0 Z3.0 ; Pen up

G0 X22.759 Y75.674 F3000 ; Travel to line 329
G0 Z0.0 ; Pen down
G1 X20.828 Y73.743 F1000
G0 Z3.0 ; Pen up

G0 X20.699 Y73.871 F3000 ; Travel to line 330
G0 Z0.0 ; Pen down
G1 X21.986 Y75.159 F1000
G0 Z3.0 ; Pen up

G0 X21.214 Y74.644 F3000 ; Travel to line 331
G0 Z0.0 ; Pen down
G1 X20.441 Y73.871 F1000
G0 Z3.0 ; Pen up

G0 X20.312 Y74.000 F3000 ; Travel to line 332
G0 Z0.0 ; Pen down
G1 X20.441 Y74.129 F1000
G0 Z3.0 ; Pen up

G0 X14.905 Y74.000 F3000 ; Travel to line 333
G0 Z0.0 ; Pen down
G1 X10.141 Y74.000 F1000
G0 Z3.0 ; Pen up

G0 X7.695 Y71.425 F3000 ; Travel to line 334
G0 Z0.0 ; Pen down
G1 X7.566 Y71.554 F1000
G1 X7.566 Y76.446 F1000
G1 X7.695 Y76.575 F1000
G1 X7.695 Y78.249 F1000
G1 X7.824 Y78.377 F1000
G1 X7.824 Y79.407 F1000
G1 X7.953 Y79.536 F1000
G1 X7.953 Y80.438 F1000
G1 X8.081 Y80.566 F1000
G1 X8.081 Y81.210 F1000
G1 X8.210 Y81.339 F1000
G1 X8.210 Y81.983 F1000
G1 X8.339 Y82.111 F1000
G1 X8.339 Y82.626 F1000
G1 X8.468 Y82.755 F1000
G1 X8.468 Y83.270 F1000
G1 X8.596 Y83.399 F1000
G1 X8.596 Y83.914 F1000
G1 X8.725 Y84.043 F1000
G1 X8.725 Y84.429 F1000
G1 X8.854 Y84.558 F1000
G1 X8.854 Y84.944 F1000
G1 X8.982 Y85.073 F1000
G1 X8.982 Y85.459 F1000
G1 X9.111 Y85.588 F1000
G1 X9.111 Y85.974 F1000
G1 X9.240 Y86.102 F1000
G1 X9.240 Y86.360 F1000
G1 X9.369 Y86.489 F1000
G1 X9.369 Y86.875 F1000
G1 X9.498 Y87.004 F1000
G1 X9.498 Y87.261 F1000
G1 X9.626 Y87.390 F1000
G1 X9.626 Y87.648 F1000
G1 X9.755 Y87.776 F1000
G1 X9.755 Y88.034 F1000
G1 X9.884 Y88.163 F1000
G1 X9.884 Y88.420 F1000
G1 X10.013 Y88.549 F1000
G1 X10.013 Y88.806 F1000
G1 X10.141 Y88.935 F1000
G1 X10.141 Y89.192 F1000
G1 X10.270 Y89.321 F1000
G1 X10.270 Y89.579 F1000
G1 X10.399 Y89.707 F1000
G1 X10.399 Y89.965 F1000
G1 X10.527 Y90.094 F1000
G1 X10.527 Y90.222 F1000
G1 X10.656 Y90.351 F1000
G1 X10.656 Y90.609 F1000
G1 X10.785 Y90.737 F1000
G1 X10.785 Y90.866 F1000
G1 X10.914 Y90.995 F1000
G1 X10.914 Y91.124 F1000
G1 X11.043 Y91.252 F1000
G1 X11.043 Y91.510 F1000
G1 X11.171 Y91.639 F1000
G1 X11.171 Y91.767 F1000
G1 X11.300 Y91.896 F1000
G1 X11.300 Y92.025 F1000
G1 X11.429 Y92.154 F1000
G1 X11.429 Y92.411 F1000
G1 X11.558 Y92.540 F1000
G1 X11.558 Y92.669 F1000
G1 X11.686 Y92.797 F1000
G1 X11.686 Y92.926 F1000
G1 X11.815 Y93.055 F1000
G1 X11.815 Y93.184 F1000
G1 X11.944 Y93.312 F1000
G1 X11.944 Y93.441 F1000
G1 X12.072 Y93.570 F1000
G1 X12.072 Y93.699 F1000
G1 X12.201 Y93.828 F1000
G1 X12.201 Y93.956 F1000
G1 X12.330 Y94.085 F1000
G1 X12.330 Y94.214 F1000
G1 X12.459 Y94.343 F1000
G1 X12.459 Y94.471 F1000
G1 X12.588 Y94.600 F1000
G1 X12.588 Y94.729 F1000
G1 X12.716 Y94.858 F1000
G1 X12.716 Y94.986 F1000
G1 X12.845 Y95.115 F1000
G1 X12.845 Y95.244 F1000
G1 X13.103 Y95.501 F1000
G1 X13.103 Y95.630 F1000
G1 X13.231 Y95.759 F1000
G1 X13.231 Y95.888 F1000
G1 X13.360 Y96.016 F1000
G1 X13.360 Y96.145 F1000
G1 X13.489 Y96.274 F1000
G1 X13.489 Y96.403 F1000
G1 X13.746 Y96.660 F1000
G1 X13.746 Y96.789 F1000
G1 X13.875 Y96.918 F1000
G1 X13.875 Y97.046 F1000
G1 X14.133 Y97.304 F1000
G1 X14.133 Y97.433 F1000
G1 X14.390 Y97.690 F1000
G1 X14.390 Y97.819 F1000
G1 X14.519 Y97.948 F1000
G1 X14.519 Y98.076 F1000
G1 X14.776 Y98.334 F1000
G1 X14.776 Y98.463 F1000
G1 X15.034 Y98.720 F1000
G1 X15.034 Y98.849 F1000
G1 X15.291 Y99.106 F1000
G1 X15.291 Y99.235 F1000
G1 X15.549 Y99.493 F1000
G1 X15.549 Y99.621 F1000
G1 X15.935 Y100.008 F1000
G1 X15.935 Y100.136 F1000
G1 X16.321 Y100.523 F1000
G1 X16.321 Y100.651 F1000
G1 X16.707 Y101.038 F1000
G1 X16.707 Y101.166 F1000
G1 X17.094 Y101.553 F1000
G1 X17.094 Y101.681 F1000
G1 X17.609 Y102.196 F1000
G1 X17.609 Y102.325 F1000
G1 X18.253 Y102.969 F1000
G1 X18.253 Y103.097 F1000
G1 X19.154 Y103.999 F1000
G1 X19.154 Y104.127 F1000
G1 X22.244 Y107.218 F1000
G1 X22.373 Y107.218 F1000
G1 X23.274 Y108.119 F1000
G1 X23.402 Y108.119 F1000
G1 X24.046 Y108.763 F1000
G1 X24.175 Y108.763 F1000
G1 X24.690 Y109.278 F1000
G1 X24.819 Y109.278 F1000
G1 X25.205 Y109.664 F1000
G1 X25.334 Y109.664 F1000
G1 X25.720 Y110.050 F1000
G1 X25.849 Y110.050 F1000
G1 X26.235 Y110.436 F1000
G1 X26.364 Y110.436 F1000
G1 X26.750 Y110.823 F1000
G1 X26.879 Y110.823 F1000
G1 X27.136 Y111.080 F1000
G1 X27.265 Y111.080 F1000
G1 X27.523 Y111.338 F1000
G1 X27.651 Y111.338 F1000
G1 X27.909 Y111.595 F1000
G1 X28.038 Y111.595 F1000
G1 X28.295 Y111.853 F1000
G1 X28.424 Y111.853 F1000
G1 X28.553 Y111.981 F1000
G1 X28.681 Y111.981 F1000
G1 X28.939 Y112.239 F1000
G1 X29.067 Y112.239 F1000
G1 X29.325 Y112.496 F1000
G1 X29.454 Y112.496 F1000
G1 X29.582 Y112.625 F1000
G1 X29.711 Y112.625 F1000
G1 X29.969 Y112.883 F1000
G1 X30.098 Y112.883 F1000
G1 X30.226 Y113.011 F1000
G1 X30.355 Y113.011 F1000
G1 X30.484 Y113.140 F1000
G1 X30.613 Y113.140 F1000
G1 X30.741 Y113.269 F1000
G1 X30.870 Y113.269 F1000
G1 X31.128 Y113.526 F1000
G1 X31.256 Y113.526 F1000
G1 X31.385 Y113.655 F1000
G1 X31.514 Y113.655 F1000
G1 X31.643 Y113.784 F1000
G1 X31.771 Y113.784 F1000
G1 X31.900 Y113.913 F1000
G1 X32.029 Y113.913 F1000
G1 X32.157 Y114.041 F1000
G1 X32.286 Y114.041 F1000
G1 X32.415 Y114.170 F1000
G1 X32.544 Y114.170 F1000
G1 X32.672 Y114.299 F1000
G1 X32.801 Y114.299 F1000
G1 X32.930 Y114.428 F1000
G1 X33.059 Y114.428 F1000
G1 X33.188 Y114.556 F1000
G1 X33.316 Y114.556 F1000
G1 X33.445 Y114.685 F1000
G1 X33.574 Y114.685 F1000
G1 X33.703 Y114.814 F1000
G1 X33.831 Y114.814 F1000
G1 X33.960 Y114.942 F1000
G1 X34.218 Y114.942 F1000
G1 X34.346 Y115.071 F1000
G1 X34.475 Y115.071 F1000
G1 X34.604 Y115.200 F1000
G1 X34.733 Y115.200 F1000
G1 X34.861 Y115.329 F1000
G1 X35.119 Y115.329 F1000
G1 X35.248 Y115.457 F1000
G1 X35.376 Y115.457 F1000
G1 X35.505 Y115.586 F1000
G1 X35.634 Y115.586 F1000
G1 X35.763 Y115.715 F1000
G1 X36.020 Y115.715 F1000
G1 X36.149 Y115.844 F1000
G1 X36.278 Y115.844 F1000
G1 X36.406 Y115.972 F1000
G1 X36.664 Y115.972 F1000
G1 X36.793 Y116.101 F1000
G1 X37.050 Y116.101 F1000
G1 X37.179 Y116.230 F1000
G1 X37.307 Y116.230 F1000
G1 X37.436 Y116.359 F1000
G1 X37.694 Y116.359 F1000
G1 X37.822 Y116.487 F1000
G1 X38.080 Y116.487 F1000
G1 X38.209 Y116.616 F1000
G1 X38.466 Y116.616 F1000
G1 X38.595 Y116.745 F1000
G1 X38.852 Y116.745 F1000
G1 X38.981 Y116.874 F1000
G1 X39.239 Y116.874 F1000
G1 X39.367 Y117.002 F1000
G1 X39.754 Y117.002 F1000
G1 X39.883 Y117.131 F1000
G1 X40.140 Y117.131 F1000
G1 X40.269 Y117.260 F1000
G1 X40.655 Y117.260 F1000
G1 X40.784 Y117.389 F1000
G1 X41.170 Y117.389 F1000
G1 X41.299 Y117.517 F1000
G1 X41.556 Y117.517 F1000
G1 X41.685 Y117.646 F1000
G1 X42.200 Y117.646 F1000
G1 X42.329 Y117.775 F1000
G1 X42.715 Y117.775 F1000
G1 X42.844 Y117.904 F1000
G1 X43.230 Y117.904 F1000
G1 X43.359 Y118.032 F1000
G1 X43.874 Y118.032 F1000
G1 X44.002 Y118.161 F1000
G1 X44.646 Y118.161 F1000
G1 X44.775 Y118.290 F1000
G1 X45.419 Y118.290 F1000
G1 X45.547 Y118.419 F1000
G1 X46.191 Y118.419 F1000
G1 X46.320 Y118.547 F1000
G1 X47.221 Y118.547 F1000
G1 X47.350 Y118.676 F1000
G1 X48.380 Y118.676 F1000
G1 X48.509 Y118.805 F1000
G1 X50.183 Y118.805 F1000
G1 X50.311 Y118.934 F1000
G1 X54.689 Y118.934 F1000
G1 X54.818 Y118.805 F1000
G1 X56.491 Y118.805 F1000
G1 X56.620 Y118.676 F1000
G1 X57.650 Y118.676 F1000
G1 X57.779 Y118.547 F1000
G1 X58.680 Y118.547 F1000
G1 X58.809 Y118.419 F1000
G1 X59.453 Y118.419 F1000
G1 X59.581 Y118.290 F1000
G1 X60.225 Y118.290 F1000
G1 X60.354 Y118.161 F1000
G1 X60.998 Y118.161 F1000
G1 X61.126 Y118.032 F1000
G1 X61.641 Y118.032 F1000
G1 X61.770 Y117.904 F1000
G1 X62.156 Y117.904 F1000
G1 X62.285 Y117.775 F1000
G1 X62.671 Y117.775 F1000
G1 X62.800 Y117.646 F1000
G1 X63.315 Y117.646 F1000
G1 X63.444 Y117.517 F1000
G1 X63.701 Y117.517 F1000
G1 X63.830 Y117.389 F1000
G1 X64.216 Y117.389 F1000
G1 X64.345 Y117.260 F1000
G1 X64.731 Y117.260 F1000
G1 X64.860 Y117.131 F1000
G1 X65.118 Y117.131 F1000
G1 X65.246 Y117.002 F1000
G1 X65.633 Y117.002 F1000
G1 X65.761 Y116.874 F1000
G1 X66.019 Y116.874 F1000
G1 X66.148 Y116.745 F1000
G1 X66.405 Y116.745 F1000
G1 X66.534 Y116.616 F1000
G1 X66.791 Y116.616 F1000
G1 X66.920 Y116.487 F1000
G1 X67.177 Y116.487 F1000
G1 X67.306 Y116.359 F1000
G1 X67.564 Y116.359 F1000
G1 X67.692 Y116.230 F1000
G1 X67.821 Y116.230 F1000
G1 X67.950 Y116.101 F1000
G1 X68.207 Y116.101 F1000
G1 X68.336 Y115.972 F1000
G1 X68.594 Y115.972 F1000
G1 X68.722 Y115.844 F1000
G1 X68.851 Y115.844 F1000
G1 X68.980 Y115.715 F1000
G1 X69.237 Y115.715 F1000
G1 X69.366 Y115.586 F1000
G1 X69.495 Y115.586 F1000
G1 X69.624 Y115.457 F1000
G1 X69.752 Y115.457 F1000
G1 X69.881 Y115.329 F1000
G1 X70.139 Y115.329 F1000
G1 X70.267 Y115.200 F1000
G1 X70.396 Y115.200 F1000
G1 X70.525 Y115.071 F1000
G1 X70.654 Y115.071 F1000
G1 X70.782 Y114.942 F1000
G1 X71.040 Y114.942 F1000
G1 X71.169 Y114.814 F1000
G1 X71.297 Y114.814 F1000
G1 X71.426 Y114.685 F1000
G1 X71.555 Y114.685 F1000
G1 X71.684 Y114.556 F1000
G1 X71.812 Y114.556 F1000
G1 X71.941 Y114.428 F1000
G1 X72.070 Y114.428 F1000
G1 X72.199 Y114.299 F1000
G1 X72.328 Y114.299 F1000
G1 X72.456 Y114.170 F1000
G1 X72.585 Y114.170 F1000
G1 X72.714 Y114.041 F1000
G1 X72.843 Y114.041 F1000
G1 X72.971 Y113.913 F1000
G1 X73.100 Y113.913 F1000
G1 X73.229 Y113.784 F1000
G1 X73.358 Y113.784 F1000
G1 X73.486 Y113.655 F1000
G1 X73.615 Y113.655 F1000
G1 X73.744 Y113.526 F1000
G1 X73.873 Y113.526 F1000
G1 X74.130 Y113.269 F1000
G1 X74.259 Y113.269 F1000
G1 X74.388 Y113.140 F1000
G1 X74.516 Y113.140 F1000
G1 X74.645 Y113.011 F1000
G1 X74.774 Y113.011 F1000
G1 X74.903 Y112.883 F1000
G1 X75.031 Y112.883 F1000
G1 X75.289 Y112.625 F1000
G1 X75.418 Y112.625 F1000
G1 X75.546 Y112.496 F1000
G1 X75.675 Y112.496 F1000
G1 X75.933 Y112.239 F1000
G1 X76.061 Y112.239 F1000
G1 X76.319 Y111.981 F1000
G1 X76.448 Y111.981 F1000
G1 X76.576 Y111.853 F1000
G1 X76.705 Y111.853 F1000
G1 X76.963 Y111.595 F1000
G1 X77.091 Y111.595 F1000
G1 X77.349 Y111.338 F1000
G1 X77.478 Y111.338 F1000
G1 X77.735 Y111.080 F1000
G1 X77.864 Y111.080 F1000
G1 X78.121 Y110.823 F1000
G1 X78.250 Y110.823 F1000
G1 X78.636 Y110.436 F1000
G1 X78.765 Y110.436 F1000
G1 X79.151 Y110.050 F1000
G1 X79.280 Y110.050 F1000
G1 X79.666 Y109.664 F1000
G1 X79.795 Y109.664 F1000
G1 X80.181 Y109.278 F1000
G1 X80.310 Y109.278 F1000
G1 X80.825 Y108.763 F1000
G1 X80.954 Y108.763 F1000
G1 X81.597 Y108.119 F1000
G1 X81.726 Y108.119 F1000
G1 X82.627 Y107.218 F1000
G1 X82.756 Y107.218 F1000
G1 X85.718 Y104.256 F1000
G1 X85.718 Y104.127 F1000
G1 X86.619 Y103.226 F1000
G1 X86.619 Y103.097 F1000
G1 X87.263 Y102.454 F1000
G1 X87.263 Y102.325 F1000
G1 X87.778 Y101.810 F1000
G1 X87.778 Y101.681 F1000
G1 X88.164 Y101.295 F1000
G1 X88.164 Y101.166 F1000
G1 X88.550 Y100.780 F1000
G1 X88.550 Y100.651 F1000
G1 X88.936 Y100.265 F1000
G1 X88.936 Y100.136 F1000
G1 X89.323 Y99.750 F1000
G1 X89.323 Y99.621 F1000
G1 X89.580 Y99.364 F1000
G1 X89.580 Y99.235 F1000
G1 X89.838 Y98.978 F1000
G1 X89.838 Y98.849 F1000
G1 X90.095 Y98.591 F1000
G1 X90.095 Y98.463 F1000
G1 X90.353 Y98.205 F1000
G1 X90.353 Y98.076 F1000
G1 X90.481 Y97.948 F1000
G1 X90.481 Y97.819 F1000
G1 X90.739 Y97.561 F1000
G1 X90.739 Y97.433 F1000
G1 X90.996 Y97.175 F1000
G1 X90.996 Y97.046 F1000
G1 X91.125 Y96.918 F1000
G1 X91.125 Y96.789 F1000
G1 X91.383 Y96.531 F1000
G1 X91.383 Y96.403 F1000
G1 X91.511 Y96.274 F1000
G1 X91.511 Y96.145 F1000
G1 X91.640 Y96.016 F1000
G1 X91.640 Y95.888 F1000
G1 X91.769 Y95.759 F1000
G1 X91.769 Y95.630 F1000
G1 X92.026 Y95.373 F1000
G1 X92.026 Y95.244 F1000
G1 X92.155 Y95.115 F1000
G1 X92.155 Y94.986 F1000
G1 X92.284 Y94.858 F1000
G1 X92.284 Y94.729 F1000
G1 X92.413 Y94.600 F1000
G1 X92.413 Y94.471 F1000
G1 X92.541 Y94.343 F1000
G1 X92.541 Y94.214 F1000
G1 X92.670 Y94.085 F1000
G1 X92.670 Y93.956 F1000
G1 X92.799 Y93.828 F1000
G1 X92.799 Y93.699 F1000
G1 X92.928 Y93.570 F1000
G1 X92.928 Y93.441 F1000
G1 X93.056 Y93.312 F1000
G1 X93.056 Y93.184 F1000
G1 X93.185 Y93.055 F1000
G1 X93.185 Y92.926 F1000
G1 X93.314 Y92.797 F1000
G1 X93.314 Y92.669 F1000
G1 X93.442 Y92.540 F1000
G1 X93.442 Y92.282 F1000
G1 X93.571 Y92.154 F1000
G1 X93.571 Y92.025 F1000
G1 X93.700 Y91.896 F1000
G1 X93.700 Y91.767 F1000
G1 X93.829 Y91.639 F1000
G1 X93.829 Y91.381 F1000
G1 X93.957 Y91.252 F1000
G1 X93.957 Y91.124 F1000
G1 X94.086 Y90.995 F1000
G1 X94.086 Y90.866 F1000
G1 X94.215 Y90.737 F1000
G1 X94.215 Y90.480 F1000
G1 X94.344 Y90.351 F1000
G1 X94.344 Y90.222 F1000
G1 X94.472 Y90.094 F1000
G1 X94.472 Y89.836 F1000
G1 X94.601 Y89.707 F1000
G1 X94.601 Y89.450 F1000
G1 X94.730 Y89.321 F1000
G1 X94.730 Y89.192 F1000
G1 X94.859 Y89.064 F1000
G1 X94.859 Y88.806 F1000
G1 X94.987 Y88.677 F1000
G1 X94.987 Y88.420 F1000
G1 X95.116 Y88.291 F1000
G1 X95.116 Y88.034 F1000
G1 X95.245 Y87.905 F1000
G1 X95.245 Y87.648 F1000
G1 X95.374 Y87.519 F1000
G1 X95.374 Y87.261 F1000
G1 X95.502 Y87.133 F1000
G1 X95.502 Y86.746 F1000
G1 X95.631 Y86.618 F1000
G1 X95.631 Y86.360 F1000
G1 X95.760 Y86.231 F1000
G1 X95.760 Y85.845 F1000
G1 X95.889 Y85.716 F1000
G1 X95.889 Y85.330 F1000
G1 X96.017 Y85.201 F1000
G1 X96.017 Y84.944 F1000
G1 X96.146 Y84.815 F1000
G1 X96.146 Y84.300 F1000
G1 X96.275 Y84.171 F1000
G1 X96.275 Y83.785 F1000
G1 X96.404 Y83.656 F1000
G1 X96.404 Y83.270 F1000
G1 X96.532 Y83.141 F1000
G1 X96.532 Y82.626 F1000
G1 X96.661 Y82.498 F1000
G1 X96.661 Y81.854 F1000
G1 X96.790 Y81.725 F1000
G1 X96.790 Y81.081 F1000
G1 X96.919 Y80.953 F1000
G1 X96.919 Y80.309 F1000
G1 X97.047 Y80.180 F1000
G1 X97.047 Y79.279 F1000
G1 X97.176 Y79.150 F1000
G1 X97.176 Y78.120 F1000
G1 X97.305 Y77.991 F1000
G1 X97.305 Y76.317 F1000
G1 X97.434 Y76.189 F1000
G1 X97.434 Y71.811 F1000
G1 X97.305 Y71.683 F1000
G1 X97.305 Y70.009 F1000
G1 X97.176 Y69.880 F1000
G1 X97.176 Y68.850 F1000
G1 X97.047 Y68.721 F1000
G1 X97.047 Y67.820 F1000
G1 X96.919 Y67.691 F1000
G1 X96.919 Y67.047 F1000
G1 X96.790 Y66.919 F1000
G1 X96.790 Y66.275 F1000
G1 X96.661 Y66.146 F1000
G1 X96.661 Y65.502 F1000
G1 X96.532 Y65.374 F1000
G1 X96.532 Y64.859 F1000
G1 X96.404 Y64.730 F1000
G1 X96.404 Y64.344 F1000
G1 X96.275 Y64.215 F1000
G1 X96.275 Y63.829 F1000
G1 X96.146 Y63.700 F1000
G1 X96.146 Y63.185 F1000
G1 X96.017 Y63.056 F1000
G1 X96.017 Y62.799 F1000
G1 X95.889 Y62.670 F1000
G1 X95.889 Y62.284 F1000
G1 X95.760 Y62.155 F1000
G1 X95.760 Y61.769 F1000
G1 X95.631 Y61.640 F1000
G1 X95.631 Y61.383 F1000
G1 X95.502 Y61.254 F1000
G1 X95.502 Y60.867 F1000
G1 X95.374 Y60.739 F1000
G1 X95.374 Y60.481 F1000
G1 X95.245 Y60.352 F1000
G1 X95.245 Y60.095 F1000
G1 X95.116 Y59.966 F1000
G1 X95.116 Y59.709 F1000
G1 X94.987 Y59.580 F1000
G1 X94.987 Y59.322 F1000
G1 X94.859 Y59.194 F1000
G1 X94.859 Y58.936 F1000
G1 X94.730 Y58.807 F1000
G1 X94.730 Y58.679 F1000
G1 X94.601 Y58.550 F1000
G1 X94.601 Y58.293 F1000
G1 X94.472 Y58.164 F1000
G1 X94.472 Y57.906 F1000
G1 X94.344 Y57.778 F1000
G1 X94.344 Y57.649 F1000
G1 X94.215 Y57.520 F1000
G1 X94.215 Y57.263 F1000
G1 X94.086 Y57.134 F1000
G1 X94.086 Y57.005 F1000
G1 X93.957 Y56.876 F1000
G1 X93.957 Y56.748 F1000
G1 X93.829 Y56.619 F1000
G1 X93.829 Y56.361 F1000
G1 X93.700 Y56.233 F1000
G1 X93.700 Y56.104 F1000
G1 X93.571 Y55.975 F1000
G1 X93.571 Y55.846 F1000
G1 X93.442 Y55.718 F1000
G1 X93.442 Y55.460 F1000
G1 X93.314 Y55.331 F1000
G1 X93.314 Y55.203 F1000
G1 X93.185 Y55.074 F1000
G1 X93.185 Y54.945 F1000
G1 X93.056 Y54.816 F1000
G1 X93.056 Y54.688 F1000
G1 X92.928 Y54.559 F1000
G1 X92.928 Y54.430 F1000
G1 X92.799 Y54.301 F1000
G1 X92.799 Y54.172 F1000
G1 X92.670 Y54.044 F1000
G1 X92.670 Y53.915 F1000
G1 X92.541 Y53.786 F1000
G1 X92.541 Y53.657 F1000
G1 X92.413 Y53.529 F1000
G1 X92.413 Y53.400 F1000
G1 X92.284 Y53.271 F1000
G1 X92.284 Y53.142 F1000
G1 X92.155 Y53.014 F1000
G1 X92.155 Y52.885 F1000
G1 X92.026 Y52.756 F1000
G1 X92.026 Y52.627 F1000
G1 X91.769 Y52.370 F1000
G1 X91.769 Y52.241 F1000
G1 X91.640 Y52.112 F1000
G1 X91.640 Y51.984 F1000
G1 X91.511 Y51.855 F1000
G1 X91.511 Y51.726 F1000
G1 X91.383 Y51.597 F1000
G1 X91.383 Y51.469 F1000
G1 X91.125 Y51.211 F1000
G1 X91.125 Y51.082 F1000
G1 X90.996 Y50.954 F1000
G1 X90.996 Y50.825 F1000
G1 X90.739 Y50.567 F1000
G1 X90.739 Y50.439 F1000
G1 X90.481 Y50.181 F1000
G1 X90.481 Y50.053 F1000
G1 X90.353 Y49.924 F1000
G1 X90.353 Y49.795 F1000
G1 X90.095 Y49.538 F1000
G1 X90.095 Y49.409 F1000
G1 X89.838 Y49.151 F1000
G1 X89.838 Y49.023 F1000
G1 X89.580 Y48.765 F1000
G1 X89.580 Y48.636 F1000
G1 X89.323 Y48.379 F1000
G1 X89.323 Y48.250 F1000
G1 X88.936 Y47.864 F1000
G1 X88.936 Y47.735 F1000
G1 X88.550 Y47.349 F1000
G1 X88.550 Y47.220 F1000
G1 X88.164 Y46.834 F1000
G1 X88.164 Y46.705 F1000
G1 X87.778 Y46.319 F1000
G1 X87.778 Y46.190 F1000
G1 X87.263 Y45.675 F1000
G1 X87.263 Y45.546 F1000
G1 X86.619 Y44.903 F1000
G1 X86.619 Y44.774 F1000
G1 X85.718 Y43.873 F1000
G1 X85.718 Y43.744 F1000
G1 X82.627 Y40.654 F1000
G1 X82.499 Y40.654 F1000
G1 X81.597 Y39.752 F1000
G1 X81.469 Y39.752 F1000
G1 X80.825 Y39.109 F1000
G1 X80.696 Y39.109 F1000
G1 X80.181 Y38.594 F1000
G1 X80.053 Y38.594 F1000
G1 X79.666 Y38.207 F1000
G1 X79.538 Y38.207 F1000
G1 X79.151 Y37.821 F1000
G1 X79.023 Y37.821 F1000
G1 X78.636 Y37.435 F1000
G1 X78.508 Y37.435 F1000
G1 X78.121 Y37.049 F1000
G1 X77.993 Y37.049 F1000
G1 X77.735 Y36.791 F1000
G1 X77.606 Y36.791 F1000
G1 X77.349 Y36.534 F1000
G1 X77.220 Y36.534 F1000
G1 X76.963 Y36.276 F1000
G1 X76.834 Y36.276 F1000
G1 X76.576 Y36.019 F1000
G1 X76.448 Y36.019 F1000
G1 X76.319 Y35.890 F1000
G1 X76.190 Y35.890 F1000
G1 X75.933 Y35.633 F1000
G1 X75.804 Y35.633 F1000
G1 X75.546 Y35.375 F1000
G1 X75.418 Y35.375 F1000
G1 X75.289 Y35.246 F1000
G1 X75.160 Y35.246 F1000
G1 X74.903 Y34.989 F1000
G1 X74.774 Y34.989 F1000
G1 X74.645 Y34.860 F1000
G1 X74.516 Y34.860 F1000
G1 X74.388 Y34.731 F1000
G1 X74.259 Y34.731 F1000
G1 X74.130 Y34.602 F1000
G1 X74.001 Y34.602 F1000
G1 X73.744 Y34.345 F1000
G1 X73.615 Y34.345 F1000
G1 X73.486 Y34.216 F1000
G1 X73.358 Y34.216 F1000
G1 X73.229 Y34.087 F1000
G1 X73.100 Y34.087 F1000
G1 X72.971 Y33.959 F1000
G1 X72.843 Y33.959 F1000
G1 X72.714 Y33.830 F1000
G1 X72.585 Y33.830 F1000
G1 X72.456 Y33.701 F1000
G1 X72.328 Y33.701 F1000
G1 X72.199 Y33.572 F1000
G1 X72.070 Y33.572 F1000
G1 X71.941 Y33.444 F1000
G1 X71.812 Y33.444 F1000
G1 X71.684 Y33.315 F1000
G1 X71.555 Y33.315 F1000
G1 X71.426 Y33.186 F1000
G1 X71.297 Y33.186 F1000
G1 X71.169 Y33.058 F1000
G1 X71.040 Y33.058 F1000
G1 X70.911 Y32.929 F1000
G1 X70.654 Y32.929 F1000
G1 X70.525 Y32.800 F1000
G1 X70.396 Y32.800 F1000
G1 X70.267 Y32.671 F1000
G1 X70.139 Y32.671 F1000
G1 X70.010 Y32.543 F1000
G1 X69.752 Y32.543 F1000
G1 X69.624 Y32.414 F1000
G1 X69.495 Y32.414 F1000
G1 X69.366 Y32.285 F1000
G1 X69.237 Y32.285 F1000
G1 X69.109 Y32.156 F1000
G1 X68.851 Y32.156 F1000
G1 X68.722 Y32.028 F1000
G1 X68.594 Y32.028 F1000
G1 X68.465 Y31.899 F1000
G1 X68.207 Y31.899 F1000
G1 X68.079 Y31.770 F1000
G1 X67.821 Y31.770 F1000
G1 X67.692 Y31.641 F1000
G1 X67.435 Y31.641 F1000
G1 X67.306 Y31.513 F1000
G1 X67.049 Y31.513 F1000
G1 X66.920 Y31.384 F1000
G1 X66.663 Y31.384 F1000
G1 X66.534 Y31.255 F1000
G1 X66.276 Y31.255 F1000
G1 X66.148 Y31.126 F1000
G1 X65.890 Y31.126 F1000
G1 X65.761 Y30.998 F1000
G1 X65.504 Y30.998 F1000
G1 X65.375 Y30.869 F1000
G1 X64.989 Y30.869 F1000
G1 X64.860 Y30.740 F1000
G1 X64.602 Y30.740 F1000
G1 X64.474 Y30.611 F1000
G1 X64.088 Y30.611 F1000
G1 X63.959 Y30.483 F1000
G1 X63.573 Y30.483 F1000
G1 X63.444 Y30.354 F1000
G1 X63.058 Y30.354 F1000
G1 X62.929 Y30.225 F1000
G1 X62.543 Y30.225 F1000
G1 X62.414 Y30.096 F1000
G1 X61.899 Y30.096 F1000
G1 X61.770 Y29.968 F1000
G1 X61.255 Y29.968 F1000
G1 X61.126 Y29.839 F1000
G1 X60.611 Y29.839 F1000
G1 X60.483 Y29.710 F1000
G1 X59.839 Y29.710 F1000
G1 X59.710 Y29.581 F1000
G1 X59.066 Y29.581 F1000
G1 X58.938 Y29.453 F1000
G1 X58.036 Y29.453 F1000
G1 X57.907 Y29.324 F1000
G1 X56.878 Y29.324 F1000
G1 X56.749 Y29.195 F1000
G1 X55.075 Y29.195 F1000
G1 X54.946 Y29.066 F1000
G1 X50.054 Y29.066 F1000
G1 X49.925 Y29.195 F1000
G1 X48.251 Y29.195 F1000
G1 X48.123 Y29.324 F1000
G1 X47.093 Y29.324 F1000
G1 X46.964 Y29.453 F1000
G1 X46.062 Y29.453 F1000
G1 X45.934 Y29.581 F1000
G1 X45.290 Y29.581 F1000
G1 X45.161 Y29.710 F1000
G1 X44.517 Y29.710 F1000
G1 X44.389 Y29.839 F1000
G1 X43.874 Y29.839 F1000
G1 X43.745 Y29.968 F1000
G1 X43.230 Y29.968 F1000
G1 X43.101 Y30.096 F1000
G1 X42.586 Y30.096 F1000
G1 X42.458 Y30.225 F1000
G1 X42.071 Y30.225 F1000
G1 X41.943 Y30.354 F1000
G1 X41.556 Y30.354 F1000
G1 X41.428 Y30.483 F1000
G1 X41.041 Y30.483 F1000
G1 X40.913 Y30.611 F1000
G1 X40.526 Y30.611 F1000
G1 X40.398 Y30.740 F1000
G1 X40.140 Y30.740 F1000
G1 X40.011 Y30.869 F1000
G1 X39.625 Y30.869 F1000
G1 X39.496 Y30.998 F1000
G1 X39.239 Y30.998 F1000
G1 X39.110 Y31.126 F1000
G1 X38.852 Y31.126 F1000
G1 X38.724 Y31.255 F1000
G1 X38.466 Y31.255 F1000
G1 X38.337 Y31.384 F1000
G1 X38.080 Y31.384 F1000
G1 X37.951 Y31.513 F1000
G1 X37.694 Y31.513 F1000
G1 X37.565 Y31.641 F1000
G1 X37.307 Y31.641 F1000
G1 X37.179 Y31.770 F1000
G1 X36.921 Y31.770 F1000
G1 X36.793 Y31.899 F1000
G1 X36.535 Y31.899 F1000
G1 X36.406 Y32.028 F1000
G1 X36.278 Y32.028 F1000
G1 X36.149 Y32.156 F1000
G1 X35.891 Y32.156 F1000
G1 X35.763 Y32.285 F1000
G1 X35.634 Y32.285 F1000
G1 X35.505 Y32.414 F1000
G1 X35.376 Y32.414 F1000
G1 X35.248 Y32.543 F1000
G1 X34.990 Y32.543 F1000
G1 X34.861 Y32.671 F1000
G1 X34.733 Y32.671 F1000
G1 X34.604 Y32.800 F1000
G1 X34.475 Y32.800 F1000
G1 X34.346 Y32.929 F1000
G1 X34.089 Y32.929 F1000
G1 X33.960 Y33.058 F1000
G1 X33.831 Y33.058 F1000
G1 X33.703 Y33.186 F1000
G1 X33.574 Y33.186 F1000
G1 X33.445 Y33.315 F1000
G1 X33.316 Y33.315 F1000
G1 X33.188 Y33.444 F1000
G1 X33.059 Y33.444 F1000
G1 X32.930 Y33.572 F1000
G1 X32.801 Y33.572 F1000
G1 X32.672 Y33.701 F1000
G1 X32.544 Y33.701 F1000
G1 X32.415 Y33.830 F1000
G1 X32.286 Y33.830 F1000
G1 X32.157 Y33.959 F1000
G1 X32.029 Y33.959 F1000
G1 X31.900 Y34.087 F1000
G1 X31.771 Y34.087 F1000
G1 X31.643 Y34.216 F1000
G1 X31.514 Y34.216 F1000
G1 X31.385 Y34.345 F1000
G1 X31.256 Y34.345 F1000
G1 X30.999 Y34.602 F1000
G1 X30.870 Y34.602 F1000
G1 X30.741 Y34.731 F1000
G1 X30.613 Y34.731 F1000
G1 X30.484 Y34.860 F1000
G1 X30.355 Y34.860 F1000
G1 X30.226 Y34.989 F1000
G1 X30.098 Y34.989 F1000
G1 X29.840 Y35.246 F1000
G1 X29.711 Y35.246 F1000
G1 X29.582 Y35.375 F1000
G1 X29.454 Y35.375 F1000
G1 X29.196 Y35.633 F1000
G1 X29.067 Y35.633 F1000
G1 X28.810 Y35.890 F1000
G1 X28.681 Y35.890 F1000
G1 X28.553 Y36.019 F1000
G1 X28.424 Y36.019 F1000
G1 X28.166 Y36.276 F1000
G1 X28.038 Y36.276 F1000
G1 X27.780 Y36.534 F1000
G1 X27.651 Y36.534 F1000
G1 X27.394 Y36.791 F1000
G1 X27.265 Y36.791 F1000
G1 X27.008 Y37.049 F1000
G1 X26.879 Y37.049 F1000
G1 X26.492 Y37.435 F1000
G1 X26.364 Y37.435 F1000
G1 X25.977 Y37.821 F1000
G1 X25.849 Y37.821 F1000
G1 X25.463 Y38.207 F1000
G1 X25.334 Y38.207 F1000
G1 X24.948 Y38.594 F1000
G1 X24.819 Y38.594 F1000
G1 X24.304 Y39.109 F1000
G1 X24.175 Y39.109 F1000
G1 X23.531 Y39.752 F1000
G1 X23.402 Y39.752 F1000
G1 X22.501 Y40.654 F1000
G1 X22.373 Y40.654 F1000
G1 X19.154 Y43.873 F1000
G1 X19.154 Y44.001 F1000
G1 X18.253 Y44.903 F1000
G1 X18.253 Y45.031 F1000
G1 X17.609 Y45.675 F1000
G1 X17.609 Y45.804 F1000
G1 X17.094 Y46.319 F1000
G1 X17.094 Y46.448 F1000
G1 X16.707 Y46.834 F1000
G1 X16.707 Y46.963 F1000
G1 X16.321 Y47.349 F1000
G1 X16.321 Y47.477 F1000
G1 X15.935 Y47.864 F1000
G1 X15.935 Y47.992 F1000
G1 X15.549 Y48.379 F1000
G1 X15.549 Y48.508 F1000
G1 X15.291 Y48.765 F1000
G1 X15.291 Y48.894 F1000
G1 X15.034 Y49.151 F1000
G1 X15.034 Y49.280 F1000
G1 X14.776 Y49.538 F1000
G1 X14.776 Y49.666 F1000
G1 X14.519 Y49.924 F1000
G1 X14.519 Y50.053 F1000
G1 X14.390 Y50.181 F1000
G1 X14.390 Y50.310 F1000
G1 X14.133 Y50.567 F1000
G1 X14.133 Y50.696 F1000
G1 X13.875 Y50.954 F1000
G1 X13.875 Y51.082 F1000
G1 X13.746 Y51.211 F1000
G1 X13.746 Y51.340 F1000
G1 X13.489 Y51.597 F1000
G1 X13.489 Y51.726 F1000
G1 X13.360 Y51.855 F1000
G1 X13.360 Y51.984 F1000
G1 X13.231 Y52.112 F1000
G1 X13.231 Y52.241 F1000
G1 X13.103 Y52.370 F1000
G1 X13.103 Y52.499 F1000
G1 X12.845 Y52.756 F1000
G1 X12.845 Y52.885 F1000
G1 X12.716 Y53.014 F1000
G1 X12.716 Y53.142 F1000
G1 X12.588 Y53.271 F1000
G1 X12.588 Y53.400 F1000
G1 X12.459 Y53.529 F1000
G1 X12.459 Y53.657 F1000
G1 X12.330 Y53.786 F1000
G1 X12.330 Y53.915 F1000
G1 X12.201 Y54.044 F1000
G1 X12.201 Y54.172 F1000
G1 X12.072 Y54.301 F1000
G1 X12.072 Y54.430 F1000
G1 X11.944 Y54.559 F1000
G1 X11.944 Y54.688 F1000
G1 X11.815 Y54.816 F1000
G1 X11.815 Y54.945 F1000
G1 X11.686 Y55.074 F1000
G1 X11.686 Y55.203 F1000
G1 X11.558 Y55.331 F1000
G1 X11.558 Y55.460 F1000
G1 X11.429 Y55.589 F1000
G1 X11.429 Y55.846 F1000
G1 X11.300 Y55.975 F1000
G1 X11.300 Y56.104 F1000
G1 X11.171 Y56.233 F1000
G1 X11.171 Y56.361 F1000
G1 X11.043 Y56.490 F1000
G1 X11.043 Y56.748 F1000
G1 X10.914 Y56.876 F1000
G1 X10.914 Y57.005 F1000
G1 X10.785 Y57.134 F1000
G1 X10.785 Y57.263 F1000
G1 X10.656 Y57.391 F1000
G1 X10.656 Y57.649 F1000
G1 X10.527 Y57.778 F1000
G1 X10.527 Y57.906 F1000
G1 X10.399 Y58.035 F1000
G1 X10.399 Y58.293 F1000
G1 X10.270 Y58.421 F1000
G1 X10.270 Y58.679 F1000
G1 X10.141 Y58.807 F1000
G1 X10.141 Y59.065 F1000
G1 X10.013 Y59.194 F1000
G1 X10.013 Y59.451 F1000
G1 X9.884 Y59.580 F1000
G1 X9.884 Y59.837 F1000
G1 X9.755 Y59.966 F1000
G1 X9.755 Y60.224 F1000
G1 X9.626 Y60.352 F1000
G1 X9.626 Y60.610 F1000
G1 X9.498 Y60.739 F1000
G1 X9.498 Y60.996 F1000
G1 X9.369 Y61.125 F1000
G1 X9.369 Y61.511 F1000
G1 X9.240 Y61.640 F1000
G1 X9.240 Y61.898 F1000
G1 X9.111 Y62.026 F1000
G1 X9.111 Y62.413 F1000
G1 X8.982 Y62.541 F1000
G1 X8.982 Y62.928 F1000
G1 X8.854 Y63.056 F1000
G1 X8.854 Y63.443 F1000
G1 X8.725 Y63.571 F1000
G1 X8.725 Y63.958 F1000
G1 X8.596 Y64.086 F1000
G1 X8.596 Y64.601 F1000
G1 X8.468 Y64.730 F1000
G1 X8.468 Y65.245 F1000
G1 X8.339 Y65.374 F1000
G1 X8.339 Y65.889 F1000
G1 X8.210 Y66.017 F1000
G1 X8.210 Y66.661 F1000
G1 X8.081 Y66.790 F1000
G1 X8.081 Y67.434 F1000
G1 X7.953 Y67.562 F1000
G1 X7.953 Y68.464 F1000
G1 X7.824 Y68.593 F1000
G1 X7.824 Y69.623 F1000
G1 X7.695 Y69.751 F1000
G0 Z3.0 ; Pen up

G0 X7.566 Y71.554 F3000 ; Travel to line 335
G0 Z0.0 ; Pen down
G1 X7.695 Y71.425 F1000
G1 X7.695 Y69.751 F1000
G1 X7.824 Y69.623 F1000
G1 X7.824 Y68.593 F1000
G1 X7.953 Y68.464 F1000
G1 X7.953 Y67.562 F1000
G1 X8.081 Y67.434 F1000
G1 X8.081 Y66.790 F1000
G1 X8.210 Y66.661 F1000
G1 X8.210 Y66.017 F1000
G1 X8.339 Y65.889 F1000
G1 X8.339 Y65.374 F1000
G1 X8.468 Y65.245 F1000
G1 X8.468 Y64.730 F1000
G1 X8.596 Y64.601 F1000
G1 X8.596 Y64.086 F1000
G1 X8.725 Y63.958 F1000
G1 X8.725 Y63.571 F1000
G1 X8.854 Y63.443 F1000
G1 X8.854 Y63.056 F1000
G1 X8.982 Y62.928 F1000
G1 X8.982 Y62.541 F1000
G1 X9.111 Y62.413 F1000
G1 X9.111 Y62.026 F1000
G1 X9.240 Y61.898 F1000
G1 X9.240 Y61.640 F1000
G1 X9.369 Y61.511 F1000
G1 X9.369 Y61.125 F1000
G1 X9.498 Y60.996 F1000
G1 X9.498 Y60.739 F1000
G1 X9.626 Y60.610 F1000
G1 X9.626 Y60.352 F1000
G1 X9.755 Y60.224 F1000
G1 X9.755 Y59.966 F1000
G1 X9.884 Y59.837 F1000
G1 X9.884 Y59.580 F1000
G1 X10.013 Y59.451 F1000
G1 X10.013 Y59.194 F1000
G1 X10.141 Y59.065 F1000
G1 X10.141 Y58.807 F1000
G1 X10.270 Y58.679 F1000
G1 X10.270 Y58.421 F1000
G1 X10.399 Y58.293 F1000
G1 X10.399 Y58.035 F1000
G1 X10.527 Y57.906 F1000
G1 X10.527 Y57.778 F1000
G1 X10.656 Y57.649 F1000
G1 X10.656 Y57.391 F1000
G1 X10.785 Y57.263 F1000
G1 X10.785 Y57.134 F1000
G1 X10.914 Y57.005 F1000
G1 X10.914 Y56.748 F1000
G1 X11.043 Y56.619 F1000
G1 X11.043 Y56.490 F1000
G1 X11.171 Y56.361 F1000
G1 X11.171 Y56.233 F1000
G1 X11.300 Y56.104 F1000
G1 X11.300 Y55.846 F1000
G1 X11.429 Y55.718 F1000
G1 X11.429 Y55.589 F1000
G1 X11.558 Y55.460 F1000
G1 X11.558 Y55.331 F1000
G1 X11.686 Y55.203 F1000
G1 X11.686 Y55.074 F1000
G1 X11.815 Y54.945 F1000
G1 X11.815 Y54.816 F1000
G1 X11.944 Y54.688 F1000
G1 X11.944 Y54.430 F1000
G1 X12.072 Y54.301 F1000
G1 X12.072 Y54.172 F1000
G1 X12.201 Y54.044 F1000
G1 X12.201 Y53.915 F1000
G1 X12.330 Y53.786 F1000
G1 X12.330 Y53.657 F1000
G1 X12.459 Y53.529 F1000
G1 X12.459 Y53.400 F1000
G1 X12.588 Y53.271 F1000
G1 X12.588 Y53.142 F1000
G1 X12.845 Y52.885 F1000
G1 X12.845 Y52.756 F1000
G1 X12.974 Y52.627 F1000
G1 X12.974 Y52.499 F1000
G1 X13.103 Y52.370 F1000
G1 X13.103 Y52.241 F1000
G1 X13.231 Y52.112 F1000
G1 X13.231 Y51.984 F1000
G1 X13.360 Y51.855 F1000
G1 X13.360 Y51.726 F1000
G1 X13.617 Y51.469 F1000
G1 X13.617 Y51.340 F1000
G1 X13.746 Y51.211 F1000
G1 X13.746 Y51.082 F1000
G1 X14.004 Y50.825 F1000
G1 X14.004 Y50.696 F1000
G1 X14.133 Y50.567 F1000
G1 X14.133 Y50.439 F1000
G1 X14.390 Y50.181 F1000
G1 X14.390 Y50.053 F1000
G1 X14.648 Y49.795 F1000
G1 X14.648 Y49.666 F1000
G1 X14.776 Y49.538 F1000
G1 X14.776 Y49.409 F1000
G1 X15.034 Y49.151 F1000
G1 X15.034 Y49.023 F1000
G1 X15.291 Y48.765 F1000
G1 X15.291 Y48.636 F1000
G1 X15.678 Y48.250 F1000
G1 X15.678 Y48.121 F1000
G1 X15.935 Y47.864 F1000
G1 X15.935 Y47.735 F1000
G1 X16.321 Y47.349 F1000
G1 X16.321 Y47.220 F1000
G1 X16.707 Y46.834 F1000
G1 X16.707 Y46.705 F1000
G1 X17.094 Y46.319 F1000
G1 X17.094 Y46.190 F1000
G1 X17.609 Y45.675 F1000
G1 X17.609 Y45.546 F1000
G1 X18.253 Y44.903 F1000
G1 X18.253 Y44.774 F1000
G1 X19.282 Y43.744 F1000
G1 X19.282 Y43.615 F1000
G1 X22.115 Y40.782 F1000
G1 X22.244 Y40.782 F1000
G1 X23.274 Y39.752 F1000
G1 X23.402 Y39.752 F1000
G1 X24.046 Y39.109 F1000
G1 X24.175 Y39.109 F1000
G1 X24.690 Y38.594 F1000
G1 X24.819 Y38.594 F1000
G1 X25.205 Y38.207 F1000
G1 X25.334 Y38.207 F1000
G1 X25.720 Y37.821 F1000
G1 X25.849 Y37.821 F1000
G1 X26.235 Y37.435 F1000
G1 X26.364 Y37.435 F1000
G1 X26.621 Y37.178 F1000
G1 X26.750 Y37.178 F1000
G1 X27.136 Y36.791 F1000
G1 X27.265 Y36.791 F1000
G1 X27.523 Y36.534 F1000
G1 X27.651 Y36.534 F1000
G1 X27.909 Y36.276 F1000
G1 X28.038 Y36.276 F1000
G1 X28.166 Y36.148 F1000
G1 X28.295 Y36.148 F1000
G1 X28.553 Y35.890 F1000
G1 X28.681 Y35.890 F1000
G1 X28.939 Y35.633 F1000
G1 X29.067 Y35.633 F1000
G1 X29.196 Y35.504 F1000
G1 X29.325 Y35.504 F1000
G1 X29.582 Y35.246 F1000
G1 X29.711 Y35.246 F1000
G1 X29.840 Y35.117 F1000
G1 X29.969 Y35.117 F1000
G1 X30.226 Y34.860 F1000
G1 X30.355 Y34.860 F1000
G1 X30.484 Y34.731 F1000
G1 X30.613 Y34.731 F1000
G1 X30.741 Y34.602 F1000
G1 X30.870 Y34.602 F1000
G1 X30.999 Y34.474 F1000
G1 X31.128 Y34.474 F1000
G1 X31.256 Y34.345 F1000
G1 X31.385 Y34.345 F1000
G1 X31.643 Y34.087 F1000
G1 X31.771 Y34.087 F1000
G1 X31.900 Y33.959 F1000
G1 X32.029 Y33.959 F1000
G1 X32.157 Y33.830 F1000
G1 X32.286 Y33.830 F1000
G1 X32.415 Y33.701 F1000
G1 X32.544 Y33.701 F1000
G1 X32.672 Y33.572 F1000
G1 X32.801 Y33.572 F1000
G1 X32.930 Y33.444 F1000
G1 X33.188 Y33.444 F1000
G1 X33.316 Y33.315 F1000
G1 X33.445 Y33.315 F1000
G1 X33.574 Y33.186 F1000
G1 X33.703 Y33.186 F1000
G1 X33.831 Y33.058 F1000
G1 X33.960 Y33.058 F1000
G1 X34.089 Y32.929 F1000
G1 X34.218 Y32.929 F1000
G1 X34.346 Y32.800 F1000
G1 X34.604 Y32.800 F1000
G1 X34.733 Y32.671 F1000
G1 X34.861 Y32.671 F1000
G1 X34.990 Y32.543 F1000
G1 X35.119 Y32.543 F1000
G1 X35.248 Y32.414 F1000
G1 X35.505 Y32.414 F1000
G1 X35.634 Y32.285 F1000
G1 X35.763 Y32.285 F1000
G1 X35.891 Y32.156 F1000
G1 X36.149 Y32.156 F1000
G1 X36.278 Y32.028 F1000
G1 X36.406 Y32.028 F1000
G1 X36.535 Y31.899 F1000
G1 X36.793 Y31.899 F1000
G1 X36.921 Y31.770 F1000
G1 X37.179 Y31.770 F1000
G1 X37.307 Y31.641 F1000
G1 X37.565 Y31.641 F1000
G1 X37.694 Y31.513 F1000
G1 X37.951 Y31.513 F1000
G1 X38.080 Y31.384 F1000
G1 X38.337 Y31.384 F1000
G1 X38.466 Y31.255 F1000
G1 X38.724 Y31.255 F1000
G1 X38.852 Y31.126 F1000
G1 X39.110 Y31.126 F1000
G1 X39.239 Y30.998 F1000
G1 X39.496 Y30.998 F1000
G1 X39.625 Y30.869 F1000
G1 X40.011 Y30.869 F1000
G1 X40.140 Y30.740 F1000
G1 X40.398 Y30.740 F1000
G1 X40.526 Y30.611 F1000
G1 X40.913 Y30.611 F1000
G1 X41.041 Y30.483 F1000
G1 X41.428 Y30.483 F1000
G1 X41.556 Y30.354 F1000
G1 X41.943 Y30.354 F1000
G1 X42.071 Y30.225 F1000
G1 X42.458 Y30.225 F1000
G1 X42.586 Y30.096 F1000
G1 X43.101 Y30.096 F1000
G1 X43.230 Y29.968 F1000
G1 X43.745 Y29.968 F1000
G1 X43.874 Y29.839 F1000
G1 X44.389 Y29.839 F1000
G1 X44.517 Y29.710 F1000
G1 X45.161 Y29.710 F1000
G1 X45.290 Y29.581 F1000
G1 X45.934 Y29.581 F1000
G1 X46.062 Y29.453 F1000
G1 X46.964 Y29.453 F1000
G1 X47.093 Y29.324 F1000
G1 X48.123 Y29.324 F1000
G1 X48.251 Y29.195 F1000
G1 X49.925 Y29.195 F1000
G1 X50.054 Y29.066 F1000
G1 X54.946 Y29.066 F1000
G1 X55.075 Y29.195 F1000
G1 X56.749 Y29.195 F1000
G1 X56.878 Y29.324 F1000
G1 X57.907 Y29.324 F1000
G1 X58.036 Y29.453 F1000
G1 X58.938 Y29.453 F1000
G1 X59.066 Y29.581 F1000
G1 X59.710 Y29.581 F1000
G1 X59.839 Y29.710 F1000
G1 X60.483 Y29.710 F1000
G1 X60.611 Y29.839 F1000
G1 X61.126 Y29.839 F1000
G1 X61.255 Y29.968 F1000
G1 X61.770 Y29.968 F1000
G1 X61.899 Y30.096 F1000
G1 X62.414 Y30.096 F1000
G1 X62.543 Y30.225 F1000
G1 X62.929 Y30.225 F1000
G1 X63.058 Y30.354 F1000
G1 X63.444 Y30.354 F1000
G1 X63.573 Y30.483 F1000
G1 X63.959 Y30.483 F1000
G1 X64.088 Y30.611 F1000
G1 X64.474 Y30.611 F1000
G1 X64.602 Y30.740 F1000
G1 X64.860 Y30.740 F1000
G1 X64.989 Y30.869 F1000
G1 X65.375 Y30.869 F1000
G1 X65.504 Y30.998 F1000
G1 X65.761 Y30.998 F1000
G1 X65.890 Y31.126 F1000
G1 X66.148 Y31.126 F1000
G1 X66.276 Y31.255 F1000
G1 X66.534 Y31.255 F1000
G1 X66.663 Y31.384 F1000
G1 X66.920 Y31.384 F1000
G1 X67.049 Y31.513 F1000
G1 X67.306 Y31.513 F1000
G1 X67.435 Y31.641 F1000
G1 X67.692 Y31.641 F1000
G1 X67.821 Y31.770 F1000
G1 X68.079 Y31.770 F1000
G1 X68.207 Y31.899 F1000
G1 X68.465 Y31.899 F1000
G1 X68.594 Y32.028 F1000
G1 X68.722 Y32.028 F1000
G1 X68.851 Y32.156 F1000
G1 X69.109 Y32.156 F1000
G1 X69.237 Y32.285 F1000
G1 X69.366 Y32.285 F1000
G1 X69.495 Y32.414 F1000
G1 X69.752 Y32.414 F1000
G1 X69.881 Y32.543 F1000
G1 X70.010 Y32.543 F1000
G1 X70.139 Y32.671 F1000
G1 X70.267 Y32.671 F1000
G1 X70.396 Y32.800 F1000
G1 X70.654 Y32.800 F1000
G1 X70.782 Y32.929 F1000
G1 X70.911 Y32.929 F1000
G1 X71.040 Y33.058 F1000
G1 X71.169 Y33.058 F1000
G1 X71.297 Y33.186 F1000
G1 X71.426 Y33.186 F1000
G1 X71.555 Y33.315 F1000
G1 X71.684 Y33.315 F1000
G1 X71.812 Y33.444 F1000
G1 X72.070 Y33.444 F1000
G1 X72.199 Y33.572 F1000
G1 X72.328 Y33.572 F1000
G1 X72.456 Y33.701 F1000
G1 X72.585 Y33.701 F1000
G1 X72.714 Y33.830 F1000
G1 X72.843 Y33.830 F1000
G1 X72.971 Y33.959 F1000
G1 X73.100 Y33.959 F1000
G1 X73.229 Y34.087 F1000
G1 X73.358 Y34.087 F1000
G1 X73.615 Y34.345 F1000
G1 X73.744 Y34.345 F1000
G1 X73.873 Y34.474 F1000
G1 X74.001 Y34.474 F1000
G1 X74.130 Y34.602 F1000
G1 X74.259 Y34.602 F1000
G1 X74.388 Y34.731 F1000
G1 X74.516 Y34.731 F1000
G1 X74.645 Y34.860 F1000
G1 X74.774 Y34.860 F1000
G1 X75.031 Y35.117 F1000
G1 X75.160 Y35.117 F1000
G1 X75.289 Y35.246 F1000
G1 X75.418 Y35.246 F1000
G1 X75.675 Y35.504 F1000
G1 X75.804 Y35.504 F1000
G1 X75.933 Y35.633 F1000
G1 X76.061 Y35.633 F1000
G1 X76.319 Y35.890 F1000
G1 X76.448 Y35.890 F1000
G1 X76.705 Y36.148 F1000
G1 X76.834 Y36.148 F1000
G1 X76.963 Y36.276 F1000
G1 X77.091 Y36.276 F1000
G1 X77.349 Y36.534 F1000
G1 X77.478 Y36.534 F1000
G1 X77.735 Y36.791 F1000
G1 X77.864 Y36.791 F1000
G1 X78.250 Y37.178 F1000
G1 X78.379 Y37.178 F1000
G1 X78.636 Y37.435 F1000
G1 X78.765 Y37.435 F1000
G1 X79.151 Y37.821 F1000
G1 X79.280 Y37.821 F1000
G1 X79.666 Y38.207 F1000
G1 X79.795 Y38.207 F1000
G1 X80.181 Y38.594 F1000
G1 X80.310 Y38.594 F1000
G1 X80.825 Y39.109 F1000
G1 X80.954 Y39.109 F1000
G1 X81.597 Y39.752 F1000
G1 X81.726 Y39.752 F1000
G1 X82.756 Y40.782 F1000
G1 X82.885 Y40.782 F1000
G1 X85.589 Y43.486 F1000
G1 X85.589 Y43.615 F1000
G1 X86.619 Y44.645 F1000
G1 X86.619 Y44.774 F1000
G1 X87.263 Y45.418 F1000
G1 X87.263 Y45.546 F1000
G1 X87.778 Y46.061 F1000
G1 X87.778 Y46.190 F1000
G1 X88.164 Y46.576 F1000
G1 X88.164 Y46.705 F1000
G1 X88.550 Y47.091 F1000
G1 X88.550 Y47.220 F1000
G1 X88.936 Y47.606 F1000
G1 X88.936 Y47.735 F1000
G1 X89.194 Y47.992 F1000
G1 X89.194 Y48.121 F1000
G1 X89.580 Y48.508 F1000
G1 X89.580 Y48.636 F1000
G1 X89.838 Y48.894 F1000
G1 X89.838 Y49.023 F1000
G1 X90.095 Y49.280 F1000
G1 X90.095 Y49.409 F1000
G1 X90.224 Y49.538 F1000
G1 X90.224 Y49.666 F1000
G1 X90.481 Y49.924 F1000
G1 X90.481 Y50.053 F1000
G1 X90.739 Y50.310 F1000
G1 X90.739 Y50.439 F1000
G1 X90.868 Y50.567 F1000
G1 X90.868 Y50.696 F1000
G1 X91.125 Y50.954 F1000
G1 X91.125 Y51.082 F1000
G1 X91.254 Y51.211 F1000
G1 X91.254 Y51.340 F1000
G1 X91.511 Y51.597 F1000
G1 X91.511 Y51.726 F1000
G1 X91.640 Y51.855 F1000
G1 X91.640 Y51.984 F1000
G1 X91.769 Y52.112 F1000
G1 X91.769 Y52.241 F1000
G1 X91.898 Y52.370 F1000
G1 X91.898 Y52.499 F1000
G1 X92.026 Y52.627 F1000
G1 X92.026 Y52.756 F1000
G1 X92.284 Y53.014 F1000
G1 X92.284 Y53.142 F1000
G1 X92.413 Y53.271 F1000
G1 X92.413 Y53.400 F1000
G1 X92.541 Y53.529 F1000
G1 X92.541 Y53.657 F1000
G1 X92.670 Y53.786 F1000
G1 X92.670 Y53.915 F1000
G1 X92.799 Y54.044 F1000
G1 X92.799 Y54.172 F1000
G1 X92.928 Y54.301 F1000
G1 X92.928 Y54.559 F1000
G1 X93.056 Y54.688 F1000
G1 X93.056 Y54.816 F1000
G1 X93.185 Y54.945 F1000
G1 X93.185 Y55.074 F1000
G1 X93.314 Y55.203 F1000
G1 X93.314 Y55.331 F1000
G1 X93.442 Y55.460 F1000
G1 X93.442 Y55.589 F1000
G1 X93.571 Y55.718 F1000
G1 X93.571 Y55.975 F1000
G1 X93.700 Y56.104 F1000
G1 X93.700 Y56.233 F1000
G1 X93.829 Y56.361 F1000
G1 X93.829 Y56.490 F1000
G1 X93.957 Y56.619 F1000
G1 X93.957 Y56.876 F1000
G1 X94.086 Y57.005 F1000
G1 X94.086 Y57.134 F1000
G1 X94.215 Y57.263 F1000
G1 X94.215 Y57.520 F1000
G1 X94.344 Y57.649 F1000
G1 X94.344 Y57.778 F1000
G1 X94.472 Y57.906 F1000
G1 X94.472 Y58.164 F1000
G1 X94.601 Y58.293 F1000
G1 X94.601 Y58.550 F1000
G1 X94.730 Y58.679 F1000
G1 X94.730 Y58.807 F1000
G1 X94.859 Y58.936 F1000
G1 X94.859 Y59.194 F1000
G1 X94.987 Y59.322 F1000
G1 X94.987 Y59.580 F1000
G1 X95.116 Y59.709 F1000
G1 X95.116 Y59.966 F1000
G1 X95.245 Y60.095 F1000
G1 X95.245 Y60.352 F1000
G1 X95.374 Y60.481 F1000
G1 X95.374 Y60.739 F1000
G1 X95.502 Y60.867 F1000
G1 X95.502 Y61.254 F1000
G1 X95.631 Y61.383 F1000
G1 X95.631 Y61.640 F1000
G1 X95.760 Y61.769 F1000
G1 X95.760 Y62.155 F1000
G1 X95.889 Y62.284 F1000
G1 X95.889 Y62.670 F1000
G1 X96.017 Y62.799 F1000
G1 X96.017 Y63.056 F1000
G1 X96.146 Y63.185 F1000
G1 X96.146 Y63.700 F1000
G1 X96.275 Y63.829 F1000
G1 X96.275 Y64.215 F1000
G1 X96.404 Y64.344 F1000
G1 X96.404 Y64.730 F1000
G1 X96.532 Y64.859 F1000
G1 X96.532 Y65.374 F1000
G1 X96.661 Y65.502 F1000
G1 X96.661 Y66.146 F1000
G1 X96.790 Y66.275 F1000
G1 X96.790 Y66.919 F1000
G1 X96.919 Y67.047 F1000
G1 X96.919 Y67.691 F1000
G1 X97.047 Y67.820 F1000
G1 X97.047 Y68.721 F1000
G1 X97.176 Y68.850 F1000
G1 X97.176 Y69.880 F1000
G1 X97.305 Y70.009 F1000
G1 X97.305 Y71.683 F1000
G1 X97.434 Y71.811 F1000
G1 X97.434 Y76.189 F1000
G1 X97.305 Y76.317 F1000
G1 X97.305 Y77.991 F1000
G1 X97.176 Y78.120 F1000
G1 X97.176 Y79.150 F1000
G1 X97.047 Y79.279 F1000
G1 X97.047 Y80.180 F1000
G1 X96.919 Y80.309 F1000
G1 X96.919 Y80.953 F1000
G1 X96.790 Y81.081 F1000
G1 X96.790 Y81.725 F1000
G1 X96.661 Y81.854 F1000
G1 X96.661 Y82.498 F1000
G1 X96.532 Y82.626 F1000
G1 X96.532 Y83.141 F1000
G1 X96.404 Y83.270 F1000
G1 X96.404 Y83.656 F1000
G1 X96.275 Y83.785 F1000
G1 X96.275 Y84.171 F1000
G1 X96.146 Y84.300 F1000
G1 X96.146 Y84.815 F1000
G1 X96.017 Y84.944 F1000
G1 X96.017 Y85.201 F1000
G1 X95.889 Y85.330 F1000
G1 X95.889 Y85.716 F1000
G1 X95.760 Y85.845 F1000
G1 X95.760 Y86.231 F1000
G1 X95.631 Y86.360 F1000
G1 X95.631 Y86.618 F1000
G1 X95.502 Y86.746 F1000
G1 X95.502 Y87.133 F1000
G1 X95.374 Y87.261 F1000
G1 X95.374 Y87.519 F1000
G1 X95.245 Y87.648 F1000
G1 X95.245 Y87.905 F1000
G1 X95.116 Y88.034 F1000
G1 X95.116 Y88.291 F1000
G1 X94.987 Y88.420 F1000
G1 X94.987 Y88.677 F1000
G1 X94.859 Y88.806 F1000
G1 X94.859 Y89.064 F1000
G1 X94.730 Y89.192 F1000
G1 X94.730 Y89.321 F1000
G1 X94.601 Y89.450 F1000
G1 X94.601 Y89.707 F1000
G1 X94.472 Y89.836 F1000
G1 X94.472 Y90.094 F1000
G1 X94.344 Y90.222 F1000
G1 X94.344 Y90.351 F1000
G1 X94.215 Y90.480 F1000
G1 X94.215 Y90.737 F1000
G1 X94.086 Y90.866 F1000
G1 X94.086 Y90.995 F1000
G1 X93.957 Y91.124 F1000
G1 X93.957 Y91.381 F1000
G1 X93.829 Y91.510 F1000
G1 X93.829 Y91.639 F1000
G1 X93.700 Y91.767 F1000
G1 X93.700 Y91.896 F1000
G1 X93.571 Y92.025 F1000
G1 X93.571 Y92.282 F1000
G1 X93.442 Y92.411 F1000
G1 X93.442 Y92.540 F1000
G1 X93.314 Y92.669 F1000
G1 X93.314 Y92.797 F1000
G1 X93.185 Y92.926 F1000
G1 X93.185 Y93.055 F1000
G1 X93.056 Y93.184 F1000
G1 X93.056 Y93.312 F1000
G1 X92.928 Y93.441 F1000
G1 X92.928 Y93.699 F1000
G1 X92.799 Y93.828 F1000
G1 X92.799 Y93.956 F1000
G1 X92.670 Y94.085 F1000
G1 X92.670 Y94.214 F1000
G1 X92.541 Y94.343 F1000
G1 X92.541 Y94.471 F1000
G1 X92.413 Y94.600 F1000
G1 X92.413 Y94.729 F1000
G1 X92.284 Y94.858 F1000
G1 X92.284 Y94.986 F1000
G1 X92.026 Y95.244 F1000
G1 X92.026 Y95.373 F1000
G1 X91.898 Y95.501 F1000
G1 X91.898 Y95.630 F1000
G1 X91.769 Y95.759 F1000
G1 X91.769 Y95.888 F1000
G1 X91.640 Y96.016 F1000
G1 X91.640 Y96.145 F1000
G1 X91.511 Y96.274 F1000
G1 X91.511 Y96.403 F1000
G1 X91.254 Y96.660 F1000
G1 X91.254 Y96.789 F1000
G1 X91.125 Y96.918 F1000
G1 X91.125 Y97.046 F1000
G1 X90.868 Y97.304 F1000
G1 X90.868 Y97.433 F1000
G1 X90.739 Y97.561 F1000
G1 X90.739 Y97.690 F1000
G1 X90.481 Y97.948 F1000
G1 X90.481 Y98.076 F1000
G1 X90.224 Y98.334 F1000
G1 X90.224 Y98.463 F1000
G1 X90.095 Y98.591 F1000
G1 X90.095 Y98.720 F1000
G1 X89.838 Y98.978 F1000
G1 X89.838 Y99.106 F1000
G1 X89.580 Y99.364 F1000
G1 X89.580 Y99.493 F1000
G1 X89.194 Y99.879 F1000
G1 X89.194 Y100.008 F1000
G1 X88.936 Y100.265 F1000
G1 X88.936 Y100.394 F1000
G1 X88.550 Y100.780 F1000
G1 X88.550 Y100.909 F1000
G1 X88.164 Y101.295 F1000
G1 X88.164 Y101.424 F1000
G1 X87.778 Y101.810 F1000
G1 X87.778 Y101.939 F1000
G1 X87.263 Y102.454 F1000
G1 X87.263 Y102.582 F1000
G1 X86.619 Y103.226 F1000
G1 X86.619 Y103.355 F1000
G1 X85.589 Y104.385 F1000
G1 X85.589 Y104.514 F1000
G1 X83.014 Y107.089 F1000
G1 X82.885 Y107.089 F1000
G1 X81.855 Y108.119 F1000
G1 X81.726 Y108.119 F1000
G1 X81.082 Y108.763 F1000
G1 X80.954 Y108.763 F1000
G1 X80.439 Y109.278 F1000
G1 X80.310 Y109.278 F1000
G1 X79.924 Y109.664 F1000
G1 X79.795 Y109.664 F1000
G1 X79.409 Y110.050 F1000
G1 X79.280 Y110.050 F1000
G1 X78.894 Y110.436 F1000
G1 X78.765 Y110.436 F1000
G1 X78.508 Y110.694 F1000
G1 X78.379 Y110.694 F1000
G1 X77.993 Y111.080 F1000
G1 X77.864 Y111.080 F1000
G1 X77.606 Y111.338 F1000
G1 X77.478 Y111.338 F1000
G1 X77.220 Y111.595 F1000
G1 X77.091 Y111.595 F1000
G1 X76.963 Y111.724 F1000
G1 X76.834 Y111.724 F1000
G1 X76.576 Y111.981 F1000
G1 X76.448 Y111.981 F1000
G1 X76.190 Y112.239 F1000
G1 X76.061 Y112.239 F1000
G1 X75.933 Y112.368 F1000
G1 X75.804 Y112.368 F1000
G1 X75.546 Y112.625 F1000
G1 X75.418 Y112.625 F1000
G1 X75.289 Y112.754 F1000
G1 X75.160 Y112.754 F1000
G1 X74.903 Y113.011 F1000
G1 X74.774 Y113.011 F1000
G1 X74.645 Y113.140 F1000
G1 X74.516 Y113.140 F1000
G1 X74.388 Y113.269 F1000
G1 X74.259 Y113.269 F1000
G1 X74.130 Y113.398 F1000
G1 X74.001 Y113.398 F1000
G1 X73.873 Y113.526 F1000
G1 X73.744 Y113.526 F1000
G1 X73.486 Y113.784 F1000
G1 X73.358 Y113.784 F1000
G1 X73.229 Y113.913 F1000
G1 X73.100 Y113.913 F1000
G1 X72.971 Y114.041 F1000
G1 X72.843 Y114.041 F1000
G1 X72.714 Y114.170 F1000
G1 X72.585 Y114.170 F1000
G1 X72.456 Y114.299 F1000
G1 X72.328 Y114.299 F1000
G1 X72.199 Y114.428 F1000
G1 X71.941 Y114.428 F1000
G1 X71.812 Y114.556 F1000
G1 X71.684 Y114.556 F1000
G1 X71.555 Y114.685 F1000
G1 X71.426 Y114.685 F1000
G1 X71.297 Y114.814 F1000
G1 X71.169 Y114.814 F1000
G1 X71.040 Y114.942 F1000
G1 X70.911 Y114.942 F1000
G1 X70.782 Y115.071 F1000
G1 X70.525 Y115.071 F1000
G1 X70.396 Y115.200 F1000
G1 X70.267 Y115.200 F1000
G1 X70.139 Y115.329 F1000
G1 X70.010 Y115.329 F1000
G1 X69.881 Y115.457 F1000
G1 X69.624 Y115.457 F1000
G1 X69.495 Y115.586 F1000
G1 X69.366 Y115.586 F1000
G1 X69.237 Y115.715 F1000
G1 X68.980 Y115.715 F1000
G1 X68.851 Y115.844 F1000
G1 X68.722 Y115.844 F1000
G1 X68.594 Y115.972 F1000
G1 X68.336 Y115.972 F1000
G1 X68.207 Y116.101 F1000
G1 X67.950 Y116.101 F1000
G1 X67.821 Y116.230 F1000
G1 X67.692 Y116.230 F1000
G1 X67.564 Y116.359 F1000
G1 X67.306 Y116.359 F1000
G1 X67.177 Y116.487 F1000
G1 X66.920 Y116.487 F1000
G1 X66.791 Y116.616 F1000
G1 X66.534 Y116.616 F1000
G1 X66.405 Y116.745 F1000
G1 X66.148 Y116.745 F1000
G1 X66.019 Y116.874 F1000
G1 X65.761 Y116.874 F1000
G1 X65.633 Y117.002 F1000
G1 X65.246 Y117.002 F1000
G1 X65.118 Y117.131 F1000
G1 X64.860 Y117.131 F1000
G1 X64.731 Y117.260 F1000
G1 X64.345 Y117.260 F1000
G1 X64.216 Y117.389 F1000
G1 X63.830 Y117.389 F1000
G1 X63.701 Y117.517 F1000
G1 X63.444 Y117.517 F1000
G1 X63.315 Y117.646 F1000
G1 X62.800 Y117.646 F1000
G1 X62.671 Y117.775 F1000
G1 X62.285 Y117.775 F1000
G1 X62.156 Y117.904 F1000
G1 X61.770 Y117.904 F1000
G1 X61.641 Y118.032 F1000
G1 X61.126 Y118.032 F1000
G1 X60.998 Y118.161 F1000
G1 X60.354 Y118.161 F1000
G1 X60.225 Y118.290 F1000
G1 X59.581 Y118.290 F1000
G1 X59.453 Y118.419 F1000
G1 X58.809 Y118.419 F1000
G1 X58.680 Y118.547 F1000
G1 X57.779 Y118.547 F1000
G1 X57.650 Y118.676 F1000
G1 X56.620 Y118.676 F1000
G1 X56.491 Y118.805 F1000
G1 X54.818 Y118.805 F1000
G1 X54.689 Y118.934 F1000
G1 X50.311 Y118.934 F1000
G1 X50.183 Y118.805 F1000
G1 X48.509 Y118.805 F1000
G1 X48.380 Y118.676 F1000
G1 X47.350 Y118.676 F1000
G1 X47.221 Y118.547 F1000
G1 X46.320 Y118.547 F1000
G1 X46.191 Y118.419 F1000
G1 X45.547 Y118.419 F1000
G1 X45.419 Y118.290 F1000
G1 X44.775 Y118.290 F1000
G1 X44.646 Y118.161 F1000
G1 X44.002 Y118.161 F1000
G1 X43.874 Y118.032 F1000
G1 X43.359 Y118.032 F1000
G1 X43.230 Y117.904 F1000
G1 X42.844 Y117.904 F1000
G1 X42.715 Y117.775 F1000
G1 X42.329 Y117.775 F1000
G1 X42.200 Y117.646 F1000
G1 X41.685 Y117.646 F1000
G1 X41.556 Y117.517 F1000
G1 X41.299 Y117.517 F1000
G1 X41.170 Y117.389 F1000
G1 X40.784 Y117.389 F1000
G1 X40.655 Y117.260 F1000
G1 X40.269 Y117.260 F1000
G1 X40.140 Y117.131 F1000
G1 X39.883 Y117.131 F1000
G1 X39.754 Y117.002 F1000
G1 X39.367 Y117.002 F1000
G1 X39.239 Y116.874 F1000
G1 X38.981 Y116.874 F1000
G1 X38.852 Y116.745 F1000
G1 X38.595 Y116.745 F1000
G1 X38.466 Y116.616 F1000
G1 X38.209 Y116.616 F1000
G1 X38.080 Y116.487 F1000
G1 X37.822 Y116.487 F1000
G1 X37.694 Y116.359 F1000
G1 X37.436 Y116.359 F1000
G1 X37.307 Y116.230 F1000
G1 X37.179 Y116.230 F1000
G1 X37.050 Y116.101 F1000
G1 X36.793 Y116.101 F1000
G1 X36.664 Y115.972 F1000
G1 X36.406 Y115.972 F1000
G1 X36.278 Y115.844 F1000
G1 X36.149 Y115.844 F1000
G1 X36.020 Y115.715 F1000
G1 X35.763 Y115.715 F1000
G1 X35.634 Y115.586 F1000
G1 X35.505 Y115.586 F1000
G1 X35.376 Y115.457 F1000
G1 X35.119 Y115.457 F1000
G1 X34.990 Y115.329 F1000
G1 X34.861 Y115.329 F1000
G1 X34.733 Y115.200 F1000
G1 X34.604 Y115.200 F1000
G1 X34.475 Y115.071 F1000
G1 X34.218 Y115.071 F1000
G1 X34.089 Y114.942 F1000
G1 X33.960 Y114.942 F1000
G1 X33.831 Y114.814 F1000
G1 X33.703 Y114.814 F1000
G1 X33.574 Y114.685 F1000
G1 X33.445 Y114.685 F1000
G1 X33.316 Y114.556 F1000
G1 X33.188 Y114.556 F1000
G1 X33.059 Y114.428 F1000
G1 X32.801 Y114.428 F1000
G1 X32.672 Y114.299 F1000
G1 X32.544 Y114.299 F1000
G1 X32.415 Y114.170 F1000
G1 X32.286 Y114.170 F1000
G1 X32.157 Y114.041 F1000
G1 X32.029 Y114.041 F1000
G1 X31.900 Y113.913 F1000
G1 X31.771 Y113.913 F1000
G1 X31.643 Y113.784 F1000
G1 X31.514 Y113.784 F1000
G1 X31.256 Y113.526 F1000
G1 X31.128 Y113.526 F1000
G1 X30.999 Y113.398 F1000
G1 X30.870 Y113.398 F1000
G1 X30.741 Y113.269 F1000
G1 X30.613 Y113.269 F1000
G1 X30.484 Y113.140 F1000
G1 X30.355 Y113.140 F1000
G1 X30.226 Y113.011 F1000
G1 X30.098 Y113.011 F1000
G1 X29.840 Y112.754 F1000
G1 X29.711 Y112.754 F1000
G1 X29.582 Y112.625 F1000
G1 X29.454 Y112.625 F1000
G1 X29.196 Y112.368 F1000
G1 X29.067 Y112.368 F1000
G1 X28.939 Y112.239 F1000
G1 X28.810 Y112.239 F1000
G1 X28.553 Y111.981 F1000
G1 X28.424 Y111.981 F1000
G1 X28.166 Y111.724 F1000
G1 X28.038 Y111.724 F1000
G1 X27.909 Y111.595 F1000
G1 X27.780 Y111.595 F1000
G1 X27.523 Y111.338 F1000
G1 X27.394 Y111.338 F1000
G1 X27.136 Y111.080 F1000
G1 X27.008 Y111.080 F1000
G1 X26.621 Y110.694 F1000
G1 X26.492 Y110.694 F1000
G1 X26.235 Y110.436 F1000
G1 X26.106 Y110.436 F1000
G1 X25.720 Y110.050 F1000
G1 X25.591 Y110.050 F1000
G1 X25.205 Y109.664 F1000
G1 X25.076 Y109.664 F1000
G1 X24.690 Y109.278 F1000
G1 X24.561 Y109.278 F1000
G1 X24.046 Y108.763 F1000
G1 X23.918 Y108.763 F1000
G1 X23.274 Y108.119 F1000
G1 X23.145 Y108.119 F1000
G1 X22.115 Y107.089 F1000
G1 X21.986 Y107.089 F1000
G1 X19.282 Y104.385 F1000
G1 X19.282 Y104.256 F1000
G1 X18.253 Y103.226 F1000
G1 X18.253 Y103.097 F1000
G1 X17.609 Y102.454 F1000
G1 X17.609 Y102.325 F1000
G1 X17.094 Y101.810 F1000
G1 X17.094 Y101.681 F1000
G1 X16.707 Y101.295 F1000
G1 X16.707 Y101.166 F1000
G1 X16.321 Y100.780 F1000
G1 X16.321 Y100.651 F1000
G1 X15.935 Y100.265 F1000
G1 X15.935 Y100.136 F1000
G1 X15.678 Y99.879 F1000
G1 X15.678 Y99.750 F1000
G1 X15.291 Y99.364 F1000
G1 X15.291 Y99.235 F1000
G1 X15.034 Y98.978 F1000
G1 X15.034 Y98.849 F1000
G1 X14.776 Y98.591 F1000
G1 X14.776 Y98.463 F1000
G1 X14.648 Y98.334 F1000
G1 X14.648 Y98.205 F1000
G1 X14.390 Y97.948 F1000
G1 X14.390 Y97.819 F1000
G1 X14.133 Y97.561 F1000
G1 X14.133 Y97.433 F1000
G1 X14.004 Y97.304 F1000
G1 X14.004 Y97.175 F1000
G1 X13.746 Y96.918 F1000
G1 X13.746 Y96.789 F1000
G1 X13.617 Y96.660 F1000
G1 X13.617 Y96.531 F1000
G1 X13.360 Y96.274 F1000
G1 X13.360 Y96.145 F1000
G1 X13.231 Y96.016 F1000
G1 X13.231 Y95.888 F1000
G1 X13.103 Y95.759 F1000
G1 X13.103 Y95.630 F1000
G1 X12.974 Y95.501 F1000
G1 X12.974 Y95.373 F1000
G1 X12.845 Y95.244 F1000
G1 X12.845 Y95.115 F1000
G1 X12.588 Y94.858 F1000
G1 X12.588 Y94.729 F1000
G1 X12.459 Y94.600 F1000
G1 X12.459 Y94.471 F1000
G1 X12.330 Y94.343 F1000
G1 X12.330 Y94.214 F1000
G1 X12.201 Y94.085 F1000
G1 X12.201 Y93.956 F1000
G1 X12.072 Y93.828 F1000
G1 X12.072 Y93.699 F1000
G1 X11.944 Y93.570 F1000
G1 X11.944 Y93.312 F1000
G1 X11.815 Y93.184 F1000
G1 X11.815 Y93.055 F1000
G1 X11.686 Y92.926 F1000
G1 X11.686 Y92.797 F1000
G1 X11.558 Y92.669 F1000
G1 X11.558 Y92.540 F1000
G1 X11.429 Y92.411 F1000
G1 X11.429 Y92.282 F1000
G1 X11.300 Y92.154 F1000
G1 X11.300 Y91.896 F1000
G1 X11.171 Y91.767 F1000
G1 X11.171 Y91.639 F1000
G1 X11.043 Y91.510 F1000
G1 X11.043 Y91.381 F1000
G1 X10.914 Y91.252 F1000
G1 X10.914 Y90.995 F1000
G1 X10.785 Y90.866 F1000
G1 X10.785 Y90.737 F1000
G1 X10.656 Y90.609 F1000
G1 X10.656 Y90.351 F1000
G1 X10.527 Y90.222 F1000
G1 X10.527 Y90.094 F1000
G1 X10.399 Y89.965 F1000
G1 X10.399 Y89.707 F1000
G1 X10.270 Y89.579 F1000
G1 X10.270 Y89.321 F1000
G1 X10.141 Y89.192 F1000
G1 X10.141 Y88.935 F1000
G1 X10.013 Y88.806 F1000
G1 X10.013 Y88.549 F1000
G1 X9.884 Y88.420 F1000
G1 X9.884 Y88.163 F1000
G1 X9.755 Y88.034 F1000
G1 X9.755 Y87.776 F1000
G1 X9.626 Y87.648 F1000
G1 X9.626 Y87.390 F1000
G1 X9.498 Y87.261 F1000
G1 X9.498 Y87.004 F1000
G1 X9.369 Y86.875 F1000
G1 X9.369 Y86.489 F1000
G1 X9.240 Y86.360 F1000
G1 X9.240 Y86.102 F1000
G1 X9.111 Y85.974 F1000
G1 X9.111 Y85.588 F1000
G1 X8.982 Y85.459 F1000
G1 X8.982 Y85.073 F1000
G1 X8.854 Y84.944 F1000
G1 X8.854 Y84.558 F1000
G1 X8.725 Y84.429 F1000
G1 X8.725 Y84.043 F1000
G1 X8.596 Y83.914 F1000
G1 X8.596 Y83.399 F1000
G1 X8.468 Y83.270 F1000
G1 X8.468 Y82.755 F1000
G1 X8.339 Y82.626 F1000
G1 X8.339 Y82.111 F1000
G1 X8.210 Y81.983 F1000
G1 X8.210 Y81.339 F1000
G1 X8.081 Y81.210 F1000
G1 X8.081 Y80.566 F1000
G1 X7.953 Y80.438 F1000
G1 X7.953 Y79.536 F1000
G1 X7.824 Y79.407 F1000
G1 X7.824 Y78.377 F1000
G1 X7.695 Y78.249 F1000
G1 X7.695 Y76.575 F1000
G1 X7.566 Y76.446 F1000
G0 Z3.0 ; Pen up

G0 X15.806 Y52.756 F3000 ; Travel to line 336
G0 Z0.0 ; Pen down
G1 X15.935 Y52.756 F1000
G1 X16.064 Y52.885 F1000
G1 X16.193 Y52.885 F1000
G1 X16.450 Y53.142 F1000
G1 X16.579 Y53.142 F1000
G1 X16.707 Y53.271 F1000
G1 X16.836 Y53.271 F1000
G1 X16.965 Y53.400 F1000
G1 X17.094 Y53.400 F1000
G1 X17.351 Y53.657 F1000
G1 X17.480 Y53.657 F1000
G1 X17.609 Y53.786 F1000
G1 X17.738 Y53.786 F1000
G1 X17.609 Y53.786 F1000
G1 X17.480 Y53.657 F1000
G1 X17.351 Y53.657 F1000
G1 X17.094 Y53.400 F1000
G1 X16.965 Y53.400 F1000
G1 X16.836 Y53.271 F1000
G1 X16.707 Y53.271 F1000
G1 X16.579 Y53.142 F1000
G1 X16.450 Y53.142 F1000
G1 X16.193 Y52.885 F1000
G1 X16.064 Y52.885 F1000
G1 X15.935 Y52.756 F1000
G0 Z3.0 ; Pen up

; Return to origin
G0 X0 Y0
G0 Z3.0

; Total drawing distance: 4562.23 mm
; Total travel distance: 513.75 mm
; Total lines: 336
; Estimated time: 284.0 seconds (4.7 minutes)
M2 ; End program