; Blueprint to G-code
; Input: test_images_solid/test1_simple_shapes.png
; Generated with blueprint2gcode.py

G21 ; Set units to millimeters
G90 ; Absolute positioning
G0 Z3.0 ; Pen up
G0 X0 Y0 ; Move to origin

G0 X38.953 Y44.333 F3000 ; Travel to line 1
G0 Z0.0 ; Pen down
G1 X52.820 Y36.707 F1000
G0 Z3.0 ; Pen up

G0 X54.553 Y36.360 F3000 ; Travel to line 2
G0 Z0.0 ; Pen down
G1 X37.567 Y45.720 F1000
G0 Z3.0 ; Pen up

G0 X36.180 Y47.107 F3000 ; Travel to line 3
G0 Z0.0 ; Pen down
G1 X55.940 Y36.013 F1000
G0 Z3.0 ; Pen up

G0 X56.980 Y36.013 F3000 ; Travel to line 4
G0 Z0.0 ; Pen down
G1 X34.793 Y48.493 F1000
G0 Z3.0 ; Pen up

G0 X33.753 Y49.880 F3000 ; Travel to line 5
G0 Z0.0 ; Pen down
G1 X58.713 Y35.667 F1000
G0 Z3.0 ; Pen up

G0 X59.753 Y35.667 F3000 ; Travel to line 6
G0 Z0.0 ; Pen down
G1 X33.060 Y50.920 F1000
G0 Z3.0 ; Pen up

G0 X32.713 Y51.613 F3000 ; Travel to line 7
G0 Z0.0 ; Pen down
G1 X60.447 Y35.667 F1000
G0 Z3.0 ; Pen up

G0 X61.140 Y35.667 F3000 ; Travel to line 8
G0 Z0.0 ; Pen down
G1 X32.020 Y52.653 F1000
G0 Z3.0 ; Pen up

G0 X31.327 Y53.693 F3000 ; Travel to line 9
G0 Z0.0 ; Pen down
G1 X62.180 Y35.667 F1000
G0 Z3.0 ; Pen up

G0 X62.873 Y35.667 F3000 ; Travel to line 10
G0 Z0.0 ; Pen down
G1 X30.980 Y54.387 F1000
G0 Z3.0 ; Pen up

G0 X30.287 Y55.773 F3000 ; Travel to line 11
G0 Z0.0 ; Pen down
G1 X63.913 Y35.667 F1000
G0 Z3.0 ; Pen up

G0 X64.953 Y35.667 F3000 ; Travel to line 12
G0 Z0.0 ; Pen down
G1 X29.940 Y56.467 F1000
G0 Z3.0 ; Pen up

G0 X29.593 Y57.507 F3000 ; Travel to line 13
G0 Z0.0 ; Pen down
G1 X65.300 Y36.013 F1000
G0 Z3.0 ; Pen up

G0 X65.993 Y36.013 F3000 ; Travel to line 14
G0 Z0.0 ; Pen down
G1 X29.247 Y58.200 F1000
G0 Z3.0 ; Pen up

G0 X29.247 Y58.893 F3000 ; Travel to line 15
G0 Z0.0 ; Pen down
G1 X66.687 Y36.013 F1000
G0 Z3.0 ; Pen up

G0 X67.380 Y36.013 F3000 ; Travel to line 16
G0 Z0.0 ; Pen down
G1 X28.900 Y59.587 F1000
G0 Z3.0 ; Pen up

G0 X28.553 Y60.627 F3000 ; Travel to line 17
G0 Z0.0 ; Pen down
G1 X68.073 Y36.360 F1000
G0 Z3.0 ; Pen up

G0 X68.767 Y36.360 F3000 ; Travel to line 18
G0 Z0.0 ; Pen down
G1 X28.207 Y61.667 F1000
G0 Z3.0 ; Pen up

G0 X28.207 Y62.360 F3000 ; Travel to line 19
G0 Z0.0 ; Pen down
G1 X69.460 Y36.360 F1000
G0 Z3.0 ; Pen up

G0 X69.460 Y36.707 F3000 ; Travel to line 20
G0 Z0.0 ; Pen down
G1 X27.860 Y63.053 F1000
G0 Z3.0 ; Pen up

G0 X27.860 Y63.747 F3000 ; Travel to line 21
G0 Z0.0 ; Pen down
G1 X70.500 Y36.707 F1000
G0 Z3.0 ; Pen up

G0 X70.847 Y36.707 F3000 ; Travel to line 22
G0 Z0.0 ; Pen down
G1 X27.513 Y64.440 F1000
G0 Z3.0 ; Pen up

G0 X27.513 Y65.480 F3000 ; Travel to line 23
G0 Z0.0 ; Pen down
G1 X71.540 Y37.053 F1000
G0 Z3.0 ; Pen up

G0 X71.887 Y37.053 F3000 ; Travel to line 24
G0 Z0.0 ; Pen down
G1 X27.513 Y66.173 F1000
G0 Z3.0 ; Pen up

G0 X27.513 Y66.867 F3000 ; Travel to line 25
G0 Z0.0 ; Pen down
G1 X72.580 Y37.400 F1000
G0 Z3.0 ; Pen up

G0 X72.927 Y37.400 F3000 ; Travel to line 26
G0 Z0.0 ; Pen down
G1 X27.167 Y67.560 F1000
G0 Z3.0 ; Pen up

G0 X27.167 Y68.253 F3000 ; Travel to line 27
G0 Z0.0 ; Pen down
G1 X73.273 Y37.747 F1000
G0 Z3.0 ; Pen up

G0 X73.967 Y37.747 F3000 ; Travel to line 28
G0 Z0.0 ; Pen down
G1 X27.167 Y68.947 F1000
G0 Z3.0 ; Pen up

G0 X27.167 Y69.987 F3000 ; Travel to line 29
G0 Z0.0 ; Pen down
G1 X74.660 Y38.093 F1000
G0 Z3.0 ; Pen up

G0 X74.660 Y38.440 F3000 ; Travel to line 30
G0 Z0.0 ; Pen down
G1 X27.167 Y70.333 F1000
G0 Z3.0 ; Pen up

G0 X27.167 Y71.027 F3000 ; Travel to line 31
G0 Z0.0 ; Pen down
G1 X75.353 Y38.440 F1000
G0 Z3.0 ; Pen up

G0 X75.700 Y38.787 F3000 ; Travel to line 32
G0 Z0.0 ; Pen down
G1 X27.167 Y71.720 F1000
G0 Z3.0 ; Pen up

G0 X27.167 Y72.413 F3000 ; Travel to line 33
G0 Z0.0 ; Pen down
G1 X76.393 Y38.787 F1000
G0 Z3.0 ; Pen up

G0 X76.393 Y39.133 F3000 ; Travel to line 34
G0 Z0.0 ; Pen down
G1 X27.167 Y73.107 F1000
G0 Z3.0 ; Pen up

G0 X27.513 Y73.800 F3000 ; Travel to line 35
G0 Z0.0 ; Pen down
G1 X77.087 Y39.480 F1000
G0 Z3.0 ; Pen up

G0 X77.433 Y39.480 F3000 ; Travel to line 36
G0 Z0.0 ; Pen down
G1 X27.513 Y74.147 F1000
G0 Z3.0 ; Pen up

G0 X27.513 Y74.840 F3000 ; Travel to line 37
G0 Z0.0 ; Pen down
G1 X77.780 Y39.827 F1000
G0 Z3.0 ; Pen up

G0 X78.473 Y39.827 F3000 ; Travel to line 38
G0 Z0.0 ; Pen down
G1 X27.513 Y75.533 F1000
G0 Z3.0 ; Pen up

G0 X27.513 Y76.227 F3000 ; Travel to line 39
G0 Z0.0 ; Pen down
G1 X78.820 Y40.173 F1000
G0 Z3.0 ; Pen up

G0 X79.167 Y40.173 F3000 ; Travel to line 40
G0 Z0.0 ; Pen down
G1 X27.860 Y76.573 F1000
G0 Z3.0 ; Pen up

G0 X27.860 Y77.613 F3000 ; Travel to line 41
G0 Z0.0 ; Pen down
G1 X79.513 Y40.867 F1000
G0 Z3.0 ; Pen up

G0 X79.860 Y40.867 F3000 ; Travel to line 42
G0 Z0.0 ; Pen down
G1 X28.207 Y77.960 F1000
G0 Z3.0 ; Pen up

G0 X28.207 Y78.653 F3000 ; Travel to line 43
G0 Z0.0 ; Pen down
G1 X80.207 Y41.213 F1000
G0 Z3.0 ; Pen up

G0 X80.553 Y41.213 F3000 ; Travel to line 44
G0 Z0.0 ; Pen down
G1 X28.207 Y79.347 F1000
G0 Z3.0 ; Pen up

G0 X28.553 Y79.693 F3000 ; Travel to line 45
G0 Z0.0 ; Pen down
G1 X80.900 Y41.560 F1000
G0 Z3.0 ; Pen up

G0 X81.247 Y41.907 F3000 ; Travel to line 46
G0 Z0.0 ; Pen down
G1 X28.553 Y80.387 F1000
G0 Z3.0 ; Pen up

G0 X28.900 Y81.080 F3000 ; Travel to line 47
G0 Z0.0 ; Pen down
G1 X81.593 Y42.253 F1000
G0 Z3.0 ; Pen up

G0 X82.287 Y42.253 F3000 ; Travel to line 48
G0 Z0.0 ; Pen down
G1 X28.900 Y81.427 F1000
G0 Z3.0 ; Pen up

G0 X29.247 Y82.120 F3000 ; Travel to line 49
G0 Z0.0 ; Pen down
G1 X82.287 Y42.600 F1000
G0 Z3.0 ; Pen up

G0 X82.633 Y42.947 F3000 ; Travel to line 50
G0 Z0.0 ; Pen down
G1 X29.247 Y82.467 F1000
G0 Z3.0 ; Pen up

G0 X29.593 Y82.813 F3000 ; Travel to line 51
G0 Z0.0 ; Pen down
G1 X82.980 Y42.947 F1000
G0 Z3.0 ; Pen up

G0 X83.327 Y43.293 F3000 ; Travel to line 52
G0 Z0.0 ; Pen down
G1 X29.940 Y83.160 F1000
G0 Z3.0 ; Pen up

G0 X29.940 Y84.200 F3000 ; Travel to line 53
G0 Z0.0 ; Pen down
G1 X84.020 Y43.640 F1000
G0 Z3.0 ; Pen up

G0 X84.020 Y43.987 F3000 ; Travel to line 54
G0 Z0.0 ; Pen down
G1 X30.287 Y84.547 F1000
G0 Z3.0 ; Pen up

G0 X30.633 Y84.893 F3000 ; Travel to line 55
G0 Z0.0 ; Pen down
G1 X84.367 Y43.987 F1000
G0 Z3.0 ; Pen up

G0 X84.713 Y44.333 F3000 ; Travel to line 56
G0 Z0.0 ; Pen down
G1 X30.633 Y85.587 F1000
G0 Z3.0 ; Pen up

G0 X30.980 Y85.933 F3000 ; Travel to line 57
G0 Z0.0 ; Pen down
G1 X85.060 Y44.680 F1000
G0 Z3.0 ; Pen up

G0 X85.060 Y45.027 F3000 ; Travel to line 58
G0 Z0.0 ; Pen down
G1 X31.327 Y86.280 F1000
G0 Z3.0 ; Pen up

G0 X31.673 Y86.973 F3000 ; Travel to line 59
G0 Z0.0 ; Pen down
G1 X85.407 Y45.373 F1000
G0 Z3.0 ; Pen up

G0 X85.753 Y45.720 F3000 ; Travel to line 60
G0 Z0.0 ; Pen down
G1 X31.673 Y87.667 F1000
G0 Z3.0 ; Pen up

G0 X32.020 Y88.013 F3000 ; Travel to line 61
G0 Z0.0 ; Pen down
G1 X86.100 Y46.067 F1000
G0 Z3.0 ; Pen up

G0 X86.447 Y46.067 F3000 ; Travel to line 62
G0 Z0.0 ; Pen down
G1 X32.367 Y88.360 F1000
G0 Z3.0 ; Pen up

G0 X32.713 Y88.707 F3000 ; Travel to line 63
G0 Z0.0 ; Pen down
G1 X86.793 Y46.413 F1000
G0 Z3.0 ; Pen up

G0 X87.140 Y46.760 F3000 ; Travel to line 64
G0 Z0.0 ; Pen down
G1 X32.713 Y89.400 F1000
G0 Z3.0 ; Pen up

G0 X33.407 Y89.747 F3000 ; Travel to line 65
G0 Z0.0 ; Pen down
G1 X87.833 Y47.453 F1000
G0 Z3.0 ; Pen up

G0 X88.527 Y48.147 F3000 ; Travel to line 66
G0 Z0.0 ; Pen down
G1 X33.753 Y90.440 F1000
G0 Z3.0 ; Pen up

G0 X34.100 Y91.133 F3000 ; Travel to line 67
G0 Z0.0 ; Pen down
G1 X88.873 Y48.493 F1000
G0 Z3.0 ; Pen up

G0 X89.220 Y49.187 F3000 ; Travel to line 68
G0 Z0.0 ; Pen down
G1 X34.447 Y91.480 F1000
G0 Z3.0 ; Pen up

G0 X34.793 Y92.173 F3000 ; Travel to line 69
G0 Z0.0 ; Pen down
G1 X89.567 Y49.880 F1000
G0 Z3.0 ; Pen up

G0 X89.913 Y50.573 F3000 ; Travel to line 70
G0 Z0.0 ; Pen down
G1 X35.140 Y92.520 F1000
G0 Z3.0 ; Pen up

G0 X35.487 Y92.867 F3000 ; Travel to line 71
G0 Z0.0 ; Pen down
G1 X90.607 Y50.920 F1000
G0 Z3.0 ; Pen up

G0 X90.953 Y51.613 F3000 ; Travel to line 72
G0 Z0.0 ; Pen down
G1 X36.180 Y93.560 F1000
G0 Z3.0 ; Pen up

G0 X36.527 Y93.907 F3000 ; Travel to line 73
G0 Z0.0 ; Pen down
G1 X91.300 Y52.307 F1000
G0 Z3.0 ; Pen up

G0 X91.647 Y53.000 F3000 ; Travel to line 74
G0 Z0.0 ; Pen down
G1 X37.220 Y94.253 F1000
G0 Z3.0 ; Pen up

G0 X37.567 Y94.947 F3000 ; Travel to line 75
G0 Z0.0 ; Pen down
G1 X91.993 Y53.693 F1000
G0 Z3.0 ; Pen up

G0 X92.340 Y54.040 F3000 ; Travel to line 76
G0 Z0.0 ; Pen down
G1 X37.913 Y95.293 F1000
G0 Z3.0 ; Pen up

G0 X38.260 Y95.640 F3000 ; Travel to line 77
G0 Z0.0 ; Pen down
G1 X92.687 Y55.080 F1000
G0 Z3.0 ; Pen up

G0 X93.380 Y55.773 F3000 ; Travel to line 78
G0 Z0.0 ; Pen down
G1 X38.953 Y96.333 F1000
G0 Z3.0 ; Pen up

G0 X39.647 Y96.680 F3000 ; Travel to line 79
G0 Z0.0 ; Pen down
G1 X93.380 Y56.467 F1000
G0 Z3.0 ; Pen up

G0 X93.727 Y57.160 F3000 ; Travel to line 80
G0 Z0.0 ; Pen down
G1 X39.993 Y97.027 F1000
G0 Z3.0 ; Pen up

G0 X40.687 Y97.373 F3000 ; Travel to line 81
G0 Z0.0 ; Pen down
G1 X94.073 Y57.853 F1000
G0 Z3.0 ; Pen up

G0 X94.420 Y58.547 F3000 ; Travel to line 82
G0 Z0.0 ; Pen down
G1 X41.033 Y97.720 F1000
G0 Z3.0 ; Pen up

G0 X41.380 Y98.413 F3000 ; Travel to line 83
G0 Z0.0 ; Pen down
G1 X94.420 Y59.240 F1000
G0 Z3.0 ; Pen up

G0 X94.767 Y60.280 F3000 ; Travel to line 84
G0 Z0.0 ; Pen down
G1 X42.420 Y98.760 F1000
G0 Z3.0 ; Pen up

G0 X42.767 Y99.107 F3000 ; Travel to line 85
G0 Z0.0 ; Pen down
G1 X95.113 Y60.973 F1000
G0 Z3.0 ; Pen up

G0 X95.460 Y61.667 F3000 ; Travel to line 86
G0 Z0.0 ; Pen down
G1 X43.460 Y99.453 F1000
G0 Z3.0 ; Pen up

G0 X44.153 Y99.800 F3000 ; Travel to line 87
G0 Z0.0 ; Pen down
G1 X95.460 Y62.360 F1000
G0 Z3.0 ; Pen up

G0 X95.807 Y63.053 F3000 ; Travel to line 88
G0 Z0.0 ; Pen down
G1 X44.500 Y100.147 F1000
G0 Z3.0 ; Pen up

G0 X45.193 Y100.493 F3000 ; Travel to line 89
G0 Z0.0 ; Pen down
G1 X95.807 Y63.747 F1000
G0 Z3.0 ; Pen up

G0 X96.153 Y64.787 F3000 ; Travel to line 90
G0 Z0.0 ; Pen down
G1 X45.887 Y101.187 F1000
G0 Z3.0 ; Pen up

G0 X46.580 Y101.533 F3000 ; Travel to line 91
G0 Z0.0 ; Pen down
G1 X96.153 Y65.827 F1000
G0 Z3.0 ; Pen up

G0 X96.153 Y66.520 F3000 ; Travel to line 92
G0 Z0.0 ; Pen down
G1 X47.273 Y101.533 F1000
G0 Z3.0 ; Pen up

G0 X47.967 Y101.880 F3000 ; Travel to line 93
G0 Z0.0 ; Pen down
G1 X96.500 Y67.213 F1000
G0 Z3.0 ; Pen up

G0 X96.500 Y68.253 F3000 ; Travel to line 94
G0 Z0.0 ; Pen down
G1 X48.660 Y102.227 F1000
G0 Z3.0 ; Pen up

G0 X49.353 Y102.573 F3000 ; Travel to line 95
G0 Z0.0 ; Pen down
G1 X96.500 Y68.947 F1000
G0 Z3.0 ; Pen up

G0 X96.500 Y69.987 F3000 ; Travel to line 96
G0 Z0.0 ; Pen down
G1 X50.393 Y102.920 F1000
G0 Z3.0 ; Pen up

G0 X51.087 Y103.267 F3000 ; Travel to line 97
G0 Z0.0 ; Pen down
G1 X96.500 Y71.027 F1000
G0 Z3.0 ; Pen up

G0 X96.500 Y72.067 F3000 ; Travel to line 98
G0 Z0.0 ; Pen down
G1 X51.780 Y103.613 F1000
G0 Z3.0 ; Pen up

G0 X52.473 Y103.613 F3000 ; Travel to line 99
G0 Z0.0 ; Pen down
G1 X96.500 Y72.760 F1000
G0 Z3.0 ; Pen up

G0 X96.500 Y73.453 F3000 ; Travel to line 100
G0 Z0.0 ; Pen down
G1 X53.167 Y103.960 F1000
G0 Z3.0 ; Pen up

G0 X54.207 Y104.307 F3000 ; Travel to line 101
G0 Z0.0 ; Pen down
G1 X96.153 Y74.840 F1000
G0 Z3.0 ; Pen up

G0 X96.153 Y75.880 F3000 ; Travel to line 102
G0 Z0.0 ; Pen down
G1 X55.593 Y104.307 F1000
G0 Z3.0 ; Pen up

G0 X55.940 Y104.653 F3000 ; Travel to line 103
G0 Z0.0 ; Pen down
G1 X95.807 Y76.920 F1000
G0 Z3.0 ; Pen up

G0 X95.807 Y77.960 F3000 ; Travel to line 104
G0 Z0.0 ; Pen down
G1 X57.327 Y104.653 F1000
G0 Z3.0 ; Pen up

G0 X58.367 Y104.653 F3000 ; Travel to line 105
G0 Z0.0 ; Pen down
G1 X95.460 Y79.000 F1000
G0 Z3.0 ; Pen up

G0 X95.113 Y80.040 F3000 ; Travel to line 106
G0 Z0.0 ; Pen down
G1 X59.060 Y105.000 F1000
G0 Z3.0 ; Pen up

G0 X60.100 Y105.000 F3000 ; Travel to line 107
G0 Z0.0 ; Pen down
G1 X94.767 Y81.080 F1000
G0 Z3.0 ; Pen up

G0 X94.073 Y82.813 F3000 ; Travel to line 108
G0 Z0.0 ; Pen down
G1 X61.833 Y105.000 F1000
G0 Z3.0 ; Pen up

G0 X62.873 Y105.000 F3000 ; Travel to line 109
G0 Z0.0 ; Pen down
G1 X93.727 Y84.200 F1000
G0 Z3.0 ; Pen up

G0 X93.033 Y85.240 F3000 ; Travel to line 110
G0 Z0.0 ; Pen down
G1 X64.260 Y105.000 F1000
G0 Z3.0 ; Pen up

G0 X65.993 Y104.653 F3000 ; Travel to line 111
G0 Z0.0 ; Pen down
G1 X92.687 Y86.280 F1000
G0 Z3.0 ; Pen up

G0 X91.993 Y87.667 F3000 ; Travel to line 112
G0 Z0.0 ; Pen down
G1 X67.033 Y104.653 F1000
G0 Z3.0 ; Pen up

G0 X68.767 Y104.307 F3000 ; Travel to line 113
G0 Z0.0 ; Pen down
G1 X90.953 Y89.400 F1000
G0 Z3.0 ; Pen up

G0 X88.873 Y91.827 F3000 ; Travel to line 114
G0 Z0.0 ; Pen down
G1 X70.847 Y103.960 F1000
G0 Z3.0 ; Pen up

G0 X73.620 Y102.920 F3000 ; Travel to line 115
G0 Z0.0 ; Pen down
G1 X87.487 Y93.560 F1000
G0 Z3.0 ; Pen up

G0 X85.060 Y95.987 F3000 ; Travel to line 116
G0 Z0.0 ; Pen down
G1 X75.700 Y102.227 F1000
G0 Z3.0 ; Pen up

G0 X70.847 Y123.373 F3000 ; Travel to line 117
G0 Z0.0 ; Pen down
G1 X27.513 Y160.467 F1000
G0 Z3.0 ; Pen up

G0 X27.513 Y161.160 F3000 ; Travel to line 118
G0 Z0.0 ; Pen down
G1 X71.540 Y123.720 F1000
G0 Z3.0 ; Pen up

G0 X72.580 Y124.067 F3000 ; Travel to line 119
G0 Z0.0 ; Pen down
G1 X27.513 Y162.200 F1000
G0 Z3.0 ; Pen up

G0 X27.513 Y162.893 F3000 ; Travel to line 120
G0 Z0.0 ; Pen down
G1 X73.273 Y124.413 F1000
G0 Z3.0 ; Pen up

G0 X73.967 Y124.760 F3000 ; Travel to line 121
G0 Z0.0 ; Pen down
G1 X27.860 Y163.240 F1000
G0 Z3.0 ; Pen up

G0 X27.860 Y163.933 F3000 ; Travel to line 122
G0 Z0.0 ; Pen down
G1 X74.660 Y124.760 F1000
G0 Z3.0 ; Pen up

G0 X75.700 Y125.107 F3000 ; Travel to line 123
G0 Z0.0 ; Pen down
G1 X28.207 Y164.627 F1000
G0 Z3.0 ; Pen up

G0 X28.207 Y165.320 F3000 ; Travel to line 124
G0 Z0.0 ; Pen down
G1 X76.393 Y125.453 F1000
G0 Z3.0 ; Pen up

G0 X77.087 Y125.800 F3000 ; Travel to line 125
G0 Z0.0 ; Pen down
G1 X28.553 Y166.013 F1000
G0 Z3.0 ; Pen up

G0 X28.553 Y166.707 F3000 ; Travel to line 126
G0 Z0.0 ; Pen down
G1 X77.780 Y126.147 F1000
G0 Z3.0 ; Pen up

G0 X78.473 Y126.493 F3000 ; Travel to line 127
G0 Z0.0 ; Pen down
G1 X28.900 Y167.400 F1000
G0 Z3.0 ; Pen up

G0 X28.900 Y168.093 F3000 ; Travel to line 128
G0 Z0.0 ; Pen down
G1 X79.167 Y126.840 F1000
G0 Z3.0 ; Pen up

G0 X79.513 Y127.533 F3000 ; Travel to line 129
G0 Z0.0 ; Pen down
G1 X29.247 Y168.440 F1000
G0 Z3.0 ; Pen up

G0 X29.247 Y169.133 F3000 ; Travel to line 130
G0 Z0.0 ; Pen down
G1 X80.207 Y127.880 F1000
G0 Z3.0 ; Pen up

G0 X81.247 Y128.227 F3000 ; Travel to line 131
G0 Z0.0 ; Pen down
G1 X29.940 Y169.827 F1000
G0 Z3.0 ; Pen up

G0 X29.940 Y170.520 F3000 ; Travel to line 132
G0 Z0.0 ; Pen down
G1 X81.593 Y128.920 F1000
G0 Z3.0 ; Pen up

G0 X82.287 Y128.920 F3000 ; Travel to line 133
G0 Z0.0 ; Pen down
G1 X30.287 Y170.867 F1000
G0 Z3.0 ; Pen up

G0 X30.633 Y171.560 F3000 ; Travel to line 134
G0 Z0.0 ; Pen down
G1 X82.633 Y129.613 F1000
G0 Z3.0 ; Pen up

G0 X83.673 Y129.960 F3000 ; Travel to line 135
G0 Z0.0 ; Pen down
G1 X30.633 Y172.253 F1000
G0 Z3.0 ; Pen up

G0 X30.980 Y172.600 F3000 ; Travel to line 136
G0 Z0.0 ; Pen down
G1 X84.020 Y130.307 F1000
G0 Z3.0 ; Pen up

G0 X84.713 Y131.000 F3000 ; Travel to line 137
G0 Z0.0 ; Pen down
G1 X31.327 Y173.640 F1000
G0 Z3.0 ; Pen up

G0 X31.673 Y173.987 F3000 ; Travel to line 138
G0 Z0.0 ; Pen down
G1 X85.060 Y131.693 F1000
G0 Z3.0 ; Pen up

G0 X85.753 Y132.040 F3000 ; Travel to line 139
G0 Z0.0 ; Pen down
G1 X32.020 Y174.333 F1000
G0 Z3.0 ; Pen up

G0 X32.367 Y175.027 F3000 ; Travel to line 140
G0 Z0.0 ; Pen down
G1 X86.100 Y132.733 F1000
G0 Z3.0 ; Pen up

G0 X86.793 Y133.080 F3000 ; Travel to line 141
G0 Z0.0 ; Pen down
G1 X32.713 Y175.373 F1000
G0 Z3.0 ; Pen up

G0 X32.713 Y176.067 F3000 ; Travel to line 142
G0 Z0.0 ; Pen down
G1 X87.140 Y133.427 F1000
G0 Z3.0 ; Pen up

G0 X87.833 Y134.120 F3000 ; Travel to line 143
G0 Z0.0 ; Pen down
G1 X33.407 Y176.413 F1000
G0 Z3.0 ; Pen up

G0 X33.753 Y177.107 F3000 ; Travel to line 144
G0 Z0.0 ; Pen down
G1 X88.527 Y134.813 F1000
G0 Z3.0 ; Pen up

G0 X88.873 Y135.160 F3000 ; Travel to line 145
G0 Z0.0 ; Pen down
G1 X34.100 Y177.800 F1000
G0 Z3.0 ; Pen up

G0 X34.447 Y178.147 F3000 ; Travel to line 146
G0 Z0.0 ; Pen down
G1 X89.220 Y135.853 F1000
G0 Z3.0 ; Pen up

G0 X89.567 Y136.547 F3000 ; Travel to line 147
G0 Z0.0 ; Pen down
G1 X34.793 Y178.840 F1000
G0 Z3.0 ; Pen up

G0 X35.140 Y179.187 F3000 ; Travel to line 148
G0 Z0.0 ; Pen down
G1 X89.913 Y137.240 F1000
G0 Z3.0 ; Pen up

G0 X90.607 Y137.587 F3000 ; Travel to line 149
G0 Z0.0 ; Pen down
G1 X35.487 Y179.533 F1000
G0 Z3.0 ; Pen up

G0 X36.180 Y180.227 F3000 ; Travel to line 150
G0 Z0.0 ; Pen down
G1 X90.953 Y138.280 F1000
G0 Z3.0 ; Pen up

G0 X91.300 Y138.973 F3000 ; Travel to line 151
G0 Z0.0 ; Pen down
G1 X36.527 Y180.573 F1000
G0 Z3.0 ; Pen up

G0 X37.220 Y180.920 F3000 ; Travel to line 152
G0 Z0.0 ; Pen down
G1 X91.647 Y139.667 F1000
G0 Z3.0 ; Pen up

G0 X91.993 Y140.360 F3000 ; Travel to line 153
G0 Z0.0 ; Pen down
G1 X37.567 Y181.613 F1000
G0 Z3.0 ; Pen up

G0 X37.913 Y181.960 F3000 ; Travel to line 154
G0 Z0.0 ; Pen down
G1 X92.340 Y140.707 F1000
G0 Z3.0 ; Pen up

G0 X92.687 Y141.747 F3000 ; Travel to line 155
G0 Z0.0 ; Pen down
G1 X38.260 Y182.307 F1000
G0 Z3.0 ; Pen up

G0 X38.953 Y183.000 F3000 ; Travel to line 156
G0 Z0.0 ; Pen down
G1 X93.380 Y142.440 F1000
G0 Z3.0 ; Pen up

G0 X93.380 Y143.133 F3000 ; Travel to line 157
G0 Z0.0 ; Pen down
G1 X39.647 Y183.347 F1000
G0 Z3.0 ; Pen up

G0 X39.993 Y183.693 F3000 ; Travel to line 158
G0 Z0.0 ; Pen down
G1 X93.727 Y143.827 F1000
G0 Z3.0 ; Pen up

G0 X94.073 Y144.520 F3000 ; Travel to line 159
G0 Z0.0 ; Pen down
G1 X40.687 Y184.040 F1000
G0 Z3.0 ; Pen up

G0 X41.033 Y184.387 F3000 ; Travel to line 160
G0 Z0.0 ; Pen down
G1 X94.420 Y145.213 F1000
G0 Z3.0 ; Pen up

G0 X94.420 Y145.907 F3000 ; Travel to line 161
G0 Z0.0 ; Pen down
G1 X41.380 Y185.080 F1000
G0 Z3.0 ; Pen up

G0 X42.073 Y185.427 F3000 ; Travel to line 162
G0 Z0.0 ; Pen down
G1 X94.767 Y146.600 F1000
G0 Z3.0 ; Pen up

G0 X95.113 Y147.293 F3000 ; Travel to line 163
G0 Z0.0 ; Pen down
G1 X42.420 Y185.427 F1000
G1 X42.420 Y185.427 F1000
G1 X95.113 Y147.640 F1000
G0 Z3.0 ; Pen up

G0 X95.460 Y147.987 F3000 ; Travel to line 164
G0 Z0.0 ; Pen down
G1 X42.420 Y185.773 F1000
G0 Z3.0 ; Pen up

G0 X42.767 Y185.773 F3000 ; Travel to line 165
G0 Z0.0 ; Pen down
G1 X95.460 Y148.680 F1000
G0 Z3.0 ; Pen up

G0 X95.460 Y149.373 F3000 ; Travel to line 166
G0 Z0.0 ; Pen down
G1 X42.767 Y186.120 F1000
G0 Z3.0 ; Pen up

G0 X43.460 Y186.120 F3000 ; Travel to line 167
G0 Z0.0 ; Pen down
G1 X95.807 Y150.760 F1000
G0 Z3.0 ; Pen up

G0 X95.807 Y150.413 F3000 ; Travel to line 168
G0 Z0.0 ; Pen down
G1 X43.113 Y186.120 F1000
G1 X43.113 Y186.120 F1000
G1 X95.807 Y149.720 F1000
G0 Z3.0 ; Pen up

G0 X96.153 Y151.453 F3000 ; Travel to line 169
G0 Z0.0 ; Pen down
G1 X43.460 Y186.467 F1000
G0 Z3.0 ; Pen up

G0 X43.807 Y186.467 F3000 ; Travel to line 170
G0 Z0.0 ; Pen down
G1 X96.153 Y151.800 F1000
G0 Z3.0 ; Pen up

G0 X96.153 Y152.493 F3000 ; Travel to line 171
G0 Z0.0 ; Pen down
G1 X44.153 Y186.467 F1000
G0 Z3.0 ; Pen up

G0 X44.153 Y186.813 F3000 ; Travel to line 172
G0 Z0.0 ; Pen down
G1 X96.153 Y153.187 F1000
G0 Z3.0 ; Pen up

G0 X96.153 Y153.880 F3000 ; Travel to line 173
G0 Z0.0 ; Pen down
G1 X44.500 Y186.813 F1000
G0 Z3.0 ; Pen up

G0 X44.847 Y187.160 F3000 ; Travel to line 174
G0 Z0.0 ; Pen down
G1 X96.500 Y155.267 F1000
G0 Z3.0 ; Pen up

G0 X96.500 Y155.960 F3000 ; Travel to line 175
G0 Z0.0 ; Pen down
G1 X45.193 Y187.160 F1000
G0 Z3.0 ; Pen up

G0 X45.193 Y187.507 F3000 ; Travel to line 176
G0 Z0.0 ; Pen down
G1 X96.500 Y156.653 F1000
G0 Z3.0 ; Pen up

G0 X96.500 Y157.000 F3000 ; Travel to line 177
G0 Z0.0 ; Pen down
G1 X45.540 Y187.507 F1000
G0 Z3.0 ; Pen up

G0 X45.887 Y187.507 F3000 ; Travel to line 178
G0 Z0.0 ; Pen down
G1 X96.500 Y157.693 F1000
G0 Z3.0 ; Pen up

G0 X96.500 Y158.040 F3000 ; Travel to line 179
G0 Z0.0 ; Pen down
G1 X45.887 Y187.853 F1000
G0 Z3.0 ; Pen up

G0 X46.233 Y187.853 F3000 ; Travel to line 180
G0 Z0.0 ; Pen down
G1 X96.500 Y158.733 F1000
G0 Z3.0 ; Pen up

G0 X96.500 Y159.080 F3000 ; Travel to line 181
G0 Z0.0 ; Pen down
G1 X46.580 Y187.853 F1000
G0 Z3.0 ; Pen up

G0 X46.580 Y188.200 F3000 ; Travel to line 182
G0 Z0.0 ; Pen down
G1 X96.500 Y159.773 F1000
G0 Z3.0 ; Pen up

G0 X96.153 Y160.813 F3000 ; Travel to line 183
G0 Z0.0 ; Pen down
G1 X46.927 Y188.200 F1000
G0 Z3.0 ; Pen up

G0 X47.273 Y188.200 F3000 ; Travel to line 184
G0 Z0.0 ; Pen down
G1 X96.153 Y161.160 F1000
G0 Z3.0 ; Pen up

G0 X96.153 Y161.853 F3000 ; Travel to line 185
G0 Z0.0 ; Pen down
G1 X47.273 Y188.547 F1000
G1 X47.273 Y188.547 F1000
G1 X96.153 Y162.200 F1000
G0 Z3.0 ; Pen up

G0 X96.153 Y162.893 F3000 ; Travel to line 186
G0 Z0.0 ; Pen down
G1 X47.967 Y188.547 F1000
G0 Z3.0 ; Pen up

G0 X47.967 Y188.893 F3000 ; Travel to line 187
G0 Z0.0 ; Pen down
G1 X95.807 Y163.587 F1000
G0 Z3.0 ; Pen up

G0 X95.807 Y164.280 F3000 ; Travel to line 188
G0 Z0.0 ; Pen down
G1 X48.313 Y188.893 F1000
G0 Z3.0 ; Pen up

G0 X48.660 Y188.893 F3000 ; Travel to line 189
G0 Z0.0 ; Pen down
G1 X95.807 Y164.627 F1000
G0 Z3.0 ; Pen up

G0 X95.460 Y165.320 F3000 ; Travel to line 190
G0 Z0.0 ; Pen down
G1 X49.007 Y188.893 F1000
G0 Z3.0 ; Pen up

G0 X49.007 Y189.240 F3000 ; Travel to line 191
G0 Z0.0 ; Pen down
G1 X95.460 Y165.667 F1000
G0 Z3.0 ; Pen up

G0 X95.113 Y166.360 F3000 ; Travel to line 192
G0 Z0.0 ; Pen down
G1 X49.353 Y189.240 F1000
G0 Z3.0 ; Pen up

G0 X50.047 Y189.587 F3000 ; Travel to line 193
G0 Z0.0 ; Pen down
G1 X94.420 Y168.440 F1000
G0 Z3.0 ; Pen up

G0 X94.420 Y168.787 F3000 ; Travel to line 194
G0 Z0.0 ; Pen down
G1 X50.740 Y189.587 F1000
G0 Z3.0 ; Pen up

G0 X51.433 Y189.933 F3000 ; Travel to line 195
G0 Z0.0 ; Pen down
G1 X93.727 Y170.867 F1000
G0 Z3.0 ; Pen up

G0 X93.727 Y170.173 F3000 ; Travel to line 196
G0 Z0.0 ; Pen down
G1 X50.740 Y189.933 F1000
G1 X50.740 Y189.933 F1000
G1 X94.073 Y169.480 F1000
G0 Z3.0 ; Pen up

G0 X94.767 Y167.747 F3000 ; Travel to line 197
G0 Z0.0 ; Pen down
G1 X49.700 Y189.587 F1000
G1 X49.700 Y189.587 F1000
G1 X95.113 Y167.053 F1000
G0 Z3.0 ; Pen up

G0 X93.380 Y171.560 F3000 ; Travel to line 198
G0 Z0.0 ; Pen down
G1 X51.780 Y190.280 F1000
G1 X51.780 Y190.280 F1000
G1 X93.033 Y171.907 F1000
G0 Z3.0 ; Pen up

G0 X92.687 Y172.600 F3000 ; Travel to line 199
G0 Z0.0 ; Pen down
G1 X52.473 Y190.280 F1000
G0 Z3.0 ; Pen up

G0 X52.820 Y190.280 F3000 ; Travel to line 200
G0 Z0.0 ; Pen down
G1 X92.687 Y172.947 F1000
G0 Z3.0 ; Pen up

G0 X92.340 Y173.640 F3000 ; Travel to line 201
G0 Z0.0 ; Pen down
G1 X52.820 Y190.627 F1000
G0 Z3.0 ; Pen up

G0 X53.167 Y190.627 F3000 ; Travel to line 202
G0 Z0.0 ; Pen down
G1 X91.993 Y174.333 F1000
G0 Z3.0 ; Pen up

G0 X91.300 Y175.373 F3000 ; Travel to line 203
G0 Z0.0 ; Pen down
G1 X53.860 Y190.627 F1000
G0 Z3.0 ; Pen up

G0 X54.553 Y190.973 F3000 ; Travel to line 204
G0 Z0.0 ; Pen down
G1 X90.260 Y176.760 F1000
G0 Z3.0 ; Pen up

G0 X89.913 Y177.453 F3000 ; Travel to line 205
G0 Z0.0 ; Pen down
G1 X55.247 Y190.973 F1000
G0 Z3.0 ; Pen up

G0 X56.633 Y191.320 F3000 ; Travel to line 206
G0 Z0.0 ; Pen down
G1 X88.527 Y179.187 F1000
G0 Z3.0 ; Pen up

G0 X88.873 Y178.840 F3000 ; Travel to line 207
G0 Z0.0 ; Pen down
G1 X55.940 Y191.320 F1000
G1 X55.940 Y191.320 F1000
G1 X89.220 Y178.147 F1000
G0 Z3.0 ; Pen up

G0 X87.833 Y179.880 F3000 ; Travel to line 208
G0 Z0.0 ; Pen down
G1 X57.327 Y191.320 F1000
G0 Z3.0 ; Pen up

G0 X57.673 Y191.320 F3000 ; Travel to line 209
G0 Z0.0 ; Pen down
G1 X87.140 Y180.573 F1000
G0 Z3.0 ; Pen up

G0 X86.447 Y181.267 F3000 ; Travel to line 210
G0 Z0.0 ; Pen down
G1 X58.367 Y191.320 F1000
G0 Z3.0 ; Pen up

G0 X58.713 Y191.667 F3000 ; Travel to line 211
G0 Z0.0 ; Pen down
G1 X85.753 Y181.960 F1000
G0 Z3.0 ; Pen up

G0 X85.060 Y182.653 F3000 ; Travel to line 212
G0 Z0.0 ; Pen down
G1 X59.060 Y191.667 F1000
G0 Z3.0 ; Pen up

G0 X59.753 Y191.667 F3000 ; Travel to line 213
G0 Z0.0 ; Pen down
G1 X84.367 Y183.347 F1000
G0 Z3.0 ; Pen up

G0 X84.020 Y183.693 F3000 ; Travel to line 214
G0 Z0.0 ; Pen down
G1 X60.447 Y191.667 F1000
G0 Z3.0 ; Pen up

G0 X61.140 Y191.667 F3000 ; Travel to line 215
G0 Z0.0 ; Pen down
G1 X82.980 Y184.387 F1000
G0 Z3.0 ; Pen up

G0 X82.287 Y185.080 F3000 ; Travel to line 216
G0 Z0.0 ; Pen down
G1 X62.180 Y191.667 F1000
G0 Z3.0 ; Pen up

G0 X63.220 Y191.667 F3000 ; Travel to line 217
G0 Z0.0 ; Pen down
G1 X80.900 Y186.120 F1000
G0 Z3.0 ; Pen up

G0 X80.207 Y186.467 F3000 ; Travel to line 218
G0 Z0.0 ; Pen down
G1 X63.913 Y191.667 F1000
G0 Z3.0 ; Pen up

G0 X65.993 Y191.320 F3000 ; Travel to line 219
G0 Z0.0 ; Pen down
G1 X79.167 Y187.160 F1000
G0 Z3.0 ; Pen up

G0 X77.087 Y188.200 F3000 ; Travel to line 220
G0 Z0.0 ; Pen down
G1 X66.687 Y191.320 F1000
G0 Z3.0 ; Pen up

G0 X68.767 Y190.973 F3000 ; Travel to line 221
G0 Z0.0 ; Pen down
G1 X74.660 Y189.240 F1000
G0 Z3.0 ; Pen up

G0 X90.953 Y176.067 F3000 ; Travel to line 222
G0 Z0.0 ; Pen down
G1 X54.207 Y190.973 F1000
G1 X54.207 Y190.973 F1000
G1 X90.953 Y175.720 F1000
G0 Z3.0 ; Pen up

G0 X96.500 Y154.573 F3000 ; Travel to line 223
G0 Z0.0 ; Pen down
G1 X44.500 Y187.160 F1000
G1 X44.500 Y187.160 F1000
G1 X96.500 Y154.227 F1000
G0 Z3.0 ; Pen up

G0 X113.833 Y154.573 F3000 ; Travel to line 224
G0 Z0.0 ; Pen down
G1 X169.647 Y122.333 F1000
G0 Z3.0 ; Pen up

G0 X168.260 Y122.333 F3000 ; Travel to line 225
G0 Z0.0 ; Pen down
G1 X113.833 Y153.533 F1000
G0 Z3.0 ; Pen up

G0 X113.833 Y152.493 F3000 ; Travel to line 226
G0 Z0.0 ; Pen down
G1 X166.527 Y122.333 F1000
G0 Z3.0 ; Pen up

G0 X164.793 Y122.333 F3000 ; Travel to line 227
G0 Z0.0 ; Pen down
G1 X113.833 Y151.800 F1000
G0 Z3.0 ; Pen up

G0 X113.833 Y150.413 F3000 ; Travel to line 228
G0 Z0.0 ; Pen down
G1 X162.713 Y122.333 F1000
G0 Z3.0 ; Pen up

G0 X160.980 Y122.333 F3000 ; Travel to line 229
G0 Z0.0 ; Pen down
G1 X113.833 Y149.373 F1000
G0 Z3.0 ; Pen up

G0 X113.833 Y148.680 F3000 ; Travel to line 230
G0 Z0.0 ; Pen down
G1 X159.247 Y122.333 F1000
G0 Z3.0 ; Pen up

G0 X157.513 Y122.333 F3000 ; Travel to line 231
G0 Z0.0 ; Pen down
G1 X113.833 Y147.640 F1000
G0 Z3.0 ; Pen up

G0 X113.833 Y146.600 F3000 ; Travel to line 232
G0 Z0.0 ; Pen down
G1 X156.127 Y122.333 F1000
G0 Z3.0 ; Pen up

G0 X154.393 Y122.333 F3000 ; Travel to line 233
G0 Z0.0 ; Pen down
G1 X113.833 Y145.560 F1000
G0 Z3.0 ; Pen up

G0 X113.833 Y144.520 F3000 ; Travel to line 234
G0 Z0.0 ; Pen down
G1 X152.313 Y122.333 F1000
G0 Z3.0 ; Pen up

G0 X150.580 Y122.333 F3000 ; Travel to line 235
G0 Z0.0 ; Pen down
G1 X113.833 Y143.480 F1000
G0 Z3.0 ; Pen up

G0 X113.833 Y142.440 F3000 ; Travel to line 236
G0 Z0.0 ; Pen down
G1 X148.847 Y122.333 F1000
G0 Z3.0 ; Pen up

G0 X147.460 Y122.333 F3000 ; Travel to line 237
G0 Z0.0 ; Pen down
G1 X113.833 Y141.747 F1000
G0 Z3.0 ; Pen up

G0 X113.833 Y140.707 F3000 ; Travel to line 238
G0 Z0.0 ; Pen down
G1 X145.727 Y122.333 F1000
G0 Z3.0 ; Pen up

G0 X143.993 Y122.333 F3000 ; Travel to line 239
G0 Z0.0 ; Pen down
G1 X113.833 Y139.667 F1000
G0 Z3.0 ; Pen up

G0 X113.833 Y138.280 F3000 ; Travel to line 240
G0 Z0.0 ; Pen down
G1 X141.913 Y122.333 F1000
G0 Z3.0 ; Pen up

G0 X140.180 Y122.333 F3000 ; Travel to line 241
G0 Z0.0 ; Pen down
G1 X113.833 Y137.587 F1000
G0 Z3.0 ; Pen up

G0 X113.833 Y136.547 F3000 ; Travel to line 242
G0 Z0.0 ; Pen down
G1 X138.447 Y122.333 F1000
G0 Z3.0 ; Pen up

G0 X136.713 Y122.333 F3000 ; Travel to line 243
G0 Z0.0 ; Pen down
G1 X113.833 Y135.507 F1000
G0 Z3.0 ; Pen up

G0 X113.833 Y134.467 F3000 ; Travel to line 244
G0 Z0.0 ; Pen down
G1 X135.327 Y122.333 F1000
G0 Z3.0 ; Pen up

G0 X133.593 Y122.333 F3000 ; Travel to line 245
G0 Z0.0 ; Pen down
G1 X113.833 Y133.773 F1000
G0 Z3.0 ; Pen up

G0 X113.833 Y132.387 F3000 ; Travel to line 246
G0 Z0.0 ; Pen down
G1 X131.513 Y122.333 F1000
G0 Z3.0 ; Pen up

G0 X129.780 Y122.333 F3000 ; Travel to line 247
G0 Z0.0 ; Pen down
G1 X113.833 Y131.347 F1000
G0 Z3.0 ; Pen up

G0 X113.833 Y130.653 F3000 ; Travel to line 248
G0 Z0.0 ; Pen down
G1 X128.047 Y122.333 F1000
G0 Z3.0 ; Pen up

G0 X126.660 Y122.333 F3000 ; Travel to line 249
G0 Z0.0 ; Pen down
G1 X113.833 Y129.613 F1000
G0 Z3.0 ; Pen up

G0 X113.833 Y128.573 F3000 ; Travel to line 250
G0 Z0.0 ; Pen down
G1 X124.927 Y122.333 F1000
G0 Z3.0 ; Pen up

G0 X123.193 Y122.333 F3000 ; Travel to line 251
G0 Z0.0 ; Pen down
G1 X113.833 Y127.533 F1000
G0 Z3.0 ; Pen up

G0 X113.833 Y126.493 F3000 ; Travel to line 252
G0 Z0.0 ; Pen down
G1 X121.113 Y122.333 F1000
G0 Z3.0 ; Pen up

G0 X119.380 Y122.333 F3000 ; Travel to line 253
G0 Z0.0 ; Pen down
G1 X113.833 Y125.453 F1000
G0 Z3.0 ; Pen up

G0 X113.833 Y124.413 F3000 ; Travel to line 254
G0 Z0.0 ; Pen down
G1 X117.647 Y122.333 F1000
G0 Z3.0 ; Pen up

G0 X115.913 Y122.333 F3000 ; Travel to line 255
G0 Z0.0 ; Pen down
G1 X113.833 Y123.373 F1000
G0 Z3.0 ; Pen up

G0 X113.833 Y122.680 F3000 ; Travel to line 256
G0 Z0.0 ; Pen down
G1 X114.527 Y122.333 F1000
G0 Z3.0 ; Pen up

G0 X115.220 Y105.000 F3000 ; Travel to line 257
G0 Z0.0 ; Pen down
G1 X183.167 Y65.827 F1000
G0 Z3.0 ; Pen up

G0 X183.167 Y66.867 F3000 ; Travel to line 258
G0 Z0.0 ; Pen down
G1 X116.607 Y105.000 F1000
G0 Z3.0 ; Pen up

G0 X119.033 Y105.000 F3000 ; Travel to line 259
G0 Z0.0 ; Pen down
G1 X183.167 Y67.907 F1000
G0 Z3.0 ; Pen up

G0 X183.167 Y68.947 F3000 ; Travel to line 260
G0 Z0.0 ; Pen down
G1 X120.420 Y105.000 F1000
G0 Z3.0 ; Pen up

G0 X122.153 Y105.000 F3000 ; Travel to line 261
G0 Z0.0 ; Pen down
G1 X183.167 Y69.987 F1000
G0 Z3.0 ; Pen up

G0 X183.167 Y71.027 F3000 ; Travel to line 262
G0 Z0.0 ; Pen down
G1 X123.887 Y105.000 F1000
G0 Z3.0 ; Pen up

G0 X125.620 Y105.000 F3000 ; Travel to line 263
G0 Z0.0 ; Pen down
G1 X183.167 Y71.720 F1000
G0 Z3.0 ; Pen up

G0 X183.167 Y72.760 F3000 ; Travel to line 264
G0 Z0.0 ; Pen down
G1 X127.007 Y105.000 F1000
G0 Z3.0 ; Pen up

G0 X129.433 Y105.000 F3000 ; Travel to line 265
G0 Z0.0 ; Pen down
G1 X183.167 Y74.147 F1000
G0 Z3.0 ; Pen up

G0 X183.167 Y74.840 F3000 ; Travel to line 266
G0 Z0.0 ; Pen down
G1 X131.167 Y105.000 F1000
G0 Z3.0 ; Pen up

G0 X132.553 Y105.000 F3000 ; Travel to line 267
G0 Z0.0 ; Pen down
G1 X183.167 Y75.880 F1000
G0 Z3.0 ; Pen up

G0 X183.167 Y76.920 F3000 ; Travel to line 268
G0 Z0.0 ; Pen down
G1 X134.287 Y105.000 F1000
G0 Z3.0 ; Pen up

G0 X136.020 Y105.000 F3000 ; Travel to line 269
G0 Z0.0 ; Pen down
G1 X183.167 Y77.613 F1000
G0 Z3.0 ; Pen up

G0 X183.167 Y78.653 F3000 ; Travel to line 270
G0 Z0.0 ; Pen down
G1 X137.753 Y105.000 F1000
G0 Z3.0 ; Pen up

G0 X139.833 Y105.000 F3000 ; Travel to line 271
G0 Z0.0 ; Pen down
G1 X183.167 Y80.040 F1000
G0 Z3.0 ; Pen up

G0 X183.167 Y81.080 F3000 ; Travel to line 272
G0 Z0.0 ; Pen down
G1 X141.220 Y105.000 F1000
G0 Z3.0 ; Pen up

G0 X142.953 Y105.000 F3000 ; Travel to line 273
G0 Z0.0 ; Pen down
G1 X183.167 Y81.773 F1000
G0 Z3.0 ; Pen up

G0 X183.167 Y82.813 F3000 ; Travel to line 274
G0 Z0.0 ; Pen down
G1 X144.687 Y105.000 F1000
G0 Z3.0 ; Pen up

G0 X146.420 Y105.000 F3000 ; Travel to line 275
G0 Z0.0 ; Pen down
G1 X183.167 Y83.853 F1000
G0 Z3.0 ; Pen up

G0 X183.167 Y84.547 F3000 ; Travel to line 276
G0 Z0.0 ; Pen down
G1 X147.807 Y105.000 F1000
G0 Z3.0 ; Pen up

G0 X150.233 Y105.000 F3000 ; Travel to line 277
G0 Z0.0 ; Pen down
G1 X183.167 Y85.933 F1000
G0 Z3.0 ; Pen up

G0 X183.167 Y86.973 F3000 ; Travel to line 278
G0 Z0.0 ; Pen down
G1 X151.967 Y105.000 F1000
G0 Z3.0 ; Pen up

G0 X153.353 Y105.000 F3000 ; Travel to line 279
G0 Z0.0 ; Pen down
G1 X183.167 Y88.013 F1000
G0 Z3.0 ; Pen up

G0 X183.167 Y88.707 F3000 ; Travel to line 280
G0 Z0.0 ; Pen down
G1 X155.087 Y105.000 F1000
G0 Z3.0 ; Pen up

G0 X156.820 Y105.000 F3000 ; Travel to line 281
G0 Z0.0 ; Pen down
G1 X183.167 Y89.747 F1000
G0 Z3.0 ; Pen up

G0 X183.167 Y90.787 F3000 ; Travel to line 282
G0 Z0.0 ; Pen down
G1 X158.553 Y105.000 F1000
G0 Z3.0 ; Pen up

G0 X160.633 Y105.000 F3000 ; Travel to line 283
G0 Z0.0 ; Pen down
G1 X183.167 Y92.173 F1000
G0 Z3.0 ; Pen up

G0 X183.167 Y92.867 F3000 ; Travel to line 284
G0 Z0.0 ; Pen down
G1 X162.020 Y105.000 F1000
G0 Z3.0 ; Pen up

G0 X163.753 Y105.000 F3000 ; Travel to line 285
G0 Z0.0 ; Pen down
G1 X183.167 Y93.907 F1000
G0 Z3.0 ; Pen up

G0 X183.167 Y94.947 F3000 ; Travel to line 286
G0 Z0.0 ; Pen down
G1 X165.487 Y105.000 F1000
G0 Z3.0 ; Pen up

G0 X167.220 Y105.000 F3000 ; Travel to line 287
G0 Z0.0 ; Pen down
G1 X183.167 Y95.640 F1000
G0 Z3.0 ; Pen up

G0 X183.167 Y96.680 F3000 ; Travel to line 288
G0 Z0.0 ; Pen down
G1 X168.607 Y105.000 F1000
G0 Z3.0 ; Pen up

G0 X171.033 Y105.000 F3000 ; Travel to line 289
G0 Z0.0 ; Pen down
G1 X183.167 Y98.067 F1000
G0 Z3.0 ; Pen up

G0 X183.167 Y99.107 F3000 ; Travel to line 290
G0 Z0.0 ; Pen down
G1 X172.767 Y105.000 F1000
G0 Z3.0 ; Pen up

G0 X174.153 Y105.000 F3000 ; Travel to line 291
G0 Z0.0 ; Pen down
G1 X183.167 Y99.800 F1000
G0 Z3.0 ; Pen up

G0 X183.167 Y100.840 F3000 ; Travel to line 292
G0 Z0.0 ; Pen down
G1 X175.887 Y105.000 F1000
G0 Z3.0 ; Pen up

G0 X177.620 Y105.000 F3000 ; Travel to line 293
G0 Z0.0 ; Pen down
G1 X183.167 Y101.880 F1000
G0 Z3.0 ; Pen up

G0 X183.167 Y102.920 F3000 ; Travel to line 294
G0 Z0.0 ; Pen down
G1 X179.353 Y105.000 F1000
G0 Z3.0 ; Pen up

G0 X181.433 Y105.000 F3000 ; Travel to line 295
G0 Z0.0 ; Pen down
G1 X183.167 Y103.960 F1000
G0 Z3.0 ; Pen up

G0 X183.167 Y105.000 F3000 ; Travel to line 296
G0 Z0.0 ; Pen down
G1 X182.820 Y105.000 F1000
G0 Z3.0 ; Pen up

G0 X183.167 Y122.333 F3000 ; Travel to line 297
G0 Z0.0 ; Pen down
G1 X113.833 Y162.547 F1000
G0 Z3.0 ; Pen up

G0 X113.833 Y163.240 F3000 ; Travel to line 298
G0 Z0.0 ; Pen down
G1 X183.167 Y123.373 F1000
G0 Z3.0 ; Pen up

G0 X183.167 Y124.760 F3000 ; Travel to line 299
G0 Z0.0 ; Pen down
G1 X113.833 Y164.627 F1000
G0 Z3.0 ; Pen up

G0 X113.833 Y165.667 F3000 ; Travel to line 300
G0 Z0.0 ; Pen down
G1 X183.167 Y125.800 F1000
G0 Z3.0 ; Pen up

G0 X183.167 Y126.493 F3000 ; Travel to line 301
G0 Z0.0 ; Pen down
G1 X113.833 Y166.360 F1000
G0 Z3.0 ; Pen up

G0 X113.833 Y167.400 F3000 ; Travel to line 302
G0 Z0.0 ; Pen down
G1 X183.167 Y127.533 F1000
G0 Z3.0 ; Pen up

G0 X183.167 Y128.227 F3000 ; Travel to line 303
G0 Z0.0 ; Pen down
G1 X113.833 Y168.440 F1000
G0 Z3.0 ; Pen up

G0 X113.833 Y169.480 F3000 ; Travel to line 304
G0 Z0.0 ; Pen down
G1 X183.167 Y129.267 F1000
G0 Z3.0 ; Pen up

G0 X183.167 Y130.653 F3000 ; Travel to line 305
G0 Z0.0 ; Pen down
G1 X113.833 Y170.520 F1000
G0 Z3.0 ; Pen up

G0 X113.833 Y171.560 F3000 ; Travel to line 306
G0 Z0.0 ; Pen down
G1 X183.167 Y131.693 F1000
G0 Z3.0 ; Pen up

G0 X183.167 Y132.387 F3000 ; Travel to line 307
G0 Z0.0 ; Pen down
G1 X113.833 Y172.600 F1000
G0 Z3.0 ; Pen up

G0 X113.833 Y173.640 F3000 ; Travel to line 308
G0 Z0.0 ; Pen down
G1 X183.167 Y133.427 F1000
G0 Z3.0 ; Pen up

G0 X183.167 Y134.467 F3000 ; Travel to line 309
G0 Z0.0 ; Pen down
G1 X113.833 Y174.333 F1000
G0 Z3.0 ; Pen up

G0 X113.833 Y175.373 F3000 ; Travel to line 310
G0 Z0.0 ; Pen down
G1 X183.167 Y135.160 F1000
G0 Z3.0 ; Pen up

G0 X183.167 Y136.547 F3000 ; Travel to line 311
G0 Z0.0 ; Pen down
G1 X113.833 Y176.413 F1000
G0 Z3.0 ; Pen up

G0 X113.833 Y176.760 F3000 ; Travel to line 312
G0 Z0.0 ; Pen down
G1 X183.167 Y137.240 F1000
G0 Z3.0 ; Pen up

G0 X183.167 Y137.933 F3000 ; Travel to line 313
G0 Z0.0 ; Pen down
G1 X113.833 Y177.453 F1000
G0 Z3.0 ; Pen up

G0 X113.833 Y177.800 F3000 ; Travel to line 314
G0 Z0.0 ; Pen down
G1 X183.167 Y138.627 F1000
G0 Z3.0 ; Pen up

G0 X183.167 Y139.320 F3000 ; Travel to line 315
G0 Z0.0 ; Pen down
G1 X113.833 Y178.147 F1000
G0 Z3.0 ; Pen up

G0 X113.833 Y178.840 F3000 ; Travel to line 316
G0 Z0.0 ; Pen down
G1 X183.167 Y140.360 F1000
G0 Z3.0 ; Pen up

G0 X183.167 Y141.053 F3000 ; Travel to line 317
G0 Z0.0 ; Pen down
G1 X113.833 Y179.187 F1000
G0 Z3.0 ; Pen up

G0 X113.833 Y179.533 F3000 ; Travel to line 318
G0 Z0.0 ; Pen down
G1 X183.167 Y141.747 F1000
G0 Z3.0 ; Pen up

G0 X183.167 Y142.440 F3000 ; Travel to line 319
G0 Z0.0 ; Pen down
G1 X113.833 Y180.227 F1000
G0 Z3.0 ; Pen up

G0 X113.833 Y180.573 F3000 ; Travel to line 320
G0 Z0.0 ; Pen down
G1 X183.167 Y143.133 F1000
G0 Z3.0 ; Pen up

G0 X183.167 Y143.827 F3000 ; Travel to line 321
G0 Z0.0 ; Pen down
G1 X113.833 Y180.920 F1000
G0 Z3.0 ; Pen up

G0 X113.833 Y181.267 F3000 ; Travel to line 322
G0 Z0.0 ; Pen down
G1 X183.167 Y144.520 F1000
G0 Z3.0 ; Pen up

G0 X183.167 Y145.560 F3000 ; Travel to line 323
G0 Z0.0 ; Pen down
G1 X113.833 Y181.960 F1000
G0 Z3.0 ; Pen up

G0 X113.833 Y182.307 F3000 ; Travel to line 324
G0 Z0.0 ; Pen down
G1 X183.167 Y146.253 F1000
G0 Z3.0 ; Pen up

G0 X183.167 Y146.947 F3000 ; Travel to line 325
G0 Z0.0 ; Pen down
G1 X113.833 Y182.653 F1000
G0 Z3.0 ; Pen up

G0 X113.833 Y183.000 F3000 ; Travel to line 326
G0 Z0.0 ; Pen down
G1 X183.167 Y147.640 F1000
G0 Z3.0 ; Pen up

G0 X183.167 Y148.333 F3000 ; Travel to line 327
G0 Z0.0 ; Pen down
G1 X113.833 Y183.693 F1000
G0 Z3.0 ; Pen up

G0 X113.833 Y184.040 F3000 ; Travel to line 328
G0 Z0.0 ; Pen down
G1 X183.167 Y149.027 F1000
G0 Z3.0 ; Pen up

G0 X183.167 Y149.720 F3000 ; Travel to line 329
G0 Z0.0 ; Pen down
G1 X113.833 Y184.387 F1000
G0 Z3.0 ; Pen up

G0 X113.833 Y184.733 F3000 ; Travel to line 330
G0 Z0.0 ; Pen down
G1 X183.167 Y150.413 F1000
G0 Z3.0 ; Pen up

G0 X183.167 Y151.107 F3000 ; Travel to line 331
G0 Z0.0 ; Pen down
G1 X113.833 Y185.427 F1000
G0 Z3.0 ; Pen up

G0 X113.833 Y185.773 F3000 ; Travel to line 332
G0 Z0.0 ; Pen down
G1 X183.167 Y151.800 F1000
G0 Z3.0 ; Pen up

G0 X183.167 Y152.493 F3000 ; Travel to line 333
G0 Z0.0 ; Pen down
G1 X113.833 Y186.120 F1000
G0 Z3.0 ; Pen up

G0 X113.833 Y186.467 F3000 ; Travel to line 334
G0 Z0.0 ; Pen down
G1 X183.167 Y153.187 F1000
G0 Z3.0 ; Pen up

G0 X183.167 Y153.880 F3000 ; Travel to line 335
G0 Z0.0 ; Pen down
G1 X113.833 Y187.160 F1000
G0 Z3.0 ; Pen up

G0 X113.833 Y187.507 F3000 ; Travel to line 336
G0 Z0.0 ; Pen down
G1 X183.167 Y154.573 F1000
G0 Z3.0 ; Pen up

G0 X183.167 Y155.267 F3000 ; Travel to line 337
G0 Z0.0 ; Pen down
G1 X113.833 Y187.853 F1000
G0 Z3.0 ; Pen up

G0 X113.833 Y188.200 F3000 ; Travel to line 338
G0 Z0.0 ; Pen down
G1 X183.167 Y155.960 F1000
G0 Z3.0 ; Pen up

G0 X183.167 Y156.307 F3000 ; Travel to line 339
G0 Z0.0 ; Pen down
G1 X113.833 Y188.547 F1000
G0 Z3.0 ; Pen up

G0 X113.833 Y188.893 F3000 ; Travel to line 340
G0 Z0.0 ; Pen down
G1 X183.167 Y157.000 F1000
G0 Z3.0 ; Pen up

G0 X183.167 Y158.040 F3000 ; Travel to line 341
G0 Z0.0 ; Pen down
G1 X113.833 Y189.240 F1000
G0 Z3.0 ; Pen up

G0 X113.833 Y189.587 F3000 ; Travel to line 342
G0 Z0.0 ; Pen down
G1 X183.167 Y158.387 F1000
G0 Z3.0 ; Pen up

G0 X183.167 Y159.080 F3000 ; Travel to line 343
G0 Z0.0 ; Pen down
G1 X113.833 Y189.933 F1000
G0 Z3.0 ; Pen up

G0 X113.833 Y190.280 F3000 ; Travel to line 344
G0 Z0.0 ; Pen down
G1 X183.167 Y159.773 F1000
G0 Z3.0 ; Pen up

G0 X183.167 Y160.467 F3000 ; Travel to line 345
G0 Z0.0 ; Pen down
G1 X113.833 Y190.627 F1000
G0 Z3.0 ; Pen up

G0 X113.833 Y190.973 F3000 ; Travel to line 346
G0 Z0.0 ; Pen down
G1 X183.167 Y161.160 F1000
G0 Z3.0 ; Pen up

G0 X183.167 Y161.853 F3000 ; Travel to line 347
G0 Z0.0 ; Pen down
G1 X113.833 Y191.667 F1000
G1 X113.833 Y191.667 F1000
G1 X183.167 Y162.547 F1000
G0 Z3.0 ; Pen up

G0 X183.167 Y162.893 F3000 ; Travel to line 348
G0 Z0.0 ; Pen down
G1 X114.873 Y191.667 F1000
G0 Z3.0 ; Pen up

G0 X115.567 Y191.667 F3000 ; Travel to line 349
G0 Z0.0 ; Pen down
G1 X183.167 Y163.587 F1000
G0 Z3.0 ; Pen up

G0 X183.167 Y164.280 F3000 ; Travel to line 350
G0 Z0.0 ; Pen down
G1 X116.260 Y191.667 F1000
G0 Z3.0 ; Pen up

G0 X117.300 Y191.667 F3000 ; Travel to line 351
G0 Z0.0 ; Pen down
G1 X183.167 Y164.973 F1000
G0 Z3.0 ; Pen up

G0 X183.167 Y165.667 F3000 ; Travel to line 352
G0 Z0.0 ; Pen down
G1 X118.340 Y191.667 F1000
G0 Z3.0 ; Pen up

G0 X119.033 Y191.667 F3000 ; Travel to line 353
G0 Z0.0 ; Pen down
G1 X183.167 Y166.013 F1000
G0 Z3.0 ; Pen up

G0 X183.167 Y166.707 F3000 ; Travel to line 354
G0 Z0.0 ; Pen down
G1 X120.073 Y191.667 F1000
G0 Z3.0 ; Pen up

G0 X120.767 Y191.667 F3000 ; Travel to line 355
G0 Z0.0 ; Pen down
G1 X183.167 Y167.400 F1000
G0 Z3.0 ; Pen up

G0 X183.167 Y168.093 F3000 ; Travel to line 356
G0 Z0.0 ; Pen down
G1 X121.460 Y191.667 F1000
G0 Z3.0 ; Pen up

G0 X122.500 Y191.667 F3000 ; Travel to line 357
G0 Z0.0 ; Pen down
G1 X183.167 Y168.440 F1000
G0 Z3.0 ; Pen up

G0 X183.167 Y169.133 F3000 ; Travel to line 358
G0 Z0.0 ; Pen down
G1 X123.540 Y191.667 F1000
G0 Z3.0 ; Pen up

G0 X124.580 Y191.667 F3000 ; Travel to line 359
G0 Z0.0 ; Pen down
G1 X183.167 Y169.827 F1000
G0 Z3.0 ; Pen up

G0 X183.167 Y170.520 F3000 ; Travel to line 360
G0 Z0.0 ; Pen down
G1 X125.273 Y191.667 F1000
G0 Z3.0 ; Pen up

G0 X126.313 Y191.667 F3000 ; Travel to line 361
G0 Z0.0 ; Pen down
G1 X183.167 Y170.867 F1000
G0 Z3.0 ; Pen up

G0 X183.167 Y171.560 F3000 ; Travel to line 362
G0 Z0.0 ; Pen down
G1 X127.353 Y191.667 F1000
G0 Z3.0 ; Pen up

G0 X128.393 Y191.667 F3000 ; Travel to line 363
G0 Z0.0 ; Pen down
G1 X183.167 Y171.907 F1000
G0 Z3.0 ; Pen up

G0 X183.167 Y172.947 F3000 ; Travel to line 364
G0 Z0.0 ; Pen down
G1 X129.433 Y191.667 F1000
G0 Z3.0 ; Pen up

G0 X130.127 Y191.667 F3000 ; Travel to line 365
G0 Z0.0 ; Pen down
G1 X183.167 Y173.293 F1000
G0 Z3.0 ; Pen up

G0 X183.167 Y173.987 F3000 ; Travel to line 366
G0 Z0.0 ; Pen down
G1 X131.513 Y191.667 F1000
G0 Z3.0 ; Pen up

G0 X132.207 Y191.667 F3000 ; Travel to line 367
G0 Z0.0 ; Pen down
G1 X183.167 Y174.333 F1000
G0 Z3.0 ; Pen up

G0 X183.167 Y175.027 F3000 ; Travel to line 368
G0 Z0.0 ; Pen down
G1 X133.247 Y191.667 F1000
G0 Z3.0 ; Pen up

G0 X134.287 Y191.667 F3000 ; Travel to line 369
G0 Z0.0 ; Pen down
G1 X183.167 Y175.373 F1000
G0 Z3.0 ; Pen up

G0 X183.167 Y176.067 F3000 ; Travel to line 370
G0 Z0.0 ; Pen down
G1 X135.673 Y191.667 F1000
G0 Z3.0 ; Pen up

G0 X136.713 Y191.667 F3000 ; Travel to line 371
G0 Z0.0 ; Pen down
G1 X183.167 Y176.760 F1000
G0 Z3.0 ; Pen up

G0 X183.167 Y177.107 F3000 ; Travel to line 372
G0 Z0.0 ; Pen down
G1 X137.753 Y191.667 F1000
G0 Z3.0 ; Pen up

G0 X138.793 Y191.667 F3000 ; Travel to line 373
G0 Z0.0 ; Pen down
G1 X183.167 Y177.800 F1000
G0 Z3.0 ; Pen up

G0 X183.167 Y178.147 F3000 ; Travel to line 374
G0 Z0.0 ; Pen down
G1 X139.833 Y191.667 F1000
G0 Z3.0 ; Pen up

G0 X141.220 Y191.667 F3000 ; Travel to line 375
G0 Z0.0 ; Pen down
G1 X183.167 Y178.840 F1000
G0 Z3.0 ; Pen up

G0 X183.167 Y179.533 F3000 ; Travel to line 376
G0 Z0.0 ; Pen down
G1 X142.607 Y191.667 F1000
G0 Z3.0 ; Pen up

G0 X143.647 Y191.667 F3000 ; Travel to line 377
G0 Z0.0 ; Pen down
G1 X183.167 Y179.880 F1000
G0 Z3.0 ; Pen up

G0 X183.167 Y180.573 F3000 ; Travel to line 378
G0 Z0.0 ; Pen down
G1 X144.687 Y191.667 F1000
G0 Z3.0 ; Pen up

G0 X146.073 Y191.667 F3000 ; Travel to line 379
G0 Z0.0 ; Pen down
G1 X183.167 Y180.920 F1000
G0 Z3.0 ; Pen up

G0 X183.167 Y181.267 F3000 ; Travel to line 380
G0 Z0.0 ; Pen down
G1 X147.113 Y191.667 F1000
G0 Z3.0 ; Pen up

G0 X148.153 Y191.667 F3000 ; Travel to line 381
G0 Z0.0 ; Pen down
G1 X183.167 Y181.960 F1000
G0 Z3.0 ; Pen up

G0 X183.167 Y182.653 F3000 ; Travel to line 382
G0 Z0.0 ; Pen down
G1 X150.233 Y191.667 F1000
G0 Z3.0 ; Pen up

G0 X151.273 Y191.667 F3000 ; Travel to line 383
G0 Z0.0 ; Pen down
G1 X183.167 Y183.000 F1000
G0 Z3.0 ; Pen up

G0 X183.167 Y183.347 F3000 ; Travel to line 384
G0 Z0.0 ; Pen down
G1 X152.660 Y191.667 F1000
G0 Z3.0 ; Pen up

G0 X154.047 Y191.667 F3000 ; Travel to line 385
G0 Z0.0 ; Pen down
G1 X183.167 Y184.040 F1000
G0 Z3.0 ; Pen up

G0 X183.167 Y184.387 F3000 ; Travel to line 386
G0 Z0.0 ; Pen down
G1 X155.433 Y191.667 F1000
G0 Z3.0 ; Pen up

G0 X156.820 Y191.667 F3000 ; Travel to line 387
G0 Z0.0 ; Pen down
G1 X183.167 Y185.080 F1000
G0 Z3.0 ; Pen up

G0 X183.167 Y185.427 F3000 ; Travel to line 388
G0 Z0.0 ; Pen down
G1 X158.553 Y191.667 F1000
G0 Z3.0 ; Pen up

G0 X159.940 Y191.667 F3000 ; Travel to line 389
G0 Z0.0 ; Pen down
G1 X183.167 Y186.120 F1000
G0 Z3.0 ; Pen up

G0 X183.167 Y186.467 F3000 ; Travel to line 390
G0 Z0.0 ; Pen down
G1 X161.673 Y191.667 F1000
G0 Z3.0 ; Pen up

G0 X163.060 Y191.667 F3000 ; Travel to line 391
G0 Z0.0 ; Pen down
G1 X183.167 Y186.813 F1000
G0 Z3.0 ; Pen up

G0 X183.167 Y187.507 F3000 ; Travel to line 392
G0 Z0.0 ; Pen down
G1 X164.793 Y191.667 F1000
G0 Z3.0 ; Pen up

G0 X166.180 Y191.667 F3000 ; Travel to line 393
G0 Z0.0 ; Pen down
G1 X183.167 Y187.853 F1000
G0 Z3.0 ; Pen up

G0 X183.167 Y188.200 F3000 ; Travel to line 394
G0 Z0.0 ; Pen down
G1 X167.913 Y191.667 F1000
G0 Z3.0 ; Pen up

G0 X170.340 Y191.667 F3000 ; Travel to line 395
G0 Z0.0 ; Pen down
G1 X183.167 Y188.893 F1000
G0 Z3.0 ; Pen up

G0 X183.167 Y189.240 F3000 ; Travel to line 396
G0 Z0.0 ; Pen down
G1 X171.727 Y191.667 F1000
G0 Z3.0 ; Pen up

G0 X173.460 Y191.667 F3000 ; Travel to line 397
G0 Z0.0 ; Pen down
G1 X183.167 Y189.587 F1000
G0 Z3.0 ; Pen up

G0 X183.167 Y190.280 F3000 ; Travel to line 398
G0 Z0.0 ; Pen down
G1 X175.540 Y191.667 F1000
G0 Z3.0 ; Pen up

G0 X177.620 Y191.667 F3000 ; Travel to line 399
G0 Z0.0 ; Pen down
G1 X183.167 Y190.627 F1000
G0 Z3.0 ; Pen up

G0 X183.167 Y190.973 F3000 ; Travel to line 400
G0 Z0.0 ; Pen down
G1 X179.353 Y191.667 F1000
G0 Z3.0 ; Pen up

G0 X182.127 Y191.667 F3000 ; Travel to line 401
G0 Z0.0 ; Pen down
G1 X183.167 Y191.667 F1000
G0 Z3.0 ; Pen up

G0 X236.553 Y172.600 F3000 ; Travel to line 402
G0 Z0.0 ; Pen down
G1 X255.620 Y160.120 F1000
G0 Z3.0 ; Pen up

G0 X255.967 Y159.427 F3000 ; Travel to line 403
G0 Z0.0 ; Pen down
G1 X236.553 Y171.907 F1000
G0 Z3.0 ; Pen up

G0 X236.553 Y171.560 F3000 ; Travel to line 404
G0 Z0.0 ; Pen down
G1 X256.313 Y158.733 F1000
G0 Z3.0 ; Pen up

G0 X256.660 Y157.693 F3000 ; Travel to line 405
G0 Z0.0 ; Pen down
G1 X236.207 Y171.213 F1000
G0 Z3.0 ; Pen up

G0 X236.207 Y170.867 F3000 ; Travel to line 406
G0 Z0.0 ; Pen down
G1 X256.660 Y157.347 F1000
G0 Z3.0 ; Pen up

G0 X257.007 Y156.307 F3000 ; Travel to line 407
G0 Z0.0 ; Pen down
G1 X235.860 Y170.520 F1000
G0 Z3.0 ; Pen up

G0 X235.860 Y169.827 F3000 ; Travel to line 408
G0 Z0.0 ; Pen down
G1 X257.353 Y155.267 F1000
G0 Z3.0 ; Pen up

G0 X257.700 Y154.573 F3000 ; Travel to line 409
G0 Z0.0 ; Pen down
G1 X235.513 Y169.480 F1000
G0 Z3.0 ; Pen up

G0 X235.513 Y169.133 F3000 ; Travel to line 410
G0 Z0.0 ; Pen down
G1 X258.047 Y153.533 F1000
G0 Z3.0 ; Pen up

G0 X258.393 Y152.840 F3000 ; Travel to line 411
G0 Z0.0 ; Pen down
G1 X235.167 Y168.787 F1000
G0 Z3.0 ; Pen up

G0 X235.167 Y168.093 F3000 ; Travel to line 412
G0 Z0.0 ; Pen down
G1 X258.740 Y152.147 F1000
G0 Z3.0 ; Pen up

G0 X259.087 Y151.107 F3000 ; Travel to line 413
G0 Z0.0 ; Pen down
G1 X235.167 Y167.747 F1000
G0 Z3.0 ; Pen up

G0 X234.820 Y167.053 F3000 ; Travel to line 414
G0 Z0.0 ; Pen down
G1 X259.433 Y150.067 F1000
G0 Z3.0 ; Pen up

G0 X259.780 Y149.373 F3000 ; Travel to line 415
G0 Z0.0 ; Pen down
G1 X234.473 Y167.053 F1000
G0 Z3.0 ; Pen up

G0 X234.473 Y166.360 F3000 ; Travel to line 416
G0 Z0.0 ; Pen down
G1 X260.127 Y148.333 F1000
G0 Z3.0 ; Pen up

G0 X260.473 Y147.640 F3000 ; Travel to line 417
G0 Z0.0 ; Pen down
G1 X234.473 Y166.013 F1000
G0 Z3.0 ; Pen up

G0 X234.127 Y165.667 F3000 ; Travel to line 418
G0 Z0.0 ; Pen down
G1 X260.820 Y146.600 F1000
G0 Z3.0 ; Pen up

G0 X260.820 Y146.253 F3000 ; Travel to line 419
G0 Z0.0 ; Pen down
G1 X234.127 Y165.320 F1000
G0 Z3.0 ; Pen up

G0 X233.780 Y164.627 F3000 ; Travel to line 420
G0 Z0.0 ; Pen down
G1 X261.513 Y144.867 F1000
G0 Z3.0 ; Pen up

G0 X261.860 Y143.827 F3000 ; Travel to line 421
G0 Z0.0 ; Pen down
G1 X233.780 Y164.280 F1000
G0 Z3.0 ; Pen up

G0 X233.433 Y163.933 F3000 ; Travel to line 422
G0 Z0.0 ; Pen down
G1 X261.860 Y143.133 F1000
G0 Z3.0 ; Pen up

G0 X262.553 Y142.093 F3000 ; Travel to line 423
G0 Z0.0 ; Pen down
G1 X233.433 Y163.587 F1000
G0 Z3.0 ; Pen up

G0 X233.087 Y163.240 F3000 ; Travel to line 424
G0 Z0.0 ; Pen down
G1 X262.553 Y141.400 F1000
G0 Z3.0 ; Pen up

G0 X262.900 Y140.707 F3000 ; Travel to line 425
G0 Z0.0 ; Pen down
G1 X233.087 Y162.547 F1000
G0 Z3.0 ; Pen up

G0 X232.740 Y162.200 F3000 ; Travel to line 426
G0 Z0.0 ; Pen down
G1 X263.247 Y139.667 F1000
G0 Z3.0 ; Pen up

G0 X263.940 Y138.280 F3000 ; Travel to line 427
G0 Z0.0 ; Pen down
G1 X232.740 Y161.507 F1000
G0 Z3.0 ; Pen up

G0 X232.393 Y161.507 F3000 ; Travel to line 428
G0 Z0.0 ; Pen down
G1 X263.940 Y137.933 F1000
G0 Z3.0 ; Pen up

G0 X264.633 Y136.547 F3000 ; Travel to line 429
G0 Z0.0 ; Pen down
G1 X232.393 Y160.813 F1000
G0 Z3.0 ; Pen up

G0 X232.047 Y160.467 F3000 ; Travel to line 430
G0 Z0.0 ; Pen down
G1 X264.633 Y135.853 F1000
G0 Z3.0 ; Pen up

G0 X264.980 Y135.160 F3000 ; Travel to line 431
G0 Z0.0 ; Pen down
G1 X232.047 Y160.120 F1000
G0 Z3.0 ; Pen up

G0 X232.047 Y159.427 F3000 ; Travel to line 432
G0 Z0.0 ; Pen down
G1 X265.327 Y134.120 F1000
G0 Z3.0 ; Pen up

G0 X266.020 Y132.733 F3000 ; Travel to line 433
G0 Z0.0 ; Pen down
G1 X231.700 Y159.080 F1000
G0 Z3.0 ; Pen up

G0 X231.353 Y158.733 F3000 ; Travel to line 434
G0 Z0.0 ; Pen down
G1 X266.367 Y131.693 F1000
G0 Z3.0 ; Pen up

G0 X266.713 Y131.000 F3000 ; Travel to line 435
G0 Z0.0 ; Pen down
G1 X231.353 Y158.387 F1000
G0 Z3.0 ; Pen up

G0 X231.353 Y157.693 F3000 ; Travel to line 436
G0 Z0.0 ; Pen down
G1 X267.060 Y129.960 F1000
G0 Z3.0 ; Pen up

G0 X267.407 Y128.920 F3000 ; Travel to line 437
G0 Z0.0 ; Pen down
G1 X231.007 Y157.000 F1000
G0 Z3.0 ; Pen up

G0 X230.660 Y156.307 F3000 ; Travel to line 438
G0 Z0.0 ; Pen down
G1 X267.753 Y127.880 F1000
G0 Z3.0 ; Pen up

G0 X268.100 Y126.493 F3000 ; Travel to line 439
G0 Z0.0 ; Pen down
G1 X230.313 Y155.613 F1000
G0 Z3.0 ; Pen up

G0 X229.967 Y154.920 F3000 ; Travel to line 440
G0 Z0.0 ; Pen down
G1 X268.793 Y125.453 F1000
G0 Z3.0 ; Pen up

G0 X269.140 Y124.413 F3000 ; Travel to line 441
G0 Z0.0 ; Pen down
G1 X229.967 Y154.227 F1000
G0 Z3.0 ; Pen up

G0 X229.620 Y153.533 F3000 ; Travel to line 442
G0 Z0.0 ; Pen down
G1 X269.487 Y123.373 F1000
G0 Z3.0 ; Pen up

G0 X269.833 Y122.333 F3000 ; Travel to line 443
G0 Z0.0 ; Pen down
G1 X229.273 Y152.840 F1000
G0 Z3.0 ; Pen up

G0 X229.273 Y152.147 F3000 ; Travel to line 444
G0 Z0.0 ; Pen down
G1 X268.793 Y122.333 F1000
G0 Z3.0 ; Pen up

G0 X267.407 Y122.333 F3000 ; Travel to line 445
G0 Z0.0 ; Pen down
G1 X228.927 Y151.107 F1000
G0 Z3.0 ; Pen up

G0 X228.580 Y150.413 F3000 ; Travel to line 446
G0 Z0.0 ; Pen down
G1 X266.367 Y122.333 F1000
G0 Z3.0 ; Pen up

G0 X265.327 Y122.333 F3000 ; Travel to line 447
G0 Z0.0 ; Pen down
G1 X228.233 Y150.067 F1000
G0 Z3.0 ; Pen up

G0 X227.887 Y149.373 F3000 ; Travel to line 448
G0 Z0.0 ; Pen down
G1 X264.633 Y122.333 F1000
G0 Z3.0 ; Pen up

G0 X263.593 Y122.333 F3000 ; Travel to line 449
G0 Z0.0 ; Pen down
G1 X227.887 Y148.680 F1000
G0 Z3.0 ; Pen up

G0 X227.540 Y147.987 F3000 ; Travel to line 450
G0 Z0.0 ; Pen down
G1 X262.553 Y122.333 F1000
G0 Z3.0 ; Pen up

G0 X260.820 Y122.333 F3000 ; Travel to line 451
G0 Z0.0 ; Pen down
G1 X227.193 Y146.947 F1000
G0 Z3.0 ; Pen up

G0 X226.847 Y146.600 F3000 ; Travel to line 452
G0 Z0.0 ; Pen down
G1 X259.780 Y122.333 F1000
G0 Z3.0 ; Pen up

G0 X258.740 Y122.333 F3000 ; Travel to line 453
G0 Z0.0 ; Pen down
G1 X226.847 Y145.560 F1000
G0 Z3.0 ; Pen up

G0 X226.500 Y144.867 F3000 ; Travel to line 454
G0 Z0.0 ; Pen down
G1 X257.700 Y122.333 F1000
G0 Z3.0 ; Pen up

G0 X256.660 Y122.333 F3000 ; Travel to line 455
G0 Z0.0 ; Pen down
G1 X226.153 Y144.520 F1000
G0 Z3.0 ; Pen up

G0 X225.807 Y143.827 F3000 ; Travel to line 456
G0 Z0.0 ; Pen down
G1 X255.620 Y122.333 F1000
G0 Z3.0 ; Pen up

G0 X254.233 Y122.333 F3000 ; Travel to line 457
G0 Z0.0 ; Pen down
G1 X225.807 Y142.787 F1000
G0 Z3.0 ; Pen up

G0 X225.460 Y142.093 F3000 ; Travel to line 458
G0 Z0.0 ; Pen down
G1 X253.193 Y122.333 F1000
G0 Z3.0 ; Pen up

G0 X252.153 Y122.333 F3000 ; Travel to line 459
G0 Z0.0 ; Pen down
G1 X225.113 Y141.400 F1000
G0 Z3.0 ; Pen up

G0 X224.767 Y141.053 F3000 ; Travel to line 460
G0 Z0.0 ; Pen down
G1 X250.767 Y122.333 F1000
G0 Z3.0 ; Pen up

G0 X249.727 Y122.333 F3000 ; Travel to line 461
G0 Z0.0 ; Pen down
G1 X224.767 Y140.013 F1000
G0 Z3.0 ; Pen up

G0 X224.420 Y139.320 F3000 ; Travel to line 462
G0 Z0.0 ; Pen down
G1 X248.687 Y122.333 F1000
G0 Z3.0 ; Pen up

G0 X246.953 Y122.333 F3000 ; Travel to line 463
G0 Z0.0 ; Pen down
G1 X224.073 Y138.627 F1000
G0 Z3.0 ; Pen up

G0 X223.727 Y137.933 F3000 ; Travel to line 464
G0 Z0.0 ; Pen down
G1 X245.913 Y122.333 F1000
G0 Z3.0 ; Pen up

G0 X244.873 Y122.333 F3000 ; Travel to line 465
G0 Z0.0 ; Pen down
G1 X223.380 Y137.240 F1000
G0 Z3.0 ; Pen up

G0 X223.380 Y136.547 F3000 ; Travel to line 466
G0 Z0.0 ; Pen down
G1 X243.833 Y122.333 F1000
G0 Z3.0 ; Pen up

G0 X242.447 Y122.333 F3000 ; Travel to line 467
G0 Z0.0 ; Pen down
G1 X223.033 Y135.853 F1000
G0 Z3.0 ; Pen up

G0 X222.687 Y135.507 F3000 ; Travel to line 468
G0 Z0.0 ; Pen down
G1 X241.407 Y122.333 F1000
G0 Z3.0 ; Pen up

G0 X240.020 Y122.333 F3000 ; Travel to line 469
G0 Z0.0 ; Pen down
G1 X222.340 Y134.467 F1000
G0 Z3.0 ; Pen up

G0 X221.993 Y133.773 F3000 ; Travel to line 470
G0 Z0.0 ; Pen down
G1 X238.633 Y122.333 F1000
G0 Z3.0 ; Pen up

G0 X237.593 Y122.333 F3000 ; Travel to line 471
G0 Z0.0 ; Pen down
G1 X221.993 Y133.080 F1000
G0 Z3.0 ; Pen up

G0 X221.647 Y132.387 F3000 ; Travel to line 472
G0 Z0.0 ; Pen down
G1 X236.207 Y122.333 F1000
G0 Z3.0 ; Pen up

G0 X235.167 Y122.333 F3000 ; Travel to line 473
G0 Z0.0 ; Pen down
G1 X221.300 Y131.693 F1000
G0 Z3.0 ; Pen up

G0 X220.953 Y131.000 F3000 ; Travel to line 474
G0 Z0.0 ; Pen down
G1 X233.780 Y122.333 F1000
G0 Z3.0 ; Pen up

G0 X232.393 Y122.333 F3000 ; Travel to line 475
G0 Z0.0 ; Pen down
G1 X220.953 Y129.960 F1000
G0 Z3.0 ; Pen up

G0 X220.607 Y129.267 F3000 ; Travel to line 476
G0 Z0.0 ; Pen down
G1 X231.007 Y122.333 F1000
G0 Z3.0 ; Pen up

G0 X229.967 Y122.333 F3000 ; Travel to line 477
G0 Z0.0 ; Pen down
G1 X220.260 Y128.920 F1000
G0 Z3.0 ; Pen up

G0 X219.913 Y128.227 F3000 ; Travel to line 478
G0 Z0.0 ; Pen down
G1 X228.580 Y122.333 F1000
G0 Z3.0 ; Pen up

G0 X227.540 Y122.333 F3000 ; Travel to line 479
G0 Z0.0 ; Pen down
G1 X219.913 Y127.187 F1000
G0 Z3.0 ; Pen up

G0 X219.567 Y126.840 F3000 ; Travel to line 480
G0 Z0.0 ; Pen down
G1 X226.153 Y122.333 F1000
G0 Z3.0 ; Pen up

G0 X224.420 Y122.333 F3000 ; Travel to line 481
G0 Z0.0 ; Pen down
G1 X219.220 Y125.800 F1000
G0 Z3.0 ; Pen up

G0 X218.873 Y125.107 F3000 ; Travel to line 482
G0 Z0.0 ; Pen down
G1 X223.380 Y122.333 F1000
G0 Z3.0 ; Pen up

G0 X221.993 Y122.333 F3000 ; Travel to line 483
G0 Z0.0 ; Pen down
G1 X218.873 Y124.413 F1000
G0 Z3.0 ; Pen up

G0 X218.527 Y123.720 F3000 ; Travel to line 484
G0 Z0.0 ; Pen down
G1 X220.953 Y122.333 F1000
G0 Z3.0 ; Pen up

G0 X219.567 Y122.333 F3000 ; Travel to line 485
G0 Z0.0 ; Pen down
G1 X218.180 Y123.373 F1000
G0 Z3.0 ; Pen up

G0 X217.833 Y122.680 F3000 ; Travel to line 486
G0 Z0.0 ; Pen down
G1 X218.180 Y122.333 F1000
G0 Z3.0 ; Pen up

G0 X181.780 Y122.333 F3000 ; Travel to line 487
G0 Z0.0 ; Pen down
G1 X113.833 Y161.507 F1000
G0 Z3.0 ; Pen up

G0 X113.833 Y160.467 F3000 ; Travel to line 488
G0 Z0.0 ; Pen down
G1 X180.047 Y122.333 F1000
G0 Z3.0 ; Pen up

G0 X178.313 Y122.333 F3000 ; Travel to line 489
G0 Z0.0 ; Pen down
G1 X113.833 Y159.427 F1000
G0 Z3.0 ; Pen up

G0 X113.833 Y158.733 F3000 ; Travel to line 490
G0 Z0.0 ; Pen down
G1 X176.927 Y122.333 F1000
G0 Z3.0 ; Pen up

G0 X174.847 Y122.333 F3000 ; Travel to line 491
G0 Z0.0 ; Pen down
G1 X113.833 Y157.347 F1000
G0 Z3.0 ; Pen up

G0 X113.833 Y156.307 F3000 ; Travel to line 492
G0 Z0.0 ; Pen down
G1 X173.113 Y122.333 F1000
G0 Z3.0 ; Pen up

G0 X171.380 Y122.333 F3000 ; Travel to line 493
G0 Z0.0 ; Pen down
G1 X113.833 Y155.267 F1000
G0 Z3.0 ; Pen up

G0 X113.833 Y104.653 F3000 ; Travel to line 494
G0 Z0.0 ; Pen down
G1 X183.167 Y64.787 F1000
G0 Z3.0 ; Pen up

G0 X183.167 Y63.747 F3000 ; Travel to line 495
G0 Z0.0 ; Pen down
G1 X113.833 Y103.960 F1000
G0 Z3.0 ; Pen up

G0 X113.833 Y102.920 F3000 ; Travel to line 496
G0 Z0.0 ; Pen down
G1 X183.167 Y63.053 F1000
G0 Z3.0 ; Pen up

G0 X183.167 Y62.013 F3000 ; Travel to line 497
G0 Z0.0 ; Pen down
G1 X113.833 Y101.880 F1000
G0 Z3.0 ; Pen up

G0 X113.833 Y100.493 F3000 ; Travel to line 498
G0 Z0.0 ; Pen down
G1 X183.167 Y60.627 F1000
G0 Z3.0 ; Pen up

G0 X183.167 Y59.933 F3000 ; Travel to line 499
G0 Z0.0 ; Pen down
G1 X113.833 Y99.800 F1000
G0 Z3.0 ; Pen up

G0 X113.833 Y98.760 F3000 ; Travel to line 500
G0 Z0.0 ; Pen down
G1 X183.167 Y58.893 F1000
G0 Z3.0 ; Pen up

G0 X183.167 Y57.853 F3000 ; Travel to line 501
G0 Z0.0 ; Pen down
G1 X113.833 Y98.067 F1000
G0 Z3.0 ; Pen up

G0 X113.833 Y97.027 F3000 ; Travel to line 502
G0 Z0.0 ; Pen down
G1 X183.167 Y56.813 F1000
G0 Z3.0 ; Pen up

G0 X183.167 Y56.120 F3000 ; Travel to line 503
G0 Z0.0 ; Pen down
G1 X113.833 Y95.987 F1000
G0 Z3.0 ; Pen up

G0 X113.833 Y94.600 F3000 ; Travel to line 504
G0 Z0.0 ; Pen down
G1 X183.167 Y54.733 F1000
G0 Z3.0 ; Pen up

G0 X183.167 Y53.693 F3000 ; Travel to line 505
G0 Z0.0 ; Pen down
G1 X113.833 Y93.907 F1000
G0 Z3.0 ; Pen up

G0 X113.833 Y92.867 F3000 ; Travel to line 506
G0 Z0.0 ; Pen down
G1 X183.167 Y52.653 F1000
G0 Z3.0 ; Pen up

G0 X183.167 Y51.960 F3000 ; Travel to line 507
G0 Z0.0 ; Pen down
G1 X113.833 Y91.827 F1000
G0 Z3.0 ; Pen up

G0 X113.833 Y91.133 F3000 ; Travel to line 508
G0 Z0.0 ; Pen down
G1 X183.167 Y50.920 F1000
G0 Z3.0 ; Pen up

G0 X183.167 Y49.880 F3000 ; Travel to line 509
G0 Z0.0 ; Pen down
G1 X113.833 Y90.093 F1000
G0 Z3.0 ; Pen up

G0 X113.833 Y88.707 F3000 ; Travel to line 510
G0 Z0.0 ; Pen down
G1 X183.167 Y48.493 F1000
G0 Z3.0 ; Pen up

G0 X183.167 Y47.800 F3000 ; Travel to line 511
G0 Z0.0 ; Pen down
G1 X113.833 Y87.667 F1000
G0 Z3.0 ; Pen up

G0 X113.833 Y86.973 F3000 ; Travel to line 512
G0 Z0.0 ; Pen down
G1 X183.167 Y46.760 F1000
G0 Z3.0 ; Pen up

G0 X183.167 Y45.720 F3000 ; Travel to line 513
G0 Z0.0 ; Pen down
G1 X113.833 Y85.933 F1000
G0 Z3.0 ; Pen up

G0 X113.833 Y84.893 F3000 ; Travel to line 514
G0 Z0.0 ; Pen down
G1 X183.167 Y45.027 F1000
G0 Z3.0 ; Pen up

G0 X183.167 Y43.987 F3000 ; Travel to line 515
G0 Z0.0 ; Pen down
G1 X113.833 Y83.853 F1000
G0 Z3.0 ; Pen up

G0 X113.833 Y82.813 F3000 ; Travel to line 516
G0 Z0.0 ; Pen down
G1 X183.167 Y42.600 F1000
G0 Z3.0 ; Pen up

G0 X183.167 Y41.560 F3000 ; Travel to line 517
G0 Z0.0 ; Pen down
G1 X113.833 Y81.773 F1000
G0 Z3.0 ; Pen up

G0 X113.833 Y80.733 F3000 ; Travel to line 518
G0 Z0.0 ; Pen down
G1 X183.167 Y40.867 F1000
G0 Z3.0 ; Pen up

G0 X183.167 Y39.827 F3000 ; Travel to line 519
G0 Z0.0 ; Pen down
G1 X113.833 Y79.693 F1000
G0 Z3.0 ; Pen up

G0 X113.833 Y79.000 F3000 ; Travel to line 520
G0 Z0.0 ; Pen down
G1 X183.167 Y39.133 F1000
G0 Z3.0 ; Pen up

G0 X183.167 Y38.093 F3000 ; Travel to line 521
G0 Z0.0 ; Pen down
G1 X113.833 Y77.960 F1000
G0 Z3.0 ; Pen up

G0 X113.833 Y76.573 F3000 ; Travel to line 522
G0 Z0.0 ; Pen down
G1 X183.167 Y36.707 F1000
G0 Z3.0 ; Pen up

G0 X183.167 Y35.667 F3000 ; Travel to line 523
G0 Z0.0 ; Pen down
G1 X113.833 Y75.880 F1000
G0 Z3.0 ; Pen up

G0 X113.833 Y74.840 F3000 ; Travel to line 524
G0 Z0.0 ; Pen down
G1 X181.780 Y35.667 F1000
G0 Z3.0 ; Pen up

G0 X180.047 Y35.667 F3000 ; Travel to line 525
G0 Z0.0 ; Pen down
G1 X113.833 Y73.800 F1000
G0 Z3.0 ; Pen up

G0 X113.833 Y72.760 F3000 ; Travel to line 526
G0 Z0.0 ; Pen down
G1 X178.313 Y35.667 F1000
G0 Z3.0 ; Pen up

G0 X176.927 Y35.667 F3000 ; Travel to line 527
G0 Z0.0 ; Pen down
G1 X113.833 Y72.067 F1000
G0 Z3.0 ; Pen up

G0 X113.833 Y70.680 F3000 ; Travel to line 528
G0 Z0.0 ; Pen down
G1 X174.847 Y35.667 F1000
G0 Z3.0 ; Pen up

G0 X173.113 Y35.667 F3000 ; Travel to line 529
G0 Z0.0 ; Pen down
G1 X113.833 Y69.640 F1000
G0 Z3.0 ; Pen up

G0 X113.833 Y68.600 F3000 ; Travel to line 530
G0 Z0.0 ; Pen down
G1 X171.380 Y35.667 F1000
G0 Z3.0 ; Pen up

G0 X170.687 Y35.667 F3000 ; Travel to line 531
G0 Z0.0 ; Pen down
G1 X113.833 Y68.253 F1000
G0 Z3.0 ; Pen up

G0 X113.833 Y67.560 F3000 ; Travel to line 532
G0 Z0.0 ; Pen down
G1 X169.647 Y35.667 F1000
G0 Z3.0 ; Pen up

G0 X168.953 Y35.667 F3000 ; Travel to line 533
G0 Z0.0 ; Pen down
G1 X113.833 Y66.867 F1000
G0 Z3.0 ; Pen up

G0 X113.833 Y65.827 F3000 ; Travel to line 534
G0 Z0.0 ; Pen down
G1 X167.913 Y35.667 F1000
G0 Z3.0 ; Pen up

G0 X166.873 Y35.667 F3000 ; Travel to line 535
G0 Z0.0 ; Pen down
G1 X113.833 Y65.133 F1000
G0 Z3.0 ; Pen up

G0 X113.833 Y64.440 F3000 ; Travel to line 536
G0 Z0.0 ; Pen down
G1 X166.180 Y35.667 F1000
G0 Z3.0 ; Pen up

G0 X165.140 Y35.667 F3000 ; Travel to line 537
G0 Z0.0 ; Pen down
G1 X113.833 Y63.747 F1000
G0 Z3.0 ; Pen up

G0 X113.833 Y63.053 F3000 ; Travel to line 538
G0 Z0.0 ; Pen down
G1 X164.447 Y35.667 F1000
G0 Z3.0 ; Pen up

G0 X163.407 Y35.667 F3000 ; Travel to line 539
G0 Z0.0 ; Pen down
G1 X113.833 Y62.360 F1000
G0 Z3.0 ; Pen up

G0 X113.833 Y62.013 F3000 ; Travel to line 540
G0 Z0.0 ; Pen down
G1 X162.713 Y35.667 F1000
G0 Z3.0 ; Pen up

G0 X161.327 Y35.667 F3000 ; Travel to line 541
G0 Z0.0 ; Pen down
G1 X113.833 Y60.973 F1000
G0 Z3.0 ; Pen up

G0 X113.833 Y60.280 F3000 ; Travel to line 542
G0 Z0.0 ; Pen down
G1 X160.633 Y35.667 F1000
G0 Z3.0 ; Pen up

G0 X159.593 Y35.667 F3000 ; Travel to line 543
G0 Z0.0 ; Pen down
G1 X113.833 Y59.587 F1000
G0 Z3.0 ; Pen up

G0 X113.833 Y58.893 F3000 ; Travel to line 544
G0 Z0.0 ; Pen down
G1 X158.900 Y35.667 F1000
G0 Z3.0 ; Pen up

G0 X157.860 Y35.667 F3000 ; Travel to line 545
G0 Z0.0 ; Pen down
G1 X113.833 Y58.200 F1000
G0 Z3.0 ; Pen up

G0 X113.833 Y57.507 F3000 ; Travel to line 546
G0 Z0.0 ; Pen down
G1 X156.820 Y35.667 F1000
G0 Z3.0 ; Pen up

G0 X155.780 Y35.667 F3000 ; Travel to line 547
G0 Z0.0 ; Pen down
G1 X113.833 Y56.813 F1000
G0 Z3.0 ; Pen up

G0 X113.833 Y56.120 F3000 ; Travel to line 548
G0 Z0.0 ; Pen down
G1 X155.087 Y35.667 F1000
G0 Z3.0 ; Pen up

G0 X154.047 Y35.667 F3000 ; Travel to line 549
G0 Z0.0 ; Pen down
G1 X113.833 Y55.773 F1000
G0 Z3.0 ; Pen up

G0 X113.833 Y55.080 F3000 ; Travel to line 550
G0 Z0.0 ; Pen down
G1 X153.007 Y35.667 F1000
G0 Z3.0 ; Pen up

G0 X151.967 Y35.667 F3000 ; Travel to line 551
G0 Z0.0 ; Pen down
G1 X113.833 Y54.387 F1000
G0 Z3.0 ; Pen up

G0 X113.833 Y53.693 F3000 ; Travel to line 552
G0 Z0.0 ; Pen down
G1 X151.273 Y35.667 F1000
G0 Z3.0 ; Pen up

G0 X149.887 Y35.667 F3000 ; Travel to line 553
G0 Z0.0 ; Pen down
G1 X113.833 Y53.000 F1000
G0 Z3.0 ; Pen up

G0 X113.833 Y52.307 F3000 ; Travel to line 554
G0 Z0.0 ; Pen down
G1 X148.847 Y35.667 F1000
G0 Z3.0 ; Pen up

G0 X147.807 Y35.667 F3000 ; Travel to line 555
G0 Z0.0 ; Pen down
G1 X113.833 Y51.613 F1000
G0 Z3.0 ; Pen up

G0 X113.833 Y51.267 F3000 ; Travel to line 556
G0 Z0.0 ; Pen down
G1 X146.767 Y35.667 F1000
G0 Z3.0 ; Pen up

G0 X145.727 Y35.667 F3000 ; Travel to line 557
G0 Z0.0 ; Pen down
G1 X113.833 Y50.573 F1000
G0 Z3.0 ; Pen up

G0 X113.833 Y49.880 F3000 ; Travel to line 558
G0 Z0.0 ; Pen down
G1 X144.687 Y35.667 F1000
G0 Z3.0 ; Pen up

G0 X143.300 Y35.667 F3000 ; Travel to line 559
G0 Z0.0 ; Pen down
G1 X113.833 Y49.187 F1000
G0 Z3.0 ; Pen up

G0 X113.833 Y48.493 F3000 ; Travel to line 560
G0 Z0.0 ; Pen down
G1 X142.260 Y35.667 F1000
G0 Z3.0 ; Pen up

G0 X141.220 Y35.667 F3000 ; Travel to line 561
G0 Z0.0 ; Pen down
G1 X113.833 Y47.800 F1000
G0 Z3.0 ; Pen up

G0 X113.833 Y47.107 F3000 ; Travel to line 562
G0 Z0.0 ; Pen down
G1 X140.180 Y35.667 F1000
G0 Z3.0 ; Pen up

G0 X139.140 Y35.667 F3000 ; Travel to line 563
G0 Z0.0 ; Pen down
G1 X113.833 Y46.760 F1000
G0 Z3.0 ; Pen up

G0 X113.833 Y46.067 F3000 ; Travel to line 564
G0 Z0.0 ; Pen down
G1 X138.100 Y35.667 F1000
G0 Z3.0 ; Pen up

G0 X136.367 Y35.667 F3000 ; Travel to line 565
G0 Z0.0 ; Pen down
G1 X113.833 Y45.373 F1000
G0 Z3.0 ; Pen up

G0 X113.833 Y44.680 F3000 ; Travel to line 566
G0 Z0.0 ; Pen down
G1 X135.327 Y35.667 F1000
G0 Z3.0 ; Pen up

G0 X134.287 Y35.667 F3000 ; Travel to line 567
G0 Z0.0 ; Pen down
G1 X113.833 Y44.333 F1000
G0 Z3.0 ; Pen up

G0 X113.833 Y43.640 F3000 ; Travel to line 568
G0 Z0.0 ; Pen down
G1 X133.247 Y35.667 F1000
G0 Z3.0 ; Pen up

G0 X131.860 Y35.667 F3000 ; Travel to line 569
G0 Z0.0 ; Pen down
G1 X113.833 Y42.947 F1000
G0 Z3.0 ; Pen up

G0 X113.833 Y42.600 F3000 ; Travel to line 570
G0 Z0.0 ; Pen down
G1 X130.473 Y35.667 F1000
G0 Z3.0 ; Pen up

G0 X129.087 Y35.667 F3000 ; Travel to line 571
G0 Z0.0 ; Pen down
G1 X113.833 Y41.907 F1000
G0 Z3.0 ; Pen up

G0 X113.833 Y41.213 F3000 ; Travel to line 572
G0 Z0.0 ; Pen down
G1 X128.047 Y35.667 F1000
G0 Z3.0 ; Pen up

G0 X126.660 Y35.667 F3000 ; Travel to line 573
G0 Z0.0 ; Pen down
G1 X113.833 Y40.867 F1000
G0 Z3.0 ; Pen up

G0 X113.833 Y40.173 F3000 ; Travel to line 574
G0 Z0.0 ; Pen down
G1 X125.273 Y35.667 F1000
G0 Z3.0 ; Pen up

G0 X124.233 Y35.667 F3000 ; Travel to line 575
G0 Z0.0 ; Pen down
G1 X113.833 Y39.480 F1000
G0 Z3.0 ; Pen up

G0 X113.833 Y39.133 F3000 ; Travel to line 576
G0 Z0.0 ; Pen down
G1 X122.847 Y35.667 F1000
G0 Z3.0 ; Pen up

G0 X121.113 Y35.667 F3000 ; Travel to line 577
G0 Z0.0 ; Pen down
G1 X113.833 Y38.440 F1000
G0 Z3.0 ; Pen up

G0 X113.833 Y37.747 F3000 ; Travel to line 578
G0 Z0.0 ; Pen down
G1 X119.727 Y35.667 F1000
G0 Z3.0 ; Pen up

G0 X118.340 Y35.667 F3000 ; Travel to line 579
G0 Z0.0 ; Pen down
G1 X113.833 Y37.400 F1000
G0 Z3.0 ; Pen up

G0 X113.833 Y36.707 F3000 ; Travel to line 580
G0 Z0.0 ; Pen down
G1 X117.300 Y35.667 F1000
G0 Z3.0 ; Pen up

G0 X115.567 Y35.667 F3000 ; Travel to line 581
G0 Z0.0 ; Pen down
G1 X113.833 Y36.360 F1000
G0 Z3.0 ; Pen up

G0 X113.833 Y35.667 F3000 ; Travel to line 582
G0 Z0.0 ; Pen down
G1 X114.180 Y35.667 F1000
G0 Z3.0 ; Pen up

G0 X50.740 Y37.400 F3000 ; Travel to line 583
G0 Z0.0 ; Pen down
G1 X41.033 Y42.600 F1000
G0 Z3.0 ; Pen up

G0 X42.767 Y41.213 F3000 ; Travel to line 584
G0 Z0.0 ; Pen down
G1 X43.460 Y40.867 F1000
G0 Z3.0 ; Pen up

G0 X44.500 Y40.173 F3000 ; Travel to line 585
G0 Z0.0 ; Pen down
G1 X47.967 Y38.440 F1000
G0 Z3.0 ; Pen up

G0 X55.940 Y122.680 F3000 ; Travel to line 586
G0 Z0.0 ; Pen down
G1 X28.553 Y147.293 F1000
G0 Z3.0 ; Pen up

G0 X28.900 Y146.253 F3000 ; Travel to line 587
G0 Z0.0 ; Pen down
G1 X54.900 Y123.027 F1000
G0 Z3.0 ; Pen up

G0 X53.167 Y123.373 F3000 ; Travel to line 588
G0 Z0.0 ; Pen down
G1 X29.247 Y144.867 F1000
G0 Z3.0 ; Pen up

G0 X29.940 Y143.480 F3000 ; Travel to line 589
G0 Z0.0 ; Pen down
G1 X51.780 Y123.720 F1000
G0 Z3.0 ; Pen up

G0 X50.047 Y124.413 F3000 ; Travel to line 590
G0 Z0.0 ; Pen down
G1 X30.287 Y142.440 F1000
G0 Z3.0 ; Pen up

G0 X30.980 Y141.053 F3000 ; Travel to line 591
G0 Z0.0 ; Pen down
G1 X49.007 Y124.760 F1000
G0 Z3.0 ; Pen up

G0 X47.273 Y125.453 F3000 ; Travel to line 592
G0 Z0.0 ; Pen down
G1 X31.673 Y139.667 F1000
G0 Z3.0 ; Pen up

G0 X32.713 Y137.933 F3000 ; Travel to line 593
G0 Z0.0 ; Pen down
G1 X45.193 Y126.493 F1000
G0 Z3.0 ; Pen up

G0 X41.380 Y128.920 F3000 ; Travel to line 594
G0 Z0.0 ; Pen down
G1 X36.180 Y133.773 F1000
G0 Z3.0 ; Pen up

G0 X28.207 Y148.680 F3000 ; Travel to line 595
G0 Z0.0 ; Pen down
G1 X57.327 Y122.680 F1000
G0 Z3.0 ; Pen up

G0 X58.020 Y122.680 F3000 ; Travel to line 596
G0 Z0.0 ; Pen down
G1 X27.860 Y149.720 F1000
G0 Z3.0 ; Pen up

G0 X27.860 Y150.413 F3000 ; Travel to line 597
G0 Z0.0 ; Pen down
G1 X59.407 Y122.333 F1000
G0 Z3.0 ; Pen up

G0 X60.447 Y122.333 F3000 ; Travel to line 598
G0 Z0.0 ; Pen down
G1 X27.513 Y151.453 F1000
G0 Z3.0 ; Pen up

G0 X27.513 Y152.493 F3000 ; Travel to line 599
G0 Z0.0 ; Pen down
G1 X61.833 Y122.333 F1000
G0 Z3.0 ; Pen up

G0 X62.873 Y122.333 F3000 ; Travel to line 600
G0 Z0.0 ; Pen down
G1 X27.513 Y153.187 F1000
G0 Z3.0 ; Pen up

G0 X27.167 Y154.227 F3000 ; Travel to line 601
G0 Z0.0 ; Pen down
G1 X63.567 Y122.333 F1000
G0 Z3.0 ; Pen up

G0 X64.607 Y122.333 F3000 ; Travel to line 602
G0 Z0.0 ; Pen down
G1 X27.167 Y154.920 F1000
G0 Z3.0 ; Pen up

G0 X27.167 Y155.960 F3000 ; Travel to line 603
G0 Z0.0 ; Pen down
G1 X65.300 Y122.680 F1000
G0 Z3.0 ; Pen up

G0 X66.340 Y122.680 F3000 ; Travel to line 604
G0 Z0.0 ; Pen down
G1 X27.167 Y156.653 F1000
G0 Z3.0 ; Pen up

G0 X27.167 Y157.693 F3000 ; Travel to line 605
G0 Z0.0 ; Pen down
G1 X67.727 Y122.680 F1000
G0 Z3.0 ; Pen up

G0 X68.073 Y123.027 F3000 ; Travel to line 606
G0 Z0.0 ; Pen down
G1 X27.167 Y158.387 F1000
G0 Z3.0 ; Pen up

G0 X27.167 Y159.080 F3000 ; Travel to line 607
G0 Z0.0 ; Pen down
G1 X69.460 Y123.027 F1000
G0 Z3.0 ; Pen up

G0 X69.807 Y123.373 F3000 ; Travel to line 608
G0 Z0.0 ; Pen down
G1 X27.167 Y159.773 F1000
G0 Z3.0 ; Pen up

G0 X236.900 Y172.947 F3000 ; Travel to line 609
G0 Z0.0 ; Pen down
G1 X255.273 Y161.160 F1000
G0 Z3.0 ; Pen up

G0 X254.927 Y162.200 F3000 ; Travel to line 610
G0 Z0.0 ; Pen down
G1 X237.247 Y173.293 F1000
G0 Z3.0 ; Pen up

G0 X237.247 Y173.640 F3000 ; Travel to line 611
G0 Z0.0 ; Pen down
G1 X254.580 Y162.893 F1000
G0 Z3.0 ; Pen up

G0 X254.580 Y163.240 F3000 ; Travel to line 612
G0 Z0.0 ; Pen down
G1 X237.247 Y174.333 F1000
G0 Z3.0 ; Pen up

G0 X237.593 Y174.680 F3000 ; Travel to line 613
G0 Z0.0 ; Pen down
G1 X254.233 Y164.280 F1000
G0 Z3.0 ; Pen up

G0 X253.887 Y164.973 F3000 ; Travel to line 614
G0 Z0.0 ; Pen down
G1 X237.593 Y175.027 F1000
G0 Z3.0 ; Pen up

G0 X237.940 Y175.373 F3000 ; Travel to line 615
G0 Z0.0 ; Pen down
G1 X253.540 Y166.013 F1000
G0 Z3.0 ; Pen up

G0 X253.193 Y166.707 F3000 ; Travel to line 616
G0 Z0.0 ; Pen down
G1 X237.940 Y176.067 F1000
G0 Z3.0 ; Pen up

G0 X238.287 Y176.413 F3000 ; Travel to line 617
G0 Z0.0 ; Pen down
G1 X252.847 Y167.400 F1000
G0 Z3.0 ; Pen up

G0 X252.500 Y168.093 F3000 ; Travel to line 618
G0 Z0.0 ; Pen down
G1 X238.287 Y176.760 F1000
G0 Z3.0 ; Pen up

G0 X238.287 Y177.107 F3000 ; Travel to line 619
G0 Z0.0 ; Pen down
G1 X252.500 Y168.787 F1000
G0 Z3.0 ; Pen up

G0 X252.153 Y169.480 F3000 ; Travel to line 620
G0 Z0.0 ; Pen down
G1 X238.633 Y177.453 F1000
G0 Z3.0 ; Pen up

G0 X238.633 Y178.147 F3000 ; Travel to line 621
G0 Z0.0 ; Pen down
G1 X251.807 Y170.520 F1000
G0 Z3.0 ; Pen up

G0 X251.460 Y171.213 F3000 ; Travel to line 622
G0 Z0.0 ; Pen down
G1 X238.980 Y178.493 F1000
G0 Z3.0 ; Pen up

G0 X238.980 Y178.840 F3000 ; Travel to line 623
G0 Z0.0 ; Pen down
G1 X251.113 Y171.907 F1000
G0 Z3.0 ; Pen up

G0 X251.113 Y172.600 F3000 ; Travel to line 624
G0 Z0.0 ; Pen down
G1 X239.327 Y179.187 F1000
G0 Z3.0 ; Pen up

G0 X239.327 Y179.880 F3000 ; Travel to line 625
G0 Z0.0 ; Pen down
G1 X250.767 Y173.293 F1000
G0 Z3.0 ; Pen up

G0 X250.420 Y173.987 F3000 ; Travel to line 626
G0 Z0.0 ; Pen down
G1 X239.673 Y179.880 F1000
G0 Z3.0 ; Pen up

G0 X239.673 Y180.573 F3000 ; Travel to line 627
G0 Z0.0 ; Pen down
G1 X250.073 Y175.027 F1000
G0 Z3.0 ; Pen up

G0 X250.073 Y175.373 F3000 ; Travel to line 628
G0 Z0.0 ; Pen down
G1 X239.673 Y180.920 F1000
G0 Z3.0 ; Pen up

G0 X240.020 Y181.613 F3000 ; Travel to line 629
G0 Z0.0 ; Pen down
G1 X249.727 Y176.067 F1000
G0 Z3.0 ; Pen up

G0 X249.380 Y176.760 F3000 ; Travel to line 630
G0 Z0.0 ; Pen down
G1 X240.367 Y181.613 F1000
G0 Z3.0 ; Pen up

G0 X240.367 Y182.307 F3000 ; Travel to line 631
G0 Z0.0 ; Pen down
G1 X249.033 Y177.453 F1000
G0 Z3.0 ; Pen up

G0 X249.033 Y178.147 F3000 ; Travel to line 632
G0 Z0.0 ; Pen down
G1 X240.367 Y182.653 F1000
G0 Z3.0 ; Pen up

G0 X240.713 Y183.000 F3000 ; Travel to line 633
G0 Z0.0 ; Pen down
G1 X248.687 Y178.840 F1000
G0 Z3.0 ; Pen up

G0 X248.340 Y179.533 F3000 ; Travel to line 634
G0 Z0.0 ; Pen down
G1 X240.713 Y183.693 F1000
G0 Z3.0 ; Pen up

G0 X241.060 Y183.693 F3000 ; Travel to line 635
G0 Z0.0 ; Pen down
G1 X247.993 Y180.227 F1000
G0 Z3.0 ; Pen up

G0 X247.993 Y180.920 F3000 ; Travel to line 636
G0 Z0.0 ; Pen down
G1 X241.060 Y184.387 F1000
G0 Z3.0 ; Pen up

G0 X241.407 Y184.733 F3000 ; Travel to line 637
G0 Z0.0 ; Pen down
G1 X247.647 Y181.613 F1000
G0 Z3.0 ; Pen up

G0 X247.300 Y182.307 F3000 ; Travel to line 638
G0 Z0.0 ; Pen down
G1 X241.407 Y185.080 F1000
G0 Z3.0 ; Pen up

G0 X241.753 Y185.427 F3000 ; Travel to line 639
G0 Z0.0 ; Pen down
G1 X246.953 Y183.000 F1000
G0 Z3.0 ; Pen up

G0 X246.953 Y183.347 F3000 ; Travel to line 640
G0 Z0.0 ; Pen down
G1 X241.753 Y186.120 F1000
G0 Z3.0 ; Pen up

G0 X241.753 Y186.467 F3000 ; Travel to line 641
G0 Z0.0 ; Pen down
G1 X246.607 Y184.040 F1000
G0 Z3.0 ; Pen up

G0 X246.260 Y184.733 F3000 ; Travel to line 642
G0 Z0.0 ; Pen down
G1 X242.100 Y186.813 F1000
G0 Z3.0 ; Pen up

G0 X242.100 Y187.160 F3000 ; Travel to line 643
G0 Z0.0 ; Pen down
G1 X246.260 Y185.427 F1000
G0 Z3.0 ; Pen up

G0 X245.913 Y185.773 F3000 ; Travel to line 644
G0 Z0.0 ; Pen down
G1 X242.447 Y187.507 F1000
G0 Z3.0 ; Pen up

G0 X242.447 Y188.200 F3000 ; Travel to line 645
G0 Z0.0 ; Pen down
G1 X245.913 Y186.467 F1000
G0 Z3.0 ; Pen up

G0 X245.567 Y187.160 F3000 ; Travel to line 646
G0 Z0.0 ; Pen down
G1 X242.793 Y188.547 F1000
G0 Z3.0 ; Pen up

G0 X242.793 Y188.893 F3000 ; Travel to line 647
G0 Z0.0 ; Pen down
G1 X245.220 Y187.853 F1000
G0 Z3.0 ; Pen up

G0 X245.220 Y188.200 F3000 ; Travel to line 648
G0 Z0.0 ; Pen down
G1 X242.793 Y189.240 F1000
G0 Z3.0 ; Pen up

G0 X243.140 Y189.587 F3000 ; Travel to line 649
G0 Z0.0 ; Pen down
G1 X244.873 Y188.893 F1000
G0 Z3.0 ; Pen up

G0 X244.873 Y189.240 F3000 ; Travel to line 650
G0 Z0.0 ; Pen down
G1 X243.140 Y189.933 F1000
G0 Z3.0 ; Pen up

G0 X243.487 Y190.627 F3000 ; Travel to line 651
G0 Z0.0 ; Pen down
G1 X244.527 Y189.933 F1000
G0 Z3.0 ; Pen up

G0 X244.180 Y190.627 F3000 ; Travel to line 652
G0 Z0.0 ; Pen down
G1 X243.487 Y190.973 F1000
G0 Z3.0 ; Pen up

G0 X243.833 Y191.320 F3000 ; Travel to line 653
G0 Z0.0 ; Pen down
G1 X244.180 Y190.973 F1000
G0 Z3.0 ; Pen up

; Return to origin
G0 X0 Y0
G0 Z3.0

; Total drawing distance: 31663.91 mm
; Total travel distance: 1284.69 mm
; Total lines: 653
; Estimated time: 1925.5 seconds (32.1 minutes)
M2 ; End program