; Blueprint to G-code
; Input: test_data/test_images_letters/letters.jpg
; Generated with blueprint2gcode.py

G21 ; Set units to millimeters
G90 ; Absolute positioning
G0 Z3.0 ; Pen up
G0 X0 Y0 ; Move to origin

G0 X7.000 Y21.000 F3000 ; Travel to line 1
G0 Z0.0 ; Pen down
G1 X5.500 Y23.500 F1000
G0 Z3.0 ; Pen up

G0 X5.500 Y24.500 F3000 ; Travel to line 2
G0 Z0.0 ; Pen down
G1 X7.000 Y22.000 F1000
G0 Z3.0 ; Pen up

G0 X7.000 Y23.500 F3000 ; Travel to line 3
G0 Z0.0 ; Pen down
G1 X5.500 Y25.500 F1000
G0 Z3.0 ; Pen up

G0 X5.500 Y26.500 F3000 ; Travel to line 4
G0 Z0.0 ; Pen down
G1 X7.000 Y24.500 F1000
G0 Z3.0 ; Pen up

G0 X7.000 Y25.000 F3000 ; Travel to line 5
G0 Z0.0 ; Pen down
G1 X5.500 Y27.000 F1000
G0 Z3.0 ; Pen up

G0 X5.500 Y27.500 F3000 ; Travel to line 6
G0 Z0.0 ; Pen down
G1 X7.000 Y25.500 F1000
G0 Z3.0 ; Pen up

G0 X7.000 Y26.000 F3000 ; Travel to line 7
G0 Z0.0 ; Pen down
G1 X5.500 Y28.000 F1000
G1 X5.500 Y28.000 F1000
G1 X7.000 Y26.500 F1000
G0 Z3.0 ; Pen up

G0 X7.000 Y27.000 F3000 ; Travel to line 8
G0 Z0.0 ; Pen down
G1 X6.000 Y28.000 F1000
G0 Z3.0 ; Pen up

G0 X5.500 Y28.000 F3000 ; Travel to line 9
G0 Z0.0 ; Pen down
G1 X7.000 Y26.500 F1000
G1 X7.000 Y26.500 F1000
G1 X5.500 Y28.000 F1000
G1 X5.500 Y28.000 F1000
G1 X7.000 Y26.000 F1000
G1 X7.000 Y26.000 F1000
G1 X5.500 Y28.000 F1000
G1 X5.500 Y28.000 F1000
G1 X7.000 Y25.500 F1000
G1 X7.000 Y25.500 F1000
G1 X5.500 Y28.000 F1000
G0 Z3.0 ; Pen up

G0 X7.000 Y35.500 F3000 ; Travel to line 10
G0 Z0.0 ; Pen down
G1 X5.500 Y39.000 F1000
G0 Z3.0 ; Pen up

G0 X7.000 Y39.000 F3000 ; Travel to line 11
G0 Z0.0 ; Pen down
G1 X5.500 Y42.000 F1000
G0 Z3.0 ; Pen up

G0 X7.000 Y42.000 F3000 ; Travel to line 12
G0 Z0.0 ; Pen down
G1 X5.500 Y44.500 F1000
G1 X5.500 Y44.500 F1000
G1 X7.000 Y41.500 F1000
G0 Z3.0 ; Pen up

G0 X7.000 Y40.500 F3000 ; Travel to line 13
G0 Z0.0 ; Pen down
G1 X5.500 Y43.500 F1000
G0 Z3.0 ; Pen up

G0 X7.000 Y43.500 F3000 ; Travel to line 14
G0 Z0.0 ; Pen down
G1 X5.500 Y46.000 F1000
G1 X5.500 Y46.000 F1000
G1 X7.000 Y43.500 F1000
G1 X7.000 Y43.500 F1000
G1 X5.500 Y46.500 F1000
G0 Z3.0 ; Pen up

G0 X5.500 Y47.000 F3000 ; Travel to line 15
G0 Z0.0 ; Pen down
G1 X7.000 Y44.000 F1000
G0 Z3.0 ; Pen up

G0 X7.000 Y43.000 F3000 ; Travel to line 16
G0 Z0.0 ; Pen down
G1 X5.500 Y45.500 F1000
G1 X5.500 Y45.500 F1000
G1 X7.000 Y42.500 F1000
G1 X7.000 Y42.500 F1000
G1 X5.500 Y45.500 F1000
G0 Z3.0 ; Pen up

G0 X5.500 Y45.000 F3000 ; Travel to line 17
G0 Z0.0 ; Pen down
G1 X7.000 Y42.000 F1000
G1 X7.000 Y42.000 F1000
G1 X5.500 Y45.000 F1000
G0 Z3.0 ; Pen up

G0 X7.000 Y45.500 F3000 ; Travel to line 18
G0 Z0.0 ; Pen down
G1 X6.000 Y47.000 F1000
G0 Z3.0 ; Pen up

G0 X5.500 Y40.500 F3000 ; Travel to line 19
G0 Z0.0 ; Pen down
G1 X7.000 Y37.500 F1000
G0 Z3.0 ; Pen up

G0 X7.000 Y54.500 F3000 ; Travel to line 20
G0 Z0.0 ; Pen down
G1 X5.500 Y58.000 F1000
G0 Z3.0 ; Pen up

G0 X7.000 Y58.000 F3000 ; Travel to line 21
G0 Z0.0 ; Pen down
G1 X5.500 Y61.000 F1000
G0 Z3.0 ; Pen up

G0 X7.000 Y61.000 F3000 ; Travel to line 22
G0 Z0.0 ; Pen down
G1 X5.500 Y63.500 F1000
G1 X5.500 Y63.500 F1000
G1 X7.000 Y60.500 F1000
G0 Z3.0 ; Pen up

G0 X7.000 Y59.500 F3000 ; Travel to line 23
G0 Z0.0 ; Pen down
G1 X5.500 Y62.500 F1000
G0 Z3.0 ; Pen up

G0 X7.000 Y62.500 F3000 ; Travel to line 24
G0 Z0.0 ; Pen down
G1 X5.500 Y65.000 F1000
G1 X5.500 Y65.000 F1000
G1 X7.000 Y62.500 F1000
G1 X7.000 Y62.500 F1000
G1 X5.500 Y65.500 F1000
G0 Z3.0 ; Pen up

G0 X5.500 Y66.000 F3000 ; Travel to line 25
G0 Z0.0 ; Pen down
G1 X7.000 Y63.000 F1000
G0 Z3.0 ; Pen up

G0 X7.000 Y62.000 F3000 ; Travel to line 26
G0 Z0.0 ; Pen down
G1 X5.500 Y64.500 F1000
G1 X5.500 Y64.500 F1000
G1 X7.000 Y61.500 F1000
G1 X7.000 Y61.500 F1000
G1 X5.500 Y64.500 F1000
G0 Z3.0 ; Pen up

G0 X5.500 Y64.000 F3000 ; Travel to line 27
G0 Z0.0 ; Pen down
G1 X7.000 Y61.000 F1000
G1 X7.000 Y61.000 F1000
G1 X5.500 Y64.000 F1000
G0 Z3.0 ; Pen up

G0 X7.000 Y64.500 F3000 ; Travel to line 28
G0 Z0.0 ; Pen down
G1 X6.000 Y66.000 F1000
G0 Z3.0 ; Pen up

G0 X5.500 Y59.500 F3000 ; Travel to line 29
G0 Z0.0 ; Pen down
G1 X7.000 Y56.500 F1000
G0 Z3.0 ; Pen up

G0 X7.000 Y73.500 F3000 ; Travel to line 30
G0 Z0.0 ; Pen down
G1 X5.500 Y77.000 F1000
G0 Z3.0 ; Pen up

G0 X7.000 Y77.000 F3000 ; Travel to line 31
G0 Z0.0 ; Pen down
G1 X5.500 Y80.000 F1000
G0 Z3.0 ; Pen up

G0 X7.000 Y80.000 F3000 ; Travel to line 32
G0 Z0.0 ; Pen down
G1 X5.500 Y82.500 F1000
G1 X5.500 Y82.500 F1000
G1 X7.000 Y79.500 F1000
G0 Z3.0 ; Pen up

G0 X7.000 Y78.500 F3000 ; Travel to line 33
G0 Z0.0 ; Pen down
G1 X5.500 Y81.500 F1000
G0 Z3.0 ; Pen up

G0 X7.000 Y81.500 F3000 ; Travel to line 34
G0 Z0.0 ; Pen down
G1 X5.500 Y84.000 F1000
G1 X5.500 Y84.000 F1000
G1 X7.000 Y81.500 F1000
G1 X7.000 Y81.500 F1000
G1 X5.500 Y84.500 F1000
G0 Z3.0 ; Pen up

G0 X5.500 Y85.000 F3000 ; Travel to line 35
G0 Z0.0 ; Pen down
G1 X7.000 Y82.000 F1000
G0 Z3.0 ; Pen up

G0 X7.000 Y81.000 F3000 ; Travel to line 36
G0 Z0.0 ; Pen down
G1 X5.500 Y83.500 F1000
G1 X5.500 Y83.500 F1000
G1 X7.000 Y80.500 F1000
G1 X7.000 Y80.500 F1000
G1 X5.500 Y83.500 F1000
G0 Z3.0 ; Pen up

G0 X5.500 Y83.000 F3000 ; Travel to line 37
G0 Z0.0 ; Pen down
G1 X7.000 Y80.000 F1000
G1 X7.000 Y80.000 F1000
G1 X5.500 Y83.000 F1000
G0 Z3.0 ; Pen up

G0 X7.000 Y83.500 F3000 ; Travel to line 38
G0 Z0.0 ; Pen down
G1 X6.000 Y85.000 F1000
G0 Z3.0 ; Pen up

G0 X5.500 Y78.500 F3000 ; Travel to line 39
G0 Z0.0 ; Pen down
G1 X7.000 Y75.500 F1000
G0 Z3.0 ; Pen up

G0 X7.000 Y92.500 F3000 ; Travel to line 40
G0 Z0.0 ; Pen down
G1 X5.500 Y96.000 F1000
G0 Z3.0 ; Pen up

G0 X7.000 Y96.000 F3000 ; Travel to line 41
G0 Z0.0 ; Pen down
G1 X5.500 Y99.000 F1000
G0 Z3.0 ; Pen up

G0 X7.000 Y99.000 F3000 ; Travel to line 42
G0 Z0.0 ; Pen down
G1 X5.500 Y101.500 F1000
G1 X5.500 Y101.500 F1000
G1 X7.000 Y98.500 F1000
G0 Z3.0 ; Pen up

G0 X7.000 Y97.500 F3000 ; Travel to line 43
G0 Z0.0 ; Pen down
G1 X5.500 Y100.500 F1000
G0 Z3.0 ; Pen up

G0 X7.000 Y100.500 F3000 ; Travel to line 44
G0 Z0.0 ; Pen down
G1 X5.500 Y103.000 F1000
G1 X5.500 Y103.000 F1000
G1 X7.000 Y100.500 F1000
G1 X7.000 Y100.500 F1000
G1 X5.500 Y103.500 F1000
G0 Z3.0 ; Pen up

G0 X5.500 Y104.000 F3000 ; Travel to line 45
G0 Z0.0 ; Pen down
G1 X7.000 Y101.000 F1000
G0 Z3.0 ; Pen up

G0 X7.000 Y100.000 F3000 ; Travel to line 46
G0 Z0.0 ; Pen down
G1 X5.500 Y102.500 F1000
G1 X5.500 Y102.500 F1000
G1 X7.000 Y99.500 F1000
G1 X7.000 Y99.500 F1000
G1 X5.500 Y102.500 F1000
G0 Z3.0 ; Pen up

G0 X5.500 Y102.000 F3000 ; Travel to line 47
G0 Z0.0 ; Pen down
G1 X7.000 Y99.000 F1000
G1 X7.000 Y99.000 F1000
G1 X5.500 Y102.000 F1000
G0 Z3.0 ; Pen up

G0 X7.000 Y102.500 F3000 ; Travel to line 48
G0 Z0.0 ; Pen down
G1 X6.000 Y104.000 F1000
G0 Z3.0 ; Pen up

G0 X5.500 Y97.500 F3000 ; Travel to line 49
G0 Z0.0 ; Pen down
G1 X7.000 Y94.500 F1000
G0 Z3.0 ; Pen up

G0 X22.000 Y96.000 F3000 ; Travel to line 50
G0 Z0.0 ; Pen down
G1 X23.500 Y94.500 F1000
G0 Z3.0 ; Pen up

G0 X25.000 Y93.000 F3000 ; Travel to line 51
G0 Z0.0 ; Pen down
G1 X26.000 Y92.000 F1000
G0 Z3.0 ; Pen up

G0 X27.000 Y93.500 F3000 ; Travel to line 52
G0 Z0.0 ; Pen down
G1 X28.000 Y92.500 F1000
G0 Z3.0 ; Pen up

G0 X28.500 Y93.000 F3000 ; Travel to line 53
G0 Z0.0 ; Pen down
G1 X27.500 Y94.000 F1000
G0 Z3.0 ; Pen up

G0 X27.500 Y94.500 F3000 ; Travel to line 54
G0 Z0.0 ; Pen down
G1 X28.500 Y93.500 F1000
G1 X28.500 Y93.500 F1000
G1 X27.500 Y94.500 F1000
G0 Z3.0 ; Pen up

G0 X28.000 Y94.500 F3000 ; Travel to line 55
G0 Z0.0 ; Pen down
G1 X28.500 Y94.000 F1000
G0 Z3.0 ; Pen up

G0 X27.500 Y93.500 F3000 ; Travel to line 56
G0 Z0.0 ; Pen down
G1 X28.000 Y93.000 F1000
G1 X28.000 Y93.000 F1000
G1 X27.500 Y93.500 F1000
G0 Z3.0 ; Pen up

G0 X29.000 Y95.500 F3000 ; Travel to line 57
G0 Z0.0 ; Pen down
G1 X28.000 Y96.500 F1000
G0 Z3.0 ; Pen up

G0 X28.000 Y97.000 F3000 ; Travel to line 58
G0 Z0.0 ; Pen down
G1 X29.000 Y96.000 F1000
G1 X29.000 Y96.000 F1000
G1 X28.000 Y97.000 F1000
G0 Z3.0 ; Pen up

G0 X28.000 Y97.500 F3000 ; Travel to line 59
G0 Z0.0 ; Pen down
G1 X29.500 Y96.000 F1000
G0 Z3.0 ; Pen up

G0 X29.500 Y97.000 F3000 ; Travel to line 60
G0 Z0.0 ; Pen down
G1 X28.000 Y98.500 F1000
G0 Z3.0 ; Pen up

G0 X28.500 Y97.500 F3000 ; Travel to line 61
G0 Z0.0 ; Pen down
G1 X29.500 Y96.500 F1000
G1 X29.500 Y96.500 F1000
G1 X28.500 Y97.500 F1000
G0 Z3.0 ; Pen up

G0 X29.000 Y100.000 F3000 ; Travel to line 62
G0 Z0.0 ; Pen down
G1 X25.500 Y103.500 F1000
G0 Z3.0 ; Pen up

G0 X24.500 Y102.000 F3000 ; Travel to line 63
G0 Z0.0 ; Pen down
G1 X23.500 Y103.000 F1000
G0 Z3.0 ; Pen up

G0 X23.500 Y102.500 F3000 ; Travel to line 64
G0 Z0.0 ; Pen down
G1 X24.000 Y102.000 F1000
G1 X24.000 Y102.000 F1000
G1 X23.500 Y102.500 F1000
G0 Z3.0 ; Pen up

G0 X23.000 Y102.500 F3000 ; Travel to line 65
G0 Z0.0 ; Pen down
G1 X24.000 Y101.500 F1000
G0 Z3.0 ; Pen up

G0 X23.500 Y101.000 F3000 ; Travel to line 66
G0 Z0.0 ; Pen down
G1 X22.500 Y102.000 F1000
G0 Z3.0 ; Pen up

G0 X23.000 Y102.000 F3000 ; Travel to line 67
G0 Z0.0 ; Pen down
G1 X23.500 Y101.500 F1000
G1 X23.500 Y101.500 F1000
G1 X23.000 Y102.000 F1000
G0 Z3.0 ; Pen up

G0 X22.000 Y100.500 F3000 ; Travel to line 68
G0 Z0.0 ; Pen down
G1 X23.000 Y99.500 F1000
G0 Z3.0 ; Pen up

G0 X22.000 Y99.500 F3000 ; Travel to line 69
G0 Z0.0 ; Pen down
G1 X23.000 Y98.500 F1000
G0 Z3.0 ; Pen up

G0 X22.000 Y98.500 F3000 ; Travel to line 70
G0 Z0.0 ; Pen down
G1 X23.000 Y97.500 F1000
G0 Z3.0 ; Pen up

G0 X24.500 Y98.500 F3000 ; Travel to line 71
G0 Z0.0 ; Pen down
G1 X26.000 Y97.000 F1000
G1 X26.000 Y97.000 F1000
G1 X24.500 Y98.500 F1000
G0 Z3.0 ; Pen up

G0 X25.000 Y99.000 F3000 ; Travel to line 72
G0 Z0.0 ; Pen down
G1 X26.500 Y97.500 F1000
G1 X26.500 Y97.500 F1000
G1 X25.000 Y99.000 F1000
G1 X25.000 Y99.000 F1000
G1 X26.000 Y97.500 F1000
G1 X26.000 Y97.500 F1000
G1 X25.000 Y99.000 F1000
G0 Z3.0 ; Pen up

G0 X26.000 Y99.000 F3000 ; Travel to line 73
G0 Z0.0 ; Pen down
G1 X26.500 Y98.500 F1000
G1 X26.500 Y98.500 F1000
G1 X26.000 Y99.000 F1000
G0 Z3.0 ; Pen up

G0 X22.000 Y99.000 F3000 ; Travel to line 74
G0 Z0.0 ; Pen down
G1 X23.000 Y98.000 F1000
G1 X23.000 Y98.000 F1000
G1 X22.000 Y99.000 F1000
G0 Z3.0 ; Pen up

G0 X22.000 Y100.000 F3000 ; Travel to line 75
G0 Z0.0 ; Pen down
G1 X23.000 Y99.000 F1000
G1 X23.000 Y99.000 F1000
G1 X22.000 Y100.000 F1000
G0 Z3.0 ; Pen up

G0 X32.500 Y103.000 F3000 ; Travel to line 76
G0 Z0.0 ; Pen down
G1 X33.500 Y102.000 F1000
G1 X33.500 Y102.000 F1000
G1 X32.500 Y103.000 F1000
G0 Z3.0 ; Pen up

G0 X33.000 Y103.000 F3000 ; Travel to line 77
G0 Z0.0 ; Pen down
G1 X34.000 Y102.000 F1000
G0 Z3.0 ; Pen up

G0 X34.500 Y102.000 F3000 ; Travel to line 78
G0 Z0.0 ; Pen down
G1 X33.500 Y103.000 F1000
G1 X33.500 Y103.000 F1000
G1 X34.500 Y102.000 F1000
G1 X34.500 Y102.000 F1000
G1 X33.500 Y103.000 F1000
G0 Z3.0 ; Pen up

G0 X35.000 Y103.500 F3000 ; Travel to line 79
G0 Z0.0 ; Pen down
G1 X36.500 Y102.000 F1000
G0 Z3.0 ; Pen up

G0 X35.000 Y101.500 F3000 ; Travel to line 80
G0 Z0.0 ; Pen down
G1 X36.500 Y100.000 F1000
G1 X36.500 Y100.000 F1000
G1 X35.000 Y101.500 F1000
G1 X35.000 Y101.500 F1000
G1 X36.500 Y100.000 F1000
G0 Z3.0 ; Pen up

G0 X36.500 Y99.500 F3000 ; Travel to line 81
G0 Z0.0 ; Pen down
G1 X35.000 Y101.000 F1000
G0 Z3.0 ; Pen up

G0 X35.000 Y100.500 F3000 ; Travel to line 82
G0 Z0.0 ; Pen down
G1 X36.500 Y99.000 F1000
G1 X36.500 Y99.000 F1000
G1 X35.000 Y100.500 F1000
G0 Z3.0 ; Pen up

G0 X35.000 Y99.000 F3000 ; Travel to line 83
G0 Z0.0 ; Pen down
G1 X36.500 Y97.500 F1000
G0 Z3.0 ; Pen up

G0 X35.000 Y97.000 F3000 ; Travel to line 84
G0 Z0.0 ; Pen down
G1 X36.500 Y95.000 F1000
G1 X36.500 Y95.000 F1000
G1 X35.000 Y97.000 F1000
G1 X35.000 Y97.000 F1000
G1 X36.500 Y95.000 F1000
G0 Z3.0 ; Pen up

G0 X36.500 Y94.500 F3000 ; Travel to line 85
G0 Z0.0 ; Pen down
G1 X35.000 Y96.000 F1000
G0 Z3.0 ; Pen up

G0 X35.000 Y95.500 F3000 ; Travel to line 86
G0 Z0.0 ; Pen down
G1 X36.500 Y94.000 F1000
G1 X36.500 Y94.000 F1000
G1 X35.000 Y95.500 F1000
G0 Z3.0 ; Pen up

G0 X35.000 Y94.500 F3000 ; Travel to line 87
G0 Z0.0 ; Pen down
G1 X37.500 Y92.000 F1000
G0 Z3.0 ; Pen up

G0 X37.500 Y93.500 F3000 ; Travel to line 88
G0 Z0.0 ; Pen down
G1 X39.000 Y92.000 F1000
G1 X39.000 Y92.000 F1000
G1 X37.500 Y93.500 F1000
G0 Z3.0 ; Pen up

G0 X38.000 Y93.500 F3000 ; Travel to line 89
G0 Z0.0 ; Pen down
G1 X39.000 Y92.500 F1000
G1 X39.000 Y92.500 F1000
G1 X38.000 Y93.500 F1000
G1 X38.000 Y93.500 F1000
G1 X39.000 Y92.500 F1000
G0 Z3.0 ; Pen up

G0 X37.000 Y93.500 F3000 ; Travel to line 90
G0 Z0.0 ; Pen down
G1 X38.500 Y92.000 F1000
G1 X38.500 Y92.000 F1000
G1 X37.000 Y93.500 F1000
G0 Z3.0 ; Pen up

G0 X35.500 Y92.000 F3000 ; Travel to line 91
G0 Z0.0 ; Pen down
G1 X34.000 Y93.500 F1000
G0 Z3.0 ; Pen up

G0 X32.500 Y93.000 F3000 ; Travel to line 92
G0 Z0.0 ; Pen down
G1 X33.500 Y92.000 F1000
G1 X33.500 Y92.000 F1000
G1 X32.500 Y93.000 F1000
G0 Z3.0 ; Pen up

G0 X32.500 Y92.500 F3000 ; Travel to line 93
G0 Z0.0 ; Pen down
G1 X33.000 Y92.000 F1000
G0 Z3.0 ; Pen up

G0 X41.500 Y92.500 F3000 ; Travel to line 94
G0 Z0.0 ; Pen down
G1 X42.000 Y92.000 F1000
G1 X42.000 Y92.000 F1000
G1 X41.500 Y92.500 F1000
G1 X41.500 Y92.500 F1000
G1 X42.000 Y92.000 F1000
G0 Z3.0 ; Pen up

G0 X43.000 Y92.000 F3000 ; Travel to line 95
G0 Z0.0 ; Pen down
G1 X41.500 Y93.500 F1000
G0 Z3.0 ; Pen up

G0 X42.500 Y94.500 F3000 ; Travel to line 96
G0 Z0.0 ; Pen down
G1 X45.000 Y92.000 F1000
G0 Z3.0 ; Pen up

G0 X45.500 Y93.500 F3000 ; Travel to line 97
G0 Z0.0 ; Pen down
G1 X47.000 Y92.000 F1000
G0 Z3.0 ; Pen up

G0 X47.000 Y93.500 F3000 ; Travel to line 98
G0 Z0.0 ; Pen down
G1 X48.500 Y92.000 F1000
G1 X48.500 Y92.000 F1000
G1 X47.000 Y93.500 F1000
G0 Z3.0 ; Pen up

G0 X47.500 Y93.500 F3000 ; Travel to line 99
G0 Z0.0 ; Pen down
G1 X48.500 Y92.500 F1000
G1 X48.500 Y92.500 F1000
G1 X47.500 Y93.500 F1000
G0 Z3.0 ; Pen up

G0 X48.000 Y93.500 F3000 ; Travel to line 100
G0 Z0.0 ; Pen down
G1 X48.500 Y93.000 F1000
G0 Z3.0 ; Pen up

G0 X46.500 Y93.500 F3000 ; Travel to line 101
G0 Z0.0 ; Pen down
G1 X48.000 Y92.000 F1000
G1 X48.000 Y92.000 F1000
G1 X46.500 Y93.500 F1000
G0 Z3.0 ; Pen up

G0 X45.000 Y95.500 F3000 ; Travel to line 102
G0 Z0.0 ; Pen down
G1 X44.000 Y96.500 F1000
G0 Z3.0 ; Pen up

G0 X44.500 Y96.500 F3000 ; Travel to line 103
G0 Z0.0 ; Pen down
G1 X45.500 Y95.500 F1000
G1 X45.500 Y95.500 F1000
G1 X44.500 Y96.500 F1000
G0 Z3.0 ; Pen up

G0 X44.500 Y97.000 F3000 ; Travel to line 104
G0 Z0.0 ; Pen down
G1 X45.500 Y96.000 F1000
G0 Z3.0 ; Pen up

G0 X46.500 Y97.000 F3000 ; Travel to line 105
G0 Z0.0 ; Pen down
G1 X45.500 Y98.000 F1000
G0 Z3.0 ; Pen up

G0 X46.000 Y98.500 F3000 ; Travel to line 106
G0 Z0.0 ; Pen down
G1 X47.000 Y97.500 F1000
G1 X47.000 Y97.500 F1000
G1 X46.000 Y98.500 F1000
G0 Z3.0 ; Pen up

G0 X46.500 Y98.500 F3000 ; Travel to line 107
G0 Z0.0 ; Pen down
G1 X47.000 Y98.000 F1000
G0 Z3.0 ; Pen up

G0 X46.500 Y99.000 F3000 ; Travel to line 108
G0 Z0.0 ; Pen down
G1 X47.500 Y98.000 F1000
G1 X47.500 Y98.000 F1000
G1 X46.500 Y99.000 F1000
G0 Z3.0 ; Pen up

G0 X48.000 Y99.500 F3000 ; Travel to line 109
G0 Z0.0 ; Pen down
G1 X46.500 Y101.500 F1000
G0 Z3.0 ; Pen up

G0 X46.000 Y101.500 F3000 ; Travel to line 110
G0 Z0.0 ; Pen down
G1 X46.000 Y102.000 F1000
G0 Z3.0 ; Pen up

G0 X45.500 Y102.000 F3000 ; Travel to line 111
G0 Z0.0 ; Pen down
G1 X44.000 Y103.500 F1000
G0 Z3.0 ; Pen up

G0 X42.500 Y103.000 F3000 ; Travel to line 112
G0 Z0.0 ; Pen down
G1 X43.500 Y102.000 F1000
G1 X43.500 Y102.000 F1000
G1 X42.500 Y103.000 F1000
G0 Z3.0 ; Pen up

G0 X42.000 Y103.000 F3000 ; Travel to line 113
G0 Z0.0 ; Pen down
G1 X43.000 Y102.000 F1000
G0 Z3.0 ; Pen up

G0 X42.000 Y101.500 F3000 ; Travel to line 114
G0 Z0.0 ; Pen down
G1 X41.500 Y102.000 F1000
G0 Z3.0 ; Pen up

G0 X41.500 Y103.000 F3000 ; Travel to line 115
G0 Z0.0 ; Pen down
G1 X42.500 Y102.000 F1000
G1 X42.500 Y102.000 F1000
G1 X41.500 Y103.000 F1000
G0 Z3.0 ; Pen up

G0 X43.500 Y96.000 F3000 ; Travel to line 116
G0 Z0.0 ; Pen down
G1 X44.500 Y95.000 F1000
G0 Z3.0 ; Pen up

G0 X44.000 Y96.000 F3000 ; Travel to line 117
G0 Z0.0 ; Pen down
G1 X45.000 Y95.000 F1000
G1 X45.000 Y95.000 F1000
G1 X44.000 Y96.000 F1000
G0 Z3.0 ; Pen up

G0 X51.000 Y94.000 F3000 ; Travel to line 118
G0 Z0.0 ; Pen down
G1 X52.500 Y92.000 F1000
G0 Z3.0 ; Pen up

G0 X53.000 Y93.500 F3000 ; Travel to line 119
G0 Z0.0 ; Pen down
G1 X54.500 Y92.000 F1000
G0 Z3.0 ; Pen up

G0 X55.000 Y93.500 F3000 ; Travel to line 120
G0 Z0.0 ; Pen down
G1 X56.000 Y92.500 F1000
G0 Z3.0 ; Pen up

G0 X57.000 Y93.000 F3000 ; Travel to line 121
G0 Z0.0 ; Pen down
G1 X56.000 Y94.000 F1000
G0 Z3.0 ; Pen up

G0 X56.000 Y94.500 F3000 ; Travel to line 122
G0 Z0.0 ; Pen down
G1 X57.500 Y93.000 F1000
G1 X57.500 Y93.000 F1000
G1 X56.000 Y94.500 F1000
G0 Z3.0 ; Pen up

G0 X56.500 Y94.500 F3000 ; Travel to line 123
G0 Z0.0 ; Pen down
G1 X57.500 Y93.500 F1000
G0 Z3.0 ; Pen up

G0 X58.000 Y95.000 F3000 ; Travel to line 124
G0 Z0.0 ; Pen down
G1 X54.000 Y99.000 F1000
G0 Z3.0 ; Pen up

G0 X55.000 Y99.000 F3000 ; Travel to line 125
G0 Z0.0 ; Pen down
G1 X58.000 Y96.000 F1000
G1 X58.000 Y96.000 F1000
G1 X55.000 Y99.000 F1000
G0 Z3.0 ; Pen up

G0 X55.500 Y99.000 F3000 ; Travel to line 126
G0 Z0.0 ; Pen down
G1 X56.000 Y98.500 F1000
G0 Z3.0 ; Pen up

G0 X56.500 Y98.000 F3000 ; Travel to line 127
G0 Z0.0 ; Pen down
G1 X58.000 Y96.500 F1000
G0 Z3.0 ; Pen up

G0 X60.500 Y97.000 F3000 ; Travel to line 128
G0 Z0.0 ; Pen down
G1 X61.000 Y96.500 F1000
G0 Z3.0 ; Pen up

G0 X62.000 Y95.500 F3000 ; Travel to line 129
G0 Z0.0 ; Pen down
G1 X63.000 Y94.500 F1000
G0 Z3.0 ; Pen up

G0 X64.000 Y95.500 F3000 ; Travel to line 130
G0 Z0.0 ; Pen down
G1 X66.500 Y93.000 F1000
G1 X66.500 Y93.000 F1000
G1 X64.000 Y95.500 F1000
G0 Z3.0 ; Pen up

G0 X65.000 Y95.500 F3000 ; Travel to line 131
G0 Z0.0 ; Pen down
G1 X66.500 Y94.000 F1000
G1 X66.500 Y94.000 F1000
G1 X65.000 Y95.500 F1000
G1 X65.000 Y95.500 F1000
G1 X66.500 Y94.000 F1000
G0 Z3.0 ; Pen up

G0 X68.000 Y94.500 F3000 ; Travel to line 132
G0 Z0.0 ; Pen down
G1 X65.500 Y97.000 F1000
G0 Z3.0 ; Pen up

G0 X65.500 Y98.000 F3000 ; Travel to line 133
G0 Z0.0 ; Pen down
G1 X66.500 Y97.000 F1000
G1 X66.500 Y97.000 F1000
G1 X65.500 Y98.000 F1000
G1 X65.500 Y98.000 F1000
G1 X66.500 Y97.000 F1000
G0 Z3.0 ; Pen up

G0 X66.500 Y98.000 F3000 ; Travel to line 134
G0 Z0.0 ; Pen down
G1 X65.500 Y99.000 F1000
G0 Z3.0 ; Pen up

G0 X65.500 Y100.000 F3000 ; Travel to line 135
G0 Z0.0 ; Pen down
G1 X66.500 Y99.000 F1000
G0 Z3.0 ; Pen up

G0 X66.500 Y101.000 F3000 ; Travel to line 136
G0 Z0.0 ; Pen down
G1 X64.500 Y103.000 F1000
G0 Z3.0 ; Pen up

G0 X66.000 Y103.500 F3000 ; Travel to line 137
G0 Z0.0 ; Pen down
G1 X66.500 Y103.000 F1000
G0 Z3.0 ; Pen up

G0 X64.000 Y100.500 F3000 ; Travel to line 138
G0 Z0.0 ; Pen down
G1 X63.500 Y101.000 F1000
G0 Z3.0 ; Pen up

G0 X63.000 Y100.500 F3000 ; Travel to line 139
G0 Z0.0 ; Pen down
G1 X63.500 Y100.000 F1000
G1 X63.500 Y100.000 F1000
G1 X63.000 Y100.500 F1000
G1 X63.000 Y100.500 F1000
G1 X63.500 Y100.000 F1000
G0 Z3.0 ; Pen up

G0 X63.000 Y99.500 F3000 ; Travel to line 140
G0 Z0.0 ; Pen down
G1 X62.500 Y100.000 F1000
G0 Z3.0 ; Pen up

G0 X62.000 Y99.500 F3000 ; Travel to line 141
G0 Z0.0 ; Pen down
G1 X62.500 Y99.000 F1000
G1 X62.500 Y99.000 F1000
G1 X62.000 Y99.500 F1000
G0 Z3.0 ; Pen up

G0 X62.000 Y98.500 F3000 ; Travel to line 142
G0 Z0.0 ; Pen down
G1 X62.500 Y98.000 F1000
G1 X62.500 Y98.000 F1000
G1 X62.000 Y98.500 F1000
G1 X62.000 Y98.500 F1000
G1 X62.500 Y98.000 F1000
G0 Z3.0 ; Pen up

G0 X61.500 Y98.000 F3000 ; Travel to line 143
G0 Z0.0 ; Pen down
G1 X62.000 Y97.500 F1000
G1 X62.000 Y97.500 F1000
G1 X61.500 Y98.000 F1000
G0 Z3.0 ; Pen up

G0 X57.500 Y99.500 F3000 ; Travel to line 144
G0 Z0.0 ; Pen down
G1 X56.500 Y101.000 F1000
G0 Z3.0 ; Pen up

G0 X56.000 Y101.000 F3000 ; Travel to line 145
G0 Z0.0 ; Pen down
G1 X56.000 Y101.500 F1000
G0 Z3.0 ; Pen up

G0 X55.500 Y101.500 F3000 ; Travel to line 146
G0 Z0.0 ; Pen down
G1 X55.500 Y102.000 F1000
G0 Z3.0 ; Pen up

G0 X55.000 Y102.000 F3000 ; Travel to line 147
G0 Z0.0 ; Pen down
G1 X53.500 Y103.500 F1000
G0 Z3.0 ; Pen up

G0 X52.000 Y103.000 F3000 ; Travel to line 148
G0 Z0.0 ; Pen down
G1 X53.000 Y102.000 F1000
G1 X53.000 Y102.000 F1000
G1 X52.000 Y103.000 F1000
G0 Z3.0 ; Pen up

G0 X51.500 Y103.000 F3000 ; Travel to line 149
G0 Z0.0 ; Pen down
G1 X52.500 Y102.000 F1000
G0 Z3.0 ; Pen up

G0 X51.000 Y103.000 F3000 ; Travel to line 150
G0 Z0.0 ; Pen down
G1 X52.000 Y102.000 F1000
G1 X52.000 Y102.000 F1000
G1 X51.000 Y103.000 F1000
G0 Z3.0 ; Pen up

G0 X53.000 Y98.000 F3000 ; Travel to line 151
G0 Z0.0 ; Pen down
G1 X53.500 Y97.500 F1000
G0 Z3.0 ; Pen up

G0 X55.500 Y99.500 F3000 ; Travel to line 152
G0 Z0.0 ; Pen down
G1 X56.500 Y98.500 F1000
G1 X56.500 Y98.500 F1000
G1 X55.500 Y99.500 F1000
G0 Z3.0 ; Pen up

G0 X57.500 Y102.000 F3000 ; Travel to line 153
G0 Z0.0 ; Pen down
G1 X56.500 Y103.000 F1000
G0 Z3.0 ; Pen up

G0 X55.500 Y94.000 F3000 ; Travel to line 154
G0 Z0.0 ; Pen down
G1 X57.000 Y92.500 F1000
G1 X57.000 Y92.500 F1000
G1 X55.500 Y94.000 F1000
G0 Z3.0 ; Pen up

G0 X65.000 Y92.500 F3000 ; Travel to line 155
G0 Z0.0 ; Pen down
G1 X65.500 Y92.000 F1000
G0 Z3.0 ; Pen up

G0 X65.500 Y96.000 F3000 ; Travel to line 156
G0 Z0.0 ; Pen down
G1 X67.000 Y94.500 F1000
G1 X67.000 Y94.500 F1000
G1 X65.500 Y96.000 F1000
G0 Z3.0 ; Pen up

G0 X67.500 Y96.000 F3000 ; Travel to line 157
G0 Z0.0 ; Pen down
G1 X68.500 Y95.000 F1000
G1 X68.500 Y95.000 F1000
G1 X67.500 Y96.000 F1000
G1 X67.500 Y96.000 F1000
G1 X68.500 Y95.000 F1000
G0 Z3.0 ; Pen up

G0 X70.000 Y94.000 F3000 ; Travel to line 158
G0 Z0.0 ; Pen down
G1 X72.000 Y92.000 F1000
G0 Z3.0 ; Pen up

G0 X72.500 Y93.500 F3000 ; Travel to line 159
G0 Z0.0 ; Pen down
G1 X74.000 Y92.000 F1000
G0 Z3.0 ; Pen up

G0 X74.500 Y94.000 F3000 ; Travel to line 160
G0 Z0.0 ; Pen down
G1 X76.000 Y92.500 F1000
G0 Z3.0 ; Pen up

G0 X76.500 Y93.000 F3000 ; Travel to line 161
G0 Z0.0 ; Pen down
G1 X75.000 Y94.500 F1000
G0 Z3.0 ; Pen up

G0 X75.500 Y94.500 F3000 ; Travel to line 162
G0 Z0.0 ; Pen down
G1 X76.500 Y93.500 F1000
G1 X76.500 Y93.500 F1000
G1 X75.500 Y94.500 F1000
G0 Z3.0 ; Pen up

G0 X75.500 Y95.000 F3000 ; Travel to line 163
G0 Z0.0 ; Pen down
G1 X77.000 Y93.500 F1000
G0 Z3.0 ; Pen up

G0 X77.500 Y95.000 F3000 ; Travel to line 164
G0 Z0.0 ; Pen down
G1 X75.500 Y97.000 F1000
G0 Z3.0 ; Pen up

G0 X77.000 Y97.500 F3000 ; Travel to line 165
G0 Z0.0 ; Pen down
G1 X74.500 Y100.000 F1000
G0 Z3.0 ; Pen up

G0 X74.000 Y100.000 F3000 ; Travel to line 166
G0 Z0.0 ; Pen down
G1 X77.500 Y96.500 F1000
G1 X77.500 Y96.500 F1000
G1 X74.000 Y100.000 F1000
G0 Z3.0 ; Pen up

G0 X73.500 Y100.000 F3000 ; Travel to line 167
G0 Z0.0 ; Pen down
G1 X77.500 Y96.000 F1000
G0 Z3.0 ; Pen up

G0 X80.000 Y95.500 F3000 ; Travel to line 168
G0 Z0.0 ; Pen down
G1 X81.500 Y94.000 F1000
G0 Z3.0 ; Pen up

G0 X82.500 Y93.000 F3000 ; Travel to line 169
G0 Z0.0 ; Pen down
G1 X83.500 Y92.000 F1000
G0 Z3.0 ; Pen up

G0 X85.000 Y93.000 F3000 ; Travel to line 170
G0 Z0.0 ; Pen down
G1 X85.500 Y92.500 F1000
G0 Z3.0 ; Pen up

G0 X86.000 Y93.000 F3000 ; Travel to line 171
G0 Z0.0 ; Pen down
G1 X85.500 Y93.500 F1000
G0 Z3.0 ; Pen up

G0 X85.500 Y94.000 F3000 ; Travel to line 172
G0 Z0.0 ; Pen down
G1 X86.500 Y93.000 F1000
G1 X86.500 Y93.000 F1000
G1 X85.500 Y94.000 F1000
G0 Z3.0 ; Pen up

G0 X86.000 Y94.000 F3000 ; Travel to line 173
G0 Z0.0 ; Pen down
G1 X86.500 Y93.500 F1000
G0 Z3.0 ; Pen up

G0 X85.000 Y93.500 F3000 ; Travel to line 174
G0 Z0.0 ; Pen down
G1 X86.000 Y92.500 F1000
G1 X86.000 Y92.500 F1000
G1 X85.000 Y93.500 F1000
G0 Z3.0 ; Pen up

G0 X87.000 Y95.000 F3000 ; Travel to line 175
G0 Z0.0 ; Pen down
G1 X86.000 Y96.000 F1000
G0 Z3.0 ; Pen up

G0 X86.000 Y96.500 F3000 ; Travel to line 176
G0 Z0.0 ; Pen down
G1 X87.000 Y95.500 F1000
G1 X87.000 Y95.500 F1000
G1 X86.000 Y96.500 F1000
G0 Z3.0 ; Pen up

G0 X86.000 Y97.000 F3000 ; Travel to line 177
G0 Z0.0 ; Pen down
G1 X87.000 Y96.000 F1000
G0 Z3.0 ; Pen up

G0 X87.000 Y97.000 F3000 ; Travel to line 178
G0 Z0.0 ; Pen down
G1 X84.000 Y100.000 F1000
G0 Z3.0 ; Pen up

G0 X83.500 Y100.000 F3000 ; Travel to line 179
G0 Z0.0 ; Pen down
G1 X84.500 Y99.000 F1000
G1 X84.500 Y99.000 F1000
G1 X83.500 Y100.000 F1000
G0 Z3.0 ; Pen up

G0 X83.000 Y100.000 F3000 ; Travel to line 180
G0 Z0.0 ; Pen down
G1 X84.000 Y99.000 F1000
G0 Z3.0 ; Pen up

G0 X83.000 Y99.000 F3000 ; Travel to line 181
G0 Z0.0 ; Pen down
G1 X82.500 Y99.500 F1000
G0 Z3.0 ; Pen up

G0 X82.500 Y100.000 F3000 ; Travel to line 182
G0 Z0.0 ; Pen down
G1 X83.500 Y99.000 F1000
G1 X83.500 Y99.000 F1000
G1 X82.500 Y100.000 F1000
G0 Z3.0 ; Pen up

G0 X82.000 Y101.000 F3000 ; Travel to line 183
G0 Z0.0 ; Pen down
G1 X81.000 Y102.000 F1000
G0 Z3.0 ; Pen up

G0 X81.000 Y102.500 F3000 ; Travel to line 184
G0 Z0.0 ; Pen down
G1 X82.000 Y101.500 F1000
G1 X82.000 Y101.500 F1000
G1 X81.000 Y102.500 F1000
G0 Z3.0 ; Pen up

G0 X81.500 Y102.500 F3000 ; Travel to line 185
G0 Z0.0 ; Pen down
G1 X82.500 Y101.500 F1000
G0 Z3.0 ; Pen up

G0 X81.500 Y100.500 F3000 ; Travel to line 186
G0 Z0.0 ; Pen down
G1 X80.500 Y101.500 F1000
G0 Z3.0 ; Pen up

G0 X80.500 Y102.000 F3000 ; Travel to line 187
G0 Z0.0 ; Pen down
G1 X81.500 Y101.000 F1000
G1 X81.500 Y101.000 F1000
G1 X80.500 Y102.000 F1000
G0 Z3.0 ; Pen up

G0 X80.000 Y100.000 F3000 ; Travel to line 188
G0 Z0.0 ; Pen down
G1 X82.000 Y98.000 F1000
G0 Z3.0 ; Pen up

G0 X81.500 Y97.500 F3000 ; Travel to line 189
G0 Z0.0 ; Pen down
G1 X80.000 Y99.000 F1000
G0 Z3.0 ; Pen up

G0 X80.000 Y99.500 F3000 ; Travel to line 190
G0 Z0.0 ; Pen down
G1 X81.500 Y98.000 F1000
G1 X81.500 Y98.000 F1000
G1 X80.000 Y99.500 F1000
G0 Z3.0 ; Pen up

G0 X79.500 Y99.000 F3000 ; Travel to line 191
G0 Z0.0 ; Pen down
G1 X81.000 Y97.500 F1000
G1 X81.000 Y97.500 F1000
G1 X79.500 Y99.000 F1000
G0 Z3.0 ; Pen up

G0 X79.500 Y98.500 F3000 ; Travel to line 192
G0 Z0.0 ; Pen down
G1 X81.000 Y97.000 F1000
G0 Z3.0 ; Pen up

G0 X86.000 Y97.500 F3000 ; Travel to line 193
G0 Z0.0 ; Pen down
G1 X87.000 Y96.500 F1000
G1 X87.000 Y96.500 F1000
G1 X86.000 Y97.500 F1000
G0 Z3.0 ; Pen up

G0 X86.500 Y102.000 F3000 ; Travel to line 194
G0 Z0.0 ; Pen down
G1 X85.000 Y103.500 F1000
G0 Z3.0 ; Pen up

G0 X84.500 Y102.000 F3000 ; Travel to line 195
G0 Z0.0 ; Pen down
G1 X83.000 Y103.500 F1000
G0 Z3.0 ; Pen up

G0 X89.500 Y103.500 F3000 ; Travel to line 196
G0 Z0.0 ; Pen down
G1 X91.000 Y102.000 F1000
G0 Z3.0 ; Pen up

G0 X92.000 Y103.500 F3000 ; Travel to line 197
G0 Z0.0 ; Pen down
G1 X93.500 Y102.000 F1000
G0 Z3.0 ; Pen up

G0 X94.500 Y101.500 F3000 ; Travel to line 198
G0 Z0.0 ; Pen down
G1 X95.500 Y100.500 F1000
G0 Z3.0 ; Pen up

G0 X96.500 Y101.500 F3000 ; Travel to line 199
G0 Z0.0 ; Pen down
G1 X94.500 Y103.500 F1000
G0 Z3.0 ; Pen up

G0 X96.000 Y103.500 F3000 ; Travel to line 200
G0 Z0.0 ; Pen down
G1 X96.500 Y103.000 F1000
G1 X96.500 Y103.000 F1000
G1 X96.000 Y103.500 F1000
G1 X96.000 Y103.500 F1000
G1 X96.500 Y103.000 F1000
G0 Z3.0 ; Pen up

G0 X99.500 Y102.500 F3000 ; Travel to line 201
G0 Z0.0 ; Pen down
G1 X100.500 Y101.500 F1000
G1 X100.500 Y101.500 F1000
G1 X99.500 Y102.500 F1000
G0 Z3.0 ; Pen up

G0 X100.000 Y102.500 F3000 ; Travel to line 202
G0 Z0.0 ; Pen down
G1 X100.500 Y102.000 F1000
G0 Z3.0 ; Pen up

G0 X101.000 Y102.500 F3000 ; Travel to line 203
G0 Z0.0 ; Pen down
G1 X100.500 Y103.000 F1000
G0 Z3.0 ; Pen up

G0 X100.000 Y103.000 F3000 ; Travel to line 204
G0 Z0.0 ; Pen down
G1 X101.000 Y102.000 F1000
G1 X101.000 Y102.000 F1000
G1 X100.000 Y103.000 F1000
G0 Z3.0 ; Pen up

G0 X99.500 Y102.000 F3000 ; Travel to line 205
G0 Z0.0 ; Pen down
G1 X100.500 Y101.000 F1000
G0 Z3.0 ; Pen up

G0 X99.000 Y100.500 F3000 ; Travel to line 206
G0 Z0.0 ; Pen down
G1 X101.500 Y98.000 F1000
G0 Z3.0 ; Pen up

G0 X101.000 Y97.500 F3000 ; Travel to line 207
G0 Z0.0 ; Pen down
G1 X100.500 Y98.000 F1000
G0 Z3.0 ; Pen up

G0 X100.000 Y97.500 F3000 ; Travel to line 208
G0 Z0.0 ; Pen down
G1 X100.500 Y97.000 F1000
G0 Z3.0 ; Pen up

G0 X99.000 Y96.000 F3000 ; Travel to line 209
G0 Z0.0 ; Pen down
G1 X100.000 Y95.000 F1000
G0 Z3.0 ; Pen up

G0 X99.000 Y94.000 F3000 ; Travel to line 210
G0 Z0.0 ; Pen down
G1 X100.500 Y92.500 F1000
G0 Z3.0 ; Pen up

G0 X102.000 Y93.000 F3000 ; Travel to line 211
G0 Z0.0 ; Pen down
G1 X103.000 Y92.000 F1000
G0 Z3.0 ; Pen up

G0 X104.000 Y93.500 F3000 ; Travel to line 212
G0 Z0.0 ; Pen down
G1 X105.000 Y92.500 F1000
G0 Z3.0 ; Pen up

G0 X105.500 Y93.000 F3000 ; Travel to line 213
G0 Z0.0 ; Pen down
G1 X104.500 Y94.000 F1000
G0 Z3.0 ; Pen up

G0 X105.000 Y94.000 F3000 ; Travel to line 214
G0 Z0.0 ; Pen down
G1 X106.000 Y93.000 F1000
G1 X106.000 Y93.000 F1000
G1 X105.000 Y94.000 F1000
G0 Z3.0 ; Pen up

G0 X105.000 Y94.500 F3000 ; Travel to line 215
G0 Z0.0 ; Pen down
G1 X106.000 Y93.500 F1000
G0 Z3.0 ; Pen up

G0 X104.500 Y93.500 F3000 ; Travel to line 216
G0 Z0.0 ; Pen down
G1 X105.500 Y92.500 F1000
G1 X105.500 Y92.500 F1000
G1 X104.500 Y93.500 F1000
G0 Z3.0 ; Pen up

G0 X106.500 Y95.000 F3000 ; Travel to line 217
G0 Z0.0 ; Pen down
G1 X105.500 Y96.000 F1000
G0 Z3.0 ; Pen up

G0 X106.500 Y96.000 F3000 ; Travel to line 218
G0 Z0.0 ; Pen down
G1 X104.000 Y99.000 F1000
G1 X104.000 Y99.000 F1000
G1 X104.500 Y98.500 F1000
G1 X104.500 Y98.500 F1000
G1 X104.000 Y99.000 F1000
G1 X104.000 Y99.000 F1000
G1 X105.000 Y98.500 F1000
G0 Z3.0 ; Pen up

G0 X105.000 Y98.000 F3000 ; Travel to line 219
G0 Z0.0 ; Pen down
G1 X106.500 Y96.500 F1000
G1 X106.500 Y96.500 F1000
G1 X105.000 Y98.000 F1000
G0 Z3.0 ; Pen up

G0 X103.500 Y98.500 F3000 ; Travel to line 220
G0 Z0.0 ; Pen down
G1 X106.500 Y95.500 F1000
G1 X106.500 Y95.500 F1000
G1 X103.500 Y98.500 F1000
G0 Z3.0 ; Pen up

G0 X103.000 Y98.500 F3000 ; Travel to line 221
G0 Z0.0 ; Pen down
G1 X103.000 Y98.000 F1000
G0 Z3.0 ; Pen up

G0 X105.000 Y101.000 F3000 ; Travel to line 222
G0 Z0.0 ; Pen down
G1 X106.000 Y100.000 F1000
G0 Z3.0 ; Pen up

G0 X106.000 Y102.000 F3000 ; Travel to line 223
G0 Z0.0 ; Pen down
G1 X105.000 Y103.000 F1000
G0 Z3.0 ; Pen up

G0 X103.500 Y102.500 F3000 ; Travel to line 224
G0 Z0.0 ; Pen down
G1 X102.500 Y103.500 F1000
G0 Z3.0 ; Pen up

G0 X99.500 Y99.500 F3000 ; Travel to line 225
G0 Z0.0 ; Pen down
G1 X100.500 Y98.500 F1000
G1 X100.500 Y98.500 F1000
G1 X99.500 Y99.500 F1000
G0 Z3.0 ; Pen up

G0 X95.000 Y98.000 F3000 ; Travel to line 226
G0 Z0.0 ; Pen down
G1 X94.000 Y99.000 F1000
G0 Z3.0 ; Pen up

G0 X94.000 Y99.500 F3000 ; Travel to line 227
G0 Z0.0 ; Pen down
G1 X95.000 Y98.500 F1000
G1 X95.000 Y98.500 F1000
G1 X94.000 Y99.500 F1000
G0 Z3.0 ; Pen up

G0 X93.500 Y99.000 F3000 ; Travel to line 228
G0 Z0.0 ; Pen down
G1 X95.000 Y97.500 F1000
G1 X95.000 Y97.500 F1000
G1 X93.500 Y99.000 F1000
G0 Z3.0 ; Pen up

G0 X93.000 Y98.000 F3000 ; Travel to line 229
G0 Z0.0 ; Pen down
G1 X94.500 Y97.000 F1000
G0 Z3.0 ; Pen up

G0 X94.000 Y95.500 F3000 ; Travel to line 230
G0 Z0.0 ; Pen down
G1 X92.500 Y97.000 F1000
G0 Z3.0 ; Pen up

G0 X92.500 Y96.500 F3000 ; Travel to line 231
G0 Z0.0 ; Pen down
G1 X94.000 Y95.000 F1000
G1 X94.000 Y95.000 F1000
G1 X92.500 Y96.500 F1000
G0 Z3.0 ; Pen up

G0 X92.500 Y96.000 F3000 ; Travel to line 232
G0 Z0.0 ; Pen down
G1 X93.500 Y95.000 F1000
G0 Z3.0 ; Pen up

G0 X92.500 Y95.500 F3000 ; Travel to line 233
G0 Z0.0 ; Pen down
G1 X93.500 Y94.500 F1000
G1 X93.500 Y94.500 F1000
G1 X92.500 Y95.500 F1000
G0 Z3.0 ; Pen up

G0 X92.000 Y95.500 F3000 ; Travel to line 234
G0 Z0.0 ; Pen down
G1 X93.000 Y94.000 F1000
G0 Z3.0 ; Pen up

G0 X91.500 Y93.500 F3000 ; Travel to line 235
G0 Z0.0 ; Pen down
G1 X92.500 Y92.500 F1000
G0 Z3.0 ; Pen up

G0 X89.500 Y103.000 F3000 ; Travel to line 236
G0 Z0.0 ; Pen down
G1 X90.500 Y102.000 F1000
G1 X90.500 Y102.000 F1000
G1 X89.500 Y103.000 F1000
G0 Z3.0 ; Pen up

G0 X90.000 Y103.500 F3000 ; Travel to line 237
G0 Z0.0 ; Pen down
G1 X91.500 Y102.000 F1000
G1 X91.500 Y102.000 F1000
G1 X90.000 Y103.500 F1000
G0 Z3.0 ; Pen up

G0 X76.500 Y102.500 F3000 ; Travel to line 238
G0 Z0.0 ; Pen down
G1 X75.500 Y103.500 F1000
G0 Z3.0 ; Pen up

G0 X75.000 Y102.000 F3000 ; Travel to line 239
G0 Z0.0 ; Pen down
G1 X73.500 Y103.500 F1000
G0 Z3.0 ; Pen up

G0 X72.500 Y102.000 F3000 ; Travel to line 240
G0 Z0.0 ; Pen down
G1 X71.000 Y103.500 F1000
G0 Z3.0 ; Pen up

G0 X70.500 Y103.500 F3000 ; Travel to line 241
G0 Z0.0 ; Pen down
G1 X72.000 Y102.000 F1000
G1 X72.000 Y102.000 F1000
G1 X70.500 Y103.500 F1000
G0 Z3.0 ; Pen up

G0 X70.500 Y103.000 F3000 ; Travel to line 242
G0 Z0.0 ; Pen down
G1 X72.000 Y101.500 F1000
G0 Z3.0 ; Pen up

G0 X72.000 Y100.500 F3000 ; Travel to line 243
G0 Z0.0 ; Pen down
G1 X70.500 Y102.000 F1000
G0 Z3.0 ; Pen up

G0 X70.500 Y102.500 F3000 ; Travel to line 244
G0 Z0.0 ; Pen down
G1 X72.000 Y101.000 F1000
G1 X72.000 Y101.000 F1000
G1 X70.500 Y102.500 F1000
G0 Z3.0 ; Pen up

G0 X70.500 Y100.000 F3000 ; Travel to line 245
G0 Z0.0 ; Pen down
G1 X72.000 Y98.500 F1000
G0 Z3.0 ; Pen up

G0 X71.000 Y98.500 F3000 ; Travel to line 246
G0 Z0.0 ; Pen down
G1 X70.500 Y99.000 F1000
G0 Z3.0 ; Pen up

G0 X70.500 Y99.500 F3000 ; Travel to line 247
G0 Z0.0 ; Pen down
G1 X71.500 Y98.500 F1000
G1 X71.500 Y98.500 F1000
G1 X70.500 Y99.500 F1000
G0 Z3.0 ; Pen up

G0 X72.500 Y100.000 F3000 ; Travel to line 248
G0 Z0.0 ; Pen down
G1 X74.000 Y98.500 F1000
G0 Z3.0 ; Pen up

G0 X73.000 Y100.000 F3000 ; Travel to line 249
G0 Z0.0 ; Pen down
G1 X77.500 Y95.500 F1000
G1 X77.500 Y95.500 F1000
G1 X73.000 Y100.000 F1000
G0 Z3.0 ; Pen up

G0 X75.000 Y94.000 F3000 ; Travel to line 250
G0 Z0.0 ; Pen down
G1 X76.000 Y93.000 F1000
G1 X76.000 Y93.000 F1000
G1 X75.000 Y94.000 F1000
G0 Z3.0 ; Pen up

G0 X74.000 Y66.000 F3000 ; Travel to line 251
G0 Z0.0 ; Pen down
G1 X76.500 Y63.500 F1000
G0 Z3.0 ; Pen up

G0 X77.500 Y61.500 F3000 ; Travel to line 252
G0 Z0.0 ; Pen down
G1 X73.000 Y66.000 F1000
G0 Z3.0 ; Pen up

G0 X73.500 Y66.000 F3000 ; Travel to line 253
G0 Z0.0 ; Pen down
G1 X78.000 Y61.500 F1000
G1 X78.000 Y61.500 F1000
G1 X73.500 Y66.000 F1000
G1 X73.500 Y66.000 F1000
G1 X78.000 Y61.500 F1000
G0 Z3.0 ; Pen up

G0 X80.000 Y60.500 F3000 ; Travel to line 254
G0 Z0.0 ; Pen down
G1 X80.500 Y60.000 F1000
G0 Z3.0 ; Pen up

G0 X81.000 Y60.500 F3000 ; Travel to line 255
G0 Z0.0 ; Pen down
G1 X81.000 Y61.000 F1000
G1 X81.000 Y61.000 F1000
G1 X81.500 Y60.500 F1000
G0 Z3.0 ; Pen up

G0 X81.500 Y61.000 F3000 ; Travel to line 256
G0 Z0.0 ; Pen down
G1 X81.000 Y61.500 F1000
G1 X81.000 Y61.500 F1000
G1 X81.500 Y61.000 F1000
G1 X81.500 Y61.000 F1000
G1 X81.000 Y62.000 F1000
G0 Z3.0 ; Pen up

G0 X80.500 Y62.000 F3000 ; Travel to line 257
G0 Z0.0 ; Pen down
G1 X80.500 Y62.500 F1000
G0 Z3.0 ; Pen up

G0 X80.500 Y63.500 F3000 ; Travel to line 258
G0 Z0.0 ; Pen down
G1 X82.500 Y61.500 F1000
G0 Z3.0 ; Pen up

G0 X82.500 Y62.000 F3000 ; Travel to line 259
G0 Z0.0 ; Pen down
G1 X82.000 Y62.000 F1000
G0 Z3.0 ; Pen up

G0 X82.000 Y61.000 F3000 ; Travel to line 260
G0 Z0.0 ; Pen down
G1 X82.000 Y60.500 F1000
G0 Z3.0 ; Pen up

G0 X82.500 Y60.500 F3000 ; Travel to line 261
G0 Z0.0 ; Pen down
G1 X82.500 Y60.000 F1000
G0 Z3.0 ; Pen up

G0 X83.000 Y60.000 F3000 ; Travel to line 262
G0 Z0.0 ; Pen down
G1 X83.000 Y59.500 F1000
G0 Z3.0 ; Pen up

G0 X83.500 Y59.500 F3000 ; Travel to line 263
G0 Z0.0 ; Pen down
G1 X87.000 Y56.000 F1000
G0 Z3.0 ; Pen up

G0 X87.000 Y55.500 F3000 ; Travel to line 264
G0 Z0.0 ; Pen down
G1 X87.500 Y55.500 F1000
G0 Z3.0 ; Pen up

G0 X87.500 Y56.500 F3000 ; Travel to line 265
G0 Z0.0 ; Pen down
G1 X86.500 Y57.500 F1000
G0 Z3.0 ; Pen up

G0 X86.500 Y58.000 F3000 ; Travel to line 266
G0 Z0.0 ; Pen down
G1 X87.500 Y57.000 F1000
G1 X87.500 Y57.000 F1000
G1 X86.500 Y58.000 F1000
G0 Z3.0 ; Pen up

G0 X86.500 Y58.500 F3000 ; Travel to line 267
G0 Z0.0 ; Pen down
G1 X87.500 Y57.500 F1000
G1 X87.500 Y57.500 F1000
G1 X86.500 Y58.500 F1000
G0 Z3.0 ; Pen up

G0 X87.000 Y60.000 F3000 ; Travel to line 268
G0 Z0.0 ; Pen down
G1 X88.000 Y59.500 F1000
G0 Z3.0 ; Pen up

G0 X90.500 Y61.000 F3000 ; Travel to line 269
G0 Z0.0 ; Pen down
G1 X91.000 Y60.000 F1000
G0 Z3.0 ; Pen up

G0 X92.000 Y61.500 F3000 ; Travel to line 270
G0 Z0.0 ; Pen down
G1 X93.500 Y60.000 F1000
G0 Z3.0 ; Pen up

G0 X93.500 Y60.500 F3000 ; Travel to line 271
G0 Z0.0 ; Pen down
G1 X92.000 Y62.000 F1000
G0 Z3.0 ; Pen up

G0 X91.500 Y62.000 F3000 ; Travel to line 272
G0 Z0.0 ; Pen down
G1 X91.500 Y62.500 F1000
G0 Z3.0 ; Pen up

G0 X91.500 Y63.000 F3000 ; Travel to line 273
G0 Z0.0 ; Pen down
G1 X93.500 Y61.000 F1000
G1 X93.500 Y61.000 F1000
G1 X90.500 Y63.500 F1000
G1 X90.500 Y63.500 F1000
G1 X93.500 Y61.000 F1000
G0 Z3.0 ; Pen up

G0 X94.000 Y61.000 F3000 ; Travel to line 274
G0 Z0.0 ; Pen down
G1 X94.000 Y60.500 F1000
G0 Z3.0 ; Pen up

G0 X94.000 Y61.500 F3000 ; Travel to line 275
G0 Z0.0 ; Pen down
G1 X95.500 Y60.000 F1000
G0 Z3.0 ; Pen up

G0 X96.000 Y60.000 F3000 ; Travel to line 276
G0 Z0.0 ; Pen down
G1 X96.000 Y59.500 F1000
G0 Z3.0 ; Pen up

G0 X95.000 Y60.000 F3000 ; Travel to line 277
G0 Z0.0 ; Pen down
G1 X95.000 Y60.500 F1000
G0 Z3.0 ; Pen up

G0 X94.000 Y62.000 F3000 ; Travel to line 278
G0 Z0.0 ; Pen down
G1 X92.500 Y63.500 F1000
G0 Z3.0 ; Pen up

G0 X92.000 Y63.000 F3000 ; Travel to line 279
G0 Z0.0 ; Pen down
G1 X94.500 Y60.500 F1000
G1 X94.500 Y60.500 F1000
G1 X92.000 Y63.000 F1000
G0 Z3.0 ; Pen up

G0 X91.500 Y63.500 F3000 ; Travel to line 280
G0 Z0.0 ; Pen down
G1 X91.000 Y63.500 F1000
G0 Z3.0 ; Pen up

G0 X90.000 Y63.500 F3000 ; Travel to line 281
G0 Z0.0 ; Pen down
G1 X91.000 Y62.500 F1000
G1 X91.000 Y62.500 F1000
G1 X90.000 Y64.000 F1000
G1 X90.000 Y64.000 F1000
G1 X90.500 Y64.000 F1000
G1 X90.500 Y64.000 F1000
G1 X90.000 Y64.000 F1000
G0 Z3.0 ; Pen up

G0 X92.500 Y65.500 F3000 ; Travel to line 282
G0 Z0.0 ; Pen down
G1 X93.500 Y64.500 F1000
G0 Z3.0 ; Pen up

G0 X94.500 Y63.500 F3000 ; Travel to line 283
G0 Z0.0 ; Pen down
G1 X95.000 Y62.500 F1000
G0 Z3.0 ; Pen up

G0 X95.500 Y64.000 F3000 ; Travel to line 284
G0 Z0.0 ; Pen down
G1 X96.500 Y63.500 F1000
G0 Z3.0 ; Pen up

G0 X101.500 Y62.500 F3000 ; Travel to line 285
G0 Z0.0 ; Pen down
G1 X103.000 Y61.000 F1000
G0 Z3.0 ; Pen up

G0 X101.500 Y60.500 F3000 ; Travel to line 286
G0 Z0.0 ; Pen down
G1 X103.000 Y59.000 F1000
G0 Z3.0 ; Pen up

G0 X101.000 Y59.000 F3000 ; Travel to line 287
G0 Z0.0 ; Pen down
G1 X103.000 Y57.000 F1000
G0 Z3.0 ; Pen up

G0 X101.500 Y56.000 F3000 ; Travel to line 288
G0 Z0.0 ; Pen down
G1 X104.000 Y53.500 F1000
G0 Z3.0 ; Pen up

G0 X103.000 Y52.500 F3000 ; Travel to line 289
G0 Z0.0 ; Pen down
G1 X104.000 Y51.500 F1000
G1 X104.000 Y51.500 F1000
G1 X103.000 Y52.500 F1000
G0 Z3.0 ; Pen up

G0 X102.500 Y53.500 F3000 ; Travel to line 290
G0 Z0.0 ; Pen down
G1 X104.500 Y51.500 F1000
G0 Z3.0 ; Pen up

G0 X102.000 Y54.500 F3000 ; Travel to line 291
G0 Z0.0 ; Pen down
G1 X104.500 Y52.000 F1000
G1 X104.500 Y52.000 F1000
G1 X102.000 Y54.500 F1000
G0 Z3.0 ; Pen up

G0 X103.500 Y63.000 F3000 ; Travel to line 292
G0 Z0.0 ; Pen down
G1 X102.500 Y64.000 F1000
G1 X102.500 Y64.000 F1000
G1 X103.500 Y63.000 F1000
G1 X103.500 Y63.000 F1000
G1 X102.500 Y64.000 F1000
G0 Z3.0 ; Pen up

G0 X102.500 Y64.500 F3000 ; Travel to line 293
G0 Z0.0 ; Pen down
G1 X103.500 Y63.500 F1000
G0 Z3.0 ; Pen up

G0 X104.000 Y64.500 F3000 ; Travel to line 294
G0 Z0.0 ; Pen down
G1 X103.000 Y65.500 F1000
G0 Z3.0 ; Pen up

G0 X103.000 Y64.500 F3000 ; Travel to line 295
G0 Z0.0 ; Pen down
G1 X103.500 Y64.000 F1000
G1 X103.500 Y64.000 F1000
G1 X103.000 Y64.500 F1000
G0 Z3.0 ; Pen up

G0 X104.000 Y66.000 F3000 ; Travel to line 296
G0 Z0.0 ; Pen down
G1 X104.500 Y65.500 F1000
G0 Z3.0 ; Pen up

G0 X110.500 Y65.500 F3000 ; Travel to line 297
G0 Z0.0 ; Pen down
G1 X113.000 Y63.000 F1000
G1 X113.000 Y63.000 F1000
G1 X110.500 Y65.500 F1000
G1 X110.500 Y65.500 F1000
G1 X113.000 Y63.000 F1000
G0 Z3.0 ; Pen up

G0 X112.500 Y64.000 F3000 ; Travel to line 298
G0 Z0.0 ; Pen down
G1 X110.500 Y66.000 F1000
G0 Z3.0 ; Pen up

G0 X111.000 Y66.000 F3000 ; Travel to line 299
G0 Z0.0 ; Pen down
G1 X112.000 Y65.000 F1000
G1 X112.000 Y65.000 F1000
G1 X111.000 Y66.000 F1000
G0 Z3.0 ; Pen up

G0 X112.000 Y61.500 F3000 ; Travel to line 300
G0 Z0.0 ; Pen down
G1 X114.000 Y59.500 F1000
G0 Z3.0 ; Pen up

G0 X114.000 Y58.000 F3000 ; Travel to line 301
G0 Z0.0 ; Pen down
G1 X112.000 Y59.500 F1000
G0 Z3.0 ; Pen up

G0 X112.000 Y57.500 F3000 ; Travel to line 302
G0 Z0.0 ; Pen down
G1 X113.500 Y56.000 F1000
G0 Z3.0 ; Pen up

G0 X111.500 Y55.500 F3000 ; Travel to line 303
G0 Z0.0 ; Pen down
G1 X113.000 Y54.000 F1000
G0 Z3.0 ; Pen up

G0 X112.500 Y53.000 F3000 ; Travel to line 304
G0 Z0.0 ; Pen down
G1 X111.500 Y54.000 F1000
G0 Z3.0 ; Pen up

G0 X111.500 Y54.500 F3000 ; Travel to line 305
G0 Z0.0 ; Pen down
G1 X112.500 Y53.500 F1000
G1 X112.500 Y53.500 F1000
G1 X111.500 Y54.500 F1000
G0 Z3.0 ; Pen up

G0 X111.000 Y54.000 F3000 ; Travel to line 306
G0 Z0.0 ; Pen down
G1 X112.000 Y53.000 F1000
G1 X112.000 Y53.000 F1000
G1 X111.000 Y54.000 F1000
G0 Z3.0 ; Pen up

G0 X110.500 Y52.500 F3000 ; Travel to line 307
G0 Z0.0 ; Pen down
G1 X111.500 Y51.500 F1000
G0 Z3.0 ; Pen up

G0 X111.000 Y51.500 F3000 ; Travel to line 308
G0 Z0.0 ; Pen down
G1 X110.500 Y52.000 F1000
G0 Z3.0 ; Pen up

G0 X117.000 Y51.000 F3000 ; Travel to line 309
G0 Z0.0 ; Pen down
G1 X126.500 Y51.000 F1000
G0 Z3.0 ; Pen up

G0 X131.000 Y55.000 F3000 ; Travel to line 310
G0 Z0.0 ; Pen down
G1 X131.000 Y55.500 F1000
G0 Z3.0 ; Pen up

G0 X132.500 Y56.000 F3000 ; Travel to line 311
G0 Z0.0 ; Pen down
G1 X131.000 Y57.500 F1000
G0 Z3.0 ; Pen up

G0 X132.000 Y58.000 F3000 ; Travel to line 312
G0 Z0.0 ; Pen down
G1 X130.000 Y60.000 F1000
G1 X130.000 Y60.000 F1000
G1 X132.000 Y58.500 F1000
G1 X132.000 Y58.500 F1000
G1 X130.500 Y60.000 F1000
G1 X130.500 Y60.000 F1000
G1 X132.000 Y58.500 F1000
G1 X132.000 Y58.500 F1000
G1 X130.500 Y60.000 F1000
G0 Z3.0 ; Pen up

G0 X131.000 Y60.000 F3000 ; Travel to line 313
G0 Z0.0 ; Pen down
G1 X132.500 Y58.500 F1000
G1 X132.500 Y58.500 F1000
G1 X131.000 Y60.500 F1000
G1 X131.000 Y60.500 F1000
G1 X133.000 Y58.500 F1000
G0 Z3.0 ; Pen up

G0 X134.000 Y58.500 F3000 ; Travel to line 314
G0 Z0.0 ; Pen down
G1 X132.500 Y60.000 F1000
G0 Z3.0 ; Pen up

G0 X132.000 Y60.500 F3000 ; Travel to line 315
G0 Z0.0 ; Pen down
G1 X131.000 Y61.500 F1000
G0 Z3.0 ; Pen up

G0 X132.000 Y62.500 F3000 ; Travel to line 316
G0 Z0.0 ; Pen down
G1 X131.000 Y63.500 F1000
G0 Z3.0 ; Pen up

G0 X128.500 Y60.000 F3000 ; Travel to line 317
G0 Z0.0 ; Pen down
G1 X130.000 Y58.500 F1000
G0 Z3.0 ; Pen up

G0 X127.500 Y58.500 F3000 ; Travel to line 318
G0 Z0.0 ; Pen down
G1 X127.500 Y59.000 F1000
G0 Z3.0 ; Pen up

G0 X134.500 Y60.000 F3000 ; Travel to line 319
G0 Z0.0 ; Pen down
G1 X135.500 Y59.500 F1000
G0 Z3.0 ; Pen up

G0 X137.000 Y59.000 F3000 ; Travel to line 320
G0 Z0.0 ; Pen down
G1 X137.000 Y58.500 F1000
G0 Z3.0 ; Pen up

G0 X137.500 Y58.500 F3000 ; Travel to line 321
G0 Z0.0 ; Pen down
G1 X137.500 Y58.000 F1000
G0 Z3.0 ; Pen up

G0 X138.000 Y60.000 F3000 ; Travel to line 322
G0 Z0.0 ; Pen down
G1 X141.500 Y56.500 F1000
G0 Z3.0 ; Pen up

G0 X142.000 Y57.500 F3000 ; Travel to line 323
G0 Z0.0 ; Pen down
G1 X144.000 Y55.500 F1000
G1 X144.000 Y55.500 F1000
G1 X141.500 Y58.000 F1000
G1 X141.500 Y58.000 F1000
G1 X142.000 Y58.000 F1000
G0 Z3.0 ; Pen up

G0 X142.500 Y57.500 F3000 ; Travel to line 324
G0 Z0.0 ; Pen down
G1 X144.500 Y55.500 F1000
G1 X144.500 Y55.500 F1000
G1 X142.500 Y57.500 F1000
G1 X142.500 Y57.500 F1000
G1 X144.500 Y55.500 F1000
G0 Z3.0 ; Pen up

G0 X145.000 Y55.500 F3000 ; Travel to line 325
G0 Z0.0 ; Pen down
G1 X145.000 Y55.000 F1000
G0 Z3.0 ; Pen up

G0 X145.500 Y55.000 F3000 ; Travel to line 326
G0 Z0.0 ; Pen down
G1 X143.000 Y57.500 F1000
G1 X143.000 Y57.500 F1000
G1 X143.500 Y57.500 F1000
G0 Z3.0 ; Pen up

G0 X143.500 Y57.000 F3000 ; Travel to line 327
G0 Z0.0 ; Pen down
G1 X145.500 Y55.500 F1000
G1 X145.500 Y55.500 F1000
G1 X144.000 Y57.000 F1000
G0 Z3.0 ; Pen up

G0 X146.500 Y56.500 F3000 ; Travel to line 328
G0 Z0.0 ; Pen down
G1 X147.500 Y55.500 F1000
G0 Z3.0 ; Pen up

G0 X146.500 Y56.000 F3000 ; Travel to line 329
G0 Z0.0 ; Pen down
G1 X147.000 Y55.500 F1000
G1 X147.000 Y55.500 F1000
G1 X146.500 Y56.000 F1000
G0 Z3.0 ; Pen up

G0 X148.000 Y57.000 F3000 ; Travel to line 330
G0 Z0.0 ; Pen down
G1 X149.000 Y56.000 F1000
G0 Z3.0 ; Pen up

G0 X150.000 Y57.500 F3000 ; Travel to line 331
G0 Z0.0 ; Pen down
G1 X151.000 Y56.500 F1000
G0 Z3.0 ; Pen up

G0 X152.000 Y57.500 F3000 ; Travel to line 332
G0 Z0.0 ; Pen down
G1 X151.000 Y58.500 F1000
G0 Z3.0 ; Pen up

G0 X151.500 Y58.500 F3000 ; Travel to line 333
G0 Z0.0 ; Pen down
G1 X152.500 Y57.500 F1000
G1 X152.500 Y57.500 F1000
G1 X151.500 Y58.500 F1000
G1 X151.500 Y58.500 F1000
G1 X152.500 Y57.500 F1000
G1 X152.500 Y57.500 F1000
G1 X151.500 Y58.500 F1000
G0 Z3.0 ; Pen up

G0 X152.000 Y58.500 F3000 ; Travel to line 334
G0 Z0.0 ; Pen down
G1 X153.000 Y57.500 F1000
G0 Z3.0 ; Pen up

G0 X153.500 Y58.000 F3000 ; Travel to line 335
G0 Z0.0 ; Pen down
G1 X152.500 Y59.000 F1000
G0 Z3.0 ; Pen up

G0 X152.500 Y58.500 F3000 ; Travel to line 336
G0 Z0.0 ; Pen down
G1 X153.500 Y57.500 F1000
G1 X153.500 Y57.500 F1000
G1 X152.500 Y58.500 F1000
G0 Z3.0 ; Pen up

G0 X152.000 Y59.500 F3000 ; Travel to line 337
G0 Z0.0 ; Pen down
G1 X149.500 Y62.000 F1000
G0 Z3.0 ; Pen up

G0 X149.000 Y62.000 F3000 ; Travel to line 338
G0 Z0.0 ; Pen down
G1 X151.000 Y60.000 F1000
G1 X151.000 Y60.000 F1000
G1 X149.000 Y62.000 F1000
G0 Z3.0 ; Pen up

G0 X148.000 Y62.500 F3000 ; Travel to line 339
G0 Z0.0 ; Pen down
G1 X150.500 Y60.000 F1000
G0 Z3.0 ; Pen up

G0 X149.000 Y60.500 F3000 ; Travel to line 340
G0 Z0.0 ; Pen down
G1 X146.500 Y63.000 F1000
G0 Z3.0 ; Pen up

G0 X147.000 Y63.000 F3000 ; Travel to line 341
G0 Z0.0 ; Pen down
G1 X149.500 Y60.500 F1000
G1 X149.500 Y60.500 F1000
G1 X147.000 Y63.000 F1000
G1 X147.000 Y63.000 F1000
G1 X149.500 Y60.500 F1000
G1 X149.500 Y60.500 F1000
G1 X147.000 Y63.000 F1000
G0 Z3.0 ; Pen up

G0 X146.500 Y62.500 F3000 ; Travel to line 342
G0 Z0.0 ; Pen down
G1 X148.000 Y61.000 F1000
G1 X148.000 Y61.000 F1000
G1 X146.500 Y62.500 F1000
G0 Z3.0 ; Pen up

G0 X145.500 Y63.000 F3000 ; Travel to line 343
G0 Z0.0 ; Pen down
G1 X145.000 Y63.000 F1000
G1 X145.000 Y63.000 F1000
G1 X145.500 Y62.500 F1000
G1 X145.500 Y62.500 F1000
G1 X145.000 Y63.000 F1000
G0 Z3.0 ; Pen up

G0 X144.000 Y62.500 F3000 ; Travel to line 344
G0 Z0.0 ; Pen down
G1 X145.000 Y61.500 F1000
G0 Z3.0 ; Pen up

G0 X143.500 Y61.000 F3000 ; Travel to line 345
G0 Z0.0 ; Pen down
G1 X142.000 Y62.000 F1000
G0 Z3.0 ; Pen up

G0 X141.000 Y61.000 F3000 ; Travel to line 346
G0 Z0.0 ; Pen down
G1 X142.000 Y60.000 F1000
G0 Z3.0 ; Pen up

G0 X141.000 Y60.000 F3000 ; Travel to line 347
G0 Z0.0 ; Pen down
G1 X140.000 Y61.000 F1000
G0 Z3.0 ; Pen up

G0 X139.500 Y61.000 F3000 ; Travel to line 348
G0 Z0.0 ; Pen down
G1 X140.500 Y60.000 F1000
G1 X140.500 Y60.000 F1000
G1 X139.500 Y61.000 F1000
G1 X139.500 Y61.000 F1000
G1 X140.500 Y60.000 F1000
G0 Z3.0 ; Pen up

G0 X139.500 Y60.500 F3000 ; Travel to line 349
G0 Z0.0 ; Pen down
G1 X140.500 Y59.500 F1000
G1 X140.500 Y59.500 F1000
G1 X139.500 Y60.500 F1000
G0 Z3.0 ; Pen up

G0 X139.000 Y60.500 F3000 ; Travel to line 350
G0 Z0.0 ; Pen down
G1 X140.000 Y59.500 F1000
G1 X140.000 Y59.500 F1000
G1 X139.000 Y60.500 F1000
G0 Z3.0 ; Pen up

G0 X151.000 Y58.000 F3000 ; Travel to line 351
G0 Z0.0 ; Pen down
G1 X152.000 Y57.000 F1000
G1 X152.000 Y57.000 F1000
G1 X151.000 Y58.000 F1000
G0 Z3.0 ; Pen up

G0 X154.000 Y60.000 F3000 ; Travel to line 352
G0 Z0.0 ; Pen down
G1 X155.000 Y59.000 F1000
G0 Z3.0 ; Pen up

G0 X159.500 Y56.500 F3000 ; Travel to line 353
G0 Z0.0 ; Pen down
G1 X161.500 Y54.500 F1000
G1 X161.500 Y54.500 F1000
G1 X159.500 Y56.500 F1000
G1 X159.500 Y56.500 F1000
G1 X161.500 Y54.500 F1000
G0 Z3.0 ; Pen up

G0 X161.000 Y54.500 F3000 ; Travel to line 354
G0 Z0.0 ; Pen down
G1 X159.500 Y56.000 F1000
G0 Z3.0 ; Pen up

G0 X159.500 Y55.500 F3000 ; Travel to line 355
G0 Z0.0 ; Pen down
G1 X161.000 Y54.000 F1000
G1 X161.000 Y54.000 F1000
G1 X159.500 Y55.500 F1000
G0 Z3.0 ; Pen up

G0 X159.500 Y54.500 F3000 ; Travel to line 356
G0 Z0.0 ; Pen down
G1 X160.500 Y53.500 F1000
G1 X160.500 Y53.500 F1000
G1 X159.500 Y54.500 F1000
G0 Z3.0 ; Pen up

G0 X159.500 Y54.000 F3000 ; Travel to line 357
G0 Z0.0 ; Pen down
G1 X160.500 Y53.000 F1000
G0 Z3.0 ; Pen up

G0 X159.500 Y52.000 F3000 ; Travel to line 358
G0 Z0.0 ; Pen down
G1 X159.000 Y52.500 F1000
G0 Z3.0 ; Pen up

G0 X159.000 Y54.000 F3000 ; Travel to line 359
G0 Z0.0 ; Pen down
G1 X160.500 Y52.500 F1000
G1 X160.500 Y52.500 F1000
G1 X159.000 Y54.000 F1000
G0 Z3.0 ; Pen up

G0 X161.000 Y56.500 F3000 ; Travel to line 360
G0 Z0.0 ; Pen down
G1 X161.500 Y56.000 F1000
G0 Z3.0 ; Pen up

G0 X169.000 Y55.500 F3000 ; Travel to line 361
G0 Z0.0 ; Pen down
G1 X170.500 Y54.000 F1000
G1 X170.500 Y54.000 F1000
G1 X169.000 Y56.000 F1000
G1 X169.000 Y56.000 F1000
G1 X171.000 Y54.000 F1000
G0 Z3.0 ; Pen up

G0 X171.000 Y54.500 F3000 ; Travel to line 362
G0 Z0.0 ; Pen down
G1 X169.000 Y56.500 F1000
G1 X169.000 Y56.500 F1000
G1 X171.000 Y54.500 F1000
G1 X171.000 Y54.500 F1000
G1 X169.000 Y56.500 F1000
G1 X169.000 Y56.500 F1000
G1 X171.000 Y55.000 F1000
G1 X171.000 Y55.000 F1000
G1 X169.500 Y56.500 F1000
G0 Z3.0 ; Pen up

G0 X171.000 Y56.500 F3000 ; Travel to line 363
G0 Z0.0 ; Pen down
G1 X170.500 Y56.500 F1000
G1 X170.500 Y56.500 F1000
G1 X171.000 Y56.000 F1000
G0 Z3.0 ; Pen up

G0 X169.000 Y54.500 F3000 ; Travel to line 364
G0 Z0.0 ; Pen down
G1 X169.000 Y54.000 F1000
G1 X169.000 Y54.000 F1000
G1 X169.000 Y54.500 F1000
G0 Z3.0 ; Pen up

G0 X178.500 Y54.500 F3000 ; Travel to line 365
G0 Z0.0 ; Pen down
G1 X180.000 Y53.000 F1000
G1 X180.000 Y53.000 F1000
G1 X178.500 Y54.500 F1000
G0 Z3.0 ; Pen up

G0 X178.500 Y55.000 F3000 ; Travel to line 366
G0 Z0.0 ; Pen down
G1 X180.000 Y53.500 F1000
G0 Z3.0 ; Pen up

G0 X180.500 Y52.500 F3000 ; Travel to line 367
G0 Z0.0 ; Pen down
G1 X181.500 Y51.500 F1000
G1 X181.500 Y51.500 F1000
G1 X180.500 Y52.500 F1000
G0 Z3.0 ; Pen up

G0 X181.000 Y52.500 F3000 ; Travel to line 368
G0 Z0.0 ; Pen down
G1 X182.000 Y51.500 F1000
G0 Z3.0 ; Pen up

G0 X181.500 Y52.500 F3000 ; Travel to line 369
G0 Z0.0 ; Pen down
G1 X182.000 Y52.000 F1000
G1 X182.000 Y52.000 F1000
G1 X181.500 Y52.500 F1000
G0 Z3.0 ; Pen up

G0 X179.500 Y51.500 F3000 ; Travel to line 370
G0 Z0.0 ; Pen down
G1 X178.500 Y52.500 F1000
G0 Z3.0 ; Pen up

G0 X178.500 Y52.000 F3000 ; Travel to line 371
G0 Z0.0 ; Pen down
G1 X179.000 Y51.500 F1000
G0 Z3.0 ; Pen up

G0 X180.000 Y55.000 F3000 ; Travel to line 372
G0 Z0.0 ; Pen down
G1 X178.500 Y56.500 F1000
G0 Z3.0 ; Pen up

G0 X178.500 Y55.500 F3000 ; Travel to line 373
G0 Z0.0 ; Pen down
G1 X180.000 Y54.000 F1000
G1 X180.000 Y54.000 F1000
G1 X178.500 Y55.500 F1000
G0 Z3.0 ; Pen up

G0 X180.000 Y57.500 F3000 ; Travel to line 374
G0 Z0.0 ; Pen down
G1 X178.500 Y59.000 F1000
G0 Z3.0 ; Pen up

G0 X180.000 Y59.500 F3000 ; Travel to line 375
G0 Z0.0 ; Pen down
G1 X178.500 Y61.000 F1000
G0 Z3.0 ; Pen up

G0 X180.000 Y61.500 F3000 ; Travel to line 376
G0 Z0.0 ; Pen down
G1 X178.500 Y63.000 F1000
G0 Z3.0 ; Pen up

G0 X180.000 Y64.000 F3000 ; Travel to line 377
G0 Z0.0 ; Pen down
G1 X178.500 Y65.500 F1000
G1 X178.500 Y65.500 F1000
G1 X180.000 Y64.000 F1000
G1 X180.000 Y64.000 F1000
G1 X178.500 Y65.500 F1000
G0 Z3.0 ; Pen up

G0 X178.500 Y66.000 F3000 ; Travel to line 378
G0 Z0.0 ; Pen down
G1 X180.000 Y64.500 F1000
G0 Z3.0 ; Pen up

G0 X181.000 Y65.000 F3000 ; Travel to line 379
G0 Z0.0 ; Pen down
G1 X180.000 Y66.000 F1000
G0 Z3.0 ; Pen up

G0 X179.000 Y66.000 F3000 ; Travel to line 380
G0 Z0.0 ; Pen down
G1 X180.000 Y65.000 F1000
G1 X180.000 Y65.000 F1000
G1 X179.000 Y66.000 F1000
G0 Z3.0 ; Pen up

G0 X181.500 Y66.000 F3000 ; Travel to line 381
G0 Z0.0 ; Pen down
G1 X182.000 Y65.500 F1000
G0 Z3.0 ; Pen up

G0 X187.000 Y65.500 F3000 ; Travel to line 382
G0 Z0.0 ; Pen down
G1 X187.500 Y65.000 F1000
G1 X187.500 Y65.000 F1000
G1 X187.000 Y65.500 F1000
G1 X187.000 Y65.500 F1000
G1 X187.500 Y65.000 F1000
G0 Z3.0 ; Pen up

G0 X188.000 Y65.000 F3000 ; Travel to line 383
G0 Z0.0 ; Pen down
G1 X187.000 Y66.000 F1000
G0 Z3.0 ; Pen up

G0 X187.500 Y66.000 F3000 ; Travel to line 384
G0 Z0.0 ; Pen down
G1 X188.500 Y65.000 F1000
G1 X188.500 Y65.000 F1000
G1 X187.500 Y66.000 F1000
G0 Z3.0 ; Pen up

G0 X188.500 Y66.000 F3000 ; Travel to line 385
G0 Z0.0 ; Pen down
G1 X190.500 Y64.000 F1000
G0 Z3.0 ; Pen up

G0 X190.500 Y65.500 F3000 ; Travel to line 386
G0 Z0.0 ; Pen down
G1 X190.000 Y66.000 F1000
G0 Z3.0 ; Pen up

G0 X189.000 Y64.500 F3000 ; Travel to line 387
G0 Z0.0 ; Pen down
G1 X190.500 Y63.000 F1000
G1 X190.500 Y63.000 F1000
G1 X189.000 Y64.500 F1000
G0 Z3.0 ; Pen up

G0 X189.000 Y64.000 F3000 ; Travel to line 388
G0 Z0.0 ; Pen down
G1 X190.500 Y62.500 F1000
G0 Z3.0 ; Pen up

G0 X190.500 Y62.000 F3000 ; Travel to line 389
G0 Z0.0 ; Pen down
G1 X189.000 Y63.500 F1000
G1 X189.000 Y63.500 F1000
G1 X190.500 Y62.000 F1000
G1 X190.500 Y62.000 F1000
G1 X189.000 Y63.500 F1000
G0 Z3.0 ; Pen up

G0 X189.000 Y61.000 F3000 ; Travel to line 390
G0 Z0.0 ; Pen down
G1 X190.500 Y59.500 F1000
G0 Z3.0 ; Pen up

G0 X189.000 Y59.000 F3000 ; Travel to line 391
G0 Z0.0 ; Pen down
G1 X190.500 Y57.500 F1000
G0 Z3.0 ; Pen up

G0 X189.000 Y57.000 F3000 ; Travel to line 392
G0 Z0.0 ; Pen down
G1 X190.500 Y55.500 F1000
G0 Z3.0 ; Pen up

G0 X189.000 Y54.500 F3000 ; Travel to line 393
G0 Z0.0 ; Pen down
G1 X190.500 Y53.000 F1000
G0 Z3.0 ; Pen up

G0 X189.000 Y53.000 F3000 ; Travel to line 394
G0 Z0.0 ; Pen down
G1 X190.500 Y51.500 F1000
G0 Z3.0 ; Pen up

G0 X189.000 Y52.500 F3000 ; Travel to line 395
G0 Z0.0 ; Pen down
G1 X190.000 Y51.500 F1000
G1 X190.000 Y51.500 F1000
G1 X189.000 Y52.500 F1000
G0 Z3.0 ; Pen up

G0 X189.000 Y53.500 F3000 ; Travel to line 396
G0 Z0.0 ; Pen down
G1 X190.500 Y52.000 F1000
G1 X190.500 Y52.000 F1000
G1 X189.000 Y53.500 F1000
G0 Z3.0 ; Pen up

G0 X187.000 Y52.500 F3000 ; Travel to line 397
G0 Z0.0 ; Pen down
G1 X188.000 Y51.500 F1000
G0 Z3.0 ; Pen up

G0 X187.500 Y51.500 F3000 ; Travel to line 398
G0 Z0.0 ; Pen down
G1 X187.000 Y52.000 F1000
G0 Z3.0 ; Pen up

G0 X198.500 Y52.500 F3000 ; Travel to line 399
G0 Z0.0 ; Pen down
G1 X200.000 Y51.000 F1000
G0 Z3.0 ; Pen up

G0 X201.000 Y52.000 F3000 ; Travel to line 400
G0 Z0.0 ; Pen down
G1 X202.000 Y51.000 F1000
G1 X202.000 Y51.000 F1000
G1 X201.000 Y52.000 F1000
G1 X201.000 Y52.000 F1000
G1 X202.000 Y51.000 F1000
G0 Z3.0 ; Pen up

G0 X201.500 Y52.000 F3000 ; Travel to line 401
G0 Z0.0 ; Pen down
G1 X202.000 Y51.500 F1000
G1 X202.000 Y51.500 F1000
G1 X201.500 Y52.000 F1000
G0 Z3.0 ; Pen up

G0 X198.500 Y54.000 F3000 ; Travel to line 402
G0 Z0.0 ; Pen down
G1 X201.500 Y51.000 F1000
G1 X201.500 Y51.000 F1000
G1 X198.500 Y54.000 F1000
G0 Z3.0 ; Pen up

G0 X198.500 Y54.500 F3000 ; Travel to line 403
G0 Z0.0 ; Pen down
G1 X200.000 Y53.000 F1000
G1 X200.000 Y53.000 F1000
G1 X198.500 Y54.500 F1000
G0 Z3.0 ; Pen up

G0 X198.500 Y55.000 F3000 ; Travel to line 404
G0 Z0.0 ; Pen down
G1 X200.000 Y53.500 F1000
G1 X200.000 Y53.500 F1000
G1 X198.500 Y55.000 F1000
G0 Z3.0 ; Pen up

G0 X200.000 Y55.500 F3000 ; Travel to line 405
G0 Z0.0 ; Pen down
G1 X196.500 Y59.000 F1000
G0 Z3.0 ; Pen up

G0 X198.000 Y59.500 F3000 ; Travel to line 406
G0 Z0.0 ; Pen down
G1 X199.000 Y58.500 F1000
G0 Z3.0 ; Pen up

G0 X199.500 Y60.000 F3000 ; Travel to line 407
G0 Z0.0 ; Pen down
G1 X198.500 Y61.000 F1000
G0 Z3.0 ; Pen up

G0 X200.000 Y61.500 F3000 ; Travel to line 408
G0 Z0.0 ; Pen down
G1 X198.500 Y63.000 F1000
G1 X198.500 Y63.000 F1000
G1 X200.000 Y61.500 F1000
G1 X200.000 Y61.500 F1000
G1 X198.500 Y63.000 F1000
G0 Z3.0 ; Pen up

G0 X198.500 Y63.500 F3000 ; Travel to line 409
G0 Z0.0 ; Pen down
G1 X200.000 Y62.000 F1000
G0 Z3.0 ; Pen up

G0 X200.000 Y63.500 F3000 ; Travel to line 410
G0 Z0.0 ; Pen down
G1 X198.500 Y65.000 F1000
G0 Z3.0 ; Pen up

G0 X198.500 Y64.000 F3000 ; Travel to line 411
G0 Z0.0 ; Pen down
G1 X200.000 Y62.500 F1000
G1 X200.000 Y62.500 F1000
G1 X198.500 Y64.000 F1000
G0 Z3.0 ; Pen up

G0 X200.000 Y66.000 F3000 ; Travel to line 412
G0 Z0.0 ; Pen down
G1 X201.000 Y65.000 F1000
G0 Z3.0 ; Pen up

G0 X201.500 Y66.000 F3000 ; Travel to line 413
G0 Z0.0 ; Pen down
G1 X202.000 Y65.500 F1000
G1 X202.000 Y65.500 F1000
G1 X201.500 Y66.000 F1000
G1 X201.500 Y66.000 F1000
G1 X202.000 Y65.500 F1000
G0 Z3.0 ; Pen up

G0 X205.500 Y65.500 F3000 ; Travel to line 414
G0 Z0.0 ; Pen down
G1 X205.500 Y65.000 F1000
G0 Z3.0 ; Pen up

G0 X206.000 Y65.000 F3000 ; Travel to line 415
G0 Z0.0 ; Pen down
G1 X205.500 Y66.000 F1000
G1 X205.500 Y66.000 F1000
G1 X206.500 Y65.000 F1000
G1 X206.500 Y65.000 F1000
G1 X205.500 Y66.000 F1000
G1 X205.500 Y66.000 F1000
G1 X206.500 Y65.000 F1000
G1 X206.500 Y65.000 F1000
G1 X205.500 Y66.000 F1000
G0 Z3.0 ; Pen up

G0 X206.000 Y66.000 F3000 ; Travel to line 416
G0 Z0.0 ; Pen down
G1 X209.500 Y63.000 F1000
G0 Z3.0 ; Pen up

G0 X208.000 Y63.000 F3000 ; Travel to line 417
G0 Z0.0 ; Pen down
G1 X209.500 Y61.500 F1000
G0 Z3.0 ; Pen up

G0 X208.000 Y61.500 F3000 ; Travel to line 418
G0 Z0.0 ; Pen down
G1 X209.500 Y60.000 F1000
G0 Z3.0 ; Pen up

G0 X210.000 Y59.500 F3000 ; Travel to line 419
G0 Z0.0 ; Pen down
G1 X211.500 Y58.000 F1000
G0 Z3.0 ; Pen up

G0 X211.500 Y59.000 F3000 ; Travel to line 420
G0 Z0.0 ; Pen down
G1 X212.000 Y59.000 F1000
G0 Z3.0 ; Pen up

G0 X209.500 Y57.500 F3000 ; Travel to line 421
G0 Z0.0 ; Pen down
G1 X208.500 Y58.500 F1000
G0 Z3.0 ; Pen up

G0 X208.000 Y57.500 F3000 ; Travel to line 422
G0 Z0.0 ; Pen down
G1 X209.500 Y56.000 F1000
G0 Z3.0 ; Pen up

G0 X208.000 Y56.000 F3000 ; Travel to line 423
G0 Z0.0 ; Pen down
G1 X209.500 Y54.500 F1000
G0 Z3.0 ; Pen up

G0 X208.000 Y54.500 F3000 ; Travel to line 424
G0 Z0.0 ; Pen down
G1 X209.000 Y53.000 F1000
G0 Z3.0 ; Pen up

G0 X209.000 Y52.500 F3000 ; Travel to line 425
G0 Z0.0 ; Pen down
G1 X208.000 Y53.500 F1000
G0 Z3.0 ; Pen up

G0 X208.000 Y55.000 F3000 ; Travel to line 426
G0 Z0.0 ; Pen down
G1 X209.500 Y53.500 F1000
G1 X209.500 Y53.500 F1000
G1 X208.000 Y55.000 F1000
G0 Z3.0 ; Pen up

G0 X208.000 Y55.500 F3000 ; Travel to line 427
G0 Z0.0 ; Pen down
G1 X209.500 Y54.000 F1000
G1 X209.500 Y54.000 F1000
G1 X208.000 Y55.500 F1000
G0 Z3.0 ; Pen up

G0 X206.500 Y52.000 F3000 ; Travel to line 428
G0 Z0.0 ; Pen down
G1 X207.500 Y51.000 F1000
G0 Z3.0 ; Pen up

G0 X205.500 Y51.000 F3000 ; Travel to line 429
G0 Z0.0 ; Pen down
G1 X205.500 Y51.500 F1000
G1 X205.500 Y51.500 F1000
G1 X206.000 Y51.000 F1000
G1 X206.000 Y51.000 F1000
G1 X205.500 Y52.000 F1000
G0 Z3.0 ; Pen up

G0 X208.000 Y63.500 F3000 ; Travel to line 430
G0 Z0.0 ; Pen down
G1 X209.500 Y62.000 F1000
G1 X209.500 Y62.000 F1000
G1 X208.000 Y63.500 F1000
G0 Z3.0 ; Pen up

G0 X208.000 Y64.000 F3000 ; Travel to line 431
G0 Z0.0 ; Pen down
G1 X209.500 Y62.500 F1000
G1 X209.500 Y62.500 F1000
G1 X208.000 Y64.000 F1000
G0 Z3.0 ; Pen up

G0 X207.500 Y64.500 F3000 ; Travel to line 432
G0 Z0.0 ; Pen down
G1 X207.500 Y64.000 F1000
G1 X207.500 Y64.000 F1000
G1 X207.500 Y64.500 F1000
G0 Z3.0 ; Pen up

G0 X207.000 Y65.000 F3000 ; Travel to line 433
G0 Z0.0 ; Pen down
G1 X207.000 Y64.500 F1000
G1 X207.000 Y64.500 F1000
G1 X207.000 Y65.000 F1000
G0 Z3.0 ; Pen up

G0 X207.500 Y66.000 F3000 ; Travel to line 434
G0 Z0.0 ; Pen down
G1 X208.000 Y66.000 F1000
G0 Z3.0 ; Pen up

G0 X208.000 Y65.500 F3000 ; Travel to line 435
G0 Z0.0 ; Pen down
G1 X209.000 Y65.000 F1000
G0 Z3.0 ; Pen up

G0 X209.000 Y21.500 F3000 ; Travel to line 436
G0 Z0.0 ; Pen down
G1 X210.500 Y20.000 F1000
G1 X210.500 Y20.000 F1000
G1 X209.000 Y21.500 F1000
G0 Z3.0 ; Pen up

G0 X209.500 Y21.500 F3000 ; Travel to line 437
G0 Z0.0 ; Pen down
G1 X211.000 Y20.000 F1000
G0 Z3.0 ; Pen up

G0 X211.000 Y20.500 F3000 ; Travel to line 438
G0 Z0.0 ; Pen down
G1 X210.000 Y21.500 F1000
G1 X210.000 Y21.500 F1000
G1 X211.000 Y20.500 F1000
G1 X211.000 Y20.500 F1000
G1 X210.000 Y21.500 F1000
G0 Z3.0 ; Pen up

G0 X208.000 Y20.000 F3000 ; Travel to line 439
G0 Z0.0 ; Pen down
G1 X207.000 Y21.000 F1000
G0 Z3.0 ; Pen up

G0 X207.000 Y21.500 F3000 ; Travel to line 440
G0 Z0.0 ; Pen down
G1 X208.000 Y20.000 F1000
G1 X208.000 Y20.000 F1000
G1 X207.000 Y21.500 F1000
G0 Z3.0 ; Pen up

G0 X206.500 Y21.000 F3000 ; Travel to line 441
G0 Z0.0 ; Pen down
G1 X207.500 Y20.000 F1000
G1 X207.500 Y20.000 F1000
G1 X206.500 Y21.000 F1000
G1 X206.500 Y21.000 F1000
G1 X207.500 Y20.000 F1000
G0 Z3.0 ; Pen up

G0 X201.000 Y20.000 F3000 ; Travel to line 442
G0 Z0.0 ; Pen down
G1 X199.500 Y21.500 F1000
G1 X199.500 Y21.500 F1000
G1 X201.000 Y20.500 F1000
G0 Z3.0 ; Pen up

G0 X200.500 Y20.000 F3000 ; Travel to line 443
G0 Z0.0 ; Pen down
G1 X199.000 Y21.500 F1000
G0 Z3.0 ; Pen up

G0 X198.500 Y21.500 F3000 ; Travel to line 444
G0 Z0.0 ; Pen down
G1 X200.000 Y20.000 F1000
G0 Z3.0 ; Pen up

G0 X199.000 Y20.000 F3000 ; Travel to line 445
G0 Z0.0 ; Pen down
G1 X197.500 Y21.500 F1000
G0 Z3.0 ; Pen up

G0 X197.000 Y21.500 F3000 ; Travel to line 446
G0 Z0.0 ; Pen down
G1 X198.500 Y20.000 F1000
G1 X198.500 Y20.000 F1000
G1 X197.000 Y21.500 F1000
G1 X197.000 Y21.500 F1000
G1 X198.000 Y20.000 F1000
G0 Z3.0 ; Pen up

G0 X197.000 Y20.000 F3000 ; Travel to line 447
G0 Z0.0 ; Pen down
G1 X197.000 Y20.500 F1000
G0 Z3.0 ; Pen up

G0 X197.000 Y21.000 F3000 ; Travel to line 448
G0 Z0.0 ; Pen down
G1 X197.500 Y20.000 F1000
G1 X197.500 Y20.000 F1000
G1 X197.000 Y21.000 F1000
G0 Z3.0 ; Pen up

G0 X200.000 Y21.500 F3000 ; Travel to line 449
G0 Z0.0 ; Pen down
G1 X201.000 Y21.000 F1000
G1 X201.000 Y21.000 F1000
G1 X200.000 Y21.500 F1000
G0 Z3.0 ; Pen up

G0 X200.500 Y21.500 F3000 ; Travel to line 450
G0 Z0.0 ; Pen down
G1 X201.000 Y21.500 F1000
G0 Z3.0 ; Pen up

G0 X191.500 Y20.500 F3000 ; Travel to line 451
G0 Z0.0 ; Pen down
G1 X190.500 Y21.500 F1000
G1 X190.500 Y21.500 F1000
G1 X191.500 Y20.500 F1000
G1 X191.500 Y20.500 F1000
G1 X190.500 Y21.500 F1000
G0 Z3.0 ; Pen up

G0 X190.000 Y21.500 F3000 ; Travel to line 452
G0 Z0.0 ; Pen down
G1 X191.500 Y20.000 F1000
G0 Z3.0 ; Pen up

G0 X189.500 Y21.500 F3000 ; Travel to line 453
G0 Z0.0 ; Pen down
G1 X191.000 Y20.000 F1000
G1 X191.000 Y20.000 F1000
G1 X189.500 Y21.500 F1000
G0 Z3.0 ; Pen up

G0 X188.500 Y20.000 F3000 ; Travel to line 454
G0 Z0.0 ; Pen down
G1 X187.500 Y21.000 F1000
G0 Z3.0 ; Pen up

G0 X187.500 Y21.500 F3000 ; Travel to line 455
G0 Z0.0 ; Pen down
G1 X189.000 Y20.000 F1000
G1 X189.000 Y20.000 F1000
G1 X187.500 Y21.500 F1000
G0 Z3.0 ; Pen up

G0 X187.500 Y20.500 F3000 ; Travel to line 456
G0 Z0.0 ; Pen down
G1 X188.000 Y20.000 F1000
G1 X188.000 Y20.000 F1000
G1 X187.500 Y20.500 F1000
G1 X187.500 Y20.500 F1000
G1 X188.000 Y20.000 F1000
G0 Z3.0 ; Pen up

G0 X182.000 Y20.000 F3000 ; Travel to line 457
G0 Z0.0 ; Pen down
G1 X180.500 Y21.500 F1000
G0 Z3.0 ; Pen up

G0 X181.000 Y21.500 F3000 ; Travel to line 458
G0 Z0.0 ; Pen down
G1 X182.000 Y20.500 F1000
G1 X182.000 Y20.500 F1000
G1 X181.000 Y21.500 F1000
G1 X181.000 Y21.500 F1000
G1 X182.000 Y20.500 F1000
G0 Z3.0 ; Pen up

G0 X180.000 Y21.500 F3000 ; Travel to line 459
G0 Z0.0 ; Pen down
G1 X181.500 Y20.000 F1000
G1 X181.500 Y20.000 F1000
G1 X180.000 Y21.500 F1000
G0 Z3.0 ; Pen up

G0 X179.000 Y20.000 F3000 ; Travel to line 460
G0 Z0.0 ; Pen down
G1 X178.000 Y21.000 F1000
G0 Z3.0 ; Pen up

G0 X178.000 Y21.500 F3000 ; Travel to line 461
G0 Z0.0 ; Pen down
G1 X179.000 Y20.000 F1000
G1 X179.000 Y20.000 F1000
G1 X178.000 Y21.500 F1000
G0 Z3.0 ; Pen up

G0 X177.500 Y21.000 F3000 ; Travel to line 462
G0 Z0.0 ; Pen down
G1 X178.500 Y20.000 F1000
G1 X178.500 Y20.000 F1000
G1 X177.500 Y21.000 F1000
G1 X177.500 Y21.000 F1000
G1 X178.500 Y20.000 F1000
G0 Z3.0 ; Pen up

G0 X172.000 Y20.000 F3000 ; Travel to line 463
G0 Z0.0 ; Pen down
G1 X170.500 Y21.500 F1000
G1 X170.500 Y21.500 F1000
G1 X172.000 Y20.500 F1000
G0 Z3.0 ; Pen up

G0 X171.500 Y20.000 F3000 ; Travel to line 464
G0 Z0.0 ; Pen down
G1 X170.000 Y21.500 F1000
G0 Z3.0 ; Pen up

G0 X169.500 Y21.500 F3000 ; Travel to line 465
G0 Z0.0 ; Pen down
G1 X171.000 Y20.000 F1000
G0 Z3.0 ; Pen up

G0 X170.000 Y20.000 F3000 ; Travel to line 466
G0 Z0.0 ; Pen down
G1 X168.500 Y21.500 F1000
G0 Z3.0 ; Pen up

G0 X168.000 Y21.500 F3000 ; Travel to line 467
G0 Z0.0 ; Pen down
G1 X169.500 Y20.000 F1000
G1 X169.500 Y20.000 F1000
G1 X168.000 Y21.500 F1000
G1 X168.000 Y21.500 F1000
G1 X169.000 Y20.000 F1000
G0 Z3.0 ; Pen up

G0 X168.000 Y20.000 F3000 ; Travel to line 468
G0 Z0.0 ; Pen down
G1 X168.000 Y20.500 F1000
G0 Z3.0 ; Pen up

G0 X168.000 Y21.000 F3000 ; Travel to line 469
G0 Z0.0 ; Pen down
G1 X168.500 Y20.000 F1000
G1 X168.500 Y20.000 F1000
G1 X168.000 Y21.000 F1000
G0 Z3.0 ; Pen up

G0 X171.000 Y21.500 F3000 ; Travel to line 470
G0 Z0.0 ; Pen down
G1 X172.000 Y21.000 F1000
G1 X172.000 Y21.000 F1000
G1 X171.000 Y21.500 F1000
G0 Z3.0 ; Pen up

G0 X171.500 Y21.500 F3000 ; Travel to line 471
G0 Z0.0 ; Pen down
G1 X172.000 Y21.500 F1000
G0 Z3.0 ; Pen up

G0 X162.500 Y21.500 F3000 ; Travel to line 472
G0 Z0.0 ; Pen down
G1 X162.000 Y21.500 F1000
G0 Z3.0 ; Pen up

G0 X161.500 Y21.500 F3000 ; Travel to line 473
G0 Z0.0 ; Pen down
G1 X162.500 Y21.000 F1000
G1 X162.500 Y21.000 F1000
G1 X161.500 Y21.500 F1000
G0 Z3.0 ; Pen up

G0 X160.500 Y21.500 F3000 ; Travel to line 474
G0 Z0.0 ; Pen down
G1 X162.000 Y20.000 F1000
G0 Z3.0 ; Pen up

G0 X162.500 Y20.000 F3000 ; Travel to line 475
G0 Z0.0 ; Pen down
G1 X161.000 Y21.500 F1000
G1 X161.000 Y21.500 F1000
G1 X162.500 Y20.500 F1000
G0 Z3.0 ; Pen up

G0 X161.500 Y20.000 F3000 ; Travel to line 476
G0 Z0.0 ; Pen down
G1 X160.000 Y21.500 F1000
G0 Z3.0 ; Pen up

G0 X159.000 Y21.500 F3000 ; Travel to line 477
G0 Z0.0 ; Pen down
G1 X160.500 Y20.000 F1000
G0 Z3.0 ; Pen up

G0 X159.500 Y20.000 F3000 ; Travel to line 478
G0 Z0.0 ; Pen down
G1 X158.500 Y21.500 F1000
G1 X158.500 Y21.500 F1000
G1 X160.000 Y20.000 F1000
G1 X160.000 Y20.000 F1000
G1 X158.500 Y21.500 F1000
G0 Z3.0 ; Pen up

G0 X158.500 Y21.000 F3000 ; Travel to line 479
G0 Z0.0 ; Pen down
G1 X159.000 Y20.000 F1000
G1 X159.000 Y20.000 F1000
G1 X158.500 Y21.000 F1000
G0 Z3.0 ; Pen up

G0 X158.500 Y20.500 F3000 ; Travel to line 480
G0 Z0.0 ; Pen down
G1 X158.500 Y20.000 F1000
G0 Z3.0 ; Pen up

G0 X153.000 Y20.000 F3000 ; Travel to line 481
G0 Z0.0 ; Pen down
G1 X151.500 Y21.500 F1000
G1 X151.500 Y21.500 F1000
G1 X153.000 Y20.500 F1000
G0 Z3.0 ; Pen up

G0 X152.500 Y20.000 F3000 ; Travel to line 482
G0 Z0.0 ; Pen down
G1 X151.000 Y21.500 F1000
G0 Z3.0 ; Pen up

G0 X150.500 Y21.500 F3000 ; Travel to line 483
G0 Z0.0 ; Pen down
G1 X152.000 Y20.000 F1000
G0 Z3.0 ; Pen up

G0 X151.000 Y20.000 F3000 ; Travel to line 484
G0 Z0.0 ; Pen down
G1 X149.500 Y21.500 F1000
G0 Z3.0 ; Pen up

G0 X149.000 Y21.500 F3000 ; Travel to line 485
G0 Z0.0 ; Pen down
G1 X150.500 Y20.000 F1000
G1 X150.500 Y20.000 F1000
G1 X149.000 Y21.500 F1000
G1 X149.000 Y21.500 F1000
G1 X150.000 Y20.000 F1000
G0 Z3.0 ; Pen up

G0 X149.000 Y20.000 F3000 ; Travel to line 486
G0 Z0.0 ; Pen down
G1 X149.000 Y20.500 F1000
G0 Z3.0 ; Pen up

G0 X149.000 Y21.000 F3000 ; Travel to line 487
G0 Z0.0 ; Pen down
G1 X149.500 Y20.000 F1000
G1 X149.500 Y20.000 F1000
G1 X149.000 Y21.000 F1000
G0 Z3.0 ; Pen up

G0 X152.000 Y21.500 F3000 ; Travel to line 488
G0 Z0.0 ; Pen down
G1 X153.000 Y21.000 F1000
G1 X153.000 Y21.000 F1000
G1 X152.000 Y21.500 F1000
G0 Z3.0 ; Pen up

G0 X152.500 Y21.500 F3000 ; Travel to line 489
G0 Z0.0 ; Pen down
G1 X153.000 Y21.500 F1000
G0 Z3.0 ; Pen up

G0 X143.500 Y20.500 F3000 ; Travel to line 490
G0 Z0.0 ; Pen down
G1 X142.500 Y21.500 F1000
G1 X142.500 Y21.500 F1000
G1 X143.500 Y20.500 F1000
G1 X143.500 Y20.500 F1000
G1 X142.500 Y21.500 F1000
G0 Z3.0 ; Pen up

G0 X142.000 Y21.500 F3000 ; Travel to line 491
G0 Z0.0 ; Pen down
G1 X143.500 Y20.000 F1000
G0 Z3.0 ; Pen up

G0 X141.500 Y21.500 F3000 ; Travel to line 492
G0 Z0.0 ; Pen down
G1 X143.000 Y20.000 F1000
G1 X143.000 Y20.000 F1000
G1 X141.500 Y21.500 F1000
G0 Z3.0 ; Pen up

G0 X140.500 Y20.000 F3000 ; Travel to line 493
G0 Z0.0 ; Pen down
G1 X139.500 Y21.000 F1000
G0 Z3.0 ; Pen up

G0 X139.500 Y21.500 F3000 ; Travel to line 494
G0 Z0.0 ; Pen down
G1 X141.000 Y20.000 F1000
G1 X141.000 Y20.000 F1000
G1 X139.500 Y21.500 F1000
G0 Z3.0 ; Pen up

G0 X139.000 Y21.000 F3000 ; Travel to line 495
G0 Z0.0 ; Pen down
G1 X140.000 Y20.000 F1000
G1 X140.000 Y20.000 F1000
G1 X139.000 Y21.000 F1000
G1 X139.000 Y21.000 F1000
G1 X140.000 Y20.000 F1000
G0 Z3.0 ; Pen up

G0 X133.500 Y20.000 F3000 ; Travel to line 496
G0 Z0.0 ; Pen down
G1 X132.000 Y21.500 F1000
G1 X132.000 Y21.500 F1000
G1 X133.500 Y20.500 F1000
G0 Z3.0 ; Pen up

G0 X133.000 Y20.000 F3000 ; Travel to line 497
G0 Z0.0 ; Pen down
G1 X131.500 Y21.500 F1000
G0 Z3.0 ; Pen up

G0 X131.000 Y21.500 F3000 ; Travel to line 498
G0 Z0.0 ; Pen down
G1 X132.500 Y20.000 F1000
G0 Z3.0 ; Pen up

G0 X131.500 Y20.000 F3000 ; Travel to line 499
G0 Z0.0 ; Pen down
G1 X130.000 Y21.500 F1000
G0 Z3.0 ; Pen up

G0 X129.500 Y21.500 F3000 ; Travel to line 500
G0 Z0.0 ; Pen down
G1 X131.000 Y20.000 F1000
G1 X131.000 Y20.000 F1000
G1 X129.500 Y21.500 F1000
G1 X129.500 Y21.500 F1000
G1 X130.500 Y20.000 F1000
G0 Z3.0 ; Pen up

G0 X129.500 Y20.000 F3000 ; Travel to line 501
G0 Z0.0 ; Pen down
G1 X129.500 Y20.500 F1000
G0 Z3.0 ; Pen up

G0 X129.500 Y21.000 F3000 ; Travel to line 502
G0 Z0.0 ; Pen down
G1 X130.000 Y20.000 F1000
G1 X130.000 Y20.000 F1000
G1 X129.500 Y21.000 F1000
G0 Z3.0 ; Pen up

G0 X132.500 Y21.500 F3000 ; Travel to line 503
G0 Z0.0 ; Pen down
G1 X133.500 Y21.000 F1000
G1 X133.500 Y21.000 F1000
G1 X132.500 Y21.500 F1000
G0 Z3.0 ; Pen up

G0 X133.000 Y21.500 F3000 ; Travel to line 504
G0 Z0.0 ; Pen down
G1 X133.500 Y21.500 F1000
G0 Z3.0 ; Pen up

G0 X124.000 Y21.500 F3000 ; Travel to line 505
G0 Z0.0 ; Pen down
G1 X123.500 Y21.500 F1000
G0 Z3.0 ; Pen up

G0 X123.000 Y21.500 F3000 ; Travel to line 506
G0 Z0.0 ; Pen down
G1 X124.000 Y21.000 F1000
G1 X124.000 Y21.000 F1000
G1 X123.000 Y21.500 F1000
G0 Z3.0 ; Pen up

G0 X122.000 Y21.500 F3000 ; Travel to line 507
G0 Z0.0 ; Pen down
G1 X123.500 Y20.000 F1000
G0 Z3.0 ; Pen up

G0 X124.000 Y20.000 F3000 ; Travel to line 508
G0 Z0.0 ; Pen down
G1 X122.500 Y21.500 F1000
G1 X122.500 Y21.500 F1000
G1 X124.000 Y20.500 F1000
G0 Z3.0 ; Pen up

G0 X123.000 Y20.000 F3000 ; Travel to line 509
G0 Z0.0 ; Pen down
G1 X121.500 Y21.500 F1000
G0 Z3.0 ; Pen up

G0 X120.500 Y21.500 F3000 ; Travel to line 510
G0 Z0.0 ; Pen down
G1 X122.000 Y20.000 F1000
G0 Z3.0 ; Pen up

G0 X121.000 Y20.000 F3000 ; Travel to line 511
G0 Z0.0 ; Pen down
G1 X120.000 Y21.500 F1000
G1 X120.000 Y21.500 F1000
G1 X121.500 Y20.000 F1000
G1 X121.500 Y20.000 F1000
G1 X120.000 Y21.500 F1000
G0 Z3.0 ; Pen up

G0 X120.000 Y21.000 F3000 ; Travel to line 512
G0 Z0.0 ; Pen down
G1 X120.500 Y20.000 F1000
G1 X120.500 Y20.000 F1000
G1 X120.000 Y21.000 F1000
G0 Z3.0 ; Pen up

G0 X120.000 Y20.500 F3000 ; Travel to line 513
G0 Z0.0 ; Pen down
G1 X120.000 Y20.000 F1000
G0 Z3.0 ; Pen up

G0 X114.500 Y20.000 F3000 ; Travel to line 514
G0 Z0.0 ; Pen down
G1 X113.000 Y21.500 F1000
G0 Z3.0 ; Pen up

G0 X113.500 Y21.500 F3000 ; Travel to line 515
G0 Z0.0 ; Pen down
G1 X114.500 Y20.500 F1000
G1 X114.500 Y20.500 F1000
G1 X113.500 Y21.500 F1000
G1 X113.500 Y21.500 F1000
G1 X114.500 Y20.500 F1000
G0 Z3.0 ; Pen up

G0 X112.500 Y21.500 F3000 ; Travel to line 516
G0 Z0.0 ; Pen down
G1 X114.000 Y20.000 F1000
G1 X114.000 Y20.000 F1000
G1 X112.500 Y21.500 F1000
G0 Z3.0 ; Pen up

G0 X111.500 Y20.000 F3000 ; Travel to line 517
G0 Z0.0 ; Pen down
G1 X110.500 Y21.000 F1000
G0 Z3.0 ; Pen up

G0 X110.500 Y21.500 F3000 ; Travel to line 518
G0 Z0.0 ; Pen down
G1 X112.000 Y20.000 F1000
G1 X112.000 Y20.000 F1000
G1 X110.500 Y21.500 F1000
G0 Z3.0 ; Pen up

G0 X110.500 Y20.500 F3000 ; Travel to line 519
G0 Z0.0 ; Pen down
G1 X111.000 Y20.000 F1000
G1 X111.000 Y20.000 F1000
G1 X110.500 Y20.500 F1000
G1 X110.500 Y20.500 F1000
G1 X111.000 Y20.000 F1000
G0 Z3.0 ; Pen up

G0 X105.000 Y20.000 F3000 ; Travel to line 520
G0 Z0.0 ; Pen down
G1 X103.500 Y21.500 F1000
G0 Z3.0 ; Pen up

G0 X104.000 Y21.500 F3000 ; Travel to line 521
G0 Z0.0 ; Pen down
G1 X105.000 Y20.500 F1000
G1 X105.000 Y20.500 F1000
G1 X104.000 Y21.500 F1000
G1 X104.000 Y21.500 F1000
G1 X105.000 Y20.500 F1000
G0 Z3.0 ; Pen up

G0 X103.000 Y21.500 F3000 ; Travel to line 522
G0 Z0.0 ; Pen down
G1 X104.500 Y20.000 F1000
G1 X104.500 Y20.000 F1000
G1 X103.000 Y21.500 F1000
G0 Z3.0 ; Pen up

G0 X102.000 Y20.000 F3000 ; Travel to line 523
G0 Z0.0 ; Pen down
G1 X101.000 Y21.000 F1000
G0 Z3.0 ; Pen up

G0 X101.000 Y21.500 F3000 ; Travel to line 524
G0 Z0.0 ; Pen down
G1 X102.000 Y20.000 F1000
G1 X102.000 Y20.000 F1000
G1 X101.000 Y21.500 F1000
G0 Z3.0 ; Pen up

G0 X100.500 Y21.000 F3000 ; Travel to line 525
G0 Z0.0 ; Pen down
G1 X101.500 Y20.000 F1000
G1 X101.500 Y20.000 F1000
G1 X100.500 Y21.000 F1000
G1 X100.500 Y21.000 F1000
G1 X101.500 Y20.000 F1000
G0 Z3.0 ; Pen up

G0 X95.000 Y20.000 F3000 ; Travel to line 526
G0 Z0.0 ; Pen down
G1 X93.500 Y21.500 F1000
G1 X93.500 Y21.500 F1000
G1 X95.000 Y20.500 F1000
G0 Z3.0 ; Pen up

G0 X94.500 Y20.000 F3000 ; Travel to line 527
G0 Z0.0 ; Pen down
G1 X93.000 Y21.500 F1000
G0 Z3.0 ; Pen up

G0 X92.500 Y21.500 F3000 ; Travel to line 528
G0 Z0.0 ; Pen down
G1 X94.000 Y20.000 F1000
G0 Z3.0 ; Pen up

G0 X93.000 Y20.000 F3000 ; Travel to line 529
G0 Z0.0 ; Pen down
G1 X91.500 Y21.500 F1000
G0 Z3.0 ; Pen up

G0 X91.000 Y21.500 F3000 ; Travel to line 530
G0 Z0.0 ; Pen down
G1 X92.500 Y20.000 F1000
G1 X92.500 Y20.000 F1000
G1 X91.000 Y21.500 F1000
G1 X91.000 Y21.500 F1000
G1 X92.000 Y20.000 F1000
G0 Z3.0 ; Pen up

G0 X91.000 Y20.000 F3000 ; Travel to line 531
G0 Z0.0 ; Pen down
G1 X91.000 Y20.500 F1000
G0 Z3.0 ; Pen up

G0 X91.000 Y21.000 F3000 ; Travel to line 532
G0 Z0.0 ; Pen down
G1 X91.500 Y20.000 F1000
G1 X91.500 Y20.000 F1000
G1 X91.000 Y21.000 F1000
G0 Z3.0 ; Pen up

G0 X94.000 Y21.500 F3000 ; Travel to line 533
G0 Z0.0 ; Pen down
G1 X95.000 Y21.000 F1000
G1 X95.000 Y21.000 F1000
G1 X94.000 Y21.500 F1000
G0 Z3.0 ; Pen up

G0 X94.500 Y21.500 F3000 ; Travel to line 534
G0 Z0.0 ; Pen down
G1 X95.000 Y21.500 F1000
G0 Z3.0 ; Pen up

G0 X85.500 Y21.500 F3000 ; Travel to line 535
G0 Z0.0 ; Pen down
G1 X85.000 Y21.500 F1000
G0 Z3.0 ; Pen up

G0 X84.500 Y21.500 F3000 ; Travel to line 536
G0 Z0.0 ; Pen down
G1 X85.500 Y21.000 F1000
G1 X85.500 Y21.000 F1000
G1 X84.500 Y21.500 F1000
G0 Z3.0 ; Pen up

G0 X83.500 Y21.500 F3000 ; Travel to line 537
G0 Z0.0 ; Pen down
G1 X85.000 Y20.000 F1000
G0 Z3.0 ; Pen up

G0 X85.500 Y20.000 F3000 ; Travel to line 538
G0 Z0.0 ; Pen down
G1 X84.000 Y21.500 F1000
G1 X84.000 Y21.500 F1000
G1 X85.500 Y20.500 F1000
G0 Z3.0 ; Pen up

G0 X84.500 Y20.000 F3000 ; Travel to line 539
G0 Z0.0 ; Pen down
G1 X83.000 Y21.500 F1000
G0 Z3.0 ; Pen up

G0 X82.000 Y21.500 F3000 ; Travel to line 540
G0 Z0.0 ; Pen down
G1 X83.500 Y20.000 F1000
G0 Z3.0 ; Pen up

G0 X82.500 Y20.000 F3000 ; Travel to line 541
G0 Z0.0 ; Pen down
G1 X81.500 Y21.500 F1000
G1 X81.500 Y21.500 F1000
G1 X83.000 Y20.000 F1000
G1 X83.000 Y20.000 F1000
G1 X81.500 Y21.500 F1000
G0 Z3.0 ; Pen up

G0 X81.500 Y21.000 F3000 ; Travel to line 542
G0 Z0.0 ; Pen down
G1 X82.000 Y20.000 F1000
G1 X82.000 Y20.000 F1000
G1 X81.500 Y21.000 F1000
G0 Z3.0 ; Pen up

G0 X81.500 Y20.500 F3000 ; Travel to line 543
G0 Z0.0 ; Pen down
G1 X81.500 Y20.000 F1000
G0 Z3.0 ; Pen up

G0 X76.000 Y20.000 F3000 ; Travel to line 544
G0 Z0.0 ; Pen down
G1 X74.500 Y21.500 F1000
G1 X74.500 Y21.500 F1000
G1 X76.000 Y20.500 F1000
G0 Z3.0 ; Pen up

G0 X75.500 Y21.000 F3000 ; Travel to line 545
G0 Z0.0 ; Pen down
G1 X76.000 Y21.000 F1000
G1 X76.000 Y21.000 F1000
G1 X75.500 Y21.000 F1000
G0 Z3.0 ; Pen up

G0 X75.000 Y21.500 F3000 ; Travel to line 546
G0 Z0.0 ; Pen down
G1 X75.500 Y21.500 F1000
G1 X75.500 Y21.500 F1000
G1 X75.000 Y21.500 F1000
G0 Z3.0 ; Pen up

G0 X74.000 Y21.500 F3000 ; Travel to line 547
G0 Z0.0 ; Pen down
G1 X75.500 Y20.000 F1000
G0 Z3.0 ; Pen up

G0 X75.000 Y20.000 F3000 ; Travel to line 548
G0 Z0.0 ; Pen down
G1 X73.500 Y21.500 F1000
G0 Z3.0 ; Pen up

G0 X72.500 Y21.500 F3000 ; Travel to line 549
G0 Z0.0 ; Pen down
G1 X74.000 Y20.000 F1000
G0 Z3.0 ; Pen up

G0 X73.000 Y20.000 F3000 ; Travel to line 550
G0 Z0.0 ; Pen down
G1 X72.000 Y21.500 F1000
G1 X72.000 Y21.500 F1000
G1 X73.500 Y20.000 F1000
G1 X73.500 Y20.000 F1000
G1 X72.000 Y21.500 F1000
G0 Z3.0 ; Pen up

G0 X72.000 Y21.000 F3000 ; Travel to line 551
G0 Z0.0 ; Pen down
G1 X72.500 Y20.000 F1000
G1 X72.500 Y20.000 F1000
G1 X72.000 Y21.000 F1000
G0 Z3.0 ; Pen up

G0 X72.000 Y20.500 F3000 ; Travel to line 552
G0 Z0.0 ; Pen down
G1 X72.000 Y20.000 F1000
G0 Z3.0 ; Pen up

G0 X66.500 Y20.000 F3000 ; Travel to line 553
G0 Z0.0 ; Pen down
G1 X65.000 Y21.500 F1000
G0 Z3.0 ; Pen up

G0 X65.500 Y21.500 F3000 ; Travel to line 554
G0 Z0.0 ; Pen down
G1 X66.500 Y20.500 F1000
G1 X66.500 Y20.500 F1000
G1 X65.500 Y21.500 F1000
G1 X65.500 Y21.500 F1000
G1 X66.500 Y20.500 F1000
G0 Z3.0 ; Pen up

G0 X64.500 Y21.500 F3000 ; Travel to line 555
G0 Z0.0 ; Pen down
G1 X66.000 Y20.000 F1000
G1 X66.000 Y20.000 F1000
G1 X64.500 Y21.500 F1000
G0 Z3.0 ; Pen up

G0 X63.500 Y20.000 F3000 ; Travel to line 556
G0 Z0.0 ; Pen down
G1 X62.500 Y21.000 F1000
G0 Z3.0 ; Pen up

G0 X62.500 Y21.500 F3000 ; Travel to line 557
G0 Z0.0 ; Pen down
G1 X64.000 Y20.000 F1000
G1 X64.000 Y20.000 F1000
G1 X62.500 Y21.500 F1000
G0 Z3.0 ; Pen up

G0 X62.000 Y21.000 F3000 ; Travel to line 558
G0 Z0.0 ; Pen down
G1 X63.000 Y20.000 F1000
G1 X63.000 Y20.000 F1000
G1 X62.000 Y21.000 F1000
G1 X62.000 Y21.000 F1000
G1 X63.000 Y20.000 F1000
G0 Z3.0 ; Pen up

G0 X56.500 Y20.000 F3000 ; Travel to line 559
G0 Z0.0 ; Pen down
G1 X55.000 Y21.500 F1000
G1 X55.000 Y21.500 F1000
G1 X56.500 Y20.500 F1000
G0 Z3.0 ; Pen up

G0 X56.000 Y20.000 F3000 ; Travel to line 560
G0 Z0.0 ; Pen down
G1 X54.500 Y21.500 F1000
G0 Z3.0 ; Pen up

G0 X54.000 Y21.500 F3000 ; Travel to line 561
G0 Z0.0 ; Pen down
G1 X55.500 Y20.000 F1000
G0 Z3.0 ; Pen up

G0 X54.500 Y20.000 F3000 ; Travel to line 562
G0 Z0.0 ; Pen down
G1 X53.000 Y21.500 F1000
G0 Z3.0 ; Pen up

G0 X52.500 Y21.500 F3000 ; Travel to line 563
G0 Z0.0 ; Pen down
G1 X54.000 Y20.000 F1000
G1 X54.000 Y20.000 F1000
G1 X52.500 Y21.500 F1000
G1 X52.500 Y21.500 F1000
G1 X53.500 Y20.000 F1000
G0 Z3.0 ; Pen up

G0 X52.500 Y20.000 F3000 ; Travel to line 564
G0 Z0.0 ; Pen down
G1 X52.500 Y20.500 F1000
G0 Z3.0 ; Pen up

G0 X52.500 Y21.000 F3000 ; Travel to line 565
G0 Z0.0 ; Pen down
G1 X53.000 Y20.000 F1000
G1 X53.000 Y20.000 F1000
G1 X52.500 Y21.000 F1000
G0 Z3.0 ; Pen up

G0 X55.500 Y21.500 F3000 ; Travel to line 566
G0 Z0.0 ; Pen down
G1 X56.500 Y21.000 F1000
G1 X56.500 Y21.000 F1000
G1 X55.500 Y21.500 F1000
G0 Z3.0 ; Pen up

G0 X56.000 Y21.500 F3000 ; Travel to line 567
G0 Z0.0 ; Pen down
G1 X56.500 Y21.500 F1000
G0 Z3.0 ; Pen up

G0 X47.000 Y21.500 F3000 ; Travel to line 568
G0 Z0.0 ; Pen down
G1 X46.500 Y21.500 F1000
G0 Z3.0 ; Pen up

G0 X46.000 Y21.500 F3000 ; Travel to line 569
G0 Z0.0 ; Pen down
G1 X47.000 Y21.000 F1000
G1 X47.000 Y21.000 F1000
G1 X46.000 Y21.500 F1000
G0 Z3.0 ; Pen up

G0 X45.000 Y21.500 F3000 ; Travel to line 570
G0 Z0.0 ; Pen down
G1 X46.500 Y20.000 F1000
G0 Z3.0 ; Pen up

G0 X47.000 Y20.000 F3000 ; Travel to line 571
G0 Z0.0 ; Pen down
G1 X45.500 Y21.500 F1000
G1 X45.500 Y21.500 F1000
G1 X47.000 Y20.500 F1000
G0 Z3.0 ; Pen up

G0 X46.000 Y20.000 F3000 ; Travel to line 572
G0 Z0.0 ; Pen down
G1 X44.500 Y21.500 F1000
G0 Z3.0 ; Pen up

G0 X43.500 Y21.500 F3000 ; Travel to line 573
G0 Z0.0 ; Pen down
G1 X45.000 Y20.000 F1000
G0 Z3.0 ; Pen up

G0 X44.000 Y20.000 F3000 ; Travel to line 574
G0 Z0.0 ; Pen down
G1 X43.000 Y21.500 F1000
G1 X43.000 Y21.500 F1000
G1 X44.500 Y20.000 F1000
G1 X44.500 Y20.000 F1000
G1 X43.000 Y21.500 F1000
G0 Z3.0 ; Pen up

G0 X43.000 Y21.000 F3000 ; Travel to line 575
G0 Z0.0 ; Pen down
G1 X43.500 Y20.000 F1000
G1 X43.500 Y20.000 F1000
G1 X43.000 Y21.000 F1000
G0 Z3.0 ; Pen up

G0 X43.000 Y20.500 F3000 ; Travel to line 576
G0 Z0.0 ; Pen down
G1 X43.000 Y20.000 F1000
G0 Z3.0 ; Pen up

G0 X37.500 Y20.500 F3000 ; Travel to line 577
G0 Z0.0 ; Pen down
G1 X36.500 Y21.500 F1000
G1 X36.500 Y21.500 F1000
G1 X37.500 Y20.500 F1000
G1 X37.500 Y20.500 F1000
G1 X36.500 Y21.500 F1000
G0 Z3.0 ; Pen up

G0 X36.000 Y21.500 F3000 ; Travel to line 578
G0 Z0.0 ; Pen down
G1 X37.000 Y20.500 F1000
G0 Z3.0 ; Pen up

G0 X35.500 Y21.500 F3000 ; Travel to line 579
G0 Z0.0 ; Pen down
G1 X37.000 Y20.000 F1000
G1 X37.000 Y20.000 F1000
G1 X35.500 Y21.500 F1000
G0 Z3.0 ; Pen up

G0 X34.500 Y20.000 F3000 ; Travel to line 580
G0 Z0.0 ; Pen down
G1 X33.500 Y21.000 F1000
G0 Z3.0 ; Pen up

G0 X33.500 Y21.500 F3000 ; Travel to line 581
G0 Z0.0 ; Pen down
G1 X35.000 Y20.000 F1000
G1 X35.000 Y20.000 F1000
G1 X33.500 Y21.500 F1000
G0 Z3.0 ; Pen up

G0 X33.000 Y21.000 F3000 ; Travel to line 582
G0 Z0.0 ; Pen down
G1 X34.000 Y20.000 F1000
G1 X34.000 Y20.000 F1000
G1 X33.000 Y21.000 F1000
G1 X33.000 Y21.000 F1000
G1 X34.000 Y20.000 F1000
G0 Z3.0 ; Pen up

G0 X27.500 Y20.000 F3000 ; Travel to line 583
G0 Z0.0 ; Pen down
G1 X26.000 Y21.500 F1000
G1 X26.000 Y21.500 F1000
G1 X27.500 Y20.500 F1000
G0 Z3.0 ; Pen up

G0 X27.000 Y20.000 F3000 ; Travel to line 584
G0 Z0.0 ; Pen down
G1 X25.500 Y21.500 F1000
G0 Z3.0 ; Pen up

G0 X25.000 Y21.500 F3000 ; Travel to line 585
G0 Z0.0 ; Pen down
G1 X26.500 Y20.000 F1000
G0 Z3.0 ; Pen up

G0 X25.500 Y20.000 F3000 ; Travel to line 586
G0 Z0.0 ; Pen down
G1 X24.000 Y21.500 F1000
G0 Z3.0 ; Pen up

G0 X23.500 Y21.500 F3000 ; Travel to line 587
G0 Z0.0 ; Pen down
G1 X25.000 Y20.000 F1000
G1 X25.000 Y20.000 F1000
G1 X23.500 Y21.500 F1000
G1 X23.500 Y21.500 F1000
G1 X24.500 Y20.000 F1000
G0 Z3.0 ; Pen up

G0 X23.500 Y20.000 F3000 ; Travel to line 588
G0 Z0.0 ; Pen down
G1 X23.500 Y20.500 F1000
G0 Z3.0 ; Pen up

G0 X23.500 Y21.000 F3000 ; Travel to line 589
G0 Z0.0 ; Pen down
G1 X24.000 Y20.000 F1000
G1 X24.000 Y20.000 F1000
G1 X23.500 Y21.000 F1000
G0 Z3.0 ; Pen up

G0 X26.500 Y21.500 F3000 ; Travel to line 590
G0 Z0.0 ; Pen down
G1 X27.500 Y21.000 F1000
G1 X27.500 Y21.000 F1000
G1 X26.500 Y21.500 F1000
G0 Z3.0 ; Pen up

G0 X27.000 Y21.500 F3000 ; Travel to line 591
G0 Z0.0 ; Pen down
G1 X27.500 Y21.500 F1000
G0 Z3.0 ; Pen up

G0 X18.000 Y21.500 F3000 ; Travel to line 592
G0 Z0.0 ; Pen down
G1 X17.500 Y21.500 F1000
G0 Z3.0 ; Pen up

G0 X17.000 Y21.500 F3000 ; Travel to line 593
G0 Z0.0 ; Pen down
G1 X18.000 Y21.000 F1000
G1 X18.000 Y21.000 F1000
G1 X17.000 Y21.500 F1000
G0 Z3.0 ; Pen up

G0 X16.000 Y21.500 F3000 ; Travel to line 594
G0 Z0.0 ; Pen down
G1 X17.500 Y20.000 F1000
G0 Z3.0 ; Pen up

G0 X18.000 Y20.000 F3000 ; Travel to line 595
G0 Z0.0 ; Pen down
G1 X16.500 Y21.500 F1000
G1 X16.500 Y21.500 F1000
G1 X18.000 Y20.500 F1000
G0 Z3.0 ; Pen up

G0 X17.000 Y20.000 F3000 ; Travel to line 596
G0 Z0.0 ; Pen down
G1 X15.500 Y21.500 F1000
G0 Z3.0 ; Pen up

G0 X14.500 Y21.500 F3000 ; Travel to line 597
G0 Z0.0 ; Pen down
G1 X16.000 Y20.000 F1000
G0 Z3.0 ; Pen up

G0 X15.000 Y20.000 F3000 ; Travel to line 598
G0 Z0.0 ; Pen down
G1 X14.000 Y21.500 F1000
G1 X14.000 Y21.500 F1000
G1 X15.500 Y20.000 F1000
G1 X15.500 Y20.000 F1000
G1 X14.000 Y21.500 F1000
G0 Z3.0 ; Pen up

G0 X14.000 Y21.000 F3000 ; Travel to line 599
G0 Z0.0 ; Pen down
G1 X14.500 Y20.000 F1000
G1 X14.500 Y20.000 F1000
G1 X14.000 Y21.000 F1000
G0 Z3.0 ; Pen up

G0 X14.000 Y20.500 F3000 ; Travel to line 600
G0 Z0.0 ; Pen down
G1 X14.000 Y20.000 F1000
G0 Z3.0 ; Pen up

G0 X25.000 Y54.000 F3000 ; Travel to line 601
G0 Z0.0 ; Pen down
G1 X25.000 Y54.500 F1000
G1 X25.000 Y54.500 F1000
G1 X25.500 Y54.000 F1000
G0 Z3.0 ; Pen up

G0 X26.000 Y54.000 F3000 ; Travel to line 602
G0 Z0.0 ; Pen down
G1 X25.000 Y55.500 F1000
G1 X25.000 Y55.500 F1000
G1 X26.500 Y54.000 F1000
G0 Z3.0 ; Pen up

G0 X26.500 Y55.500 F3000 ; Travel to line 603
G0 Z0.0 ; Pen down
G1 X26.000 Y56.000 F1000
G1 X26.000 Y56.000 F1000
G1 X26.500 Y56.000 F1000
G0 Z3.0 ; Pen up

G0 X25.500 Y56.000 F3000 ; Travel to line 604
G0 Z0.0 ; Pen down
G1 X26.500 Y55.000 F1000
G1 X26.500 Y55.000 F1000
G1 X25.000 Y56.000 F1000
G1 X25.000 Y56.000 F1000
G1 X26.500 Y54.500 F1000
G1 X26.500 Y54.500 F1000
G1 X25.000 Y56.000 F1000
G0 Z3.0 ; Pen up

G0 X25.000 Y55.500 F3000 ; Travel to line 605
G0 Z0.0 ; Pen down
G1 X26.000 Y54.000 F1000
G1 X26.000 Y54.000 F1000
G1 X25.000 Y55.000 F1000
G0 Z3.0 ; Pen up

G0 X25.000 Y57.500 F3000 ; Travel to line 606
G0 Z0.0 ; Pen down
G1 X25.000 Y58.000 F1000
G1 X25.000 Y58.000 F1000
G1 X25.500 Y57.500 F1000
G0 Z3.0 ; Pen up

G0 X26.000 Y58.000 F3000 ; Travel to line 607
G0 Z0.0 ; Pen down
G1 X25.000 Y59.500 F1000
G1 X25.000 Y59.500 F1000
G1 X26.500 Y58.000 F1000
G0 Z3.0 ; Pen up

G0 X26.500 Y59.000 F3000 ; Travel to line 608
G0 Z0.0 ; Pen down
G1 X25.000 Y61.000 F1000
G0 Z3.0 ; Pen up

G0 X26.500 Y61.500 F3000 ; Travel to line 609
G0 Z0.0 ; Pen down
G1 X25.000 Y63.000 F1000
G0 Z3.0 ; Pen up

G0 X26.500 Y63.500 F3000 ; Travel to line 610
G0 Z0.0 ; Pen down
G1 X25.000 Y65.000 F1000
G0 Z3.0 ; Pen up

G0 X25.000 Y65.500 F3000 ; Travel to line 611
G0 Z0.0 ; Pen down
G1 X26.500 Y64.000 F1000
G1 X26.500 Y64.000 F1000
G1 X25.000 Y65.500 F1000
G1 X25.000 Y65.500 F1000
G1 X26.500 Y64.500 F1000
G1 X26.500 Y64.500 F1000
G1 X25.500 Y65.500 F1000
G0 Z3.0 ; Pen up

G0 X26.500 Y65.500 F3000 ; Travel to line 612
G0 Z0.0 ; Pen down
G1 X26.000 Y65.500 F1000
G1 X26.000 Y65.500 F1000
G1 X26.500 Y65.000 F1000
G0 Z3.0 ; Pen up

G0 X31.500 Y62.500 F3000 ; Travel to line 613
G0 Z0.0 ; Pen down
G1 X32.500 Y61.500 F1000
G0 Z3.0 ; Pen up

G0 X32.500 Y62.000 F3000 ; Travel to line 614
G0 Z0.0 ; Pen down
G1 X32.000 Y63.000 F1000
G0 Z3.0 ; Pen up

G0 X32.000 Y63.500 F3000 ; Travel to line 615
G0 Z0.0 ; Pen down
G1 X33.000 Y62.500 F1000
G1 X33.000 Y62.500 F1000
G1 X32.000 Y63.500 F1000
G1 X32.000 Y63.500 F1000
G1 X33.000 Y62.500 F1000
G0 Z3.0 ; Pen up

G0 X33.500 Y62.500 F3000 ; Travel to line 616
G0 Z0.0 ; Pen down
G1 X32.500 Y63.500 F1000
G0 Z3.0 ; Pen up

G0 X33.500 Y64.500 F3000 ; Travel to line 617
G0 Z0.0 ; Pen down
G1 X34.500 Y63.500 F1000
G0 Z3.0 ; Pen up

G0 X35.000 Y65.000 F3000 ; Travel to line 618
G0 Z0.0 ; Pen down
G1 X36.000 Y64.000 F1000
G0 Z3.0 ; Pen up

G0 X36.500 Y64.000 F3000 ; Travel to line 619
G0 Z0.0 ; Pen down
G1 X36.500 Y63.500 F1000
G0 Z3.0 ; Pen up

G0 X37.500 Y64.500 F3000 ; Travel to line 620
G0 Z0.0 ; Pen down
G1 X39.000 Y63.500 F1000
G0 Z3.0 ; Pen up

G0 X39.000 Y63.000 F3000 ; Travel to line 621
G0 Z0.0 ; Pen down
G1 X39.500 Y63.000 F1000
G0 Z3.0 ; Pen up

G0 X38.500 Y62.000 F3000 ; Travel to line 622
G0 Z0.0 ; Pen down
G1 X39.500 Y61.000 F1000
G0 Z3.0 ; Pen up

G0 X38.500 Y60.000 F3000 ; Travel to line 623
G0 Z0.0 ; Pen down
G1 X38.500 Y59.500 F1000
G0 Z3.0 ; Pen up

G0 X39.000 Y59.500 F3000 ; Travel to line 624
G0 Z0.0 ; Pen down
G1 X39.500 Y59.000 F1000
G0 Z3.0 ; Pen up

G0 X40.000 Y58.500 F3000 ; Travel to line 625
G0 Z0.0 ; Pen down
G1 X41.000 Y57.500 F1000
G0 Z3.0 ; Pen up

G0 X42.000 Y58.500 F3000 ; Travel to line 626
G0 Z0.0 ; Pen down
G1 X43.500 Y57.500 F1000
G0 Z3.0 ; Pen up

G0 X44.500 Y58.000 F3000 ; Travel to line 627
G0 Z0.0 ; Pen down
G1 X46.500 Y56.500 F1000
G0 Z3.0 ; Pen up

G0 X47.000 Y57.000 F3000 ; Travel to line 628
G0 Z0.0 ; Pen down
G1 X45.500 Y58.500 F1000
G1 X45.500 Y58.500 F1000
G1 X46.500 Y57.000 F1000
G1 X46.500 Y57.000 F1000
G1 X45.500 Y58.000 F1000
G0 Z3.0 ; Pen up

G0 X45.500 Y58.500 F3000 ; Travel to line 629
G0 Z0.0 ; Pen down
G1 X47.000 Y57.500 F1000
G1 X47.000 Y57.500 F1000
G1 X46.000 Y58.500 F1000
G0 Z3.0 ; Pen up

G0 X46.500 Y59.000 F3000 ; Travel to line 630
G0 Z0.0 ; Pen down
G1 X48.000 Y57.500 F1000
G1 X48.000 Y57.500 F1000
G1 X47.000 Y58.500 F1000
G0 Z3.0 ; Pen up

G0 X47.500 Y58.500 F3000 ; Travel to line 631
G0 Z0.0 ; Pen down
G1 X48.500 Y57.500 F1000
G0 Z3.0 ; Pen up

G0 X49.000 Y58.000 F3000 ; Travel to line 632
G0 Z0.0 ; Pen down
G1 X48.500 Y58.500 F1000
G0 Z3.0 ; Pen up

G0 X47.500 Y57.500 F3000 ; Travel to line 633
G0 Z0.0 ; Pen down
G1 X46.000 Y59.000 F1000
G1 X46.000 Y59.000 F1000
G1 X47.000 Y57.500 F1000
G0 Z3.0 ; Pen up

G0 X46.500 Y59.500 F3000 ; Travel to line 634
G0 Z0.0 ; Pen down
G1 X47.000 Y59.000 F1000
G1 X47.000 Y59.000 F1000
G1 X46.500 Y59.500 F1000
G0 Z3.0 ; Pen up

G0 X47.000 Y60.000 F3000 ; Travel to line 635
G0 Z0.0 ; Pen down
G1 X46.500 Y60.500 F1000
G0 Z3.0 ; Pen up

G0 X45.500 Y61.500 F3000 ; Travel to line 636
G0 Z0.0 ; Pen down
G1 X43.500 Y63.500 F1000
G0 Z3.0 ; Pen up

G0 X43.500 Y62.500 F3000 ; Travel to line 637
G0 Z0.0 ; Pen down
G1 X44.500 Y61.500 F1000
G1 X44.500 Y61.500 F1000
G1 X43.000 Y62.500 F1000
G0 Z3.0 ; Pen up

G0 X42.000 Y62.000 F3000 ; Travel to line 638
G0 Z0.0 ; Pen down
G1 X43.500 Y60.500 F1000
G1 X43.500 Y60.500 F1000
G1 X42.000 Y62.000 F1000
G0 Z3.0 ; Pen up

G0 X41.500 Y62.000 F3000 ; Travel to line 639
G0 Z0.0 ; Pen down
G1 X42.500 Y61.000 F1000
G1 X42.500 Y61.000 F1000
G1 X41.500 Y62.000 F1000
G0 Z3.0 ; Pen up

G0 X41.000 Y62.000 F3000 ; Travel to line 640
G0 Z0.0 ; Pen down
G1 X41.500 Y61.000 F1000
G0 Z3.0 ; Pen up

G0 X43.000 Y61.000 F3000 ; Travel to line 641
G0 Z0.0 ; Pen down
G1 X43.500 Y60.500 F1000
G0 Z3.0 ; Pen up

G0 X44.000 Y60.500 F3000 ; Travel to line 642
G0 Z0.0 ; Pen down
G1 X42.500 Y62.000 F1000
G1 X42.500 Y62.000 F1000
G1 X44.000 Y61.000 F1000
G1 X44.000 Y61.000 F1000
G1 X43.000 Y62.500 F1000
G1 X43.000 Y62.500 F1000
G1 X44.500 Y61.000 F1000
G0 Z3.0 ; Pen up

G0 X43.500 Y60.000 F3000 ; Travel to line 643
G0 Z0.0 ; Pen down
G1 X43.000 Y60.500 F1000
G0 Z3.0 ; Pen up

G0 X43.000 Y60.000 F3000 ; Travel to line 644
G0 Z0.0 ; Pen down
G1 X43.500 Y59.500 F1000
G0 Z3.0 ; Pen up

G0 X42.000 Y56.500 F3000 ; Travel to line 645
G0 Z0.0 ; Pen down
G1 X43.000 Y55.500 F1000
G0 Z3.0 ; Pen up

G0 X41.500 Y55.000 F3000 ; Travel to line 646
G0 Z0.0 ; Pen down
G1 X42.500 Y54.000 F1000
G0 Z3.0 ; Pen up

G0 X45.000 Y56.000 F3000 ; Travel to line 647
G0 Z0.0 ; Pen down
G1 X46.000 Y55.000 F1000
G0 Z3.0 ; Pen up

G0 X51.500 Y56.000 F3000 ; Travel to line 648
G0 Z0.0 ; Pen down
G1 X53.500 Y54.000 F1000
G0 Z3.0 ; Pen up

G0 X54.500 Y53.000 F3000 ; Travel to line 649
G0 Z0.0 ; Pen down
G1 X55.000 Y52.500 F1000
G0 Z3.0 ; Pen up

G0 X56.000 Y54.000 F3000 ; Travel to line 650
G0 Z0.0 ; Pen down
G1 X54.500 Y55.500 F1000
G0 Z3.0 ; Pen up

G0 X54.000 Y55.500 F3000 ; Travel to line 651
G0 Z0.0 ; Pen down
G1 X55.500 Y54.000 F1000
G1 X55.500 Y54.000 F1000
G1 X54.000 Y55.500 F1000
G0 Z3.0 ; Pen up

G0 X55.500 Y55.000 F3000 ; Travel to line 652
G0 Z0.0 ; Pen down
G1 X56.500 Y54.000 F1000
G1 X56.500 Y54.000 F1000
G1 X55.500 Y55.000 F1000
G0 Z3.0 ; Pen up

G0 X56.500 Y55.500 F3000 ; Travel to line 653
G0 Z0.0 ; Pen down
G1 X57.500 Y54.500 F1000
G0 Z3.0 ; Pen up

G0 X58.000 Y56.000 F3000 ; Travel to line 654
G0 Z0.0 ; Pen down
G1 X57.500 Y56.500 F1000
G0 Z3.0 ; Pen up

G0 X58.500 Y57.500 F3000 ; Travel to line 655
G0 Z0.0 ; Pen down
G1 X56.500 Y59.500 F1000
G0 Z3.0 ; Pen up

G0 X57.500 Y59.000 F3000 ; Travel to line 656
G0 Z0.0 ; Pen down
G1 X58.000 Y58.500 F1000
G1 X58.000 Y58.500 F1000
G1 X57.500 Y59.000 F1000
G0 Z3.0 ; Pen up

G0 X55.000 Y59.000 F3000 ; Travel to line 657
G0 Z0.0 ; Pen down
G1 X54.000 Y60.000 F1000
G0 Z3.0 ; Pen up

G0 X53.000 Y59.000 F3000 ; Travel to line 658
G0 Z0.0 ; Pen down
G1 X51.500 Y60.500 F1000
G0 Z3.0 ; Pen up

G0 X52.000 Y62.000 F3000 ; Travel to line 659
G0 Z0.0 ; Pen down
G1 X51.500 Y62.500 F1000
G0 Z3.0 ; Pen up

G0 X52.000 Y64.000 F3000 ; Travel to line 660
G0 Z0.0 ; Pen down
G1 X53.000 Y63.000 F1000
G0 Z3.0 ; Pen up

G0 X53.500 Y63.500 F3000 ; Travel to line 661
G0 Z0.0 ; Pen down
G1 X53.000 Y64.000 F1000
G0 Z3.0 ; Pen up

G0 X53.000 Y64.500 F3000 ; Travel to line 662
G0 Z0.0 ; Pen down
G1 X53.500 Y64.000 F1000
G1 X53.500 Y64.000 F1000
G1 X53.000 Y64.500 F1000
G0 Z3.0 ; Pen up

G0 X53.500 Y64.500 F3000 ; Travel to line 663
G0 Z0.0 ; Pen down
G1 X54.000 Y64.000 F1000
G0 Z3.0 ; Pen up

G0 X55.000 Y65.000 F3000 ; Travel to line 664
G0 Z0.0 ; Pen down
G1 X54.500 Y65.500 F1000
G0 Z3.0 ; Pen up

G0 X55.500 Y64.500 F3000 ; Travel to line 665
G0 Z0.0 ; Pen down
G1 X57.000 Y63.000 F1000
G0 Z3.0 ; Pen up

G0 X59.500 Y63.500 F3000 ; Travel to line 666
G0 Z0.0 ; Pen down
G1 X60.000 Y63.000 F1000
G0 Z3.0 ; Pen up

G0 X60.000 Y64.000 F3000 ; Travel to line 667
G0 Z0.0 ; Pen down
G1 X60.500 Y63.500 F1000
G1 X60.500 Y63.500 F1000
G1 X60.000 Y64.500 F1000
G0 Z3.0 ; Pen up

G0 X60.500 Y64.500 F3000 ; Travel to line 668
G0 Z0.0 ; Pen down
G1 X61.000 Y64.000 F1000
G1 X61.000 Y64.000 F1000
G1 X60.500 Y64.500 F1000
G0 Z3.0 ; Pen up

G0 X61.000 Y64.500 F3000 ; Travel to line 669
G0 Z0.0 ; Pen down
G1 X61.500 Y64.000 F1000
G0 Z3.0 ; Pen up

G0 X61.000 Y64.000 F3000 ; Travel to line 670
G0 Z0.0 ; Pen down
G1 X60.000 Y64.500 F1000
G1 X60.000 Y64.500 F1000
G1 X61.000 Y63.500 F1000
G0 Z3.0 ; Pen up

G0 X62.000 Y65.000 F3000 ; Travel to line 671
G0 Z0.0 ; Pen down
G1 X62.500 Y64.500 F1000
G0 Z3.0 ; Pen up

G0 X63.000 Y64.500 F3000 ; Travel to line 672
G0 Z0.0 ; Pen down
G1 X63.000 Y64.000 F1000
G0 Z3.0 ; Pen up

G0 X63.500 Y64.000 F3000 ; Travel to line 673
G0 Z0.0 ; Pen down
G1 X63.500 Y63.500 F1000
G0 Z3.0 ; Pen up

G0 X64.000 Y63.500 F3000 ; Travel to line 674
G0 Z0.0 ; Pen down
G1 X64.500 Y63.000 F1000
G0 Z3.0 ; Pen up

G0 X63.500 Y62.000 F3000 ; Travel to line 675
G0 Z0.0 ; Pen down
G1 X64.000 Y61.500 F1000
G1 X64.000 Y61.500 F1000
G1 X63.500 Y62.000 F1000
G0 Z3.0 ; Pen up

G0 X63.500 Y61.500 F3000 ; Travel to line 676
G0 Z0.0 ; Pen down
G1 X64.000 Y61.000 F1000
G0 Z3.0 ; Pen up

G0 X63.500 Y61.000 F3000 ; Travel to line 677
G0 Z0.0 ; Pen down
G1 X63.000 Y61.500 F1000
G1 X63.000 Y61.500 F1000
G1 X63.500 Y61.000 F1000
G1 X63.500 Y61.000 F1000
G1 X63.000 Y61.500 F1000
G0 Z3.0 ; Pen up

G0 X63.000 Y61.000 F3000 ; Travel to line 678
G0 Z0.0 ; Pen down
G1 X63.500 Y60.500 F1000
G0 Z3.0 ; Pen up

G0 X63.500 Y60.000 F3000 ; Travel to line 679
G0 Z0.0 ; Pen down
G1 X64.000 Y59.500 F1000
G0 Z3.0 ; Pen up

G0 X65.000 Y59.000 F3000 ; Travel to line 680
G0 Z0.0 ; Pen down
G1 X65.500 Y58.500 F1000
G1 X65.500 Y58.500 F1000
G1 X65.000 Y59.000 F1000
G0 Z3.0 ; Pen up

G0 X64.500 Y58.500 F3000 ; Travel to line 681
G0 Z0.0 ; Pen down
G1 X65.000 Y58.000 F1000
G1 X65.000 Y58.000 F1000
G1 X64.500 Y58.500 F1000
G1 X64.500 Y58.500 F1000
G1 X65.000 Y58.000 F1000
G0 Z3.0 ; Pen up

G0 X64.000 Y58.000 F3000 ; Travel to line 682
G0 Z0.0 ; Pen down
G1 X64.500 Y57.500 F1000
G1 X64.500 Y57.500 F1000
G1 X64.000 Y58.000 F1000
G0 Z3.0 ; Pen up

G0 X63.000 Y58.500 F3000 ; Travel to line 683
G0 Z0.0 ; Pen down
G1 X62.000 Y59.500 F1000
G1 X62.000 Y59.500 F1000
G1 X63.000 Y58.500 F1000
G1 X63.000 Y58.500 F1000
G1 X62.000 Y59.500 F1000
G0 Z3.0 ; Pen up

G0 X62.500 Y59.500 F3000 ; Travel to line 684
G0 Z0.0 ; Pen down
G1 X63.000 Y59.000 F1000
G0 Z3.0 ; Pen up

G0 X62.500 Y58.500 F3000 ; Travel to line 685
G0 Z0.0 ; Pen down
G1 X62.000 Y59.000 F1000
G0 Z3.0 ; Pen up

G0 X61.000 Y58.500 F3000 ; Travel to line 686
G0 Z0.0 ; Pen down
G1 X61.500 Y58.000 F1000
G0 Z3.0 ; Pen up

G0 X60.000 Y58.500 F3000 ; Travel to line 687
G0 Z0.0 ; Pen down
G1 X60.500 Y58.000 F1000
G1 X60.500 Y58.000 F1000
G1 X60.000 Y58.500 F1000
G0 Z3.0 ; Pen up

G0 X62.000 Y61.000 F3000 ; Travel to line 688
G0 Z0.0 ; Pen down
G1 X62.500 Y60.500 F1000
G0 Z3.0 ; Pen up

G0 X65.000 Y60.500 F3000 ; Travel to line 689
G0 Z0.0 ; Pen down
G1 X65.500 Y60.000 F1000
G0 Z3.0 ; Pen up

G0 X65.500 Y60.500 F3000 ; Travel to line 690
G0 Z0.0 ; Pen down
G1 X66.000 Y60.000 F1000
G0 Z3.0 ; Pen up

G0 X66.500 Y60.000 F3000 ; Travel to line 691
G0 Z0.0 ; Pen down
G1 X65.500 Y61.000 F1000
G1 X65.500 Y61.000 F1000
G1 X66.500 Y60.000 F1000
G1 X66.500 Y60.000 F1000
G1 X65.500 Y61.000 F1000
G0 Z3.0 ; Pen up

G0 X66.000 Y61.000 F3000 ; Travel to line 692
G0 Z0.0 ; Pen down
G1 X66.500 Y60.500 F1000
G0 Z3.0 ; Pen up

G0 X66.500 Y61.500 F3000 ; Travel to line 693
G0 Z0.0 ; Pen down
G1 X67.500 Y60.500 F1000
G0 Z3.0 ; Pen up

G0 X68.000 Y61.500 F3000 ; Travel to line 694
G0 Z0.0 ; Pen down
G1 X68.500 Y61.000 F1000
G1 X68.500 Y61.000 F1000
G1 X68.000 Y61.500 F1000
G0 Z3.0 ; Pen up

G0 X69.500 Y62.000 F3000 ; Travel to line 695
G0 Z0.0 ; Pen down
G1 X70.000 Y61.500 F1000
G1 X70.000 Y61.500 F1000
G1 X69.500 Y62.000 F1000
G0 Z3.0 ; Pen up

G0 X70.500 Y63.000 F3000 ; Travel to line 696
G0 Z0.0 ; Pen down
G1 X71.500 Y62.000 F1000
G0 Z3.0 ; Pen up

G0 X72.000 Y63.000 F3000 ; Travel to line 697
G0 Z0.0 ; Pen down
G1 X71.500 Y63.500 F1000
G0 Z3.0 ; Pen up

G0 X71.500 Y64.000 F3000 ; Travel to line 698
G0 Z0.0 ; Pen down
G1 X72.500 Y63.000 F1000
G1 X72.500 Y63.000 F1000
G1 X71.500 Y64.000 F1000
G1 X71.500 Y64.000 F1000
G1 X72.500 Y63.000 F1000
G0 Z3.0 ; Pen up

G0 X72.500 Y63.500 F3000 ; Travel to line 699
G0 Z0.0 ; Pen down
G1 X71.500 Y64.500 F1000
G0 Z3.0 ; Pen up

G0 X72.500 Y65.000 F3000 ; Travel to line 700
G0 Z0.0 ; Pen down
G1 X73.500 Y64.000 F1000
G0 Z3.0 ; Pen up

G0 X80.500 Y64.000 F3000 ; Travel to line 701
G0 Z0.0 ; Pen down
G1 X82.000 Y62.500 F1000
G1 X82.000 Y62.500 F1000
G1 X80.500 Y64.000 F1000
G0 Z3.0 ; Pen up

G0 X80.500 Y64.500 F3000 ; Travel to line 702
G0 Z0.0 ; Pen down
G1 X82.000 Y63.000 F1000
G1 X82.000 Y63.000 F1000
G1 X80.500 Y64.500 F1000
G0 Z3.0 ; Pen up

G0 X82.000 Y65.500 F3000 ; Travel to line 703
G0 Z0.0 ; Pen down
G1 X83.000 Y64.000 F1000
G0 Z3.0 ; Pen up

G0 X83.500 Y65.500 F3000 ; Travel to line 704
G0 Z0.0 ; Pen down
G1 X85.000 Y64.000 F1000
G0 Z3.0 ; Pen up

G0 X84.000 Y58.500 F3000 ; Travel to line 705
G0 Z0.0 ; Pen down
G1 X84.000 Y58.000 F1000
G0 Z3.0 ; Pen up

G0 X84.500 Y58.000 F3000 ; Travel to line 706
G0 Z0.0 ; Pen down
G1 X87.500 Y55.000 F1000
G1 X87.500 Y55.000 F1000
G1 X83.500 Y59.000 F1000
G1 X83.500 Y59.000 F1000
G1 X83.500 Y58.500 F1000
G0 Z3.0 ; Pen up

G0 X84.500 Y57.000 F3000 ; Travel to line 707
G0 Z0.0 ; Pen down
G1 X84.500 Y57.500 F1000
G1 X84.500 Y57.500 F1000
G1 X88.000 Y54.000 F1000
G0 Z3.0 ; Pen up

G0 X86.500 Y54.000 F3000 ; Travel to line 708
G0 Z0.0 ; Pen down
G1 X86.500 Y54.500 F1000
G0 Z3.0 ; Pen up

G0 X85.500 Y55.000 F3000 ; Travel to line 709
G0 Z0.0 ; Pen down
G1 X85.000 Y55.500 F1000
G0 Z3.0 ; Pen up

G0 X85.500 Y56.000 F3000 ; Travel to line 710
G0 Z0.0 ; Pen down
G1 X87.500 Y54.000 F1000
G1 X87.500 Y54.000 F1000
G1 X85.500 Y56.500 F1000
G0 Z3.0 ; Pen up

G0 X85.000 Y56.500 F3000 ; Travel to line 711
G0 Z0.0 ; Pen down
G1 X85.000 Y57.000 F1000
G0 Z3.0 ; Pen up

G0 X83.500 Y55.000 F3000 ; Travel to line 712
G0 Z0.0 ; Pen down
G1 X84.500 Y54.500 F1000
G0 Z3.0 ; Pen up

G0 X82.500 Y54.000 F3000 ; Travel to line 713
G0 Z0.0 ; Pen down
G1 X79.000 Y57.500 F1000
G0 Z3.0 ; Pen up

G0 X80.000 Y59.000 F3000 ; Travel to line 714
G0 Z0.0 ; Pen down
G1 X79.500 Y59.500 F1000
G0 Z3.0 ; Pen up

G0 X68.500 Y57.500 F3000 ; Travel to line 715
G0 Z0.0 ; Pen down
G1 X67.000 Y59.000 F1000
G0 Z3.0 ; Pen up

G0 X68.000 Y56.000 F3000 ; Travel to line 716
G0 Z0.0 ; Pen down
G1 X68.500 Y55.500 F1000
G1 X68.500 Y55.500 F1000
G1 X68.000 Y56.000 F1000
G0 Z3.0 ; Pen up

G0 X67.500 Y55.500 F3000 ; Travel to line 717
G0 Z0.0 ; Pen down
G1 X68.000 Y55.000 F1000
G1 X68.000 Y55.000 F1000
G1 X67.500 Y55.500 F1000
G1 X67.500 Y55.500 F1000
G1 X68.000 Y55.000 F1000
G0 Z3.0 ; Pen up

G0 X67.000 Y55.000 F3000 ; Travel to line 718
G0 Z0.0 ; Pen down
G1 X67.500 Y54.500 F1000
G1 X67.500 Y54.500 F1000
G1 X67.000 Y55.000 F1000
G0 Z3.0 ; Pen up

G0 X65.500 Y54.000 F3000 ; Travel to line 719
G0 Z0.0 ; Pen down
G1 X64.000 Y55.500 F1000
G0 Z3.0 ; Pen up

G0 X52.500 Y64.000 F3000 ; Travel to line 720
G0 Z0.0 ; Pen down
G1 X53.000 Y63.500 F1000
G1 X53.000 Y63.500 F1000
G1 X52.500 Y64.000 F1000
G0 Z3.0 ; Pen up

G0 X50.000 Y61.500 F3000 ; Travel to line 721
G0 Z0.0 ; Pen down
G1 X49.000 Y62.000 F1000
G0 Z3.0 ; Pen up

G0 X48.000 Y61.000 F3000 ; Travel to line 722
G0 Z0.0 ; Pen down
G1 X46.500 Y63.000 F1000
G0 Z3.0 ; Pen up

G0 X47.000 Y64.500 F3000 ; Travel to line 723
G0 Z0.0 ; Pen down
G1 X48.000 Y63.500 F1000
G0 Z3.0 ; Pen up

G0 X48.500 Y65.000 F3000 ; Travel to line 724
G0 Z0.0 ; Pen down
G1 X47.500 Y65.500 F1000
G0 Z3.0 ; Pen up

G0 X45.000 Y64.500 F3000 ; Travel to line 725
G0 Z0.0 ; Pen down
G1 X44.000 Y65.500 F1000
G0 Z3.0 ; Pen up

G0 X37.500 Y65.000 F3000 ; Travel to line 726
G0 Z0.0 ; Pen down
G1 X37.000 Y65.000 F1000
G0 Z3.0 ; Pen up

G0 X36.500 Y61.500 F3000 ; Travel to line 727
G0 Z0.0 ; Pen down
G1 X37.000 Y61.000 F1000
G0 Z3.0 ; Pen up

G0 X37.500 Y61.000 F3000 ; Travel to line 728
G0 Z0.0 ; Pen down
G1 X37.500 Y60.500 F1000
G0 Z3.0 ; Pen up

G0 X38.000 Y60.500 F3000 ; Travel to line 729
G0 Z0.0 ; Pen down
G1 X38.000 Y60.000 F1000
G0 Z3.0 ; Pen up

G0 X35.500 Y60.000 F3000 ; Travel to line 730
G0 Z0.0 ; Pen down
G1 X34.500 Y61.000 F1000
G1 X34.500 Y61.000 F1000
G1 X35.000 Y60.000 F1000
G1 X35.000 Y60.000 F1000
G1 X34.000 Y60.500 F1000
G0 Z3.0 ; Pen up

