; Blueprint to G-code
; Input: test_data/test_images_letters/letters.jpg
; Generated with blueprint2gcode.py

G21 ; Set units to millimeters
G90 ; Absolute positioning
G0 Z3.0 ; Pen up
G0 X0 Y0 ; Move to origin

G0 X6.000 Y13.500 F3000 ; Travel to line 1
G0 Z0.0 ; Pen down
G1 X6.000 Y27.500 F1000
G0 Z3.0 ; Pen up

G0 X6.000 Y32.500 F3000 ; Travel to line 2
G0 Z0.0 ; Pen down
G1 X6.000 Y46.500 F1000
G0 Z3.0 ; Pen up

G0 X6.000 Y51.500 F3000 ; Travel to line 3
G0 Z0.0 ; Pen down
G1 X6.000 Y65.500 F1000
G0 Z3.0 ; Pen up

G0 X6.000 Y70.500 F3000 ; Travel to line 4
G0 Z0.0 ; Pen down
G1 X6.000 Y84.500 F1000
G0 Z3.0 ; Pen up

G0 X6.000 Y89.500 F3000 ; Travel to line 5
G0 Z0.0 ; Pen down
G1 X6.000 Y103.500 F1000
G0 Z3.0 ; Pen up

G0 X6.000 Y108.500 F3000 ; Travel to line 6
G0 Z0.0 ; Pen down
G1 X6.000 Y122.500 F1000
G0 Z3.0 ; Pen up

G0 X6.000 Y127.500 F3000 ; Travel to line 7
G0 Z0.0 ; Pen down
G1 X6.000 Y141.500 F1000
G0 Z3.0 ; Pen up

G0 X6.000 Y146.500 F3000 ; Travel to line 8
G0 Z0.0 ; Pen down
G1 X6.000 Y160.500 F1000
G0 Z3.0 ; Pen up

G0 X6.000 Y165.500 F3000 ; Travel to line 9
G0 Z0.0 ; Pen down
G1 X6.000 Y179.500 F1000
G0 Z3.0 ; Pen up

G0 X6.000 Y184.500 F3000 ; Travel to line 10
G0 Z0.0 ; Pen down
G1 X6.000 Y198.500 F1000
G0 Z3.0 ; Pen up

G0 X14.500 Y192.000 F3000 ; Travel to line 11
G0 Z0.0 ; Pen down
G1 X16.500 Y192.000 F1000
G0 Z3.0 ; Pen up

G0 X24.000 Y192.000 F3000 ; Travel to line 12
G0 Z0.0 ; Pen down
G1 X26.000 Y192.000 F1000
G0 Z3.0 ; Pen up

G0 X34.000 Y192.000 F3000 ; Travel to line 13
G0 Z0.0 ; Pen down
G1 X36.000 Y192.000 F1000
G0 Z3.0 ; Pen up

G0 X43.500 Y192.000 F3000 ; Travel to line 14
G0 Z0.0 ; Pen down
G1 X45.500 Y192.000 F1000
G0 Z3.0 ; Pen up

G0 X53.000 Y192.000 F3000 ; Travel to line 15
G0 Z0.0 ; Pen down
G1 X55.000 Y192.000 F1000
G0 Z3.0 ; Pen up

G0 X63.000 Y192.000 F3000 ; Travel to line 16
G0 Z0.0 ; Pen down
G1 X65.000 Y192.000 F1000
G0 Z3.0 ; Pen up

G0 X72.000 Y192.000 F3000 ; Travel to line 17
G0 Z0.0 ; Pen down
G1 X74.500 Y192.000 F1000
G0 Z3.0 ; Pen up

G0 X82.000 Y192.000 F3000 ; Travel to line 18
G0 Z0.0 ; Pen down
G1 X84.000 Y192.000 F1000
G0 Z3.0 ; Pen up

G0 X91.500 Y192.000 F3000 ; Travel to line 19
G0 Z0.0 ; Pen down
G1 X93.500 Y192.000 F1000
G0 Z3.0 ; Pen up

G0 X101.500 Y192.000 F3000 ; Travel to line 20
G0 Z0.0 ; Pen down
G1 X103.500 Y192.000 F1000
G1 X104.000 Y191.500 F1000
G1 X103.500 Y192.000 F1000
G0 Z3.0 ; Pen up

G0 X111.000 Y192.000 F3000 ; Travel to line 21
G0 Z0.0 ; Pen down
G1 X113.000 Y192.000 F1000
G0 Z3.0 ; Pen up

G0 X120.500 Y192.000 F3000 ; Travel to line 22
G0 Z0.0 ; Pen down
G1 X122.500 Y192.000 F1000
G0 Z3.0 ; Pen up

G0 X130.000 Y192.000 F3000 ; Travel to line 23
G0 Z0.0 ; Pen down
G1 X132.000 Y192.000 F1000
G0 Z3.0 ; Pen up

G0 X140.000 Y192.000 F3000 ; Travel to line 24
G0 Z0.0 ; Pen down
G1 X142.000 Y192.000 F1000
G0 Z3.0 ; Pen up

G0 X149.500 Y192.000 F3000 ; Travel to line 25
G0 Z0.0 ; Pen down
G1 X151.500 Y192.000 F1000
G0 Z3.0 ; Pen up

G0 X159.000 Y192.000 F3000 ; Travel to line 26
G0 Z0.0 ; Pen down
G1 X161.000 Y192.000 F1000
G0 Z3.0 ; Pen up

G0 X168.500 Y192.000 F3000 ; Travel to line 27
G0 Z0.0 ; Pen down
G1 X170.500 Y192.000 F1000
G0 Z3.0 ; Pen up

G0 X178.500 Y192.000 F3000 ; Travel to line 28
G0 Z0.0 ; Pen down
G1 X180.500 Y192.000 F1000
G0 Z3.0 ; Pen up

G0 X188.000 Y192.000 F3000 ; Travel to line 29
G0 Z0.0 ; Pen down
G1 X190.000 Y192.000 F1000
G0 Z3.0 ; Pen up

G0 X197.500 Y192.000 F3000 ; Travel to line 30
G0 Z0.0 ; Pen down
G1 X199.500 Y192.000 F1000
G0 Z3.0 ; Pen up

G0 X207.500 Y192.000 F3000 ; Travel to line 31
G0 Z0.0 ; Pen down
G1 X209.500 Y192.000 F1000
G1 X210.000 Y191.500 F1000
G1 X209.500 Y192.000 F1000
G0 Z3.0 ; Pen up

G0 X217.000 Y192.000 F3000 ; Travel to line 32
G0 Z0.0 ; Pen down
G1 X219.000 Y192.000 F1000
G0 Z3.0 ; Pen up

G0 X226.500 Y192.000 F3000 ; Travel to line 33
G0 Z0.0 ; Pen down
G1 X228.500 Y192.000 F1000
G0 Z3.0 ; Pen up

G0 X236.000 Y192.000 F3000 ; Travel to line 34
G0 Z0.0 ; Pen down
G1 X238.000 Y192.000 F1000
G0 Z3.0 ; Pen up

G0 X246.000 Y192.000 F3000 ; Travel to line 35
G0 Z0.0 ; Pen down
G1 X248.000 Y192.000 F1000
G0 Z3.0 ; Pen up

G0 X255.500 Y192.000 F3000 ; Travel to line 36
G0 Z0.0 ; Pen down
G1 X257.500 Y192.000 F1000
G0 Z3.0 ; Pen up

G0 X265.000 Y192.000 F3000 ; Travel to line 37
G0 Z0.0 ; Pen down
G1 X267.000 Y192.000 F1000
G0 Z3.0 ; Pen up

G0 X274.500 Y192.000 F3000 ; Travel to line 38
G0 Z0.0 ; Pen down
G1 X276.500 Y192.000 F1000
G0 Z3.0 ; Pen up

G0 X285.500 Y198.500 F3000 ; Travel to line 39
G0 Z0.0 ; Pen down
G1 X285.500 Y184.500 F1000
G0 Z3.0 ; Pen up

G0 X285.500 Y179.500 F3000 ; Travel to line 40
G0 Z0.0 ; Pen down
G1 X285.500 Y165.500 F1000
G0 Z3.0 ; Pen up

G0 X285.500 Y160.500 F3000 ; Travel to line 41
G0 Z0.0 ; Pen down
G1 X285.500 Y146.500 F1000
G0 Z3.0 ; Pen up

G0 X285.500 Y141.500 F3000 ; Travel to line 42
G0 Z0.0 ; Pen down
G1 X285.500 Y127.500 F1000
G0 Z3.0 ; Pen up

G0 X285.500 Y122.500 F3000 ; Travel to line 43
G0 Z0.0 ; Pen down
G1 X285.500 Y108.500 F1000
G0 Z3.0 ; Pen up

G0 X285.500 Y103.500 F3000 ; Travel to line 44
G0 Z0.0 ; Pen down
G1 X285.500 Y89.500 F1000
G0 Z3.0 ; Pen up

G0 X285.500 Y84.500 F3000 ; Travel to line 45
G0 Z0.0 ; Pen down
G1 X285.500 Y70.500 F1000
G0 Z3.0 ; Pen up

G0 X285.500 Y65.500 F3000 ; Travel to line 46
G0 Z0.0 ; Pen down
G1 X285.500 Y51.500 F1000
G0 Z3.0 ; Pen up

G0 X285.500 Y46.500 F3000 ; Travel to line 47
G0 Z0.0 ; Pen down
G1 X285.500 Y32.500 F1000
G0 Z3.0 ; Pen up

G0 X285.500 Y27.500 F3000 ; Travel to line 48
G0 Z0.0 ; Pen down
G1 X285.500 Y13.500 F1000
G0 Z3.0 ; Pen up

G0 X290.500 Y12.500 F3000 ; Travel to line 49
G0 Z0.0 ; Pen down
G1 X290.500 Y31.000 F1000
G0 Z3.0 ; Pen up

G0 X276.500 Y21.000 F3000 ; Travel to line 50
G0 Z0.0 ; Pen down
G1 X274.500 Y21.000 F1000
G0 Z3.0 ; Pen up

G0 X267.000 Y21.000 F3000 ; Travel to line 51
G0 Z0.0 ; Pen down
G1 X265.000 Y21.000 F1000
G0 Z3.0 ; Pen up

G0 X257.500 Y21.000 F3000 ; Travel to line 52
G0 Z0.0 ; Pen down
G1 X255.500 Y21.000 F1000
G0 Z3.0 ; Pen up

G0 X248.000 Y21.000 F3000 ; Travel to line 53
G0 Z0.0 ; Pen down
G1 X246.000 Y21.000 F1000
G0 Z3.0 ; Pen up

G0 X238.000 Y21.000 F3000 ; Travel to line 54
G0 Z0.0 ; Pen down
G1 X236.000 Y21.000 F1000
G0 Z3.0 ; Pen up

G0 X228.500 Y21.000 F3000 ; Travel to line 55
G0 Z0.0 ; Pen down
G1 X226.500 Y21.000 F1000
G0 Z3.0 ; Pen up

G0 X219.000 Y21.000 F3000 ; Travel to line 56
G0 Z0.0 ; Pen down
G1 X216.500 Y21.000 F1000
G0 Z3.0 ; Pen up

G0 X209.500 Y21.000 F3000 ; Travel to line 57
G0 Z0.0 ; Pen down
G1 X207.500 Y21.000 F1000
G0 Z3.0 ; Pen up

G0 X199.500 Y21.000 F3000 ; Travel to line 58
G0 Z0.0 ; Pen down
G1 X197.500 Y21.000 F1000
G0 Z3.0 ; Pen up

G0 X190.000 Y21.000 F3000 ; Travel to line 59
G0 Z0.0 ; Pen down
G1 X187.500 Y21.000 F1000
G0 Z3.0 ; Pen up

G0 X180.500 Y21.000 F3000 ; Travel to line 60
G0 Z0.0 ; Pen down
G1 X178.500 Y21.000 F1000
G0 Z3.0 ; Pen up

G0 X170.500 Y21.000 F3000 ; Travel to line 61
G0 Z0.0 ; Pen down
G1 X168.500 Y21.000 F1000
G0 Z3.0 ; Pen up

G0 X161.000 Y21.000 F3000 ; Travel to line 62
G0 Z0.0 ; Pen down
G1 X159.000 Y21.000 F1000
G0 Z3.0 ; Pen up

G0 X151.500 Y21.000 F3000 ; Travel to line 63
G0 Z0.0 ; Pen down
G1 X149.500 Y21.000 F1000
G0 Z3.0 ; Pen up

G0 X142.000 Y21.000 F3000 ; Travel to line 64
G0 Z0.0 ; Pen down
G1 X140.000 Y21.000 F1000
G0 Z3.0 ; Pen up

G0 X132.000 Y21.000 F3000 ; Travel to line 65
G0 Z0.0 ; Pen down
G1 X130.000 Y21.000 F1000
G0 Z3.0 ; Pen up

G0 X122.500 Y21.000 F3000 ; Travel to line 66
G0 Z0.0 ; Pen down
G1 X120.500 Y21.000 F1000
G0 Z3.0 ; Pen up

G0 X113.000 Y21.000 F3000 ; Travel to line 67
G0 Z0.0 ; Pen down
G1 X110.500 Y21.000 F1000
G0 Z3.0 ; Pen up

G0 X103.500 Y21.000 F3000 ; Travel to line 68
G0 Z0.0 ; Pen down
G1 X101.500 Y21.000 F1000
G0 Z3.0 ; Pen up

G0 X93.500 Y21.000 F3000 ; Travel to line 69
G0 Z0.0 ; Pen down
G1 X91.500 Y21.000 F1000
G0 Z3.0 ; Pen up

G0 X84.000 Y21.000 F3000 ; Travel to line 70
G0 Z0.0 ; Pen down
G1 X82.000 Y21.000 F1000
G0 Z3.0 ; Pen up

G0 X74.500 Y21.000 F3000 ; Travel to line 71
G0 Z0.0 ; Pen down
G1 X72.500 Y21.000 F1000
G0 Z3.0 ; Pen up

G0 X65.000 Y21.000 F3000 ; Travel to line 72
G0 Z0.0 ; Pen down
G1 X63.000 Y21.000 F1000
G0 Z3.0 ; Pen up

G0 X55.000 Y21.000 F3000 ; Travel to line 73
G0 Z0.0 ; Pen down
G1 X53.000 Y21.000 F1000
G0 Z3.0 ; Pen up

G0 X45.500 Y21.000 F3000 ; Travel to line 74
G0 Z0.0 ; Pen down
G1 X43.500 Y21.000 F1000
G0 Z3.0 ; Pen up

G0 X36.000 Y21.000 F3000 ; Travel to line 75
G0 Z0.0 ; Pen down
G1 X34.000 Y21.000 F1000
G0 Z3.0 ; Pen up

G0 X26.000 Y21.000 F3000 ; Travel to line 76
G0 Z0.0 ; Pen down
G1 X24.000 Y21.000 F1000
G0 Z3.0 ; Pen up

G0 X16.500 Y21.000 F3000 ; Travel to line 77
G0 Z0.0 ; Pen down
G1 X14.500 Y21.000 F1000
G0 Z3.0 ; Pen up

G0 X25.500 Y59.000 F3000 ; Travel to line 78
G0 Z0.0 ; Pen down
G1 X25.500 Y65.000 F1000
G0 Z3.0 ; Pen up

G0 X35.000 Y65.000 F3000 ; Travel to line 79
G0 Z0.0 ; Pen down
G1 X34.500 Y64.500 F1000
G1 X33.500 Y64.500 F1000
G1 X32.000 Y63.000 F1000
G1 X32.000 Y62.500 F1000
G1 X31.000 Y61.500 F1000
G1 X31.000 Y56.000 F1000
G1 X31.500 Y55.500 F1000
G1 X31.500 Y55.000 F1000
G1 X33.500 Y53.000 F1000
G1 X34.500 Y53.000 F1000
G1 X35.000 Y52.500 F1000
G1 X37.500 Y52.500 F1000
G1 X35.000 Y52.500 F1000
G1 X34.500 Y53.000 F1000
G1 X33.500 Y53.000 F1000
G1 X31.500 Y55.000 F1000
G1 X31.500 Y55.500 F1000
G1 X31.000 Y56.000 F1000
G1 X31.000 Y61.000 F1000
G1 X31.500 Y61.500 F1000
G1 X31.500 Y62.000 F1000
G1 X34.000 Y64.500 F1000
G1 X34.500 Y64.500 F1000
G1 X35.000 Y65.000 F1000
G1 X36.000 Y65.000 F1000
G1 X36.500 Y64.500 F1000
G1 X37.000 Y64.500 F1000
G1 X38.500 Y63.000 F1000
G1 X38.500 Y61.500 F1000
G1 X38.000 Y61.000 F1000
G1 X37.500 Y61.000 F1000
G1 X37.000 Y61.500 F1000
G1 X35.500 Y61.500 F1000
G1 X34.000 Y60.000 F1000
G1 X34.000 Y57.000 F1000
G1 X35.000 Y56.000 F1000
G1 X38.000 Y56.000 F1000
G1 X38.500 Y56.500 F1000
G1 X38.500 Y63.000 F1000
G1 X38.000 Y63.500 F1000
G1 X38.000 Y64.000 F1000
G1 X37.500 Y64.500 F1000
G1 X37.000 Y64.500 F1000
G1 X36.500 Y65.000 F1000
G0 Z3.0 ; Pen up

G0 X36.000 Y61.500 F3000 ; Travel to line 80
G0 Z0.0 ; Pen down
G1 X37.000 Y61.500 F1000
G1 X37.500 Y61.000 F1000
G1 X38.000 Y61.000 F1000
G1 X38.500 Y60.500 F1000
G1 X38.500 Y56.500 F1000
G1 X38.000 Y56.000 F1000
G1 X35.500 Y56.000 F1000
G1 X34.000 Y57.500 F1000
G1 X34.000 Y59.500 F1000
G0 Z3.0 ; Pen up

G0 X43.000 Y61.000 F3000 ; Travel to line 81
G0 Z0.0 ; Pen down
G1 X43.000 Y59.000 F1000
G1 X43.500 Y58.500 F1000
G1 X45.000 Y58.500 F1000
G1 X45.500 Y58.000 F1000
G1 X46.000 Y58.500 F1000
G1 X46.000 Y60.500 F1000
G1 X46.500 Y61.000 F1000
G1 X46.500 Y61.500 F1000
G1 X46.000 Y62.000 F1000
G1 X44.000 Y62.000 F1000
G0 Z3.0 ; Pen up

G0 X44.000 Y62.500 F3000 ; Travel to line 82
G0 Z0.0 ; Pen down
G1 X44.500 Y62.000 F1000
G1 X46.500 Y62.000 F1000
G1 X47.000 Y62.500 F1000
G1 X47.000 Y64.500 F1000
G1 X47.000 Y62.500 F1000
G1 X47.500 Y62.000 F1000
G1 X49.000 Y62.000 F1000
G1 X47.000 Y62.000 F1000
G1 X46.500 Y61.500 F1000
G1 X46.500 Y61.000 F1000
G1 X46.000 Y60.500 F1000
G1 X46.000 Y59.000 F1000
G1 X46.500 Y58.500 F1000
G1 X48.000 Y58.500 F1000
G1 X46.500 Y58.500 F1000
G1 X45.500 Y57.500 F1000
G1 X45.500 Y57.000 F1000
G1 X45.000 Y56.500 F1000
G1 X45.000 Y55.000 F1000
G1 X45.000 Y56.500 F1000
G1 X45.500 Y57.000 F1000
G1 X45.500 Y58.000 F1000
G1 X45.000 Y58.500 F1000
G1 X43.000 Y58.500 F1000
G1 X42.500 Y58.000 F1000
G1 X42.500 Y57.500 F1000
G1 X42.000 Y57.000 F1000
G1 X42.000 Y55.500 F1000
G1 X42.000 Y57.000 F1000
G1 X42.500 Y57.500 F1000
G1 X41.500 Y58.500 F1000
G1 X40.500 Y58.500 F1000
G1 X41.500 Y58.500 F1000
G1 X42.000 Y58.000 F1000
G1 X43.000 Y59.000 F1000
G1 X43.000 Y61.000 F1000
G1 X43.500 Y61.500 F1000
G1 X43.000 Y62.000 F1000
G1 X41.500 Y62.000 F1000
G1 X43.500 Y62.000 F1000
G1 X44.000 Y62.500 F1000
G1 X44.000 Y65.000 F1000
G0 Z3.0 ; Pen up

G0 X52.000 Y63.000 F3000 ; Travel to line 83
G0 Z0.0 ; Pen down
G1 X52.000 Y61.000 F1000
G1 X53.000 Y60.000 F1000
G1 X54.000 Y60.000 F1000
G1 X54.500 Y60.500 F1000
G1 X54.500 Y64.000 F1000
G1 X54.000 Y64.500 F1000
G1 X53.500 Y64.500 F1000
G0 Z3.0 ; Pen up

G0 X54.500 Y65.000 F3000 ; Travel to line 84
G0 Z0.0 ; Pen down
G1 X55.000 Y64.500 F1000
G1 X56.000 Y64.500 F1000
G1 X57.000 Y63.500 F1000
G1 X56.000 Y64.500 F1000
G1 X55.000 Y64.500 F1000
G1 X54.500 Y64.000 F1000
G1 X54.500 Y60.000 F1000
G1 X55.000 Y59.500 F1000
G1 X56.000 Y59.500 F1000
G1 X57.000 Y58.500 F1000
G1 X57.000 Y58.000 F1000
G1 X57.500 Y57.500 F1000
G1 X57.500 Y57.000 F1000
G1 X57.000 Y56.500 F1000
G1 X57.000 Y55.500 F1000
G1 X56.000 Y55.500 F1000
G1 X55.500 Y55.000 F1000
G1 X55.000 Y55.000 F1000
G1 X54.500 Y54.500 F1000
G1 X54.500 Y52.000 F1000
G1 X54.500 Y54.500 F1000
G1 X54.000 Y55.000 F1000
G1 X52.500 Y55.000 F1000
G1 X52.000 Y55.500 F1000
G1 X51.500 Y55.500 F1000
G1 X52.500 Y55.500 F1000
G1 X53.000 Y55.000 F1000
G1 X54.000 Y55.000 F1000
G1 X54.500 Y55.500 F1000
G1 X54.500 Y59.500 F1000
G1 X54.000 Y60.000 F1000
G1 X53.000 Y60.000 F1000
G1 X52.500 Y60.500 F1000
G1 X52.000 Y60.500 F1000
G1 X52.000 Y63.500 F1000
G1 X52.500 Y64.000 F1000
G1 X53.000 Y64.000 F1000
G1 X53.500 Y64.500 F1000
G1 X54.000 Y64.500 F1000
G1 X54.500 Y65.000 F1000
G1 X54.500 Y66.000 F1000
G0 Z3.0 ; Pen up

G0 X60.000 Y63.500 F3000 ; Travel to line 85
G0 Z0.0 ; Pen down
G1 X60.000 Y62.500 F1000
G1 X61.000 Y61.500 F1000
G1 X63.000 Y61.500 F1000
G1 X63.500 Y62.000 F1000
G1 X63.500 Y64.000 F1000
G1 X62.500 Y65.000 F1000
G1 X61.500 Y65.000 F1000
G1 X61.500 Y65.000 F1000
G1 X61.000 Y64.500 F1000
G1 X60.500 Y64.500 F1000
G1 X60.000 Y64.000 F1000
G1 X60.000 Y62.000 F1000
G1 X60.500 Y62.000 F1000
G1 X61.000 Y61.500 F1000
G1 X63.000 Y61.500 F1000
G1 X63.500 Y62.000 F1000
G1 X63.500 Y64.000 F1000
G1 X62.500 Y65.000 F1000
G0 Z3.0 ; Pen up

G0 X67.000 Y61.500 F3000 ; Travel to line 86
G0 Z0.0 ; Pen down
G1 X66.500 Y61.000 F1000
G1 X66.000 Y61.000 F1000
G1 X65.500 Y60.500 F1000
G1 X65.000 Y60.500 F1000
G1 X64.500 Y60.000 F1000
G1 X63.500 Y60.000 F1000
G1 X63.000 Y59.500 F1000
G1 X62.500 Y59.500 F1000
G1 X62.000 Y59.000 F1000
G1 X61.500 Y59.000 F1000
G1 X61.000 Y58.500 F1000
G1 X60.000 Y58.500 F1000
G1 X61.000 Y58.500 F1000
G1 X61.500 Y59.000 F1000
G1 X62.000 Y59.000 F1000
G1 X62.500 Y59.500 F1000
G1 X63.000 Y59.500 F1000
G1 X63.500 Y60.000 F1000
G1 X64.500 Y60.000 F1000
G1 X65.000 Y60.500 F1000
G1 X65.500 Y60.500 F1000
G1 X66.000 Y61.000 F1000
G1 X66.500 Y61.000 F1000
G1 X67.000 Y61.500 F1000
G1 X68.000 Y61.500 F1000
G0 Z3.0 ; Pen up

G0 X66.500 Y59.000 F3000 ; Travel to line 87
G0 Z0.0 ; Pen down
G1 X67.500 Y58.000 F1000
G1 X67.500 Y55.500 F1000
G1 X67.000 Y55.000 F1000
G1 X65.000 Y55.000 F1000
G1 X64.000 Y56.000 F1000
G1 X64.000 Y57.500 F1000
G1 X65.500 Y59.000 F1000
G1 X65.500 Y59.000 F1000
G1 X66.500 Y59.000 F1000
G1 X67.500 Y58.000 F1000
G1 X67.500 Y55.500 F1000
G1 X67.000 Y55.000 F1000
G1 X65.000 Y55.000 F1000
G1 X64.000 Y56.000 F1000
G1 X64.000 Y57.500 F1000
G0 Z3.0 ; Pen up

G0 X54.500 Y59.000 F3000 ; Travel to line 88
G0 Z0.0 ; Pen down
G1 X55.000 Y59.500 F1000
G1 X56.000 Y59.500 F1000
G1 X57.000 Y58.500 F1000
G1 X57.000 Y58.000 F1000
G1 X57.500 Y57.500 F1000
G1 X57.500 Y57.000 F1000
G1 X57.000 Y56.500 F1000
G1 X57.000 Y56.000 F1000
G1 X56.500 Y55.500 F1000
G1 X56.000 Y55.500 F1000
G1 X55.500 Y55.000 F1000
G1 X55.000 Y55.000 F1000
G1 X54.500 Y55.500 F1000
G0 Z3.0 ; Pen up

G0 X72.500 Y65.000 F3000 ; Travel to line 89
G0 Z0.0 ; Pen down
G1 X71.500 Y64.000 F1000
G1 X71.500 Y63.500 F1000
G1 X70.000 Y62.000 F1000
G1 X73.000 Y65.000 F1000
G1 X74.000 Y65.000 F1000
G1 X77.000 Y62.000 F1000
G1 X75.500 Y63.500 F1000
G1 X75.500 Y64.000 F1000
G1 X74.500 Y65.000 F1000
G0 Z3.0 ; Pen up

G0 X81.500 Y65.000 F3000 ; Travel to line 90
G0 Z0.0 ; Pen down
G1 X81.000 Y64.500 F1000
G1 X81.000 Y62.000 F1000
G1 X81.500 Y61.500 F1000
G1 X80.000 Y60.000 F1000
G1 X80.000 Y59.500 F1000
G1 X79.500 Y59.000 F1000
G1 X79.500 Y56.500 F1000
G1 X80.500 Y55.500 F1000
G1 X81.500 Y55.500 F1000
G1 X82.000 Y55.000 F1000
G1 X83.500 Y55.000 F1000
G1 X84.000 Y55.500 F1000
G1 X86.000 Y55.500 F1000
G1 X87.000 Y54.500 F1000
G1 X86.500 Y55.000 F1000
G1 X86.500 Y55.500 F1000
G1 X86.000 Y55.500 F1000
G1 X85.500 Y56.000 F1000
G1 X86.500 Y57.000 F1000
G1 X86.500 Y58.000 F1000
G1 X87.000 Y58.500 F1000
G1 X87.000 Y59.000 F1000
G1 X87.000 Y58.500 F1000
G1 X86.500 Y58.000 F1000
G1 X86.500 Y57.500 F1000
G1 X85.500 Y56.500 F1000
G1 X85.000 Y57.000 F1000
G1 X85.000 Y57.500 F1000
G1 X83.500 Y59.000 F1000
G1 X83.500 Y59.500 F1000
G1 X81.000 Y62.000 F1000
G1 X81.000 Y64.000 F1000
G1 X82.000 Y65.000 F1000
G1 X84.000 Y65.000 F1000
G0 Z3.0 ; Pen up

G0 X81.000 Y60.500 F3000 ; Travel to line 91
G0 Z0.0 ; Pen down
G1 X81.500 Y61.000 F1000
G1 X82.000 Y61.000 F1000
G1 X83.000 Y60.000 F1000
G1 X83.000 Y59.500 F1000
G1 X84.000 Y58.500 F1000
G1 X84.000 Y58.000 F1000
G1 X85.500 Y56.500 F1000
G1 X85.500 Y56.000 F1000
G1 X85.000 Y55.500 F1000
G1 X84.000 Y55.500 F1000
G1 X83.500 Y55.000 F1000
G1 X82.000 Y55.000 F1000
G1 X81.500 Y55.500 F1000
G1 X81.000 Y55.500 F1000
G1 X79.500 Y57.000 F1000
G1 X79.500 Y59.000 F1000
G1 X80.000 Y59.500 F1000
G1 X80.000 Y60.000 F1000
G1 X80.500 Y60.500 F1000
G0 Z3.0 ; Pen up

G0 X92.500 Y62.500 F3000 ; Travel to line 92
G0 Z0.0 ; Pen down
G1 X93.000 Y62.000 F1000
G1 X94.000 Y63.000 F1000
G1 X94.500 Y63.000 F1000
G1 X95.000 Y63.500 F1000
G1 X95.500 Y63.500 F1000
G1 X95.000 Y63.500 F1000
G1 X93.500 Y62.000 F1000
G1 X94.500 Y61.000 F1000
G1 X95.000 Y61.000 F1000
G1 X95.500 Y60.500 F1000
G1 X96.000 Y60.500 F1000
G1 X95.500 Y60.500 F1000
G1 X95.000 Y61.000 F1000
G1 X94.500 Y61.000 F1000
G1 X94.000 Y61.500 F1000
G1 X93.500 Y61.500 F1000
G1 X93.000 Y62.000 F1000
G1 X92.500 Y61.500 F1000
G1 X92.500 Y59.000 F1000
G1 X92.500 Y61.000 F1000
G1 X92.000 Y61.500 F1000
G1 X91.500 Y61.500 F1000
G1 X90.500 Y60.500 F1000
G1 X90.000 Y60.500 F1000
G1 X90.500 Y60.500 F1000
G1 X91.500 Y61.500 F1000
G1 X92.000 Y61.500 F1000
G1 X92.500 Y62.000 F1000
G1 X92.500 Y62.500 F1000
G1 X92.000 Y63.000 F1000
G1 X91.000 Y63.000 F1000
G1 X90.500 Y63.500 F1000
G1 X90.000 Y63.500 F1000
G1 X90.500 Y63.500 F1000
G1 X91.000 Y63.000 F1000
G1 X92.000 Y63.000 F1000
G1 X92.500 Y63.500 F1000
G1 X92.500 Y65.000 F1000
G0 Z3.0 ; Pen up

G0 X103.000 Y65.000 F3000 ; Travel to line 93
G0 Z0.0 ; Pen down
G1 X103.000 Y64.500 F1000
G1 X102.500 Y64.000 F1000
G1 X102.500 Y63.000 F1000
G1 X102.000 Y62.500 F1000
G1 X102.000 Y55.500 F1000
G1 X102.500 Y55.000 F1000
G1 X102.500 Y54.500 F1000
G1 X103.000 Y54.000 F1000
G1 X103.000 Y53.000 F1000
G1 X103.000 Y53.500 F1000
G1 X102.500 Y54.000 F1000
G1 X102.500 Y55.000 F1000
G1 X102.000 Y55.500 F1000
G1 X102.000 Y63.000 F1000
G1 X102.500 Y63.500 F1000
G1 X102.500 Y64.000 F1000
G1 X103.000 Y64.500 F1000
G1 X103.000 Y65.000 F1000
G1 X103.500 Y65.500 F1000
G0 Z3.0 ; Pen up

G0 X111.000 Y65.500 F3000 ; Travel to line 94
G0 Z0.0 ; Pen down
G1 X111.000 Y65.000 F1000
G1 X111.500 Y64.500 F1000
G1 X111.500 Y63.500 F1000
G1 X112.000 Y63.000 F1000
G1 X112.000 Y62.500 F1000
G1 X112.500 Y62.000 F1000
G1 X112.500 Y56.500 F1000
G1 X112.000 Y56.000 F1000
G1 X112.000 Y55.000 F1000
G1 X111.500 Y54.500 F1000
G1 X111.500 Y54.000 F1000
G1 X111.000 Y53.500 F1000
G1 X111.000 Y52.500 F1000
G1 X111.000 Y53.000 F1000
G1 X111.500 Y53.500 F1000
G1 X111.500 Y54.500 F1000
G1 X112.000 Y55.000 F1000
G1 X112.000 Y56.000 F1000
G1 X112.500 Y56.500 F1000
G1 X112.500 Y62.000 F1000
G1 X112.000 Y62.500 F1000
G1 X112.000 Y63.500 F1000
G1 X111.500 Y64.000 F1000
G1 X111.500 Y64.500 F1000
G1 X111.000 Y65.000 F1000
G0 Z3.0 ; Pen up

G0 X117.000 Y51.000 F3000 ; Travel to line 95
G0 Z0.0 ; Pen down
G1 X126.500 Y51.000 F1000
G0 Z3.0 ; Pen up

G0 X131.500 Y62.000 F3000 ; Travel to line 96
G0 Z0.0 ; Pen down
G1 X131.000 Y61.500 F1000
G1 X131.000 Y60.000 F1000
G1 X131.500 Y59.500 F1000
G1 X134.000 Y59.500 F1000
G1 X131.500 Y59.500 F1000
G1 X131.000 Y59.000 F1000
G1 X131.000 Y57.500 F1000
G1 X131.500 Y57.000 F1000
G1 X131.500 Y56.500 F1000
G1 X131.500 Y57.000 F1000
G1 X131.000 Y57.500 F1000
G1 X131.000 Y59.000 F1000
G1 X130.500 Y59.500 F1000
G1 X128.000 Y59.500 F1000
G1 X130.500 Y59.500 F1000
G1 X131.000 Y60.000 F1000
G1 X131.000 Y61.500 F1000
G1 X131.500 Y62.000 F1000
G1 X131.500 Y62.500 F1000
G0 Z3.0 ; Pen up

G0 X143.000 Y62.000 F3000 ; Travel to line 97
G0 Z0.0 ; Pen down
G1 X142.500 Y61.500 F1000
G1 X141.500 Y61.500 F1000
G1 X141.000 Y61.000 F1000
G1 X140.000 Y61.000 F1000
G1 X139.500 Y60.500 F1000
G1 X139.000 Y60.500 F1000
G1 X138.500 Y60.000 F1000
G1 X138.500 Y58.500 F1000
G1 X139.500 Y58.500 F1000
G1 X140.000 Y58.000 F1000
G1 X140.500 Y58.000 F1000
G1 X141.000 Y57.500 F1000
G1 X142.000 Y57.500 F1000
G1 X142.500 Y57.000 F1000
G1 X143.500 Y57.000 F1000
G1 X144.000 Y56.500 F1000
G1 X144.500 Y56.500 F1000
G1 X145.000 Y56.000 F1000
G1 X144.500 Y56.500 F1000
G1 X144.000 Y56.500 F1000
G1 X143.500 Y57.000 F1000
G1 X143.000 Y57.000 F1000
G1 X142.500 Y57.500 F1000
G1 X141.500 Y57.500 F1000
G1 X141.000 Y58.000 F1000
G1 X140.500 Y58.000 F1000
G1 X140.000 Y58.500 F1000
G1 X139.000 Y58.500 F1000
G1 X138.500 Y59.000 F1000
G1 X138.500 Y59.500 F1000
G1 X139.500 Y60.500 F1000
G1 X140.000 Y60.500 F1000
G1 X140.500 Y61.000 F1000
G1 X141.500 Y61.000 F1000
G1 X142.000 Y61.500 F1000
G1 X142.500 Y61.500 F1000
G1 X143.000 Y62.000 F1000
G1 X144.000 Y62.000 F1000
G0 Z3.0 ; Pen up

G0 X146.500 Y62.500 F3000 ; Travel to line 98
G0 Z0.0 ; Pen down
G1 X147.000 Y62.500 F1000
G1 X147.500 Y62.000 F1000
G1 X148.500 Y62.000 F1000
G1 X149.000 Y61.500 F1000
G1 X149.500 Y61.500 F1000
G1 X150.000 Y61.000 F1000
G1 X151.000 Y61.000 F1000
G1 X151.500 Y60.500 F1000
G1 X152.000 Y60.500 F1000
G1 X153.000 Y59.500 F1000
G1 X153.000 Y59.000 F1000
G1 X152.500 Y58.500 F1000
G1 X151.500 Y58.500 F1000
G1 X151.000 Y58.000 F1000
G1 X150.500 Y58.000 F1000
G1 X150.000 Y57.500 F1000
G1 X149.000 Y57.500 F1000
G1 X148.500 Y57.000 F1000
G1 X148.000 Y57.000 F1000
G1 X147.500 Y56.500 F1000
G1 X148.000 Y57.000 F1000
G1 X149.000 Y57.000 F1000
G1 X149.500 Y57.500 F1000
G1 X150.500 Y57.500 F1000
G1 X151.000 Y58.000 F1000
G1 X151.500 Y58.000 F1000
G1 X152.000 Y58.500 F1000
G1 X152.500 Y58.500 F1000
G1 X153.000 Y59.000 F1000
G1 X153.000 Y59.500 F1000
G1 X152.500 Y60.000 F1000
G1 X152.500 Y60.500 F1000
G1 X152.000 Y60.500 F1000
G1 X151.500 Y61.000 F1000
G1 X150.500 Y61.000 F1000
G1 X150.000 Y61.500 F1000
G1 X149.000 Y61.500 F1000
G1 X148.500 Y62.000 F1000
G1 X148.000 Y62.000 F1000
G1 X147.500 Y62.500 F1000
G0 Z3.0 ; Pen up

G0 X160.000 Y55.500 F3000 ; Travel to line 99
G0 Z0.0 ; Pen down
G1 X160.000 Y54.500 F1000
G1 X159.500 Y54.000 F1000
G1 X159.500 Y53.500 F1000
G1 X159.500 Y54.000 F1000
G1 X160.000 Y54.500 F1000
G0 Z3.0 ; Pen up

G0 X179.500 Y66.000 F3000 ; Travel to line 100
G0 Z0.0 ; Pen down
G1 X179.000 Y65.500 F1000
G1 X179.000 Y52.500 F1000
G1 X181.000 Y52.500 F1000
G1 X179.500 Y52.500 F1000
G1 X179.000 Y53.000 F1000
G1 X179.000 Y65.500 F1000
G1 X179.500 Y66.000 F1000
G1 X181.000 Y66.000 F1000
G0 Z3.0 ; Pen up

G0 X187.500 Y66.000 F3000 ; Travel to line 101
G0 Z0.0 ; Pen down
G1 X189.000 Y66.000 F1000
G1 X189.500 Y65.500 F1000
G1 X189.500 Y53.000 F1000
G1 X189.000 Y52.500 F1000
G1 X187.500 Y52.500 F1000
G1 X189.000 Y52.500 F1000
G1 X189.500 Y53.000 F1000
G1 X189.500 Y65.500 F1000
G1 X189.000 Y66.000 F1000
G0 Z3.0 ; Pen up

G0 X200.000 Y66.000 F3000 ; Travel to line 102
G0 Z0.0 ; Pen down
G1 X199.000 Y65.000 F1000
G1 X199.000 Y61.000 F1000
G1 X198.500 Y60.500 F1000
G1 X198.500 Y60.000 F1000
G1 X197.500 Y59.000 F1000
G1 X196.500 Y59.000 F1000
G1 X197.500 Y59.000 F1000
G1 X198.000 Y58.500 F1000
G1 X198.000 Y58.000 F1000
G1 X198.500 Y57.500 F1000
G1 X198.500 Y57.000 F1000
G1 X199.000 Y56.500 F1000
G1 X199.000 Y52.500 F1000
G1 X199.500 Y52.000 F1000
G1 X201.000 Y52.000 F1000
G1 X200.000 Y52.000 F1000
G1 X199.000 Y53.000 F1000
G1 X199.000 Y56.500 F1000
G1 X198.500 Y57.000 F1000
G1 X198.500 Y58.000 F1000
G1 X198.000 Y58.500 F1000
G1 X198.000 Y59.000 F1000
G1 X198.500 Y59.500 F1000
G1 X198.500 Y60.500 F1000
G1 X199.000 Y61.000 F1000
G1 X199.000 Y64.500 F1000
G1 X200.500 Y66.000 F1000
G1 X201.000 Y66.000 F1000
G0 Z3.0 ; Pen up

G0 X206.000 Y66.000 F3000 ; Travel to line 103
G0 Z0.0 ; Pen down
G1 X206.500 Y66.000 F1000
G1 X207.000 Y65.500 F1000
G1 X207.500 Y65.500 F1000
G1 X208.000 Y65.000 F1000
G1 X208.000 Y64.000 F1000
G1 X208.500 Y63.500 F1000
G1 X208.500 Y60.000 F1000
G1 X209.500 Y59.000 F1000
G1 X208.500 Y58.000 F1000
G1 X208.500 Y54.000 F1000
G1 X208.000 Y53.500 F1000
G1 X208.000 Y53.000 F1000
G1 X207.000 Y52.000 F1000
G1 X206.000 Y52.000 F1000
G1 X207.500 Y52.000 F1000
G1 X208.000 Y52.500 F1000
G1 X208.000 Y53.500 F1000
G1 X208.500 Y54.000 F1000
G1 X208.500 Y57.500 F1000
G1 X209.000 Y58.000 F1000
G1 X209.000 Y58.500 F1000
G1 X209.500 Y59.000 F1000
G1 X211.000 Y59.000 F1000
G1 X209.500 Y59.000 F1000
G1 X208.500 Y60.000 F1000
G1 X208.500 Y63.500 F1000
G1 X208.000 Y64.000 F1000
G1 X208.000 Y65.000 F1000
G1 X207.000 Y66.000 F1000
G0 Z3.0 ; Pen up

G0 X221.000 Y133.000 F3000 ; Travel to line 104
G0 Z0.0 ; Pen down
G1 X220.500 Y132.500 F1000
G1 X220.500 Y132.000 F1000
G1 X220.000 Y131.500 F1000
G1 X219.500 Y131.500 F1000
G1 X219.000 Y131.000 F1000
G1 X217.000 Y131.000 F1000
G1 X216.500 Y131.500 F1000
G1 X216.000 Y131.500 F1000
G1 X215.500 Y132.000 F1000
G1 X215.500 Y133.500 F1000
G1 X215.000 Y134.000 F1000
G1 X215.000 Y140.500 F1000
G1 X215.000 Y134.000 F1000
G1 X215.500 Y133.500 F1000
G1 X215.500 Y132.500 F1000
G1 X217.000 Y131.000 F1000
G1 X219.000 Y131.000 F1000
G1 X219.500 Y131.500 F1000
G1 X220.000 Y131.500 F1000
G1 X220.500 Y132.000 F1000
G1 X220.500 Y132.500 F1000
G1 X221.000 Y133.000 F1000
G1 X221.000 Y141.000 F1000
G0 Z3.0 ; Pen up

G0 X211.500 Y141.000 F3000 ; Travel to line 105
G0 Z0.0 ; Pen down
G1 X209.000 Y141.000 F1000
G1 X208.500 Y140.500 F1000
G1 X208.500 Y131.500 F1000
G1 X208.500 Y140.500 F1000
G1 X208.000 Y141.000 F1000
G1 X205.000 Y141.000 F1000
G0 Z3.0 ; Pen up

G0 X201.000 Y141.000 F3000 ; Travel to line 106
G0 Z0.0 ; Pen down
G1 X201.500 Y140.500 F1000
G1 X201.000 Y141.000 F1000
G1 X197.500 Y141.000 F1000
G1 X196.000 Y139.500 F1000
G1 X196.000 Y137.500 F1000
G1 X196.500 Y137.000 F1000
G1 X197.000 Y137.000 F1000
G1 X197.500 Y136.500 F1000
G1 X198.500 Y136.500 F1000
G1 X199.000 Y136.000 F1000
G1 X200.500 Y136.000 F1000
G1 X201.000 Y135.500 F1000
G1 X201.000 Y135.000 F1000
G1 X201.500 Y134.500 F1000
G1 X201.500 Y134.000 F1000
G1 X202.000 Y133.500 F1000
G1 X201.500 Y133.000 F1000
G1 X201.500 Y132.000 F1000
G1 X201.000 Y131.500 F1000
G1 X200.000 Y131.500 F1000
G1 X199.500 Y131.000 F1000
G1 X197.000 Y131.000 F1000
G1 X196.500 Y131.500 F1000
G1 X195.500 Y131.500 F1000
G1 X196.500 Y131.500 F1000
G1 X197.000 Y131.000 F1000
G1 X199.500 Y131.000 F1000
G1 X200.000 Y131.500 F1000
G1 X200.500 Y131.500 F1000
G1 X201.500 Y132.500 F1000
G1 X201.500 Y133.000 F1000
G1 X202.000 Y133.500 F1000
G1 X201.500 Y134.000 F1000
G1 X201.500 Y134.500 F1000
G1 X200.000 Y136.000 F1000
G1 X199.000 Y136.000 F1000
G1 X198.500 Y136.500 F1000
G1 X197.500 Y136.500 F1000
G1 X197.000 Y137.000 F1000
G1 X196.500 Y137.000 F1000
G1 X196.000 Y137.500 F1000
G1 X196.000 Y140.000 F1000
G1 X197.000 Y141.000 F1000
G0 Z3.0 ; Pen up

G0 X190.500 Y141.000 F3000 ; Travel to line 107
G0 Z0.0 ; Pen down
G1 X191.000 Y140.500 F1000
G1 X191.000 Y140.000 F1000
G1 X191.500 Y139.500 F1000
G1 X191.500 Y137.500 F1000
G1 X191.000 Y137.000 F1000
G1 X191.000 Y136.500 F1000
G1 X190.500 Y136.000 F1000
G1 X190.500 Y135.000 F1000
G1 X191.000 Y134.500 F1000
G1 X191.000 Y134.000 F1000
G1 X191.500 Y133.500 F1000
G1 X191.500 Y133.000 F1000
G1 X192.000 Y132.500 F1000
G1 X192.000 Y132.000 F1000
G1 X192.500 Y131.500 F1000
G1 X192.500 Y131.000 F1000
G1 X192.500 Y131.500 F1000
G1 X192.000 Y132.000 F1000
G1 X192.000 Y132.500 F1000
G1 X191.500 Y133.000 F1000
G1 X191.500 Y133.500 F1000
G1 X190.500 Y134.500 F1000
G1 X190.500 Y135.500 F1000
G1 X190.000 Y136.000 F1000
G1 X186.500 Y136.000 F1000
G1 X186.000 Y135.500 F1000
G1 X186.000 Y131.000 F1000
G1 X186.500 Y130.500 F1000
G1 X186.000 Y131.000 F1000
G1 X186.000 Y141.000 F1000
G0 Z3.0 ; Pen up

G0 X186.000 Y140.500 F3000 ; Travel to line 108
G0 Z0.0 ; Pen down
G1 X186.500 Y141.000 F1000
G1 X190.000 Y141.000 F1000
G1 X191.500 Y139.500 F1000
G1 X191.500 Y137.500 F1000
G1 X190.000 Y136.000 F1000
G1 X186.500 Y136.000 F1000
G1 X186.000 Y136.500 F1000
G0 Z3.0 ; Pen up

G0 X181.000 Y141.000 F3000 ; Travel to line 109
G0 Z0.0 ; Pen down
G1 X181.500 Y140.500 F1000
G1 X181.500 Y140.000 F1000
G1 X182.000 Y139.500 F1000
G1 X182.000 Y138.500 F1000
G1 X182.500 Y138.000 F1000
G1 X182.500 Y133.500 F1000
G1 X182.000 Y133.000 F1000
G1 X182.000 Y132.500 F1000
G1 X181.500 Y132.000 F1000
G1 X181.500 Y131.500 F1000
G1 X181.000 Y131.000 F1000
G1 X181.000 Y129.500 F1000
G1 X181.000 Y130.500 F1000
G1 X180.500 Y131.000 F1000
G1 X178.500 Y131.000 F1000
G1 X178.000 Y131.500 F1000
G1 X177.500 Y131.500 F1000
G1 X177.000 Y132.000 F1000
G1 X177.000 Y132.500 F1000
G1 X176.500 Y133.000 F1000
G1 X176.500 Y139.000 F1000
G1 X177.000 Y139.500 F1000
G1 X177.000 Y140.000 F1000
G1 X178.000 Y141.000 F1000
G0 Z3.0 ; Pen up

G0 X178.500 Y141.000 F3000 ; Travel to line 110
G0 Z0.0 ; Pen down
G1 X180.500 Y141.000 F1000
G1 X182.000 Y139.500 F1000
G1 X182.000 Y138.500 F1000
G1 X182.500 Y138.000 F1000
G1 X182.500 Y133.500 F1000
G1 X182.000 Y133.000 F1000
G1 X182.000 Y132.500 F1000
G1 X180.500 Y131.000 F1000
G1 X178.500 Y131.000 F1000
G1 X176.500 Y133.000 F1000
G1 X176.500 Y139.000 F1000
G0 Z3.0 ; Pen up

G0 X171.500 Y141.000 F3000 ; Travel to line 111
G0 Z0.0 ; Pen down
G1 X173.000 Y139.500 F1000
G1 X173.000 Y137.500 F1000
G1 X172.500 Y137.000 F1000
G1 X172.500 Y136.500 F1000
G1 X172.000 Y136.000 F1000
G1 X170.500 Y136.000 F1000
G1 X170.000 Y135.500 F1000
G1 X168.000 Y135.500 F1000
G1 X167.500 Y135.000 F1000
G1 X167.500 Y131.500 F1000
G1 X167.500 Y141.000 F1000
G0 Z3.0 ; Pen up

G0 X167.500 Y140.500 F3000 ; Travel to line 112
G0 Z0.0 ; Pen down
G1 X168.000 Y141.000 F1000
G1 X171.500 Y141.000 F1000
G1 X173.000 Y139.500 F1000
G1 X173.000 Y137.500 F1000
G1 X171.500 Y136.000 F1000
G1 X170.500 Y136.000 F1000
G1 X170.000 Y135.500 F1000
G1 X168.000 Y135.500 F1000
G1 X167.500 Y136.000 F1000
G0 Z3.0 ; Pen up

G0 X161.500 Y141.000 F3000 ; Travel to line 113
G0 Z0.0 ; Pen down
G1 X162.500 Y140.000 F1000
G1 X162.500 Y139.500 F1000
G1 X163.000 Y139.000 F1000
G1 X163.000 Y133.000 F1000
G1 X162.500 Y132.500 F1000
G1 X162.500 Y132.000 F1000
G1 X162.000 Y131.500 F1000
G1 X161.500 Y131.500 F1000
G1 X161.000 Y131.000 F1000
G1 X159.500 Y131.000 F1000
G1 X159.000 Y131.500 F1000
G1 X158.000 Y131.500 F1000
G1 X158.000 Y132.000 F1000
G1 X157.500 Y132.500 F1000
G1 X157.500 Y134.000 F1000
G1 X157.000 Y134.500 F1000
G1 X157.000 Y137.500 F1000
G1 X157.500 Y138.000 F1000
G1 X157.500 Y139.500 F1000
G1 X158.000 Y140.000 F1000
G1 X158.000 Y140.500 F1000
G1 X158.500 Y141.000 F1000
G0 Z3.0 ; Pen up

G0 X159.000 Y141.000 F3000 ; Travel to line 114
G0 Z0.0 ; Pen down
G1 X161.500 Y141.000 F1000
G1 X162.500 Y140.000 F1000
G1 X162.500 Y139.500 F1000
G1 X163.000 Y139.000 F1000
G1 X163.000 Y133.000 F1000
G1 X161.000 Y131.000 F1000
G1 X159.500 Y131.000 F1000
G1 X159.000 Y131.500 F1000
G1 X158.500 Y131.500 F1000
G1 X157.500 Y132.500 F1000
G1 X157.500 Y134.500 F1000
G1 X157.000 Y135.000 F1000
G1 X157.000 Y137.500 F1000
G1 X157.500 Y138.000 F1000
G1 X157.500 Y139.500 F1000
G0 Z3.0 ; Pen up

G0 X153.500 Y141.000 F3000 ; Travel to line 115
G0 Z0.0 ; Pen down
G1 X153.500 Y132.500 F1000
G1 X153.000 Y132.000 F1000
G1 X152.500 Y132.000 F1000
G1 X151.500 Y133.000 F1000
G1 X151.500 Y134.000 F1000
G1 X151.000 Y134.500 F1000
G1 X151.000 Y135.000 F1000
G1 X150.500 Y135.500 F1000
G1 X150.500 Y136.500 F1000
G1 X150.000 Y137.000 F1000
G1 X150.000 Y137.500 F1000
G1 X149.500 Y138.000 F1000
G1 X149.500 Y138.500 F1000
G1 X149.000 Y139.000 F1000
G1 X149.000 Y139.500 F1000
G1 X148.500 Y139.500 F1000
G1 X148.000 Y140.000 F1000
G1 X147.500 Y140.000 F1000
G1 X147.500 Y131.500 F1000
G1 X147.500 Y139.500 F1000
G1 X148.000 Y140.000 F1000
G1 X149.500 Y138.500 F1000
G1 X149.500 Y137.500 F1000
G1 X150.000 Y137.000 F1000
G1 X150.000 Y136.500 F1000
G1 X150.500 Y136.000 F1000
G1 X150.500 Y135.500 F1000
G1 X151.000 Y135.000 F1000
G1 X151.000 Y134.000 F1000
G1 X151.500 Y133.500 F1000
G1 X151.500 Y133.000 F1000
G1 X152.500 Y132.000 F1000
G1 X153.000 Y132.000 F1000
G1 X153.500 Y132.500 F1000
G0 Z3.0 ; Pen up

G0 X138.000 Y140.500 F3000 ; Travel to line 116
G0 Z0.0 ; Pen down
G1 X138.500 Y140.000 F1000
G1 X139.000 Y140.000 F1000
G1 X139.000 Y139.000 F1000
G1 X139.500 Y138.500 F1000
G1 X139.500 Y137.500 F1000
G1 X140.000 Y137.000 F1000
G1 X140.000 Y136.500 F1000
G1 X140.500 Y136.000 F1000
G1 X141.000 Y136.000 F1000
G1 X141.500 Y136.500 F1000
G1 X141.500 Y137.000 F1000
G1 X142.000 Y137.500 F1000
G1 X142.000 Y138.500 F1000
G1 X142.500 Y139.000 F1000
G1 X142.500 Y139.500 F1000
G1 X143.500 Y140.500 F1000
G1 X144.000 Y140.500 F1000
G1 X144.500 Y140.000 F1000
G1 X144.500 Y131.500 F1000
G1 X144.500 Y140.000 F1000
G1 X144.000 Y140.500 F1000
G1 X143.500 Y140.000 F1000
G1 X143.000 Y140.000 F1000
G1 X142.500 Y139.500 F1000
G1 X142.500 Y139.000 F1000
G1 X142.000 Y138.500 F1000
G1 X142.000 Y137.500 F1000
G1 X141.500 Y137.000 F1000
G1 X141.500 Y136.000 F1000
G1 X140.000 Y136.000 F1000
G1 X140.000 Y137.000 F1000
G1 X139.500 Y137.500 F1000
G1 X139.500 Y138.500 F1000
G1 X139.000 Y139.000 F1000
G1 X139.000 Y139.500 F1000
G1 X138.000 Y140.500 F1000
G1 X137.500 Y140.000 F1000
G1 X137.500 Y131.500 F1000
G1 X137.500 Y140.500 F1000
G0 Z3.0 ; Pen up

G0 X129.000 Y141.000 F3000 ; Travel to line 117
G0 Z0.0 ; Pen down
G1 X129.000 Y131.000 F1000
G1 X134.000 Y131.000 F1000
G1 X129.500 Y131.000 F1000
G1 X129.000 Y131.500 F1000
G0 Z3.0 ; Pen up

G0 X118.500 Y137.000 F3000 ; Travel to line 118
G0 Z0.0 ; Pen down
G1 X119.000 Y136.500 F1000
G1 X121.000 Y136.500 F1000
G1 X121.500 Y137.000 F1000
G1 X121.500 Y138.000 F1000
G1 X121.500 Y136.000 F1000
G1 X122.500 Y135.000 F1000
G1 X122.500 Y134.500 F1000
G1 X123.500 Y133.500 F1000
G1 X123.500 Y133.000 F1000
G1 X124.500 Y132.000 F1000
G1 X124.500 Y131.500 F1000
G1 X125.500 Y130.500 F1000
G1 X124.000 Y132.000 F1000
G1 X124.000 Y132.500 F1000
G1 X123.000 Y133.500 F1000
G1 X123.000 Y134.000 F1000
G1 X122.000 Y135.000 F1000
G1 X122.000 Y135.500 F1000
G1 X121.000 Y136.500 F1000
G1 X119.000 Y136.500 F1000
G1 X118.500 Y136.000 F1000
G1 X118.500 Y131.500 F1000
G1 X118.500 Y140.500 F1000
G0 Z3.0 ; Pen up

G0 X114.000 Y141.000 F3000 ; Travel to line 119
G0 Z0.0 ; Pen down
G1 X114.000 Y133.000 F1000
G1 X113.500 Y132.500 F1000
G1 X113.500 Y132.000 F1000
G1 X113.000 Y131.500 F1000
G1 X112.500 Y131.500 F1000
G1 X112.000 Y131.000 F1000
G1 X110.000 Y131.000 F1000
G1 X109.500 Y131.500 F1000
G1 X108.500 Y131.500 F1000
G1 X109.500 Y131.500 F1000
G1 X110.000 Y131.000 F1000
G1 X112.000 Y131.000 F1000
G1 X112.500 Y131.500 F1000
G1 X113.000 Y131.500 F1000
G1 X113.500 Y132.000 F1000
G1 X113.500 Y132.500 F1000
G1 X114.000 Y133.000 F1000
G1 X114.000 Y140.500 F1000
G1 X113.500 Y141.000 F1000
G1 X111.000 Y141.000 F1000
G0 Z3.0 ; Pen up

G0 X104.500 Y141.000 F3000 ; Travel to line 120
G0 Z0.0 ; Pen down
G1 X103.000 Y141.000 F1000
G1 X102.500 Y140.500 F1000
G1 X102.500 Y131.500 F1000
G1 X103.000 Y131.000 F1000
G1 X104.500 Y131.000 F1000
G1 X102.000 Y131.000 F1000
G1 X102.500 Y131.500 F1000
G1 X102.500 Y140.500 F1000
G1 X102.000 Y141.000 F1000
G1 X100.000 Y141.000 F1000
G0 Z3.0 ; Pen up

G0 X90.000 Y141.000 F3000 ; Travel to line 121
G0 Z0.0 ; Pen down
G1 X90.000 Y131.500 F1000
G1 X90.000 Y136.000 F1000
G1 X90.500 Y136.500 F1000
G1 X95.000 Y136.500 F1000
G1 X95.500 Y136.000 F1000
G1 X95.500 Y131.500 F1000
G1 X95.500 Y140.500 F1000
G1 X95.500 Y137.000 F1000
G1 X95.000 Y136.500 F1000
G1 X90.500 Y136.500 F1000
G1 X90.000 Y137.000 F1000
G0 Z3.0 ; Pen up

G0 X85.500 Y141.000 F3000 ; Travel to line 122
G0 Z0.0 ; Pen down
G1 X86.000 Y140.500 F1000
G1 X85.500 Y141.000 F1000
G1 X82.500 Y141.000 F1000
G1 X80.500 Y139.000 F1000
G1 X80.500 Y138.500 F1000
G1 X80.000 Y138.000 F1000
G1 X80.000 Y134.000 F1000
G1 X80.500 Y133.500 F1000
G1 X80.500 Y133.000 F1000
G1 X82.000 Y131.500 F1000
G1 X82.500 Y131.500 F1000
G1 X83.000 Y131.000 F1000
G1 X84.500 Y131.000 F1000
G1 X85.000 Y131.500 F1000
G1 X85.500 Y131.500 F1000
G1 X86.000 Y132.000 F1000
G1 X86.000 Y135.500 F1000
G1 X85.500 Y136.000 F1000
G1 X84.500 Y136.000 F1000
G1 X86.000 Y136.000 F1000
G1 X86.000 Y132.000 F1000
G1 X85.500 Y131.500 F1000
G1 X85.000 Y131.500 F1000
G1 X84.500 Y131.000 F1000
G1 X83.000 Y131.000 F1000
G1 X82.500 Y131.500 F1000
G1 X81.500 Y131.500 F1000
G1 X80.500 Y132.500 F1000
G1 X80.500 Y133.500 F1000
G1 X80.000 Y134.000 F1000
G1 X80.000 Y138.000 F1000
G1 X80.500 Y138.500 F1000
G1 X80.500 Y139.500 F1000
G1 X82.000 Y141.000 F1000
G0 Z3.0 ; Pen up

G0 X76.000 Y141.000 F3000 ; Travel to line 123
G0 Z0.0 ; Pen down
G1 X72.000 Y141.000 F1000
G1 X71.500 Y140.500 F1000
G1 X71.500 Y137.000 F1000
G1 X72.000 Y136.500 F1000
G1 X75.500 Y136.500 F1000
G1 X72.000 Y136.500 F1000
G1 X71.500 Y136.000 F1000
G1 X71.500 Y131.500 F1000
G1 X71.500 Y141.000 F1000
G0 Z3.0 ; Pen up

G0 X66.500 Y141.000 F3000 ; Travel to line 124
G0 Z0.0 ; Pen down
G1 X62.000 Y141.000 F1000
G1 X61.500 Y140.500 F1000
G1 X61.500 Y137.000 F1000
G1 X62.000 Y136.500 F1000
G1 X66.000 Y136.500 F1000
G1 X62.000 Y136.500 F1000
G1 X61.500 Y136.000 F1000
G1 X61.500 Y131.500 F1000
G1 X62.000 Y131.000 F1000
G1 X66.500 Y131.000 F1000
G1 X61.500 Y131.000 F1000
G1 X61.500 Y141.000 F1000
G0 Z3.0 ; Pen up

G0 X55.000 Y141.000 F3000 ; Travel to line 125
G0 Z0.0 ; Pen down
G1 X55.500 Y140.500 F1000
G1 X56.000 Y140.500 F1000
G1 X56.000 Y140.000 F1000
G1 X56.500 Y139.500 F1000
G1 X56.500 Y139.000 F1000
G1 X57.000 Y138.500 F1000
G1 X57.000 Y133.500 F1000
G1 X56.500 Y133.000 F1000
G1 X56.500 Y132.500 F1000
G1 X55.500 Y131.500 F1000
G1 X55.000 Y131.500 F1000
G1 X54.500 Y131.000 F1000
G1 X51.500 Y131.000 F1000
G1 X51.500 Y141.000 F1000
G0 Z3.0 ; Pen up

G0 X51.500 Y140.500 F3000 ; Travel to line 126
G0 Z0.0 ; Pen down
G1 X52.000 Y141.000 F1000
G1 X55.000 Y141.000 F1000
G1 X56.500 Y139.500 F1000
G1 X56.500 Y139.000 F1000
G1 X57.000 Y138.500 F1000
G1 X57.000 Y133.500 F1000
G1 X56.500 Y133.000 F1000
G1 X56.500 Y132.500 F1000
G1 X55.500 Y131.500 F1000
G1 X55.000 Y131.500 F1000
G1 X54.500 Y131.000 F1000
G1 X52.000 Y131.000 F1000
G1 X51.500 Y131.500 F1000
G0 Z3.0 ; Pen up

G0 X47.500 Y141.000 F3000 ; Travel to line 127
G0 Z0.0 ; Pen down
G1 X44.500 Y141.000 F1000
G1 X44.000 Y140.500 F1000
G1 X43.500 Y140.500 F1000
G1 X42.500 Y139.500 F1000
G1 X42.500 Y139.000 F1000
G1 X42.000 Y138.500 F1000
G1 X42.000 Y133.500 F1000
G1 X42.500 Y133.000 F1000
G1 X42.500 Y132.500 F1000
G1 X43.000 Y132.000 F1000
G1 X43.500 Y132.000 F1000
G1 X44.500 Y131.000 F1000
G1 X46.500 Y131.000 F1000
G1 X47.000 Y131.500 F1000
G1 X46.500 Y131.000 F1000
G1 X44.500 Y131.000 F1000
G1 X44.000 Y131.500 F1000
G1 X43.500 Y131.500 F1000
G1 X42.500 Y132.500 F1000
G1 X42.500 Y133.000 F1000
G1 X42.000 Y133.500 F1000
G1 X42.000 Y139.000 F1000
G1 X44.000 Y141.000 F1000
G0 Z3.0 ; Pen up

G0 X37.000 Y141.000 F3000 ; Travel to line 128
G0 Z0.0 ; Pen down
G1 X37.000 Y140.500 F1000
G1 X37.500 Y140.000 F1000
G1 X37.500 Y138.000 F1000
G1 X37.000 Y137.500 F1000
G1 X37.000 Y136.000 F1000
G1 X37.500 Y135.500 F1000
G1 X37.500 Y135.000 F1000
G1 X38.000 Y134.500 F1000
G1 X38.000 Y132.500 F1000
G1 X37.500 Y132.000 F1000
G1 X37.500 Y131.500 F1000
G1 X36.500 Y131.500 F1000
G1 X36.000 Y131.000 F1000
G1 X32.500 Y131.000 F1000
G1 X32.000 Y131.500 F1000
G1 X32.000 Y140.500 F1000
G1 X32.500 Y141.000 F1000
G0 Z3.0 ; Pen up

G0 X32.000 Y140.500 F3000 ; Travel to line 129
G0 Z0.0 ; Pen down
G1 X32.500 Y141.000 F1000
G1 X36.500 Y141.000 F1000
G1 X37.500 Y140.000 F1000
G1 X37.500 Y138.000 F1000
G1 X37.000 Y137.500 F1000
G1 X37.000 Y137.000 F1000
G1 X36.500 Y136.500 F1000
G1 X32.500 Y136.500 F1000
G1 X32.000 Y137.000 F1000
G0 Z3.0 ; Pen up

G0 X32.000 Y136.000 F3000 ; Travel to line 130
G0 Z0.0 ; Pen down
G1 X32.500 Y136.500 F1000
G1 X36.500 Y136.500 F1000
G1 X37.000 Y136.000 F1000
G1 X37.000 Y135.500 F1000
G1 X38.000 Y134.500 F1000
G1 X38.000 Y132.500 F1000
G1 X37.000 Y131.500 F1000
G1 X36.500 Y131.500 F1000
G1 X36.000 Y131.000 F1000
G1 X32.500 Y131.000 F1000
G1 X32.000 Y131.500 F1000
G0 Z3.0 ; Pen up

G0 X25.000 Y140.000 F3000 ; Travel to line 131
G0 Z0.0 ; Pen down
G1 X25.500 Y140.500 F1000
G1 X26.000 Y140.000 F1000
G1 X26.000 Y139.500 F1000
G1 X26.500 Y139.000 F1000
G1 X26.500 Y137.500 F1000
G1 X27.000 Y137.000 F1000
G1 X27.000 Y136.000 F1000
G1 X27.500 Y135.500 F1000
G1 X27.500 Y134.500 F1000
G1 X27.000 Y134.000 F1000
G1 X23.500 Y134.000 F1000
G1 X23.000 Y134.500 F1000
G1 X23.000 Y136.000 F1000
G1 X23.500 Y136.500 F1000
G1 X23.500 Y137.500 F1000
G1 X24.000 Y138.000 F1000
G1 X24.000 Y139.500 F1000
G1 X24.500 Y140.000 F1000
G0 Z3.0 ; Pen up

G0 X25.000 Y140.500 F3000 ; Travel to line 132
G0 Z0.0 ; Pen down
G1 X24.000 Y139.500 F1000
G1 X24.000 Y138.000 F1000
G1 X23.500 Y137.500 F1000
G1 X23.500 Y136.500 F1000
G1 X23.000 Y136.000 F1000
G1 X23.000 Y134.000 F1000
G1 X22.500 Y133.500 F1000
G1 X22.500 Y133.000 F1000
G1 X22.000 Y132.500 F1000
G1 X22.000 Y131.500 F1000
G1 X21.500 Y131.000 F1000
G1 X22.000 Y131.500 F1000
G1 X22.000 Y132.500 F1000
G1 X22.500 Y133.000 F1000
G1 X22.500 Y133.500 F1000
G1 X23.000 Y134.000 F1000
G1 X27.500 Y134.000 F1000
G1 X28.000 Y133.500 F1000
G1 X28.000 Y133.000 F1000
G1 X28.500 Y132.500 F1000
G1 X28.500 Y131.000 F1000
G1 X28.500 Y132.500 F1000
G1 X28.000 Y133.000 F1000
G1 X28.000 Y134.000 F1000
G1 X27.500 Y134.500 F1000
G1 X27.500 Y135.500 F1000
G1 X27.000 Y136.000 F1000
G1 X27.000 Y137.000 F1000
G1 X26.500 Y137.500 F1000
G1 X26.500 Y139.000 F1000
G1 X26.000 Y139.500 F1000
G1 X26.000 Y140.000 F1000
G1 X25.500 Y140.500 F1000
G0 Z3.0 ; Pen up

G0 X24.000 Y173.000 F3000 ; Travel to line 133
G0 Z0.0 ; Pen down
G1 X24.500 Y173.500 F1000
G1 X27.500 Y173.500 F1000
G1 X28.000 Y173.000 F1000
G1 X28.000 Y170.000 F1000
G1 X27.500 Y169.500 F1000
G1 X26.000 Y169.500 F1000
G1 X25.500 Y169.000 F1000
G1 X24.000 Y169.000 F1000
G1 X23.500 Y169.500 F1000
G1 X23.000 Y169.500 F1000
G1 X22.500 Y170.000 F1000
G1 X22.500 Y172.000 F1000
G1 X23.500 Y173.000 F1000
G0 Z3.0 ; Pen up

G0 X23.000 Y176.500 F3000 ; Travel to line 134
G0 Z0.0 ; Pen down
G1 X22.500 Y176.000 F1000
G1 X23.000 Y176.500 F1000
G1 X26.500 Y176.500 F1000
G1 X27.500 Y175.500 F1000
G1 X27.500 Y175.000 F1000
G1 X28.000 Y174.500 F1000
G1 X28.000 Y174.000 F1000
G1 X27.500 Y173.500 F1000
G1 X24.000 Y173.500 F1000
G1 X23.500 Y173.000 F1000
G1 X23.000 Y173.000 F1000
G1 X22.500 Y172.500 F1000
G1 X22.500 Y169.500 F1000
G1 X23.500 Y169.500 F1000
G1 X24.000 Y169.000 F1000
G1 X25.500 Y169.000 F1000
G1 X26.000 Y169.500 F1000
G1 X27.500 Y169.500 F1000
G1 X28.000 Y170.000 F1000
G1 X28.000 Y174.500 F1000
G1 X27.500 Y175.000 F1000
G1 X27.500 Y176.000 F1000
G1 X27.000 Y176.500 F1000
G0 Z3.0 ; Pen up

G0 X32.500 Y176.500 F3000 ; Travel to line 135
G0 Z0.0 ; Pen down
G1 X33.000 Y176.000 F1000
G1 X34.000 Y176.000 F1000
G1 X34.500 Y176.500 F1000
G1 X36.500 Y176.500 F1000
G1 X37.500 Y175.500 F1000
G1 X37.500 Y174.500 F1000
G1 X38.000 Y174.000 F1000
G1 X38.000 Y171.500 F1000
G1 X37.500 Y171.000 F1000
G1 X37.500 Y170.000 F1000
G1 X37.000 Y169.500 F1000
G1 X36.500 Y169.500 F1000
G1 X36.000 Y169.000 F1000
G1 X35.000 Y169.000 F1000
G1 X34.500 Y169.500 F1000
G1 X32.500 Y169.500 F1000
G1 X32.500 Y179.500 F1000
G0 Z3.0 ; Pen up

G0 X33.000 Y176.000 F3000 ; Travel to line 136
G0 Z0.0 ; Pen down
G1 X32.500 Y175.500 F1000
G1 X32.500 Y170.000 F1000
G1 X33.000 Y169.500 F1000
G1 X34.500 Y169.500 F1000
G1 X35.000 Y169.000 F1000
G1 X36.000 Y169.000 F1000
G1 X37.500 Y170.500 F1000
G1 X37.500 Y171.000 F1000
G1 X38.000 Y171.500 F1000
G1 X38.000 Y174.000 F1000
G1 X37.500 Y174.500 F1000
G1 X37.500 Y175.000 F1000
G1 X37.000 Y175.500 F1000
G1 X37.000 Y176.000 F1000
G1 X36.500 Y176.500 F1000
G1 X34.500 Y176.500 F1000
G1 X34.000 Y176.000 F1000
G0 Z3.0 ; Pen up

G0 X44.000 Y176.500 F3000 ; Travel to line 137
G0 Z0.0 ; Pen down
G1 X42.500 Y175.000 F1000
G1 X42.500 Y174.000 F1000
G1 X42.000 Y173.500 F1000
G1 X42.000 Y171.500 F1000
G1 X42.500 Y171.000 F1000
G1 X42.500 Y170.500 F1000
G1 X43.500 Y169.500 F1000
G1 X44.500 Y169.500 F1000
G1 X45.000 Y169.000 F1000
G1 X46.500 Y169.000 F1000
G1 X47.000 Y169.500 F1000
G1 X48.000 Y169.500 F1000
G1 X47.000 Y169.500 F1000
G1 X46.500 Y169.000 F1000
G1 X45.000 Y169.000 F1000
G1 X44.500 Y169.500 F1000
G1 X44.000 Y169.500 F1000
G1 X43.500 Y170.000 F1000
G1 X43.000 Y170.000 F1000
G1 X42.500 Y170.500 F1000
G1 X42.500 Y171.000 F1000
G1 X42.000 Y171.500 F1000
G1 X42.000 Y173.500 F1000
G1 X42.500 Y174.000 F1000
G1 X42.500 Y175.000 F1000
G1 X43.500 Y176.000 F1000
G1 X44.000 Y176.000 F1000
G1 X44.500 Y176.500 F1000
G1 X47.500 Y176.500 F1000
G1 X48.000 Y176.000 F1000
G1 X47.500 Y176.500 F1000
G0 Z3.0 ; Pen up

G0 X51.500 Y175.000 F3000 ; Travel to line 138
G0 Z0.0 ; Pen down
G1 X51.500 Y170.500 F1000
G1 X52.500 Y169.500 F1000
G1 X53.000 Y169.500 F1000
G1 X53.500 Y169.000 F1000
G1 X54.500 Y169.000 F1000
G1 X55.000 Y169.500 F1000
G1 X56.000 Y169.500 F1000
G1 X57.000 Y170.500 F1000
G1 X57.000 Y175.000 F1000
G1 X56.000 Y176.000 F1000
G1 X55.500 Y176.000 F1000
G1 X55.000 Y176.500 F1000
G1 X53.000 Y176.500 F1000
G0 Z3.0 ; Pen up

G0 X57.000 Y176.000 F3000 ; Travel to line 139
G0 Z0.0 ; Pen down
G1 X56.500 Y175.500 F1000
G1 X57.000 Y175.000 F1000
G1 X57.000 Y170.500 F1000
G1 X56.500 Y170.000 F1000
G1 X56.500 Y169.500 F1000
G1 X55.000 Y169.500 F1000
G1 X54.500 Y169.000 F1000
G1 X53.500 Y169.000 F1000
G1 X53.000 Y169.500 F1000
G1 X52.000 Y169.500 F1000
G1 X51.500 Y170.000 F1000
G1 X51.500 Y175.500 F1000
G1 X52.500 Y176.500 F1000
G1 X55.000 Y176.500 F1000
G1 X55.500 Y176.000 F1000
G1 X56.500 Y176.000 F1000
G1 X57.000 Y176.500 F1000
G1 X57.000 Y179.500 F1000
G0 Z3.0 ; Pen up

G0 X62.500 Y176.500 F3000 ; Travel to line 140
G0 Z0.0 ; Pen down
G1 X61.000 Y175.000 F1000
G1 X61.000 Y170.500 F1000
G1 X62.000 Y169.500 F1000
G1 X63.000 Y169.500 F1000
G1 X63.500 Y169.000 F1000
G1 X65.500 Y169.000 F1000
G1 X66.000 Y169.500 F1000
G1 X67.000 Y169.500 F1000
G1 X66.000 Y169.500 F1000
G1 X65.500 Y169.000 F1000
G1 X63.500 Y169.000 F1000
G1 X63.000 Y169.500 F1000
G1 X62.500 Y169.500 F1000
G1 X61.000 Y171.000 F1000
G1 X61.000 Y173.000 F1000
G1 X61.500 Y173.500 F1000
G1 X66.500 Y173.500 F1000
G1 X67.000 Y174.000 F1000
G1 X67.000 Y174.500 F1000
G1 X66.500 Y175.000 F1000
G1 X66.500 Y176.000 F1000
G1 X66.000 Y176.500 F1000
G0 Z3.0 ; Pen up

G0 X63.000 Y176.500 F3000 ; Travel to line 141
G0 Z0.0 ; Pen down
G1 X65.500 Y176.500 F1000
G1 X66.500 Y175.500 F1000
G1 X66.500 Y175.000 F1000
G1 X67.000 Y174.500 F1000
G1 X67.000 Y174.000 F1000
G1 X66.500 Y173.500 F1000
G1 X61.500 Y173.500 F1000
G1 X61.000 Y174.000 F1000
G1 X61.000 Y174.500 F1000
G0 Z3.0 ; Pen up

G0 X75.000 Y180.000 F3000 ; Travel to line 142
G0 Z0.0 ; Pen down
G1 X74.500 Y179.500 F1000
G1 X74.000 Y179.500 F1000
G1 X73.500 Y179.000 F1000
G1 X73.500 Y177.500 F1000
G1 X73.000 Y177.000 F1000
G1 X71.000 Y177.000 F1000
G1 X73.000 Y177.000 F1000
G1 X73.500 Y176.500 F1000
G1 X73.500 Y169.500 F1000
G1 X73.500 Y176.500 F1000
G1 X74.000 Y177.000 F1000
G1 X76.500 Y177.000 F1000
G1 X74.000 Y177.000 F1000
G1 X73.500 Y177.500 F1000
G1 X73.500 Y178.500 F1000
G1 X75.000 Y180.000 F1000
G1 X76.500 Y180.000 F1000
G0 Z3.0 ; Pen up

G0 X81.500 Y176.500 F3000 ; Travel to line 143
G0 Z0.0 ; Pen down
G1 X80.500 Y175.500 F1000
G1 X80.500 Y174.500 F1000
G1 X80.000 Y174.000 F1000
G1 X80.000 Y171.500 F1000
G1 X80.500 Y171.000 F1000
G1 X80.500 Y170.000 F1000
G1 X81.000 Y169.500 F1000
G1 X81.500 Y169.500 F1000
G1 X82.000 Y169.000 F1000
G1 X83.500 Y169.000 F1000
G1 X84.000 Y169.500 F1000
G1 X85.500 Y169.500 F1000
G1 X86.000 Y169.000 F1000
G1 X85.500 Y168.500 F1000
G1 X85.500 Y167.000 F1000
G1 X84.500 Y166.000 F1000
G1 X84.000 Y166.000 F1000
G1 X83.500 Y165.500 F1000
G1 X81.500 Y165.500 F1000
G1 X81.000 Y166.000 F1000
G1 X81.500 Y165.500 F1000
G1 X84.000 Y165.500 F1000
G1 X84.500 Y166.000 F1000
G1 X85.000 Y166.000 F1000
G1 X85.000 Y166.500 F1000
G1 X85.500 Y167.000 F1000
G1 X85.500 Y168.500 F1000
G1 X86.000 Y169.000 F1000
G1 X86.000 Y169.500 F1000
G1 X85.500 Y170.000 F1000
G1 X85.500 Y170.500 F1000
G1 X86.000 Y171.000 F1000
G1 X86.000 Y174.500 F1000
G1 X85.500 Y175.000 F1000
G1 X85.500 Y176.000 F1000
G1 X84.500 Y176.000 F1000
G1 X84.000 Y176.500 F1000
G0 Z3.0 ; Pen up

G0 X82.000 Y176.500 F3000 ; Travel to line 144
G0 Z0.0 ; Pen down
G1 X84.000 Y176.500 F1000
G1 X84.500 Y176.000 F1000
G1 X85.000 Y176.000 F1000
G1 X85.500 Y175.500 F1000
G1 X85.500 Y175.000 F1000
G1 X86.000 Y174.500 F1000
G1 X86.000 Y171.000 F1000
G1 X85.500 Y170.500 F1000
G1 X85.500 Y170.000 F1000
G1 X85.000 Y169.500 F1000
G1 X84.000 Y169.500 F1000
G1 X83.500 Y169.000 F1000
G1 X82.000 Y169.000 F1000
G1 X80.500 Y170.500 F1000
G1 X80.500 Y171.000 F1000
G1 X80.000 Y171.500 F1000
G1 X80.000 Y174.000 F1000
G1 X80.500 Y174.500 F1000
G1 X80.500 Y175.000 F1000
G0 Z3.0 ; Pen up

G0 X90.000 Y177.000 F3000 ; Travel to line 145
G0 Z0.0 ; Pen down
G1 X91.000 Y176.000 F1000
G1 X92.000 Y176.000 F1000
G1 X92.500 Y176.500 F1000
G1 X94.500 Y176.500 F1000
G1 X95.000 Y176.000 F1000
G1 X95.000 Y175.500 F1000
G1 X95.500 Y175.000 F1000
G1 X95.500 Y169.500 F1000
G1 X95.500 Y175.000 F1000
G1 X94.000 Y176.500 F1000
G1 X92.500 Y176.500 F1000
G1 X92.000 Y176.000 F1000
G1 X91.000 Y176.000 F1000
G1 X90.500 Y175.500 F1000
G1 X90.500 Y169.000 F1000
G1 X90.500 Y176.500 F1000
G1 X90.000 Y177.000 F1000
G1 X90.000 Y180.000 F1000
G0 Z3.0 ; Pen up

G0 X100.500 Y177.000 F3000 ; Travel to line 146
G0 Z0.0 ; Pen down
G1 X102.000 Y177.000 F1000
G1 X102.500 Y176.500 F1000
G1 X102.500 Y169.500 F1000
G1 X102.000 Y169.000 F1000
G1 X105.500 Y169.000 F1000
G1 X103.000 Y169.000 F1000
G1 X102.500 Y169.500 F1000
G1 X102.500 Y176.500 F1000
G1 X102.000 Y177.000 F1000
G0 Z3.0 ; Pen up

G0 X110.000 Y177.000 F3000 ; Travel to line 147
G0 Z0.0 ; Pen down
G1 X112.000 Y177.000 F1000
G1 X112.500 Y176.500 F1000
G1 X112.500 Y167.000 F1000
G1 X111.000 Y165.500 F1000
G1 X109.000 Y165.500 F1000
G1 X111.500 Y165.500 F1000
G1 X112.000 Y166.000 F1000
G1 X112.000 Y166.500 F1000
G1 X112.500 Y167.000 F1000
G1 X112.500 Y176.500 F1000
G1 X112.000 Y177.000 F1000
G0 Z3.0 ; Pen up

G0 X119.500 Y179.500 F3000 ; Travel to line 148
G0 Z0.0 ; Pen down
G1 X119.500 Y169.500 F1000
G1 X119.500 Y172.500 F1000
G1 X120.500 Y173.500 F1000
G1 X121.500 Y173.500 F1000
G1 X122.000 Y173.000 F1000
G1 X122.000 Y172.500 F1000
G1 X123.000 Y171.500 F1000
G1 X123.000 Y171.000 F1000
G1 X124.500 Y169.500 F1000
G1 X124.500 Y169.000 F1000
G1 X125.000 Y169.000 F1000
G1 X125.500 Y168.500 F1000
G1 X124.000 Y170.000 F1000
G1 X124.000 Y170.500 F1000
G1 X123.000 Y171.500 F1000
G1 X123.000 Y172.000 F1000
G1 X122.000 Y173.000 F1000
G1 X122.000 Y174.500 F1000
G1 X124.500 Y177.000 F1000
G1 X122.000 Y174.500 F1000
G1 X122.000 Y174.000 F1000
G1 X121.500 Y173.500 F1000
G1 X120.500 Y173.500 F1000
G1 X120.000 Y173.000 F1000
G1 X119.500 Y173.500 F1000
G0 Z3.0 ; Pen up

G0 X128.500 Y180.000 F3000 ; Travel to line 149
G0 Z0.0 ; Pen down
G1 X130.000 Y180.000 F1000
G1 X131.000 Y179.000 F1000
G1 X131.000 Y169.500 F1000
G1 X132.000 Y169.500 F1000
G1 X132.500 Y169.000 F1000
G1 X134.000 Y169.000 F1000
G1 X132.500 Y169.000 F1000
G1 X132.000 Y169.500 F1000
G1 X131.500 Y169.500 F1000
G1 X131.000 Y170.000 F1000
G1 X131.000 Y179.500 F1000
G1 X130.500 Y179.500 F1000
G1 X130.000 Y180.000 F1000
G0 Z3.0 ; Pen up

G0 X138.500 Y176.500 F3000 ; Travel to line 150
G0 Z0.0 ; Pen down
G1 X138.000 Y176.000 F1000
G1 X137.500 Y176.000 F1000
G1 X137.500 Y169.500 F1000
G1 X137.500 Y175.500 F1000
G1 X138.500 Y176.500 F1000
G1 X140.000 Y176.500 F1000
G1 X141.000 Y175.500 F1000
G1 X141.000 Y169.500 F1000
G1 X141.000 Y175.500 F1000
G1 X141.500 Y176.000 F1000
G1 X142.000 Y176.000 F1000
G1 X142.500 Y176.500 F1000
G1 X143.500 Y176.500 F1000
G1 X144.000 Y176.000 F1000
G1 X144.000 Y174.000 F1000
G1 X144.500 Y173.500 F1000
G1 X144.500 Y169.500 F1000
G1 X144.500 Y173.500 F1000
G1 X144.000 Y174.000 F1000
G1 X144.000 Y176.000 F1000
G1 X143.500 Y176.500 F1000
G1 X142.500 Y176.500 F1000
G1 X142.000 Y176.000 F1000
G1 X141.000 Y176.000 F1000
G1 X140.500 Y176.500 F1000
G0 Z3.0 ; Pen up

G0 X148.000 Y176.500 F3000 ; Travel to line 151
G0 Z0.0 ; Pen down
G1 X148.000 Y169.500 F1000
G1 X148.000 Y175.000 F1000
G1 X149.000 Y176.000 F1000
G1 X149.500 Y176.000 F1000
G1 X150.000 Y176.500 F1000
G1 X152.000 Y176.500 F1000
G1 X153.000 Y175.500 F1000
G1 X153.000 Y169.000 F1000
G1 X153.500 Y168.500 F1000
G1 X153.000 Y169.000 F1000
G1 X153.000 Y175.500 F1000
G1 X152.000 Y176.500 F1000
G1 X150.000 Y176.500 F1000
G1 X149.500 Y176.000 F1000
G1 X149.000 Y176.000 F1000
G1 X148.500 Y175.500 F1000
G1 X148.000 Y176.000 F1000
G0 Z3.0 ; Pen up

G0 X157.500 Y175.000 F3000 ; Travel to line 152
G0 Z0.0 ; Pen down
G1 X157.500 Y170.500 F1000
G1 X158.500 Y169.500 F1000
G1 X159.000 Y169.500 F1000
G1 X159.500 Y169.000 F1000
G1 X161.000 Y169.000 F1000
G1 X161.500 Y169.500 F1000
G1 X162.000 Y169.500 F1000
G1 X162.500 Y170.000 F1000
G1 X162.500 Y170.500 F1000
G1 X163.000 Y171.000 F1000
G1 X163.000 Y174.500 F1000
G1 X162.500 Y175.000 F1000
G1 X162.500 Y175.500 F1000
G1 X161.500 Y176.500 F1000
G1 X159.000 Y176.500 F1000
G0 Z3.0 ; Pen up

G0 X158.500 Y176.500 F3000 ; Travel to line 153
G0 Z0.0 ; Pen down
G1 X157.500 Y175.500 F1000
G1 X157.500 Y170.000 F1000
G1 X158.000 Y169.500 F1000
G1 X159.000 Y169.500 F1000
G1 X159.500 Y169.000 F1000
G1 X161.000 Y169.000 F1000
G1 X161.500 Y169.500 F1000
G1 X162.000 Y169.500 F1000
G1 X162.500 Y170.000 F1000
G1 X162.500 Y170.500 F1000
G1 X163.000 Y171.000 F1000
G1 X163.000 Y174.500 F1000
G1 X162.500 Y175.000 F1000
G1 X162.500 Y175.500 F1000
G1 X162.000 Y176.000 F1000
G1 X162.000 Y176.500 F1000
G0 Z3.0 ; Pen up

G0 X167.500 Y176.000 F3000 ; Travel to line 154
G0 Z0.0 ; Pen down
G1 X167.000 Y175.500 F1000
G1 X167.000 Y170.000 F1000
G1 X167.500 Y169.500 F1000
G1 X169.000 Y169.500 F1000
G1 X169.500 Y169.000 F1000
G1 X171.000 Y169.000 F1000
G1 X172.500 Y170.500 F1000
G1 X172.500 Y171.500 F1000
G1 X173.000 Y172.000 F1000
G1 X173.000 Y173.500 F1000
G1 X172.500 Y174.000 F1000
G1 X172.500 Y175.000 F1000
G1 X171.000 Y176.500 F1000
G1 X168.500 Y176.500 F1000
G1 X168.000 Y176.000 F1000
G0 Z3.0 ; Pen up

G0 X168.500 Y176.500 F3000 ; Travel to line 155
G0 Z0.0 ; Pen down
G1 X168.000 Y176.000 F1000
G1 X167.000 Y176.000 F1000
G1 X167.000 Y166.000 F1000
G1 X167.000 Y169.000 F1000
G1 X167.500 Y169.500 F1000
G1 X169.000 Y169.500 F1000
G1 X169.500 Y169.000 F1000
G1 X171.000 Y169.000 F1000
G1 X171.500 Y169.500 F1000
G1 X172.000 Y169.500 F1000
G1 X172.000 Y170.000 F1000
G1 X172.500 Y170.500 F1000
G1 X172.500 Y171.500 F1000
G1 X173.000 Y172.000 F1000
G1 X173.000 Y173.500 F1000
G1 X172.500 Y174.000 F1000
G1 X172.500 Y175.000 F1000
G1 X172.000 Y175.500 F1000
G1 X172.000 Y176.000 F1000
G1 X171.500 Y176.500 F1000
G0 Z3.0 ; Pen up

G0 X176.500 Y174.500 F3000 ; Travel to line 156
G0 Z0.0 ; Pen down
G1 X176.500 Y171.000 F1000
G1 X178.500 Y169.000 F1000
G1 X179.500 Y169.000 F1000
G1 X180.000 Y169.500 F1000
G1 X181.500 Y169.500 F1000
G1 X182.000 Y170.000 F1000
G1 X182.000 Y175.500 F1000
G1 X181.000 Y176.500 F1000
G1 X178.500 Y176.500 F1000
G0 Z3.0 ; Pen up

G0 X178.000 Y176.500 F3000 ; Travel to line 157
G0 Z0.0 ; Pen down
G1 X176.500 Y175.000 F1000
G1 X176.500 Y170.500 F1000
G1 X177.500 Y169.500 F1000
G1 X178.000 Y169.500 F1000
G1 X178.500 Y169.000 F1000
G1 X179.500 Y169.000 F1000
G1 X180.000 Y169.500 F1000
G1 X181.500 Y169.500 F1000
G1 X182.000 Y169.000 F1000
G1 X182.000 Y166.000 F1000
G1 X182.000 Y176.000 F1000
G1 X181.500 Y176.000 F1000
G1 X181.000 Y176.500 F1000
G0 Z3.0 ; Pen up

G0 X188.000 Y176.500 F3000 ; Travel to line 158
G0 Z0.0 ; Pen down
G1 X188.000 Y169.500 F1000
G1 X188.000 Y175.000 F1000
G1 X189.000 Y176.000 F1000
G1 X189.500 Y176.000 F1000
G1 X190.000 Y176.500 F1000
G1 X192.500 Y176.500 F1000
G1 X193.000 Y176.000 F1000
G1 X192.500 Y176.500 F1000
G1 X190.000 Y176.500 F1000
G1 X189.500 Y176.000 F1000
G1 X189.000 Y176.000 F1000
G1 X188.500 Y175.500 F1000
G1 X188.000 Y176.000 F1000
G0 Z3.0 ; Pen up

G0 X197.000 Y176.500 F3000 ; Travel to line 159
G0 Z0.0 ; Pen down
G1 X196.500 Y176.000 F1000
G1 X196.500 Y173.500 F1000
G1 X197.500 Y173.500 F1000
G1 X198.000 Y173.000 F1000
G1 X199.500 Y173.000 F1000
G1 X200.000 Y172.500 F1000
G1 X200.500 Y172.500 F1000
G1 X201.000 Y172.000 F1000
G1 X201.000 Y171.500 F1000
G1 X201.500 Y171.000 F1000
G1 X201.000 Y170.500 F1000
G1 X201.000 Y170.000 F1000
G1 X200.500 Y169.500 F1000
G1 X200.000 Y169.500 F1000
G1 X199.500 Y169.000 F1000
G1 X197.500 Y169.000 F1000
G1 X197.000 Y169.500 F1000
G1 X196.000 Y169.500 F1000
G1 X197.000 Y169.500 F1000
G1 X197.500 Y169.000 F1000
G1 X199.500 Y169.000 F1000
G1 X200.000 Y169.500 F1000
G1 X201.000 Y169.500 F1000
G1 X201.000 Y170.500 F1000
G1 X201.500 Y171.000 F1000
G1 X201.000 Y171.500 F1000
G1 X201.000 Y172.000 F1000
G1 X200.500 Y172.500 F1000
G1 X200.000 Y172.500 F1000
G1 X199.500 Y173.000 F1000
G1 X198.000 Y173.000 F1000
G1 X197.500 Y173.500 F1000
G1 X197.000 Y173.500 F1000
G1 X196.500 Y174.000 F1000
G1 X196.500 Y175.500 F1000
G1 X197.500 Y176.500 F1000
G1 X201.000 Y176.500 F1000
G0 Z3.0 ; Pen up

G0 X207.500 Y177.000 F3000 ; Travel to line 160
G0 Z0.0 ; Pen down
G1 X208.000 Y176.500 F1000
G1 X208.500 Y177.000 F1000
G1 X211.000 Y177.000 F1000
G1 X208.500 Y177.000 F1000
G1 X207.500 Y176.000 F1000
G1 X207.500 Y170.500 F1000
G1 X209.000 Y169.000 F1000
G1 X211.000 Y169.000 F1000
G1 X209.000 Y169.000 F1000
G1 X208.500 Y169.500 F1000
G1 X208.000 Y169.500 F1000
G1 X208.000 Y170.000 F1000
G1 X207.500 Y170.500 F1000
G1 X207.500 Y176.500 F1000
G1 X207.000 Y177.000 F1000
G1 X205.500 Y177.000 F1000
G1 X207.000 Y177.000 F1000
G1 X207.500 Y177.500 F1000
G1 X207.500 Y178.500 F1000
G0 Z3.0 ; Pen up

G0 X215.500 Y176.500 F3000 ; Travel to line 161
G0 Z0.0 ; Pen down
G1 X215.500 Y170.000 F1000
G1 X216.000 Y169.500 F1000
G1 X216.500 Y169.500 F1000
G1 X217.000 Y169.000 F1000
G1 X218.000 Y169.000 F1000
G1 X218.500 Y169.500 F1000
G1 X219.500 Y169.500 F1000
G1 X220.000 Y170.000 F1000
G1 X220.500 Y169.500 F1000
G1 X220.500 Y169.000 F1000
G1 X221.000 Y168.500 F1000
G1 X220.500 Y169.000 F1000
G1 X220.500 Y176.500 F1000
G1 X220.500 Y170.500 F1000
G1 X219.500 Y169.500 F1000
G1 X218.500 Y169.500 F1000
G1 X218.000 Y169.000 F1000
G1 X217.000 Y169.000 F1000
G1 X215.500 Y170.500 F1000
G0 Z3.0 ; Pen up

G0 X224.500 Y176.000 F3000 ; Travel to line 162
G0 Z0.0 ; Pen down
G1 X225.000 Y175.500 F1000
G1 X225.000 Y174.500 F1000
G1 X225.500 Y174.000 F1000
G1 X225.500 Y173.000 F1000
G1 X226.000 Y172.500 F1000
G1 X226.000 Y171.500 F1000
G1 X226.500 Y171.000 F1000
G1 X226.500 Y170.000 F1000
G1 X227.000 Y169.500 F1000
G1 X228.000 Y169.500 F1000
G1 X228.500 Y170.000 F1000
G1 X228.500 Y171.000 F1000
G1 X229.000 Y171.500 F1000
G1 X229.000 Y172.500 F1000
G1 X229.500 Y173.000 F1000
G1 X229.500 Y174.000 F1000
G1 X230.000 Y174.500 F1000
G1 X230.000 Y175.500 F1000
G1 X230.500 Y176.000 F1000
G1 X230.500 Y176.500 F1000
G1 X231.000 Y177.000 F1000
G1 X230.500 Y176.500 F1000
G1 X230.500 Y176.000 F1000
G1 X230.000 Y175.500 F1000
G1 X230.000 Y174.500 F1000
G1 X229.500 Y174.000 F1000
G1 X229.500 Y173.000 F1000
G1 X229.000 Y172.500 F1000
G1 X229.000 Y171.500 F1000
G1 X228.500 Y171.000 F1000
G1 X228.500 Y170.000 F1000
G1 X228.000 Y169.500 F1000
G1 X227.000 Y169.500 F1000
G1 X226.500 Y170.000 F1000
G1 X226.500 Y171.000 F1000
G1 X226.000 Y171.500 F1000
G1 X226.000 Y172.500 F1000
G1 X225.500 Y173.000 F1000
G1 X225.500 Y174.000 F1000
G1 X225.000 Y174.500 F1000
G1 X225.000 Y175.500 F1000
G1 X224.500 Y176.000 F1000
G1 X224.500 Y177.000 F1000
G0 Z3.0 ; Pen up

G0 X233.500 Y176.500 F3000 ; Travel to line 163
G0 Z0.0 ; Pen down
G1 X233.500 Y174.500 F1000
G1 X234.000 Y174.000 F1000
G1 X234.000 Y172.000 F1000
G1 X234.500 Y171.500 F1000
G1 X234.500 Y170.500 F1000
G1 X235.000 Y170.000 F1000
G1 X235.500 Y170.000 F1000
G1 X236.000 Y170.500 F1000
G1 X236.000 Y171.500 F1000
G1 X237.000 Y172.500 F1000
G1 X237.500 Y172.500 F1000
G1 X238.000 Y172.000 F1000
G1 X238.000 Y171.500 F1000
G1 X238.500 Y171.000 F1000
G1 X238.500 Y170.500 F1000
G1 X240.000 Y170.500 F1000
G1 X240.000 Y172.500 F1000
G1 X240.500 Y173.000 F1000
G1 X240.500 Y174.500 F1000
G1 X241.000 Y175.000 F1000
G1 X241.000 Y176.500 F1000
G1 X241.000 Y175.000 F1000
G1 X240.500 Y174.500 F1000
G1 X240.500 Y173.000 F1000
G1 X240.000 Y172.500 F1000
G1 X240.000 Y171.000 F1000
G1 X239.500 Y170.500 F1000
G1 X239.000 Y170.500 F1000
G1 X238.000 Y171.500 F1000
G1 X238.000 Y172.500 F1000
G1 X236.500 Y172.500 F1000
G1 X236.500 Y172.000 F1000
G1 X236.000 Y171.500 F1000
G1 X236.000 Y171.000 F1000
G1 X235.000 Y170.000 F1000
G1 X234.500 Y170.500 F1000
G1 X234.500 Y171.500 F1000
G1 X234.000 Y172.000 F1000
G1 X234.000 Y174.000 F1000
G1 X233.500 Y174.500 F1000
G0 Z3.0 ; Pen up

G0 X249.500 Y176.500 F3000 ; Travel to line 164
G0 Z0.0 ; Pen down
G1 X249.500 Y176.000 F1000
G1 X248.000 Y174.500 F1000
G1 X248.000 Y174.000 F1000
G1 X247.000 Y173.000 F1000
G1 X247.000 Y172.500 F1000
G1 X249.000 Y170.500 F1000
G1 X249.000 Y169.500 F1000
G1 X249.000 Y170.000 F1000
G1 X248.000 Y171.000 F1000
G1 X248.000 Y171.500 F1000
G1 X247.500 Y172.000 F1000
G1 X246.500 Y172.000 F1000
G1 X245.500 Y171.000 F1000
G1 X245.500 Y170.500 F1000
G1 X243.500 Y168.500 F1000
G1 X244.500 Y169.500 F1000
G1 X244.500 Y170.000 F1000
G1 X245.500 Y171.000 F1000
G1 X245.500 Y171.500 F1000
G1 X246.000 Y172.000 F1000
G1 X246.500 Y172.000 F1000
G1 X247.000 Y172.500 F1000
G1 X247.000 Y173.500 F1000
G1 X246.500 Y174.000 F1000
G1 X246.000 Y174.000 F1000
G1 X245.000 Y175.000 F1000
G1 X245.000 Y176.000 F1000
G1 X245.000 Y175.500 F1000
G1 X247.000 Y173.500 F1000
G1 X248.000 Y174.500 F1000
G1 X248.000 Y175.000 F1000
G1 X250.000 Y177.000 F1000
G0 Z3.0 ; Pen up

G0 X253.500 Y177.000 F3000 ; Travel to line 165
G0 Z0.0 ; Pen down
G1 X253.500 Y176.000 F1000
G1 X254.000 Y175.500 F1000
G1 X254.000 Y174.500 F1000
G1 X254.500 Y174.000 F1000
G1 X254.500 Y173.000 F1000
G1 X255.000 Y172.500 F1000
G1 X255.000 Y172.000 F1000
G1 X255.500 Y171.500 F1000
G1 X255.500 Y170.500 F1000
G1 X256.500 Y169.500 F1000
G1 X256.500 Y168.000 F1000
G1 X256.000 Y167.500 F1000
G1 X256.000 Y166.500 F1000
G1 X255.500 Y166.000 F1000
G1 X255.000 Y166.000 F1000
G1 X254.500 Y165.500 F1000
G1 X254.000 Y165.500 F1000
G1 X255.000 Y165.500 F1000
G1 X256.000 Y166.500 F1000
G1 X256.000 Y167.500 F1000
G1 X256.500 Y168.000 F1000
G1 X256.500 Y169.500 F1000
G1 X257.500 Y170.500 F1000
G1 X257.500 Y171.500 F1000
G1 X258.000 Y172.000 F1000
G1 X258.000 Y172.500 F1000
G1 X258.500 Y173.000 F1000
G1 X258.500 Y174.000 F1000
G1 X259.000 Y174.500 F1000
G1 X259.000 Y175.500 F1000
G1 X259.500 Y176.000 F1000
G1 X259.500 Y176.500 F1000
G1 X259.500 Y176.000 F1000
G1 X259.000 Y175.500 F1000
G1 X259.000 Y174.500 F1000
G1 X258.500 Y174.000 F1000
G1 X258.500 Y173.000 F1000
G1 X258.000 Y172.500 F1000
G1 X258.000 Y172.000 F1000
G1 X257.500 Y171.500 F1000
G1 X257.500 Y170.500 F1000
G1 X257.000 Y170.000 F1000
G1 X256.000 Y170.000 F1000
G1 X255.500 Y170.500 F1000
G1 X255.500 Y171.500 F1000
G1 X255.000 Y172.000 F1000
G1 X255.000 Y173.000 F1000
G1 X254.500 Y173.500 F1000
G1 X254.500 Y174.000 F1000
G1 X254.000 Y174.500 F1000
G1 X254.000 Y175.500 F1000
G1 X253.500 Y176.000 F1000
G0 Z3.0 ; Pen up

G0 X264.000 Y177.000 F3000 ; Travel to line 166
G0 Z0.0 ; Pen down
G1 X268.000 Y177.000 F1000
G1 X268.500 Y176.500 F1000
G1 X268.500 Y176.000 F1000
G1 X268.000 Y175.500 F1000
G1 X268.000 Y175.000 F1000
G1 X266.000 Y173.000 F1000
G1 X266.000 Y172.500 F1000
G1 X264.500 Y171.000 F1000
G1 X264.500 Y170.500 F1000
G1 X264.000 Y170.000 F1000
G1 X264.000 Y169.000 F1000
G1 X269.000 Y169.000 F1000
G1 X264.500 Y169.000 F1000
G1 X264.000 Y169.500 F1000
G1 X264.000 Y170.000 F1000
G1 X266.000 Y172.000 F1000
G1 X266.000 Y172.500 F1000
G1 X267.500 Y174.000 F1000
G1 X267.500 Y174.500 F1000
G1 X268.000 Y175.000 F1000
G1 X268.000 Y175.500 F1000
G1 X268.500 Y176.000 F1000
G1 X268.500 Y176.500 F1000
G1 X268.000 Y177.000 F1000
G0 Z3.0 ; Pen up

G0 X269.000 Y141.000 F3000 ; Travel to line 167
G0 Z0.0 ; Pen down
G1 X269.000 Y140.000 F1000
G1 X268.500 Y139.500 F1000
G1 X268.500 Y139.000 F1000
G1 X268.000 Y138.500 F1000
G1 X268.000 Y138.000 F1000
G1 X267.000 Y137.000 F1000
G1 X267.000 Y136.500 F1000
G1 X266.000 Y135.500 F1000
G1 X266.000 Y135.000 F1000
G1 X265.000 Y134.000 F1000
G1 X265.000 Y133.500 F1000
G1 X264.000 Y132.500 F1000
G1 X264.000 Y131.500 F1000
G1 X264.500 Y131.000 F1000
G1 X269.500 Y131.000 F1000
G1 X264.000 Y131.000 F1000
G1 X264.000 Y133.000 F1000
G1 X265.000 Y134.000 F1000
G1 X265.000 Y134.500 F1000
G1 X266.000 Y135.500 F1000
G1 X266.000 Y136.000 F1000
G1 X267.000 Y137.000 F1000
G1 X267.000 Y137.500 F1000
G1 X268.500 Y139.000 F1000
G1 X268.500 Y139.500 F1000
G1 X269.000 Y140.000 F1000
G1 X269.000 Y140.500 F1000
G1 X268.500 Y141.000 F1000
G1 X263.500 Y141.000 F1000
G0 Z3.0 ; Pen up

G0 X253.500 Y141.000 F3000 ; Travel to line 168
G0 Z0.0 ; Pen down
G1 X253.500 Y140.000 F1000
G1 X254.500 Y139.000 F1000
G1 X254.500 Y138.500 F1000
G1 X255.000 Y138.000 F1000
G1 X255.000 Y137.500 F1000
G1 X255.500 Y137.000 F1000
G1 X255.500 Y136.500 F1000
G1 X256.000 Y136.500 F1000
G1 X256.500 Y136.000 F1000
G1 X256.500 Y131.500 F1000
G1 X256.500 Y136.000 F1000
G1 X257.000 Y136.500 F1000
G1 X257.500 Y136.500 F1000
G1 X257.500 Y137.000 F1000
G1 X258.000 Y137.500 F1000
G1 X258.000 Y138.000 F1000
G1 X258.500 Y138.500 F1000
G1 X258.500 Y139.000 F1000
G1 X259.000 Y139.500 F1000
G1 X259.000 Y140.000 F1000
G1 X259.500 Y140.500 F1000
G1 X259.500 Y141.000 F1000
G1 X259.500 Y140.500 F1000
G1 X259.000 Y140.000 F1000
G1 X259.000 Y139.500 F1000
G1 X258.000 Y138.500 F1000
G1 X258.000 Y138.000 F1000
G1 X257.500 Y137.500 F1000
G1 X257.500 Y137.000 F1000
G1 X256.500 Y136.000 F1000
G1 X255.500 Y137.000 F1000
G1 X255.500 Y137.500 F1000
G1 X255.000 Y138.000 F1000
G1 X255.000 Y138.500 F1000
G1 X254.000 Y139.500 F1000
G1 X254.000 Y140.000 F1000
G1 X253.500 Y140.500 F1000
G0 Z3.0 ; Pen up

G0 X244.000 Y141.000 F3000 ; Travel to line 169
G0 Z0.0 ; Pen down
G1 X244.500 Y140.500 F1000
G1 X244.500 Y140.000 F1000
G1 X245.500 Y139.000 F1000
G1 X245.500 Y138.500 F1000
G1 X247.000 Y137.000 F1000
G1 X248.000 Y138.000 F1000
G1 X248.000 Y138.500 F1000
G1 X249.000 Y139.500 F1000
G1 X249.000 Y140.000 F1000
G1 X250.000 Y141.000 F1000
G1 X250.000 Y141.500 F1000
G1 X250.000 Y141.000 F1000
G1 X249.500 Y140.500 F1000
G1 X249.500 Y140.000 F1000
G1 X249.000 Y139.500 F1000
G1 X249.000 Y139.000 F1000
G1 X248.000 Y138.000 F1000
G1 X248.000 Y137.500 F1000
G1 X247.000 Y136.500 F1000
G1 X247.000 Y135.500 F1000
G1 X247.500 Y135.000 F1000
G1 X248.000 Y135.000 F1000
G1 X248.500 Y134.500 F1000
G1 X248.500 Y134.000 F1000
G1 X249.000 Y133.500 F1000
G1 X249.000 Y133.000 F1000
G1 X249.500 Y132.500 F1000
G1 X249.500 Y132.000 F1000
G1 X250.000 Y131.500 F1000
G1 X250.000 Y131.000 F1000
G1 X250.000 Y131.500 F1000
G1 X249.000 Y132.500 F1000
G1 X249.000 Y133.000 F1000
G1 X248.500 Y133.500 F1000
G1 X248.500 Y134.000 F1000
G1 X247.000 Y135.500 F1000
G1 X245.000 Y133.500 F1000
G1 X245.000 Y133.000 F1000
G1 X244.000 Y132.000 F1000
G1 X244.000 Y131.500 F1000
G1 X243.000 Y130.500 F1000
G1 X243.500 Y131.000 F1000
G1 X243.500 Y131.500 F1000
G1 X244.500 Y132.500 F1000
G1 X244.500 Y133.000 F1000
G1 X245.500 Y134.000 F1000
G1 X245.500 Y134.500 F1000
G1 X246.000 Y135.000 F1000
G1 X246.500 Y135.000 F1000
G1 X247.000 Y135.500 F1000
G1 X247.000 Y137.000 F1000
G1 X246.500 Y137.500 F1000
G1 X246.000 Y137.500 F1000
G1 X245.500 Y138.000 F1000
G1 X245.500 Y138.500 F1000
G1 X245.000 Y139.000 F1000
G1 X245.000 Y139.500 F1000
G1 X244.000 Y140.500 F1000
G1 X244.000 Y141.500 F1000
G0 Z3.0 ; Pen up

G0 X233.500 Y141.000 F3000 ; Travel to line 170
G0 Z0.0 ; Pen down
G1 X233.500 Y138.000 F1000
G1 X234.000 Y137.500 F1000
G1 X234.000 Y134.000 F1000
G1 X235.000 Y133.000 F1000
G1 X235.000 Y132.000 F1000
G1 X235.000 Y133.000 F1000
G1 X236.000 Y134.000 F1000
G1 X236.000 Y135.500 F1000
G1 X237.000 Y136.500 F1000
G1 X237.500 Y136.500 F1000
G1 X238.000 Y136.000 F1000
G1 X238.000 Y135.000 F1000
G1 X238.500 Y134.500 F1000
G1 X238.500 Y133.000 F1000
G1 X239.500 Y132.000 F1000
G1 X239.500 Y131.500 F1000
G1 X239.500 Y132.000 F1000
G1 X240.000 Y132.500 F1000
G1 X240.000 Y134.500 F1000
G1 X240.500 Y135.000 F1000
G1 X240.500 Y137.500 F1000
G1 X241.000 Y138.000 F1000
G1 X241.000 Y141.000 F1000
G1 X241.000 Y138.000 F1000
G1 X240.500 Y137.500 F1000
G1 X240.500 Y135.000 F1000
G1 X240.000 Y134.500 F1000
G1 X240.000 Y133.000 F1000
G1 X239.500 Y132.500 F1000
G1 X239.000 Y132.500 F1000
G1 X238.500 Y133.000 F1000
G1 X238.500 Y134.500 F1000
G1 X238.000 Y135.000 F1000
G1 X238.000 Y136.500 F1000
G1 X237.500 Y136.500 F1000
G1 X237.000 Y137.000 F1000
G1 X237.500 Y137.500 F1000
G1 X236.500 Y136.500 F1000
G1 X236.500 Y136.000 F1000
G1 X236.000 Y135.500 F1000
G1 X236.000 Y134.000 F1000
G1 X235.500 Y133.500 F1000
G1 X234.500 Y133.500 F1000
G1 X234.000 Y134.000 F1000
G1 X234.000 Y137.500 F1000
G1 X233.500 Y138.000 F1000
G0 Z3.0 ; Pen up

G0 X231.000 Y140.500 F3000 ; Travel to line 171
G0 Z0.0 ; Pen down
G1 X230.500 Y140.000 F1000
G1 X230.500 Y139.000 F1000
G1 X230.000 Y138.500 F1000
G1 X230.000 Y137.000 F1000
G1 X229.500 Y136.500 F1000
G1 X229.500 Y135.500 F1000
G1 X229.000 Y135.000 F1000
G1 X229.000 Y134.000 F1000
G1 X228.500 Y133.500 F1000
G1 X228.500 Y132.000 F1000
G1 X228.000 Y131.500 F1000
G1 X227.000 Y131.500 F1000
G1 X226.500 Y132.000 F1000
G1 X226.500 Y133.500 F1000
G1 X226.000 Y134.000 F1000
G1 X226.000 Y135.500 F1000
G1 X225.500 Y136.000 F1000
G1 X225.500 Y137.000 F1000
G1 X225.000 Y137.500 F1000
G1 X225.000 Y139.000 F1000
G1 X224.500 Y139.500 F1000
G1 X224.500 Y141.000 F1000
G1 X224.500 Y139.500 F1000
G1 X225.000 Y139.000 F1000
G1 X225.000 Y137.500 F1000
G1 X225.500 Y137.000 F1000
G1 X225.500 Y136.000 F1000
G1 X226.000 Y135.500 F1000
G1 X226.000 Y134.000 F1000
G1 X226.500 Y133.500 F1000
G1 X226.500 Y132.000 F1000
G1 X227.000 Y131.500 F1000
G1 X228.000 Y131.500 F1000
G1 X228.500 Y132.000 F1000
G1 X228.500 Y133.500 F1000
G1 X229.000 Y134.000 F1000
G1 X229.000 Y135.000 F1000
G1 X229.500 Y135.500 F1000
G1 X229.500 Y136.500 F1000
G1 X230.000 Y137.000 F1000
G1 X230.000 Y138.500 F1000
G1 X230.500 Y139.000 F1000
G1 X230.500 Y140.000 F1000
G1 X231.000 Y140.500 F1000
G1 X231.000 Y141.500 F1000
G0 Z3.0 ; Pen up

G0 X113.500 Y103.000 F3000 ; Travel to line 172
G0 Z0.0 ; Pen down
G1 X114.000 Y102.500 F1000
G1 X114.000 Y102.000 F1000
G1 X114.500 Y101.500 F1000
G1 X114.500 Y100.500 F1000
G1 X115.000 Y100.000 F1000
G1 X115.000 Y99.000 F1000
G1 X114.500 Y98.500 F1000
G1 X115.000 Y98.000 F1000
G1 X115.000 Y96.000 F1000
G1 X114.500 Y95.500 F1000
G1 X114.500 Y95.000 F1000
G1 X114.000 Y94.500 F1000
G1 X114.000 Y94.000 F1000
G1 X113.500 Y93.500 F1000
G1 X112.500 Y93.500 F1000
G1 X112.000 Y93.000 F1000
G1 X110.500 Y93.000 F1000
G1 X112.000 Y93.000 F1000
G1 X112.500 Y93.500 F1000
G1 X113.000 Y93.500 F1000
G1 X114.500 Y95.000 F1000
G1 X114.500 Y95.500 F1000
G1 X115.000 Y96.000 F1000
G1 X115.000 Y97.500 F1000
G1 X114.500 Y98.000 F1000
G1 X113.500 Y98.000 F1000
G1 X113.000 Y97.500 F1000
G1 X110.000 Y97.500 F1000
G1 X109.500 Y98.000 F1000
G1 X109.500 Y98.500 F1000
G1 X109.000 Y99.000 F1000
G1 X109.000 Y101.500 F1000
G1 X110.500 Y103.000 F1000
G1 X110.500 Y103.000 F1000
G1 X113.000 Y103.000 F1000
G1 X114.500 Y101.500 F1000
G1 X114.500 Y100.500 F1000
G1 X115.000 Y100.000 F1000
G1 X115.000 Y99.000 F1000
G1 X114.000 Y98.000 F1000
G1 X113.500 Y98.000 F1000
G1 X113.000 Y97.500 F1000
G1 X110.500 Y97.500 F1000
G1 X109.000 Y99.000 F1000
G1 X109.000 Y101.500 F1000
G0 Z3.0 ; Pen up

G0 X104.000 Y103.000 F3000 ; Travel to line 173
G0 Z0.0 ; Pen down
G1 X105.000 Y102.000 F1000
G1 X105.000 Y100.500 F1000
G1 X104.500 Y100.000 F1000
G1 X104.500 Y99.500 F1000
G1 X104.000 Y99.000 F1000
G1 X104.000 Y98.500 F1000
G1 X105.000 Y97.500 F1000
G1 X105.000 Y97.000 F1000
G1 X105.500 Y96.500 F1000
G1 X105.500 Y95.000 F1000
G1 X105.000 Y94.500 F1000
G1 X105.000 Y94.000 F1000
G1 X104.500 Y93.500 F1000
G1 X104.000 Y93.500 F1000
G1 X103.500 Y93.000 F1000
G1 X101.500 Y93.000 F1000
G1 X101.000 Y93.500 F1000
G1 X100.000 Y93.500 F1000
G1 X100.000 Y94.000 F1000
G1 X99.500 Y94.500 F1000
G1 X99.500 Y97.000 F1000
G1 X101.000 Y98.500 F1000
G1 X101.000 Y99.000 F1000
G1 X100.500 Y99.500 F1000
G1 X100.000 Y99.500 F1000
G1 X100.000 Y102.500 F1000
G1 X100.500 Y103.000 F1000
G0 Z3.0 ; Pen up

G0 X101.000 Y103.000 F3000 ; Travel to line 174
G0 Z0.0 ; Pen down
G1 X104.000 Y103.000 F1000
G1 X105.000 Y102.000 F1000
G1 X105.000 Y100.500 F1000
G1 X104.500 Y100.000 F1000
G1 X104.500 Y99.500 F1000
G1 X103.500 Y98.500 F1000
G1 X101.500 Y98.500 F1000
G1 X100.000 Y100.000 F1000
G1 X100.000 Y102.000 F1000
G0 Z3.0 ; Pen up

G0 X101.500 Y98.500 F3000 ; Travel to line 175
G0 Z0.0 ; Pen down
G1 X103.500 Y98.500 F1000
G1 X105.500 Y96.500 F1000
G1 X105.500 Y95.000 F1000
G1 X105.000 Y94.500 F1000
G1 X105.000 Y94.000 F1000
G1 X104.500 Y93.500 F1000
G1 X104.000 Y93.500 F1000
G1 X103.500 Y93.000 F1000
G1 X101.500 Y93.000 F1000
G1 X101.000 Y93.500 F1000
G1 X100.500 Y93.500 F1000
G1 X99.500 Y94.500 F1000
G1 X99.500 Y96.500 F1000
G0 Z3.0 ; Pen up

G0 X95.000 Y103.000 F3000 ; Travel to line 176
G0 Z0.0 ; Pen down
G1 X95.000 Y101.500 F1000
G1 X94.500 Y101.000 F1000
G1 X94.500 Y100.000 F1000
G1 X94.000 Y99.500 F1000
G1 X94.000 Y98.500 F1000
G1 X93.500 Y98.000 F1000
G1 X93.500 Y97.500 F1000
G1 X93.000 Y97.000 F1000
G1 X93.000 Y96.000 F1000
G1 X92.500 Y95.500 F1000
G1 X92.500 Y95.000 F1000
G1 X92.000 Y94.500 F1000
G1 X92.000 Y93.500 F1000
G1 X92.000 Y94.500 F1000
G1 X92.500 Y95.000 F1000
G1 X92.500 Y95.500 F1000
G1 X93.000 Y96.000 F1000
G1 X93.000 Y97.000 F1000
G1 X93.500 Y97.500 F1000
G1 X93.500 Y98.000 F1000
G1 X94.000 Y98.500 F1000
G1 X94.000 Y99.500 F1000
G1 X94.500 Y100.000 F1000
G1 X94.500 Y101.000 F1000
G1 X95.000 Y101.500 F1000
G1 X95.000 Y102.500 F1000
G1 X94.500 Y103.000 F1000
G1 X90.000 Y103.000 F1000
G0 Z3.0 ; Pen up

G0 X85.000 Y103.000 F3000 ; Travel to line 177
G0 Z0.0 ; Pen down
G1 X82.500 Y103.000 F1000
G1 X80.500 Y101.000 F1000
G1 X80.500 Y99.000 F1000
G1 X81.000 Y98.500 F1000
G1 X81.500 Y99.000 F1000
G1 X82.000 Y99.000 F1000
G1 X82.500 Y99.500 F1000
G1 X85.000 Y99.500 F1000
G1 X85.500 Y99.000 F1000
G1 X85.500 Y98.500 F1000
G1 X86.000 Y98.000 F1000
G1 X86.000 Y94.500 F1000
G1 X85.500 Y94.000 F1000
G1 X85.500 Y93.500 F1000
G1 X84.500 Y93.500 F1000
G1 X84.000 Y93.000 F1000
G1 X82.500 Y93.000 F1000
G1 X82.000 Y93.500 F1000
G1 X81.000 Y93.500 F1000
G1 X81.000 Y94.000 F1000
G1 X80.500 Y94.500 F1000
G1 X80.500 Y97.000 F1000
G1 X80.000 Y97.500 F1000
G1 X80.000 Y98.000 F1000
G1 X80.500 Y98.500 F1000
G1 X80.500 Y101.500 F1000
G1 X82.000 Y103.000 F1000
G0 Z3.0 ; Pen up

G0 X82.000 Y99.000 F3000 ; Travel to line 178
G0 Z0.0 ; Pen down
G1 X82.500 Y99.500 F1000
G1 X84.500 Y99.500 F1000
G1 X86.000 Y98.000 F1000
G1 X86.000 Y94.500 F1000
G1 X85.000 Y93.500 F1000
G1 X84.500 Y93.500 F1000
G1 X84.000 Y93.000 F1000
G1 X82.500 Y93.000 F1000
G1 X82.000 Y93.500 F1000
G1 X81.500 Y93.500 F1000
G1 X80.500 Y94.500 F1000
G1 X80.500 Y97.000 F1000
G1 X80.000 Y97.500 F1000
G1 X80.000 Y98.000 F1000
G1 X80.500 Y98.500 F1000
G1 X81.000 Y98.500 F1000
G1 X81.500 Y99.000 F1000
G0 Z3.0 ; Pen up

G0 X75.000 Y103.000 F3000 ; Travel to line 179
G0 Z0.0 ; Pen down
G1 X71.500 Y103.000 F1000
G1 X71.000 Y102.500 F1000
G1 X71.000 Y100.000 F1000
G1 X71.500 Y99.500 F1000
G1 X74.500 Y99.500 F1000
G1 X76.000 Y98.000 F1000
G1 X76.000 Y94.500 F1000
G1 X75.000 Y93.500 F1000
G1 X74.500 Y93.500 F1000
G1 X74.000 Y93.000 F1000
G1 X71.500 Y93.000 F1000
G1 X71.000 Y93.500 F1000
G1 X70.000 Y93.500 F1000
G1 X71.000 Y93.500 F1000
G1 X71.500 Y93.000 F1000
G1 X74.000 Y93.000 F1000
G1 X74.500 Y93.500 F1000
G1 X75.000 Y93.500 F1000
G1 X76.000 Y94.500 F1000
G1 X76.000 Y98.000 F1000
G1 X74.500 Y99.500 F1000
G1 X71.000 Y99.500 F1000
G1 X71.000 Y103.000 F1000
G0 Z3.0 ; Pen up

G0 X65.500 Y102.000 F3000 ; Travel to line 180
G0 Z0.0 ; Pen down
G1 X65.500 Y96.000 F1000
G1 X66.000 Y95.500 F1000
G1 X67.000 Y95.500 F1000
G1 X66.000 Y95.500 F1000
G1 X65.500 Y95.000 F1000
G1 X65.500 Y93.500 F1000
G1 X65.500 Y95.000 F1000
G1 X65.000 Y95.500 F1000
G1 X61.000 Y95.500 F1000
G1 X61.000 Y97.500 F1000
G1 X62.000 Y98.500 F1000
G1 X62.000 Y99.000 F1000
G1 X62.500 Y99.500 F1000
G1 X62.500 Y100.000 F1000
G1 X64.000 Y101.500 F1000
G1 X64.000 Y102.000 F1000
G0 Z3.0 ; Pen up

G0 X64.500 Y102.000 F3000 ; Travel to line 181
G0 Z0.0 ; Pen down
G1 X65.000 Y102.000 F1000
G1 X65.500 Y101.500 F1000
G1 X65.500 Y96.000 F1000
G1 X65.000 Y95.500 F1000
G1 X61.500 Y95.500 F1000
G1 X61.000 Y96.000 F1000
G1 X61.000 Y97.500 F1000
G1 X62.000 Y98.500 F1000
G1 X62.000 Y99.000 F1000
G1 X62.500 Y99.500 F1000
G1 X62.500 Y100.000 F1000
G0 Z3.0 ; Pen up

G0 X55.500 Y103.000 F3000 ; Travel to line 182
G0 Z0.0 ; Pen down
G1 X56.500 Y102.000 F1000
G1 X56.500 Y101.500 F1000
G1 X57.000 Y101.000 F1000
G1 X57.000 Y100.500 F1000
G1 X56.500 Y100.000 F1000
G1 X56.500 Y99.500 F1000
G1 X56.000 Y99.500 F1000
G1 X55.500 Y99.000 F1000
G1 X55.500 Y98.500 F1000
G1 X56.500 Y97.500 F1000
G1 X56.500 Y97.000 F1000
G1 X57.000 Y96.500 F1000
G1 X57.000 Y94.500 F1000
G1 X56.000 Y93.500 F1000
G1 X55.500 Y93.500 F1000
G1 X55.000 Y93.000 F1000
G1 X52.500 Y93.000 F1000
G1 X52.000 Y93.500 F1000
G1 X51.000 Y93.500 F1000
G1 X52.000 Y93.500 F1000
G1 X52.500 Y93.000 F1000
G1 X55.000 Y93.000 F1000
G1 X55.500 Y93.500 F1000
G1 X56.000 Y93.500 F1000
G1 X57.000 Y94.500 F1000
G1 X57.000 Y96.500 F1000
G1 X55.000 Y98.500 F1000
G1 X53.500 Y98.500 F1000
G1 X55.000 Y98.500 F1000
G1 X57.000 Y100.500 F1000
G1 X57.000 Y101.000 F1000
G1 X56.500 Y101.500 F1000
G1 X56.500 Y102.000 F1000
G1 X55.500 Y103.000 F1000
G1 X51.500 Y103.000 F1000
G0 Z3.0 ; Pen up

G0 X46.000 Y103.000 F3000 ; Travel to line 183
G0 Z0.0 ; Pen down
G1 X46.500 Y102.500 F1000
G1 X46.500 Y102.000 F1000
G1 X47.000 Y101.500 F1000
G1 X47.000 Y99.500 F1000
G1 X46.500 Y99.000 F1000
G1 X46.500 Y98.500 F1000
G1 X46.000 Y98.000 F1000
G1 X46.000 Y97.500 F1000
G1 X43.000 Y94.500 F1000
G1 X43.000 Y94.000 F1000
G1 X42.500 Y93.500 F1000
G1 X43.000 Y93.000 F1000
G1 X47.000 Y93.000 F1000
G1 X43.000 Y93.000 F1000
G1 X42.500 Y93.500 F1000
G1 X43.000 Y94.000 F1000
G1 X43.000 Y95.000 F1000
G1 X46.500 Y98.500 F1000
G1 X46.500 Y99.000 F1000
G1 X47.000 Y99.500 F1000
G1 X47.000 Y101.500 F1000
G1 X45.500 Y103.000 F1000
G1 X42.000 Y103.000 F1000
G0 Z3.0 ; Pen up

G0 X35.500 Y103.000 F3000 ; Travel to line 184
G0 Z0.0 ; Pen down
G1 X35.500 Y93.500 F1000
G1 X36.000 Y93.000 F1000
G1 X37.500 Y93.000 F1000
G1 X35.000 Y93.000 F1000
G1 X35.500 Y93.500 F1000
G1 X35.500 Y102.500 F1000
G1 X35.000 Y103.000 F1000
G1 X33.000 Y103.000 F1000
G0 Z3.0 ; Pen up

G0 X26.500 Y103.000 F3000 ; Travel to line 185
G0 Z0.0 ; Pen down
G1 X27.500 Y102.000 F1000
G1 X27.500 Y101.500 F1000
G1 X28.000 Y101.000 F1000
G1 X28.000 Y99.500 F1000
G1 X28.500 Y99.000 F1000
G1 X28.500 Y97.000 F1000
G1 X28.000 Y96.500 F1000
G1 X28.000 Y95.000 F1000
G1 X27.500 Y94.500 F1000
G1 X27.500 Y94.000 F1000
G1 X27.000 Y93.500 F1000
G1 X26.500 Y93.500 F1000
G1 X26.000 Y93.000 F1000
G1 X24.500 Y93.000 F1000
G1 X24.000 Y93.500 F1000
G1 X23.500 Y93.500 F1000
G1 X23.000 Y94.000 F1000
G1 X23.000 Y94.500 F1000
G1 X22.500 Y95.000 F1000
G1 X22.500 Y101.000 F1000
G1 X23.000 Y101.500 F1000
G1 X23.000 Y102.000 F1000
G1 X24.000 Y103.000 F1000
G0 Z3.0 ; Pen up

G0 X24.500 Y103.000 F3000 ; Travel to line 186
G0 Z0.0 ; Pen down
G1 X26.500 Y103.000 F1000
G1 X27.500 Y102.000 F1000
G1 X27.500 Y101.500 F1000
G1 X28.000 Y101.000 F1000
G1 X28.000 Y99.000 F1000
G1 X28.500 Y98.500 F1000
G1 X28.500 Y97.500 F1000
G1 X28.000 Y97.000 F1000
G1 X28.000 Y95.000 F1000
G1 X27.500 Y94.500 F1000
G1 X27.500 Y94.000 F1000
G1 X27.000 Y93.500 F1000
G1 X26.500 Y93.500 F1000
G1 X26.000 Y93.000 F1000
G1 X24.500 Y93.000 F1000
G1 X22.500 Y95.000 F1000
G1 X22.500 Y101.000 F1000
G0 Z3.0 ; Pen up

; Return to origin
G0 X0 Y0
G0 Z3.0

; Total drawing distance: 5050.35 mm
; Total travel distance: 1569.57 mm
; Total lines: 186
; Estimated time: 334.4 seconds (5.6 minutes)
M2 ; End program