; Blueprint to G-code
; Input: test_data/test_images/simple_square_crosshatch.png
; Generated with blueprint2gcode.py

G21 ; Set units to millimeters
G90 ; Absolute positioning
G0 Z3.0 ; Pen up
G0 X0 Y0 ; Move to origin

G0 X118.000 Y111.320 F3000 ; Travel to line 1
G0 Z0.0 ; Pen down
G1 X158.820 Y70.240 F1000
G0 Z3.0 ; Pen up

G0 X159.600 Y70.240 F3000 ; Travel to line 2
G0 Z0.0 ; Pen down
G1 X118.520 Y111.320 F1000
G0 Z3.0 ; Pen up

G0 X119.040 Y111.580 F3000 ; Travel to line 3
G0 Z0.0 ; Pen down
G1 X160.380 Y70.240 F1000
G0 Z3.0 ; Pen up

G0 X160.900 Y70.240 F3000 ; Travel to line 4
G0 Z0.0 ; Pen down
G1 X119.560 Y111.840 F1000
G0 Z3.0 ; Pen up

G0 X120.080 Y112.100 F3000 ; Travel to line 5
G0 Z0.0 ; Pen down
G1 X161.680 Y70.240 F1000
G0 Z3.0 ; Pen up

G0 X162.460 Y70.240 F3000 ; Travel to line 6
G0 Z0.0 ; Pen down
G1 X120.600 Y112.360 F1000
G0 Z3.0 ; Pen up

G0 X121.120 Y112.360 F3000 ; Travel to line 7
G0 Z0.0 ; Pen down
G1 X163.240 Y70.240 F1000
G0 Z3.0 ; Pen up

G0 X163.760 Y70.240 F3000 ; Travel to line 8
G0 Z0.0 ; Pen down
G1 X121.380 Y112.620 F1000
G0 Z3.0 ; Pen up

G0 X121.900 Y112.880 F3000 ; Travel to line 9
G0 Z0.0 ; Pen down
G1 X164.540 Y70.240 F1000
G0 Z3.0 ; Pen up

G0 X165.320 Y70.240 F3000 ; Travel to line 10
G0 Z0.0 ; Pen down
G1 X122.420 Y113.140 F1000
G0 Z3.0 ; Pen up

G0 X122.940 Y113.400 F3000 ; Travel to line 11
G0 Z0.0 ; Pen down
G1 X165.840 Y70.240 F1000
G0 Z3.0 ; Pen up

G0 X166.620 Y70.240 F3000 ; Travel to line 12
G0 Z0.0 ; Pen down
G1 X123.460 Y113.660 F1000
G0 Z3.0 ; Pen up

G0 X123.980 Y113.920 F3000 ; Travel to line 13
G0 Z0.0 ; Pen down
G1 X167.400 Y70.240 F1000
G0 Z3.0 ; Pen up

G0 X168.180 Y70.240 F3000 ; Travel to line 14
G0 Z0.0 ; Pen down
G1 X124.240 Y114.180 F1000
G0 Z3.0 ; Pen up

G0 X124.760 Y114.440 F3000 ; Travel to line 15
G0 Z0.0 ; Pen down
G1 X168.700 Y70.240 F1000
G0 Z3.0 ; Pen up

G0 X169.480 Y70.240 F3000 ; Travel to line 16
G0 Z0.0 ; Pen down
G1 X125.280 Y114.700 F1000
G0 Z3.0 ; Pen up

G0 X125.800 Y114.960 F3000 ; Travel to line 17
G0 Z0.0 ; Pen down
G1 X170.260 Y70.240 F1000
G0 Z3.0 ; Pen up

G0 X171.040 Y70.240 F3000 ; Travel to line 18
G0 Z0.0 ; Pen down
G1 X126.060 Y115.220 F1000
G0 Z3.0 ; Pen up

G0 X126.580 Y115.480 F3000 ; Travel to line 19
G0 Z0.0 ; Pen down
G1 X171.560 Y70.240 F1000
G0 Z3.0 ; Pen up

G0 X172.340 Y70.240 F3000 ; Travel to line 20
G0 Z0.0 ; Pen down
G1 X126.840 Y115.740 F1000
G0 Z3.0 ; Pen up

G0 X127.360 Y116.000 F3000 ; Travel to line 21
G0 Z0.0 ; Pen down
G1 X173.120 Y70.240 F1000
G0 Z3.0 ; Pen up

G0 X173.640 Y70.240 F3000 ; Travel to line 22
G0 Z0.0 ; Pen down
G1 X127.620 Y116.260 F1000
G0 Z3.0 ; Pen up

G0 X128.140 Y116.520 F3000 ; Travel to line 23
G0 Z0.0 ; Pen down
G1 X174.420 Y70.240 F1000
G0 Z3.0 ; Pen up

G0 X175.200 Y70.240 F3000 ; Travel to line 24
G0 Z0.0 ; Pen down
G1 X128.660 Y117.040 F1000
G0 Z3.0 ; Pen up

G0 X128.920 Y117.300 F3000 ; Travel to line 25
G0 Z0.0 ; Pen down
G1 X175.980 Y70.240 F1000
G0 Z3.0 ; Pen up

G0 X176.500 Y70.240 F3000 ; Travel to line 26
G0 Z0.0 ; Pen down
G1 X129.440 Y117.560 F1000
G0 Z3.0 ; Pen up

G0 X129.700 Y117.820 F3000 ; Travel to line 27
G0 Z0.0 ; Pen down
G1 X177.540 Y70.240 F1000
G0 Z3.0 ; Pen up

G0 X178.060 Y70.240 F3000 ; Travel to line 28
G0 Z0.0 ; Pen down
G1 X130.220 Y118.340 F1000
G0 Z3.0 ; Pen up

G0 X130.480 Y118.340 F3000 ; Travel to line 29
G0 Z0.0 ; Pen down
G1 X178.580 Y70.240 F1000
G0 Z3.0 ; Pen up

G0 X179.360 Y70.240 F3000 ; Travel to line 30
G0 Z0.0 ; Pen down
G1 X131.000 Y118.860 F1000
G0 Z3.0 ; Pen up

G0 X131.260 Y119.120 F3000 ; Travel to line 31
G0 Z0.0 ; Pen down
G1 X180.400 Y70.240 F1000
G0 Z3.0 ; Pen up

G0 X180.920 Y70.240 F3000 ; Travel to line 32
G0 Z0.0 ; Pen down
G1 X131.780 Y119.640 F1000
G0 Z3.0 ; Pen up

G0 X132.040 Y119.900 F3000 ; Travel to line 33
G0 Z0.0 ; Pen down
G1 X181.440 Y70.240 F1000
G0 Z3.0 ; Pen up

G0 X182.480 Y70.240 F3000 ; Travel to line 34
G0 Z0.0 ; Pen down
G1 X132.300 Y120.160 F1000
G0 Z3.0 ; Pen up

G0 X132.820 Y120.680 F3000 ; Travel to line 35
G0 Z0.0 ; Pen down
G1 X183.260 Y70.240 F1000
G1 X183.260 Y70.240 F1000
G1 X132.820 Y120.680 F1000
G1 X132.820 Y120.680 F1000
G1 X183.260 Y70.240 F1000
G1 X183.260 Y70.240 F1000
G1 X132.820 Y120.680 F1000
G1 X132.820 Y120.680 F1000
G1 X183.260 Y70.240 F1000
G1 X183.260 Y70.240 F1000
G1 X132.820 Y120.680 F1000
G1 X132.820 Y120.680 F1000
G1 X183.260 Y70.240 F1000
G1 X183.260 Y70.240 F1000
G1 X132.820 Y120.680 F1000
G1 X132.820 Y120.680 F1000
G1 X183.260 Y70.240 F1000
G1 X183.260 Y70.240 F1000
G1 X132.820 Y120.680 F1000
G1 X132.820 Y120.680 F1000
G1 X183.260 Y70.240 F1000
G1 X183.260 Y70.240 F1000
G1 X132.820 Y120.680 F1000
G1 X132.820 Y120.680 F1000
G1 X183.260 Y70.240 F1000
G1 X183.260 Y70.240 F1000
G1 X132.820 Y120.680 F1000
G1 X132.820 Y120.680 F1000
G1 X183.260 Y70.240 F1000
G1 X183.260 Y70.240 F1000
G1 X132.820 Y120.680 F1000
G1 X132.820 Y120.680 F1000
G1 X183.260 Y70.240 F1000
G1 X183.260 Y70.240 F1000
G1 X132.820 Y120.680 F1000
G1 X132.820 Y120.680 F1000
G1 X183.260 Y70.240 F1000
G1 X183.260 Y70.240 F1000
G1 X132.820 Y120.680 F1000
G1 X132.820 Y120.680 F1000
G1 X183.260 Y70.240 F1000
G1 X183.260 Y70.240 F1000
G1 X132.820 Y120.680 F1000
G1 X132.820 Y120.680 F1000
G1 X183.260 Y70.240 F1000
G1 X183.260 Y70.240 F1000
G1 X132.820 Y120.680 F1000
G1 X132.820 Y120.680 F1000
G1 X183.260 Y70.240 F1000
G1 X183.260 Y70.240 F1000
G1 X132.820 Y120.680 F1000
G1 X132.820 Y120.680 F1000
G1 X183.260 Y70.240 F1000
G1 X183.260 Y70.240 F1000
G1 X132.820 Y120.680 F1000
G1 X132.820 Y120.680 F1000
G1 X183.260 Y70.240 F1000
G1 X183.260 Y70.240 F1000
G1 X132.820 Y120.680 F1000
G1 X132.820 Y120.680 F1000
G1 X183.260 Y70.240 F1000
G1 X183.260 Y70.240 F1000
G1 X132.820 Y120.680 F1000
G1 X132.820 Y120.680 F1000
G1 X183.260 Y70.240 F1000
G1 X183.260 Y70.240 F1000
G1 X132.820 Y120.680 F1000
G1 X132.820 Y120.680 F1000
G1 X183.260 Y70.240 F1000
G1 X183.260 Y70.240 F1000
G1 X132.820 Y120.680 F1000
G1 X132.820 Y120.680 F1000
G1 X183.260 Y70.240 F1000
G1 X183.260 Y70.240 F1000
G1 X132.820 Y120.680 F1000
G1 X132.820 Y120.680 F1000
G1 X183.260 Y70.240 F1000
G1 X183.260 Y70.240 F1000
G1 X132.820 Y120.680 F1000
G1 X132.820 Y120.680 F1000
G1 X183.260 Y70.240 F1000
G1 X183.260 Y70.240 F1000
G1 X132.820 Y120.680 F1000
G1 X132.820 Y120.680 F1000
G1 X183.260 Y70.240 F1000
G1 X183.260 Y70.240 F1000
G1 X132.820 Y120.680 F1000
G1 X132.820 Y120.680 F1000
G1 X183.260 Y70.240 F1000
G1 X183.260 Y70.240 F1000
G1 X132.820 Y120.680 F1000
G1 X132.820 Y120.680 F1000
G1 X183.260 Y70.240 F1000
G1 X183.260 Y70.240 F1000
G1 X132.820 Y120.680 F1000
G1 X132.820 Y120.680 F1000
G1 X183.260 Y70.240 F1000
G1 X183.260 Y70.240 F1000
G1 X132.820 Y120.680 F1000
G1 X132.820 Y120.680 F1000
G1 X183.260 Y70.240 F1000
G1 X183.260 Y70.240 F1000
G1 X132.820 Y120.680 F1000
G1 X132.820 Y120.680 F1000
G1 X183.260 Y70.240 F1000
G1 X183.260 Y70.240 F1000
G1 X132.820 Y120.680 F1000
G1 X132.820 Y120.680 F1000
G1 X183.260 Y70.240 F1000
G1 X183.260 Y70.240 F1000
G1 X132.820 Y120.680 F1000
G1 X132.820 Y120.680 F1000
G1 X183.260 Y70.240 F1000
G1 X183.260 Y70.240 F1000
G1 X132.820 Y120.680 F1000
G1 X132.820 Y120.680 F1000
G1 X183.260 Y70.240 F1000
G1 X183.260 Y70.240 F1000
G1 X132.820 Y120.680 F1000
G1 X132.820 Y120.680 F1000
G1 X183.260 Y70.240 F1000
G1 X183.260 Y70.240 F1000
G1 X132.820 Y120.680 F1000
G1 X132.820 Y120.680 F1000
G1 X183.260 Y70.240 F1000
G1 X183.260 Y70.240 F1000
G1 X132.820 Y120.680 F1000
G1 X132.820 Y120.680 F1000
G1 X183.260 Y70.240 F1000
G1 X183.260 Y70.240 F1000
G1 X132.820 Y120.680 F1000
G1 X132.820 Y120.680 F1000
G1 X183.260 Y70.240 F1000
G1 X183.260 Y70.240 F1000
G1 X132.820 Y120.680 F1000
G1 X132.820 Y120.680 F1000
G1 X183.260 Y70.240 F1000
G1 X183.260 Y70.240 F1000
G1 X132.820 Y120.680 F1000
G1 X132.820 Y120.680 F1000
G1 X183.260 Y70.240 F1000
G1 X183.260 Y70.240 F1000
G1 X132.820 Y120.680 F1000
G1 X132.820 Y120.680 F1000
G1 X183.260 Y70.240 F1000
G1 X183.260 Y70.240 F1000
G1 X132.820 Y120.680 F1000
G1 X132.820 Y120.680 F1000
G1 X183.260 Y70.240 F1000
G1 X183.260 Y70.240 F1000
G1 X132.820 Y120.680 F1000
G1 X132.820 Y120.680 F1000
G1 X183.260 Y70.240 F1000
G1 X183.260 Y70.240 F1000
G1 X132.820 Y120.680 F1000
G1 X132.820 Y120.680 F1000
G1 X183.260 Y70.240 F1000
G1 X183.260 Y70.240 F1000
G1 X132.820 Y120.680 F1000
G1 X132.820 Y120.680 F1000
G1 X183.260 Y70.240 F1000
G1 X183.260 Y70.240 F1000
G1 X132.820 Y120.680 F1000
G1 X132.820 Y120.680 F1000
G1 X183.260 Y70.240 F1000
G1 X183.260 Y70.240 F1000
G1 X132.820 Y120.680 F1000
G1 X132.820 Y120.680 F1000
G1 X183.260 Y70.240 F1000
G1 X183.260 Y70.240 F1000
G1 X132.820 Y120.680 F1000
G1 X132.820 Y120.680 F1000
G1 X183.260 Y70.240 F1000
G1 X183.260 Y70.240 F1000
G1 X132.820 Y120.680 F1000
G1 X132.820 Y120.680 F1000
G1 X183.260 Y70.240 F1000
G1 X183.260 Y70.240 F1000
G1 X132.820 Y120.680 F1000
G1 X132.820 Y120.680 F1000
G1 X183.260 Y70.240 F1000
G1 X183.260 Y70.240 F1000
G1 X132.820 Y120.680 F1000
G1 X132.820 Y120.680 F1000
G1 X183.260 Y70.240 F1000
G1 X183.260 Y70.240 F1000
G1 X132.820 Y120.680 F1000
G1 X132.820 Y120.680 F1000
G1 X183.260 Y70.240 F1000
G1 X183.260 Y70.240 F1000
G1 X132.820 Y120.680 F1000
G1 X132.820 Y120.680 F1000
G1 X183.260 Y70.240 F1000
G1 X183.260 Y70.240 F1000
G1 X132.820 Y120.680 F1000
G1 X132.820 Y120.680 F1000
G1 X183.260 Y70.240 F1000
G1 X183.260 Y70.240 F1000
G1 X132.820 Y120.680 F1000
G1 X132.820 Y120.680 F1000
G1 X183.260 Y70.240 F1000
G1 X183.260 Y70.240 F1000
G1 X132.820 Y120.680 F1000
G1 X132.820 Y120.680 F1000
G1 X183.260 Y70.240 F1000
G1 X183.260 Y70.240 F1000
G1 X132.820 Y120.680 F1000
G1 X132.820 Y120.680 F1000
G1 X183.260 Y70.240 F1000
G1 X183.260 Y70.240 F1000
G1 X132.820 Y120.680 F1000
G1 X132.820 Y120.680 F1000
G1 X183.260 Y70.240 F1000
G1 X183.260 Y70.240 F1000
G1 X132.820 Y120.680 F1000
G1 X132.820 Y120.680 F1000
G1 X183.260 Y70.240 F1000
G1 X183.260 Y70.240 F1000
G1 X132.820 Y120.680 F1000
G1 X132.820 Y120.680 F1000
G1 X183.260 Y70.240 F1000
G1 X183.260 Y70.240 F1000
G1 X132.820 Y120.680 F1000
G1 X132.820 Y120.680 F1000
G1 X183.260 Y70.240 F1000
G1 X183.260 Y70.240 F1000
G1 X132.820 Y120.680 F1000
G1 X132.820 Y120.680 F1000
G1 X183.260 Y70.240 F1000
G1 X183.260 Y70.240 F1000
G1 X132.820 Y120.680 F1000
G1 X132.820 Y120.680 F1000
G1 X183.260 Y70.240 F1000
G1 X183.260 Y70.240 F1000
G1 X132.820 Y120.680 F1000
G1 X132.820 Y120.680 F1000
G1 X183.260 Y70.240 F1000
G1 X183.260 Y70.240 F1000
G1 X132.820 Y120.680 F1000
G1 X132.820 Y120.680 F1000
G1 X183.260 Y70.240 F1000
G1 X183.260 Y70.240 F1000
G1 X132.820 Y120.680 F1000
G1 X132.820 Y120.680 F1000
G1 X183.260 Y70.240 F1000
G1 X183.260 Y70.240 F1000
G1 X132.820 Y120.680 F1000
G1 X132.820 Y120.680 F1000
G1 X183.260 Y70.240 F1000
G1 X183.260 Y70.240 F1000
G1 X132.820 Y120.680 F1000
G1 X132.820 Y120.680 F1000
G1 X183.260 Y70.240 F1000
G1 X183.260 Y70.240 F1000
G1 X132.820 Y120.680 F1000
G1 X132.820 Y120.680 F1000
G1 X183.260 Y70.240 F1000
G1 X183.260 Y70.240 F1000
G1 X132.820 Y120.680 F1000
G1 X132.820 Y120.680 F1000
G1 X183.260 Y70.240 F1000
G1 X183.260 Y70.240 F1000
G1 X132.820 Y120.680 F1000
G1 X132.820 Y120.680 F1000
G1 X183.260 Y70.240 F1000
G1 X183.260 Y70.240 F1000
G1 X132.820 Y120.680 F1000
G1 X132.820 Y120.680 F1000
G1 X183.260 Y70.240 F1000
G1 X183.260 Y70.240 F1000
G1 X132.820 Y120.680 F1000
G1 X132.820 Y120.680 F1000
G1 X183.260 Y70.240 F1000
G1 X183.260 Y70.240 F1000
G1 X132.820 Y120.680 F1000
G1 X132.820 Y120.680 F1000
G1 X183.260 Y70.240 F1000
G1 X183.260 Y70.240 F1000
G1 X132.820 Y120.680 F1000
G1 X132.820 Y120.680 F1000
G1 X183.260 Y70.240 F1000
G1 X183.260 Y70.240 F1000
G1 X132.820 Y120.680 F1000
G1 X132.820 Y120.680 F1000
G1 X183.260 Y70.240 F1000
G1 X183.260 Y70.240 F1000
G1 X132.820 Y120.680 F1000
G1 X132.820 Y120.680 F1000
G1 X183.260 Y70.240 F1000
G1 X183.260 Y70.240 F1000
G1 X132.820 Y120.680 F1000
G1 X132.820 Y120.680 F1000
G1 X183.260 Y70.240 F1000
G1 X183.260 Y70.240 F1000
G1 X132.820 Y120.680 F1000
G1 X132.820 Y120.680 F1000
G1 X183.260 Y70.240 F1000
G1 X183.260 Y70.240 F1000
G1 X132.820 Y120.680 F1000
G1 X132.820 Y120.680 F1000
G1 X183.260 Y70.240 F1000
G1 X183.260 Y70.240 F1000
G1 X132.820 Y120.680 F1000
G1 X132.820 Y120.680 F1000
G1 X183.260 Y70.240 F1000
G1 X183.260 Y70.240 F1000
G1 X132.820 Y120.680 F1000
G1 X132.820 Y120.680 F1000
G1 X183.260 Y70.240 F1000
G1 X183.260 Y70.240 F1000
G1 X132.820 Y120.680 F1000
G1 X132.820 Y120.680 F1000
G1 X183.260 Y70.240 F1000
G1 X183.260 Y70.240 F1000
G1 X132.820 Y120.680 F1000
G1 X132.820 Y120.680 F1000
G1 X183.000 Y70.240 F1000
G0 Z3.0 ; Pen up

G0 X183.260 Y70.240 F3000 ; Travel to line 36
G0 Z0.0 ; Pen down
G1 X132.820 Y120.680 F1000
G1 X132.820 Y120.680 F1000
G1 X183.260 Y70.500 F1000
G0 Z3.0 ; Pen up

G0 X183.260 Y71.020 F3000 ; Travel to line 37
G0 Z0.0 ; Pen down
G1 X133.340 Y121.200 F1000
G0 Z3.0 ; Pen up

G0 X133.600 Y121.460 F3000 ; Travel to line 38
G0 Z0.0 ; Pen down
G1 X183.260 Y72.060 F1000
G0 Z3.0 ; Pen up

G0 X183.260 Y72.580 F3000 ; Travel to line 39
G0 Z0.0 ; Pen down
G1 X133.860 Y121.720 F1000
G0 Z3.0 ; Pen up

G0 X134.380 Y122.240 F3000 ; Travel to line 40
G0 Z0.0 ; Pen down
G1 X183.260 Y73.100 F1000
G0 Z3.0 ; Pen up

G0 X183.260 Y74.140 F3000 ; Travel to line 41
G0 Z0.0 ; Pen down
G1 X134.640 Y122.500 F1000
G0 Z3.0 ; Pen up

G0 X135.160 Y123.020 F3000 ; Travel to line 42
G0 Z0.0 ; Pen down
G1 X183.260 Y74.920 F1000
G0 Z3.0 ; Pen up

G0 X183.260 Y75.440 F3000 ; Travel to line 43
G0 Z0.0 ; Pen down
G1 X135.160 Y123.280 F1000
G0 Z3.0 ; Pen up

G0 X135.680 Y123.800 F3000 ; Travel to line 44
G0 Z0.0 ; Pen down
G1 X183.260 Y75.960 F1000
G0 Z3.0 ; Pen up

G0 X183.260 Y77.000 F3000 ; Travel to line 45
G0 Z0.0 ; Pen down
G1 X135.940 Y124.060 F1000
G0 Z3.0 ; Pen up

G0 X136.200 Y124.580 F3000 ; Travel to line 46
G0 Z0.0 ; Pen down
G1 X183.260 Y77.520 F1000
G0 Z3.0 ; Pen up

G0 X183.260 Y78.300 F3000 ; Travel to line 47
G0 Z0.0 ; Pen down
G1 X136.460 Y124.840 F1000
G0 Z3.0 ; Pen up

G0 X136.980 Y125.360 F3000 ; Travel to line 48
G0 Z0.0 ; Pen down
G1 X183.260 Y79.080 F1000
G0 Z3.0 ; Pen up

G0 X183.260 Y79.860 F3000 ; Travel to line 49
G0 Z0.0 ; Pen down
G1 X137.240 Y125.880 F1000
G0 Z3.0 ; Pen up

G0 X137.500 Y126.140 F3000 ; Travel to line 50
G0 Z0.0 ; Pen down
G1 X183.260 Y80.380 F1000
G0 Z3.0 ; Pen up

G0 X183.260 Y81.160 F3000 ; Travel to line 51
G0 Z0.0 ; Pen down
G1 X137.760 Y126.660 F1000
G0 Z3.0 ; Pen up

G0 X138.020 Y126.920 F3000 ; Travel to line 52
G0 Z0.0 ; Pen down
G1 X183.260 Y81.940 F1000
G0 Z3.0 ; Pen up

G0 X183.260 Y82.460 F3000 ; Travel to line 53
G0 Z0.0 ; Pen down
G1 X138.280 Y127.440 F1000
G0 Z3.0 ; Pen up

G0 X138.540 Y127.700 F3000 ; Travel to line 54
G0 Z0.0 ; Pen down
G1 X183.260 Y83.240 F1000
G0 Z3.0 ; Pen up

G0 X183.260 Y84.020 F3000 ; Travel to line 55
G0 Z0.0 ; Pen down
G1 X138.800 Y128.220 F1000
G0 Z3.0 ; Pen up

G0 X139.060 Y128.740 F3000 ; Travel to line 56
G0 Z0.0 ; Pen down
G1 X183.260 Y84.800 F1000
G0 Z3.0 ; Pen up

G0 X183.260 Y85.320 F3000 ; Travel to line 57
G0 Z0.0 ; Pen down
G1 X139.320 Y129.260 F1000
G0 Z3.0 ; Pen up

G0 X139.580 Y129.520 F3000 ; Travel to line 58
G0 Z0.0 ; Pen down
G1 X183.260 Y86.100 F1000
G0 Z3.0 ; Pen up

G0 X183.260 Y86.880 F3000 ; Travel to line 59
G0 Z0.0 ; Pen down
G1 X139.840 Y130.040 F1000
G0 Z3.0 ; Pen up

G0 X140.100 Y130.560 F3000 ; Travel to line 60
G0 Z0.0 ; Pen down
G1 X183.260 Y87.400 F1000
G0 Z3.0 ; Pen up

G0 X183.260 Y88.180 F3000 ; Travel to line 61
G0 Z0.0 ; Pen down
G1 X140.360 Y131.080 F1000
G0 Z3.0 ; Pen up

G0 X140.620 Y131.600 F3000 ; Travel to line 62
G0 Z0.0 ; Pen down
G1 X183.260 Y88.960 F1000
G0 Z3.0 ; Pen up

G0 X183.260 Y89.740 F3000 ; Travel to line 63
G0 Z0.0 ; Pen down
G1 X140.880 Y132.120 F1000
G0 Z3.0 ; Pen up

G0 X141.140 Y132.380 F3000 ; Travel to line 64
G0 Z0.0 ; Pen down
G1 X183.260 Y90.260 F1000
G0 Z3.0 ; Pen up

G0 X183.260 Y91.040 F3000 ; Travel to line 65
G0 Z0.0 ; Pen down
G1 X141.140 Y132.900 F1000
G0 Z3.0 ; Pen up

G0 X141.400 Y133.420 F3000 ; Travel to line 66
G0 Z0.0 ; Pen down
G1 X183.260 Y91.820 F1000
G0 Z3.0 ; Pen up

G0 X183.260 Y92.600 F3000 ; Travel to line 67
G0 Z0.0 ; Pen down
G1 X141.660 Y133.940 F1000
G0 Z3.0 ; Pen up

G0 X141.920 Y134.460 F3000 ; Travel to line 68
G0 Z0.0 ; Pen down
G1 X183.260 Y93.120 F1000
G0 Z3.0 ; Pen up

G0 X183.260 Y93.900 F3000 ; Travel to line 69
G0 Z0.0 ; Pen down
G1 X142.180 Y134.980 F1000
G0 Z3.0 ; Pen up

G0 X91.740 Y185.420 F3000 ; Travel to line 70
G0 Z0.0 ; Pen down
G1 X50.660 Y226.500 F1000
G0 Z3.0 ; Pen up

G0 X49.880 Y226.500 F3000 ; Travel to line 71
G0 Z0.0 ; Pen down
G1 X91.220 Y185.160 F1000
G0 Z3.0 ; Pen up

G0 X90.700 Y185.160 F3000 ; Travel to line 72
G0 Z0.0 ; Pen down
G1 X49.360 Y226.500 F1000
G0 Z3.0 ; Pen up

G0 X48.580 Y226.500 F3000 ; Travel to line 73
G0 Z0.0 ; Pen down
G1 X90.180 Y184.900 F1000
G0 Z3.0 ; Pen up

G0 X89.660 Y184.640 F3000 ; Travel to line 74
G0 Z0.0 ; Pen down
G1 X47.800 Y226.500 F1000
G0 Z3.0 ; Pen up

G0 X47.020 Y226.500 F3000 ; Travel to line 75
G0 Z0.0 ; Pen down
G1 X89.140 Y184.380 F1000
G0 Z3.0 ; Pen up

G0 X88.880 Y184.380 F3000 ; Travel to line 76
G0 Z0.0 ; Pen down
G1 X46.500 Y226.500 F1000
G0 Z3.0 ; Pen up

G0 X45.720 Y226.500 F3000 ; Travel to line 77
G0 Z0.0 ; Pen down
G1 X88.360 Y184.120 F1000
G0 Z3.0 ; Pen up

G0 X87.840 Y183.860 F3000 ; Travel to line 78
G0 Z0.0 ; Pen down
G1 X44.940 Y226.500 F1000
G0 Z3.0 ; Pen up

G0 X44.160 Y226.500 F3000 ; Travel to line 79
G0 Z0.0 ; Pen down
G1 X87.320 Y183.600 F1000
G0 Z3.0 ; Pen up

G0 X86.800 Y183.340 F3000 ; Travel to line 80
G0 Z0.0 ; Pen down
G1 X43.640 Y226.500 F1000
G0 Z3.0 ; Pen up

G0 X42.860 Y226.500 F3000 ; Travel to line 81
G0 Z0.0 ; Pen down
G1 X86.280 Y183.080 F1000
G0 Z3.0 ; Pen up

G0 X86.020 Y182.820 F3000 ; Travel to line 82
G0 Z0.0 ; Pen down
G1 X42.080 Y226.500 F1000
G0 Z3.0 ; Pen up

G0 X41.560 Y226.500 F3000 ; Travel to line 83
G0 Z0.0 ; Pen down
G1 X85.500 Y182.560 F1000
G0 Z3.0 ; Pen up

G0 X84.980 Y182.300 F3000 ; Travel to line 84
G0 Z0.0 ; Pen down
G1 X40.780 Y226.500 F1000
G0 Z3.0 ; Pen up

G0 X40.000 Y226.500 F3000 ; Travel to line 85
G0 Z0.0 ; Pen down
G1 X84.460 Y182.040 F1000
G0 Z3.0 ; Pen up

G0 X84.200 Y181.780 F3000 ; Travel to line 86
G0 Z0.0 ; Pen down
G1 X39.220 Y226.500 F1000
G0 Z3.0 ; Pen up

G0 X38.700 Y226.500 F3000 ; Travel to line 87
G0 Z0.0 ; Pen down
G1 X83.680 Y181.520 F1000
G0 Z3.0 ; Pen up

G0 X83.420 Y181.260 F3000 ; Travel to line 88
G0 Z0.0 ; Pen down
G1 X37.920 Y226.500 F1000
G0 Z3.0 ; Pen up

G0 X37.140 Y226.500 F3000 ; Travel to line 89
G0 Z0.0 ; Pen down
G1 X82.900 Y181.000 F1000
G0 Z3.0 ; Pen up

G0 X82.640 Y180.740 F3000 ; Travel to line 90
G0 Z0.0 ; Pen down
G1 X36.620 Y226.500 F1000
G0 Z3.0 ; Pen up

G0 X35.840 Y226.500 F3000 ; Travel to line 91
G0 Z0.0 ; Pen down
G1 X82.120 Y180.220 F1000
G0 Z3.0 ; Pen up

G0 X81.600 Y179.960 F3000 ; Travel to line 92
G0 Z0.0 ; Pen down
G1 X35.060 Y226.500 F1000
G0 Z3.0 ; Pen up

G0 X34.280 Y226.500 F3000 ; Travel to line 93
G0 Z0.0 ; Pen down
G1 X81.340 Y179.700 F1000
G0 Z3.0 ; Pen up

G0 X80.820 Y179.440 F3000 ; Travel to line 94
G0 Z0.0 ; Pen down
G1 X33.760 Y226.500 F1000
G0 Z3.0 ; Pen up

G0 X32.980 Y226.500 F3000 ; Travel to line 95
G0 Z0.0 ; Pen down
G1 X80.560 Y178.920 F1000
G0 Z3.0 ; Pen up

G0 X80.040 Y178.660 F3000 ; Travel to line 96
G0 Z0.0 ; Pen down
G1 X32.200 Y226.500 F1000
G0 Z3.0 ; Pen up

G0 X31.680 Y226.500 F3000 ; Travel to line 97
G0 Z0.0 ; Pen down
G1 X79.780 Y178.400 F1000
G0 Z3.0 ; Pen up

G0 X79.260 Y178.140 F3000 ; Travel to line 98
G0 Z0.0 ; Pen down
G1 X30.900 Y226.500 F1000
G0 Z3.0 ; Pen up

G0 X30.120 Y226.500 F3000 ; Travel to line 99
G0 Z0.0 ; Pen down
G1 X79.000 Y177.880 F1000
G0 Z3.0 ; Pen up

G0 X78.480 Y177.360 F3000 ; Travel to line 100
G0 Z0.0 ; Pen down
G1 X29.340 Y226.500 F1000
G0 Z3.0 ; Pen up

G0 X28.820 Y226.500 F3000 ; Travel to line 101
G0 Z0.0 ; Pen down
G1 X78.220 Y177.100 F1000
G0 Z3.0 ; Pen up

G0 X77.960 Y176.840 F3000 ; Travel to line 102
G0 Z0.0 ; Pen down
G1 X28.040 Y226.500 F1000
G0 Z3.0 ; Pen up

G0 X27.260 Y226.500 F3000 ; Travel to line 103
G0 Z0.0 ; Pen down
G1 X77.440 Y176.320 F1000
G0 Z3.0 ; Pen up

G0 X77.440 Y176.060 F3000 ; Travel to line 104
G0 Z0.0 ; Pen down
G1 X27.000 Y226.500 F1000
G1 X27.000 Y226.500 F1000
G1 X77.440 Y176.060 F1000
G1 X77.440 Y176.060 F1000
G1 X27.000 Y226.500 F1000
G1 X27.000 Y226.500 F1000
G1 X77.440 Y176.060 F1000
G1 X77.440 Y176.060 F1000
G1 X27.000 Y226.500 F1000
G1 X27.000 Y226.500 F1000
G1 X77.440 Y176.060 F1000
G1 X77.440 Y176.060 F1000
G1 X27.000 Y226.500 F1000
G1 X27.000 Y226.500 F1000
G1 X77.440 Y176.060 F1000
G1 X77.440 Y176.060 F1000
G1 X27.000 Y226.500 F1000
G1 X27.000 Y226.500 F1000
G1 X77.440 Y176.060 F1000
G1 X77.440 Y176.060 F1000
G1 X27.000 Y226.500 F1000
G1 X27.000 Y226.500 F1000
G1 X77.440 Y176.060 F1000
G1 X77.440 Y176.060 F1000
G1 X27.000 Y226.500 F1000
G1 X27.000 Y226.500 F1000
G1 X77.440 Y176.060 F1000
G1 X77.440 Y176.060 F1000
G1 X27.000 Y226.500 F1000
G1 X27.000 Y226.500 F1000
G1 X77.440 Y176.060 F1000
G1 X77.440 Y176.060 F1000
G1 X27.000 Y226.500 F1000
G1 X27.000 Y226.500 F1000
G1 X77.440 Y176.060 F1000
G1 X77.440 Y176.060 F1000
G1 X27.000 Y226.500 F1000
G1 X27.000 Y226.500 F1000
G1 X77.440 Y176.060 F1000
G1 X77.440 Y176.060 F1000
G1 X27.000 Y226.500 F1000
G1 X27.000 Y226.500 F1000
G1 X77.440 Y176.060 F1000
G1 X77.440 Y176.060 F1000
G1 X27.000 Y226.500 F1000
G1 X27.000 Y226.500 F1000
G1 X77.440 Y176.060 F1000
G1 X77.440 Y176.060 F1000
G1 X27.000 Y226.500 F1000
G1 X27.000 Y226.500 F1000
G1 X77.440 Y176.060 F1000
G1 X77.440 Y176.060 F1000
G1 X27.000 Y226.500 F1000
G1 X27.000 Y226.500 F1000
G1 X77.440 Y176.060 F1000
G1 X77.440 Y176.060 F1000
G1 X27.000 Y226.500 F1000
G1 X27.000 Y226.500 F1000
G1 X77.440 Y176.060 F1000
G1 X77.440 Y176.060 F1000
G1 X27.000 Y226.500 F1000
G1 X27.000 Y226.500 F1000
G1 X77.440 Y176.060 F1000
G1 X77.440 Y176.060 F1000
G1 X27.000 Y226.500 F1000
G1 X27.000 Y226.500 F1000
G1 X77.440 Y176.060 F1000
G1 X77.440 Y176.060 F1000
G1 X27.000 Y226.500 F1000
G1 X27.000 Y226.500 F1000
G1 X77.440 Y176.060 F1000
G1 X77.440 Y176.060 F1000
G1 X27.000 Y226.500 F1000
G1 X27.000 Y226.500 F1000
G1 X77.440 Y176.060 F1000
G1 X77.440 Y176.060 F1000
G1 X27.000 Y226.500 F1000
G1 X27.000 Y226.500 F1000
G1 X77.440 Y176.060 F1000
G1 X77.440 Y176.060 F1000
G1 X27.000 Y226.500 F1000
G1 X27.000 Y226.500 F1000
G1 X77.440 Y176.060 F1000
G1 X77.440 Y176.060 F1000
G1 X27.000 Y226.500 F1000
G1 X27.000 Y226.500 F1000
G1 X77.440 Y176.060 F1000
G1 X77.440 Y176.060 F1000
G1 X27.000 Y226.500 F1000
G1 X27.000 Y226.500 F1000
G1 X77.440 Y176.060 F1000
G1 X77.440 Y176.060 F1000
G1 X27.000 Y226.500 F1000
G1 X27.000 Y226.500 F1000
G1 X77.440 Y176.060 F1000
G1 X77.440 Y176.060 F1000
G1 X27.000 Y226.500 F1000
G1 X27.000 Y226.500 F1000
G1 X77.440 Y176.060 F1000
G1 X77.440 Y176.060 F1000
G1 X27.000 Y226.500 F1000
G1 X27.000 Y226.500 F1000
G1 X77.440 Y176.060 F1000
G1 X77.440 Y176.060 F1000
G1 X27.000 Y226.500 F1000
G1 X27.000 Y226.500 F1000
G1 X77.440 Y176.060 F1000
G1 X77.440 Y176.060 F1000
G1 X27.000 Y226.500 F1000
G1 X27.000 Y226.500 F1000
G1 X77.440 Y176.060 F1000
G1 X77.440 Y176.060 F1000
G1 X27.000 Y226.500 F1000
G1 X27.000 Y226.500 F1000
G1 X77.440 Y176.060 F1000
G1 X77.440 Y176.060 F1000
G1 X27.000 Y226.500 F1000
G1 X27.000 Y226.500 F1000
G1 X77.440 Y176.060 F1000
G1 X77.440 Y176.060 F1000
G1 X27.000 Y226.500 F1000
G1 X27.000 Y226.500 F1000
G1 X77.440 Y176.060 F1000
G1 X77.440 Y176.060 F1000
G1 X27.000 Y226.500 F1000
G1 X27.000 Y226.500 F1000
G1 X77.440 Y176.060 F1000
G1 X77.440 Y176.060 F1000
G1 X27.000 Y226.500 F1000
G1 X27.000 Y226.500 F1000
G1 X77.440 Y176.060 F1000
G1 X77.440 Y176.060 F1000
G1 X27.000 Y226.500 F1000
G1 X27.000 Y226.500 F1000
G1 X77.440 Y176.060 F1000
G1 X77.440 Y176.060 F1000
G1 X27.000 Y226.500 F1000
G1 X27.000 Y226.500 F1000
G1 X77.440 Y176.060 F1000
G1 X77.440 Y176.060 F1000
G1 X27.000 Y226.500 F1000
G1 X27.000 Y226.500 F1000
G1 X77.440 Y176.060 F1000
G1 X77.440 Y176.060 F1000
G1 X27.000 Y226.500 F1000
G1 X27.000 Y226.500 F1000
G1 X77.440 Y176.060 F1000
G1 X77.440 Y176.060 F1000
G1 X27.000 Y226.500 F1000
G1 X27.000 Y226.500 F1000
G1 X77.440 Y176.060 F1000
G1 X77.440 Y176.060 F1000
G1 X27.000 Y226.500 F1000
G1 X27.000 Y226.500 F1000
G1 X77.440 Y176.060 F1000
G1 X77.440 Y176.060 F1000
G1 X27.000 Y226.500 F1000
G1 X27.000 Y226.500 F1000
G1 X77.440 Y176.060 F1000
G1 X77.440 Y176.060 F1000
G1 X27.000 Y226.500 F1000
G1 X27.000 Y226.500 F1000
G1 X77.440 Y176.060 F1000
G1 X77.440 Y176.060 F1000
G1 X27.000 Y226.500 F1000
G1 X27.000 Y226.500 F1000
G1 X77.440 Y176.060 F1000
G1 X77.440 Y176.060 F1000
G1 X27.000 Y226.500 F1000
G1 X27.000 Y226.500 F1000
G1 X77.440 Y176.060 F1000
G1 X77.440 Y176.060 F1000
G1 X27.000 Y226.500 F1000
G1 X27.000 Y226.500 F1000
G1 X77.440 Y176.060 F1000
G1 X77.440 Y176.060 F1000
G1 X27.000 Y226.500 F1000
G1 X27.000 Y226.500 F1000
G1 X77.440 Y176.060 F1000
G1 X77.440 Y176.060 F1000
G1 X27.000 Y226.500 F1000
G1 X27.000 Y226.500 F1000
G1 X77.440 Y176.060 F1000
G1 X77.440 Y176.060 F1000
G1 X27.000 Y226.500 F1000
G1 X27.000 Y226.500 F1000
G1 X77.440 Y176.060 F1000
G1 X77.440 Y176.060 F1000
G1 X27.000 Y226.500 F1000
G1 X27.000 Y226.500 F1000
G1 X77.440 Y176.060 F1000
G1 X77.440 Y176.060 F1000
G1 X27.000 Y226.500 F1000
G1 X27.000 Y226.500 F1000
G1 X77.440 Y176.060 F1000
G1 X77.440 Y176.060 F1000
G1 X27.000 Y226.500 F1000
G1 X27.000 Y226.500 F1000
G1 X77.440 Y176.060 F1000
G1 X77.440 Y176.060 F1000
G1 X27.000 Y226.500 F1000
G1 X27.000 Y226.500 F1000
G1 X77.440 Y176.060 F1000
G1 X77.440 Y176.060 F1000
G1 X27.000 Y226.500 F1000
G1 X27.000 Y226.500 F1000
G1 X77.440 Y176.060 F1000
G1 X77.440 Y176.060 F1000
G1 X27.000 Y226.500 F1000
G1 X27.000 Y226.500 F1000
G1 X77.440 Y176.060 F1000
G1 X77.440 Y176.060 F1000
G1 X27.000 Y226.500 F1000
G1 X27.000 Y226.500 F1000
G1 X77.440 Y176.060 F1000
G1 X77.440 Y176.060 F1000
G1 X27.000 Y226.500 F1000
G1 X27.000 Y226.500 F1000
G1 X77.440 Y176.060 F1000
G1 X77.440 Y176.060 F1000
G1 X27.000 Y226.500 F1000
G1 X27.000 Y226.500 F1000
G1 X77.440 Y176.060 F1000
G1 X77.440 Y176.060 F1000
G1 X27.000 Y226.500 F1000
G1 X27.000 Y226.500 F1000
G1 X77.440 Y176.060 F1000
G1 X77.440 Y176.060 F1000
G1 X27.000 Y226.500 F1000
G1 X27.000 Y226.500 F1000
G1 X77.440 Y176.060 F1000
G1 X77.440 Y176.060 F1000
G1 X27.000 Y226.500 F1000
G1 X27.000 Y226.500 F1000
G1 X77.440 Y176.060 F1000
G1 X77.440 Y176.060 F1000
G1 X27.000 Y226.500 F1000
G1 X27.000 Y226.500 F1000
G1 X77.440 Y176.060 F1000
G1 X77.440 Y176.060 F1000
G1 X27.000 Y226.500 F1000
G1 X27.000 Y226.500 F1000
G1 X77.440 Y176.060 F1000
G1 X77.440 Y176.060 F1000
G1 X27.000 Y226.500 F1000
G1 X27.000 Y226.500 F1000
G1 X77.440 Y176.060 F1000
G1 X77.440 Y176.060 F1000
G1 X27.000 Y226.500 F1000
G1 X27.000 Y226.500 F1000
G1 X77.440 Y176.060 F1000
G1 X77.440 Y176.060 F1000
G1 X27.000 Y226.500 F1000
G1 X27.000 Y226.500 F1000
G1 X77.440 Y176.060 F1000
G1 X77.440 Y176.060 F1000
G1 X27.000 Y226.500 F1000
G1 X27.000 Y226.500 F1000
G1 X77.440 Y176.060 F1000
G1 X77.440 Y176.060 F1000
G1 X27.000 Y226.500 F1000
G1 X27.000 Y226.500 F1000
G1 X77.440 Y176.060 F1000
G1 X77.440 Y176.060 F1000
G1 X27.000 Y226.500 F1000
G1 X27.000 Y226.500 F1000
G1 X77.440 Y176.060 F1000
G1 X77.440 Y176.060 F1000
G1 X27.000 Y226.500 F1000
G1 X27.000 Y226.500 F1000
G1 X77.440 Y176.060 F1000
G1 X77.440 Y176.060 F1000
G1 X27.000 Y226.500 F1000
G1 X27.000 Y226.500 F1000
G1 X77.440 Y176.060 F1000
G1 X77.440 Y176.060 F1000
G1 X27.000 Y226.500 F1000
G1 X27.000 Y226.500 F1000
G1 X77.440 Y176.060 F1000
G1 X77.440 Y176.060 F1000
G1 X27.000 Y226.500 F1000
G1 X27.000 Y226.500 F1000
G1 X77.440 Y176.060 F1000
G1 X77.440 Y176.060 F1000
G1 X27.000 Y226.500 F1000
G1 X27.000 Y226.500 F1000
G1 X77.440 Y176.060 F1000
G1 X77.440 Y176.060 F1000
G1 X27.000 Y226.500 F1000
G1 X27.000 Y226.500 F1000
G1 X77.440 Y176.060 F1000
G1 X77.440 Y176.060 F1000
G1 X27.000 Y226.500 F1000
G1 X27.000 Y226.500 F1000
G1 X77.440 Y176.060 F1000
G1 X77.440 Y176.060 F1000
G1 X27.000 Y226.500 F1000
G1 X27.000 Y226.500 F1000
G1 X77.440 Y176.060 F1000
G1 X77.440 Y176.060 F1000
G1 X27.000 Y226.500 F1000
G1 X27.000 Y226.500 F1000
G1 X77.440 Y176.060 F1000
G1 X77.440 Y176.060 F1000
G1 X27.000 Y226.500 F1000
G1 X27.000 Y226.500 F1000
G1 X77.440 Y176.060 F1000
G1 X77.440 Y176.060 F1000
G1 X27.000 Y226.500 F1000
G1 X27.000 Y226.500 F1000
G1 X77.440 Y176.060 F1000
G1 X77.440 Y176.060 F1000
G1 X27.000 Y226.500 F1000
G1 X27.000 Y226.500 F1000
G1 X77.440 Y176.060 F1000
G1 X77.440 Y176.060 F1000
G1 X27.000 Y226.500 F1000
G0 Z3.0 ; Pen up

G0 X27.000 Y226.240 F3000 ; Travel to line 105
G0 Z0.0 ; Pen down
G1 X77.180 Y176.060 F1000
G0 Z3.0 ; Pen up

G0 X76.660 Y175.540 F3000 ; Travel to line 106
G0 Z0.0 ; Pen down
G1 X27.000 Y225.460 F1000
G0 Z3.0 ; Pen up

G0 X27.000 Y224.680 F3000 ; Travel to line 107
G0 Z0.0 ; Pen down
G1 X76.400 Y175.280 F1000
G0 Z3.0 ; Pen up

G0 X76.140 Y175.020 F3000 ; Travel to line 108
G0 Z0.0 ; Pen down
G1 X27.000 Y224.160 F1000
G0 Z3.0 ; Pen up

G0 X27.000 Y223.380 F3000 ; Travel to line 109
G0 Z0.0 ; Pen down
G1 X75.620 Y174.500 F1000
G0 Z3.0 ; Pen up

G0 X75.360 Y174.240 F3000 ; Travel to line 110
G0 Z0.0 ; Pen down
G1 X27.000 Y222.600 F1000
G0 Z3.0 ; Pen up

G0 X27.000 Y221.820 F3000 ; Travel to line 111
G0 Z0.0 ; Pen down
G1 X75.100 Y173.720 F1000
G0 Z3.0 ; Pen up

G0 X74.840 Y173.460 F3000 ; Travel to line 112
G0 Z0.0 ; Pen down
G1 X27.000 Y221.300 F1000
G0 Z3.0 ; Pen up

G0 X27.000 Y220.520 F3000 ; Travel to line 113
G0 Z0.0 ; Pen down
G1 X74.580 Y172.940 F1000
G0 Z3.0 ; Pen up

G0 X74.060 Y172.680 F3000 ; Travel to line 114
G0 Z0.0 ; Pen down
G1 X27.000 Y219.740 F1000
G0 Z3.0 ; Pen up

G0 X27.000 Y219.220 F3000 ; Travel to line 115
G0 Z0.0 ; Pen down
G1 X73.800 Y172.160 F1000
G0 Z3.0 ; Pen up

G0 X73.540 Y171.900 F3000 ; Travel to line 116
G0 Z0.0 ; Pen down
G1 X27.000 Y218.440 F1000
G0 Z3.0 ; Pen up

G0 X27.000 Y217.660 F3000 ; Travel to line 117
G0 Z0.0 ; Pen down
G1 X73.280 Y171.380 F1000
G0 Z3.0 ; Pen up

G0 X72.760 Y170.860 F3000 ; Travel to line 118
G0 Z0.0 ; Pen down
G1 X27.000 Y216.880 F1000
G0 Z3.0 ; Pen up

G0 X27.000 Y216.360 F3000 ; Travel to line 119
G0 Z0.0 ; Pen down
G1 X72.500 Y170.600 F1000
G0 Z3.0 ; Pen up

G0 X72.240 Y170.080 F3000 ; Travel to line 120
G0 Z0.0 ; Pen down
G1 X27.000 Y215.580 F1000
G0 Z3.0 ; Pen up

G0 X27.000 Y214.800 F3000 ; Travel to line 121
G0 Z0.0 ; Pen down
G1 X71.980 Y169.820 F1000
G0 Z3.0 ; Pen up

G0 X71.720 Y169.300 F3000 ; Travel to line 122
G0 Z0.0 ; Pen down
G1 X27.000 Y214.280 F1000
G0 Z3.0 ; Pen up

G0 X27.000 Y213.500 F3000 ; Travel to line 123
G0 Z0.0 ; Pen down
G1 X71.460 Y169.040 F1000
G0 Z3.0 ; Pen up

G0 X71.200 Y168.520 F3000 ; Travel to line 124
G0 Z0.0 ; Pen down
G1 X27.000 Y212.720 F1000
G0 Z3.0 ; Pen up

G0 X27.000 Y211.940 F3000 ; Travel to line 125
G0 Z0.0 ; Pen down
G1 X70.940 Y168.000 F1000
G0 Z3.0 ; Pen up

G0 X70.680 Y167.480 F3000 ; Travel to line 126
G0 Z0.0 ; Pen down
G1 X27.000 Y211.420 F1000
G0 Z3.0 ; Pen up

G0 X27.000 Y210.640 F3000 ; Travel to line 127
G0 Z0.0 ; Pen down
G1 X70.420 Y167.220 F1000
G0 Z3.0 ; Pen up

G0 X70.160 Y166.700 F3000 ; Travel to line 128
G0 Z0.0 ; Pen down
G1 X27.000 Y209.860 F1000
G0 Z3.0 ; Pen up

G0 X27.000 Y209.080 F3000 ; Travel to line 129
G0 Z0.0 ; Pen down
G1 X69.900 Y166.180 F1000
G0 Z3.0 ; Pen up

G0 X69.640 Y165.660 F3000 ; Travel to line 130
G0 Z0.0 ; Pen down
G1 X27.000 Y208.560 F1000
G0 Z3.0 ; Pen up

G0 X27.000 Y207.780 F3000 ; Travel to line 131
G0 Z0.0 ; Pen down
G1 X69.380 Y165.140 F1000
G0 Z3.0 ; Pen up

G0 X69.120 Y164.620 F3000 ; Travel to line 132
G0 Z0.0 ; Pen down
G1 X27.000 Y207.000 F1000
G0 Z3.0 ; Pen up

G0 X27.000 Y206.480 F3000 ; Travel to line 133
G0 Z0.0 ; Pen down
G1 X69.120 Y164.360 F1000
G0 Z3.0 ; Pen up

G0 X68.860 Y163.840 F3000 ; Travel to line 134
G0 Z0.0 ; Pen down
G1 X27.000 Y205.700 F1000
G0 Z3.0 ; Pen up

G0 X27.000 Y204.920 F3000 ; Travel to line 135
G0 Z0.0 ; Pen down
G1 X68.600 Y163.320 F1000
G0 Z3.0 ; Pen up

G0 X68.340 Y162.800 F3000 ; Travel to line 136
G0 Z0.0 ; Pen down
G1 X27.000 Y204.140 F1000
G0 Z3.0 ; Pen up

G0 X27.000 Y203.620 F3000 ; Travel to line 137
G0 Z0.0 ; Pen down
G1 X68.340 Y162.280 F1000
G0 Z3.0 ; Pen up

G0 X68.080 Y161.760 F3000 ; Travel to line 138
G0 Z0.0 ; Pen down
G1 X27.000 Y202.840 F1000
G0 Z3.0 ; Pen up

G0 X27.000 Y202.060 F3000 ; Travel to line 139
G0 Z0.0 ; Pen down
G1 X67.820 Y161.240 F1000
G0 Z3.0 ; Pen up

; Return to origin
G0 X0 Y0
G0 Z3.0

; Total drawing distance: 31686.19 mm
; Total travel distance: 317.99 mm
; Total lines: 139
; Estimated time: 1907.5 seconds (31.8 minutes)
M2 ; End program