; Blueprint to G-code
; Input: /home/david/code/blueprint2gcode/test_data/test_images/test1_simple_box.png
; Generated with blueprint2gcode.py
;
; Generation Parameters:
;   Paper size: A4 (210x297mm)
;   Orientation: auto
;   Margin: 1.0mm
;   Z up: 3.0mm
;   Z down: 0.0mm
;   Feed rate: 1000mm/min
;   Travel rate: 3000mm/min
;   Join tolerance: 0.02mm
;   Min line length: 0.01mm
;   Simplify epsilon: 0.000001
;   Fill solid areas: False
;   Invert colors: False

G21 ; Set units to millimeters
G90 ; Absolute positioning
G0 Z3.0 ; Pen up
G0 X0 Y0 ; Move to origin

G0 X44.847 Y36.360 F3000 ; Travel to line 1
G0 Z0.0 ; Pen down
G1 X45.193 Y36.013 F1000
G1 X250.073 Y36.013 F1000
G1 X250.420 Y36.360 F1000
G1 X250.420 Y37.053 F1000
G1 X250.073 Y37.400 F1000
G1 X249.727 Y37.400 F1000
G1 X249.033 Y38.093 F1000
G1 X248.687 Y38.093 F1000
G1 X247.993 Y38.787 F1000
G1 X247.647 Y38.787 F1000
G1 X246.953 Y39.480 F1000
G1 X246.607 Y39.480 F1000
G1 X245.913 Y40.173 F1000
G1 X245.567 Y40.173 F1000
G1 X244.873 Y40.867 F1000
G1 X244.527 Y40.867 F1000
G1 X243.833 Y41.560 F1000
G1 X243.487 Y41.560 F1000
G1 X242.793 Y42.253 F1000
G1 X242.447 Y42.253 F1000
G1 X241.753 Y42.947 F1000
G1 X241.407 Y42.947 F1000
G1 X240.713 Y43.640 F1000
G1 X240.367 Y43.640 F1000
G1 X239.673 Y44.333 F1000
G1 X239.327 Y44.333 F1000
G1 X238.633 Y45.027 F1000
G1 X238.287 Y45.027 F1000
G1 X237.593 Y45.720 F1000
G1 X237.247 Y45.720 F1000
G1 X236.553 Y46.413 F1000
G1 X236.207 Y46.413 F1000
G1 X235.513 Y47.107 F1000
G1 X235.167 Y47.107 F1000
G1 X234.473 Y47.800 F1000
G1 X234.127 Y47.800 F1000
G1 X233.433 Y48.493 F1000
G1 X233.087 Y48.493 F1000
G1 X232.393 Y49.187 F1000
G1 X232.047 Y49.187 F1000
G1 X231.353 Y49.880 F1000
G1 X231.007 Y49.880 F1000
G1 X230.313 Y50.573 F1000
G1 X229.967 Y50.573 F1000
G1 X229.273 Y51.267 F1000
G1 X228.927 Y51.267 F1000
G1 X228.233 Y51.960 F1000
G1 X227.887 Y51.960 F1000
G1 X227.193 Y52.653 F1000
G1 X226.847 Y52.653 F1000
G1 X226.153 Y53.347 F1000
G1 X225.807 Y53.347 F1000
G1 X225.113 Y54.040 F1000
G1 X224.767 Y54.040 F1000
G1 X224.073 Y54.733 F1000
G1 X223.727 Y54.733 F1000
G1 X223.033 Y55.427 F1000
G1 X222.687 Y55.427 F1000
G1 X221.993 Y56.120 F1000
G1 X221.647 Y56.120 F1000
G1 X220.953 Y56.813 F1000
G1 X220.607 Y56.813 F1000
G1 X219.913 Y57.507 F1000
G1 X219.567 Y57.507 F1000
G1 X218.873 Y58.200 F1000
G1 X218.527 Y58.200 F1000
G1 X217.833 Y58.893 F1000
G1 X217.487 Y58.893 F1000
G1 X216.793 Y59.587 F1000
G1 X216.447 Y59.587 F1000
G1 X215.753 Y60.280 F1000
G1 X215.407 Y60.280 F1000
G1 X214.713 Y60.973 F1000
G1 X214.367 Y60.973 F1000
G1 X213.673 Y61.667 F1000
G1 X213.327 Y61.667 F1000
G1 X212.633 Y62.360 F1000
G1 X212.287 Y62.360 F1000
G1 X211.593 Y63.053 F1000
G1 X211.247 Y63.053 F1000
G1 X210.553 Y63.747 F1000
G1 X210.207 Y63.747 F1000
G1 X209.513 Y64.440 F1000
G1 X209.167 Y64.440 F1000
G1 X208.473 Y65.133 F1000
G1 X208.127 Y65.133 F1000
G1 X207.433 Y65.827 F1000
G1 X207.087 Y65.827 F1000
G1 X206.393 Y66.520 F1000
G1 X206.047 Y66.520 F1000
G1 X205.353 Y67.213 F1000
G1 X205.007 Y67.213 F1000
G1 X204.313 Y67.907 F1000
G1 X203.967 Y67.907 F1000
G1 X203.273 Y68.600 F1000
G1 X202.927 Y68.600 F1000
G1 X202.233 Y69.293 F1000
G1 X201.887 Y69.293 F1000
G1 X201.193 Y69.987 F1000
G1 X200.847 Y69.987 F1000
G1 X200.153 Y70.680 F1000
G1 X199.807 Y70.680 F1000
G1 X199.113 Y71.373 F1000
G1 X198.767 Y71.373 F1000
G1 X198.073 Y72.067 F1000
G1 X197.727 Y72.067 F1000
G1 X197.033 Y72.760 F1000
G1 X196.687 Y72.760 F1000
G1 X195.993 Y73.453 F1000
G1 X195.647 Y73.453 F1000
G1 X194.953 Y74.147 F1000
G1 X194.607 Y74.147 F1000
G1 X193.913 Y74.840 F1000
G1 X193.567 Y74.840 F1000
G1 X192.873 Y75.533 F1000
G1 X192.527 Y75.533 F1000
G1 X191.833 Y76.227 F1000
G1 X191.487 Y76.227 F1000
G1 X190.793 Y76.920 F1000
G1 X190.447 Y76.920 F1000
G1 X189.753 Y77.613 F1000
G1 X189.407 Y77.613 F1000
G1 X188.713 Y78.307 F1000
G1 X188.367 Y78.307 F1000
G1 X187.673 Y79.000 F1000
G1 X187.327 Y79.000 F1000
G1 X186.633 Y79.693 F1000
G1 X186.287 Y79.693 F1000
G1 X185.593 Y80.387 F1000
G1 X185.247 Y80.387 F1000
G1 X184.553 Y81.080 F1000
G1 X184.207 Y81.080 F1000
G1 X183.513 Y81.773 F1000
G1 X183.167 Y81.773 F1000
G1 X182.473 Y82.467 F1000
G1 X182.127 Y82.467 F1000
G1 X181.433 Y83.160 F1000
G1 X181.087 Y83.160 F1000
G1 X180.393 Y83.853 F1000
G1 X180.047 Y83.853 F1000
G1 X179.353 Y84.547 F1000
G1 X179.007 Y84.547 F1000
G1 X178.313 Y85.240 F1000
G1 X177.967 Y85.240 F1000
G1 X177.273 Y85.933 F1000
G1 X176.927 Y85.933 F1000
G1 X176.233 Y86.627 F1000
G1 X175.887 Y86.627 F1000
G1 X175.193 Y87.320 F1000
G1 X174.847 Y87.320 F1000
G1 X174.153 Y88.013 F1000
G1 X173.807 Y88.013 F1000
G1 X173.113 Y88.707 F1000
G1 X172.767 Y88.707 F1000
G1 X172.073 Y89.400 F1000
G1 X171.727 Y89.400 F1000
G1 X171.033 Y90.093 F1000
G1 X170.687 Y90.093 F1000
G1 X169.993 Y90.787 F1000
G1 X169.647 Y90.787 F1000
G1 X168.953 Y91.480 F1000
G1 X168.607 Y91.480 F1000
G1 X167.913 Y92.173 F1000
G1 X167.567 Y92.173 F1000
G1 X166.873 Y92.867 F1000
G1 X166.527 Y92.867 F1000
G1 X165.833 Y93.560 F1000
G1 X165.487 Y93.560 F1000
G1 X164.793 Y94.253 F1000
G1 X164.447 Y94.253 F1000
G1 X163.753 Y94.947 F1000
G1 X163.407 Y94.947 F1000
G1 X162.713 Y95.640 F1000
G1 X162.367 Y95.640 F1000
G1 X161.673 Y96.333 F1000
G1 X161.327 Y96.333 F1000
G1 X160.633 Y97.027 F1000
G1 X160.287 Y97.027 F1000
G1 X159.593 Y97.720 F1000
G1 X159.247 Y97.720 F1000
G1 X158.553 Y98.413 F1000
G1 X158.207 Y98.413 F1000
G1 X157.513 Y99.107 F1000
G1 X157.167 Y99.107 F1000
G1 X156.473 Y99.800 F1000
G1 X156.127 Y99.800 F1000
G1 X155.433 Y100.493 F1000
G1 X155.087 Y100.493 F1000
G1 X154.393 Y101.187 F1000
G1 X154.047 Y101.187 F1000
G1 X153.353 Y101.880 F1000
G1 X153.007 Y101.880 F1000
G1 X152.313 Y102.573 F1000
G1 X151.967 Y102.573 F1000
G1 X151.273 Y103.267 F1000
G1 X150.927 Y103.267 F1000
G1 X150.233 Y103.960 F1000
G1 X150.233 Y104.307 F1000
G1 X149.887 Y104.653 F1000
G1 X149.193 Y104.653 F1000
G1 X148.500 Y103.960 F1000
G1 X148.500 Y70.680 F1000
G1 X148.500 Y103.960 F1000
G1 X148.847 Y104.307 F1000
G1 X148.847 Y104.653 F1000
G1 X148.153 Y105.347 F1000
G1 X147.807 Y105.347 F1000
G1 X147.460 Y105.000 F1000
G1 X114.180 Y105.000 F1000
G1 X147.113 Y105.000 F1000
G1 X147.460 Y105.347 F1000
G1 X147.460 Y105.693 F1000
G1 X147.113 Y106.040 F1000
G1 X146.767 Y106.040 F1000
G1 X146.073 Y106.733 F1000
G1 X145.727 Y106.733 F1000
G1 X145.033 Y107.427 F1000
G1 X144.687 Y107.427 F1000
G1 X143.993 Y108.120 F1000
G1 X143.647 Y108.120 F1000
G1 X142.953 Y108.813 F1000
G1 X142.607 Y108.813 F1000
G1 X141.913 Y109.507 F1000
G1 X141.567 Y109.507 F1000
G1 X140.873 Y110.200 F1000
G1 X140.527 Y110.200 F1000
G1 X139.833 Y110.893 F1000
G1 X139.487 Y110.893 F1000
G1 X138.793 Y111.587 F1000
G1 X138.447 Y111.587 F1000
G1 X137.753 Y112.280 F1000
G1 X137.407 Y112.280 F1000
G1 X136.713 Y112.973 F1000
G1 X136.367 Y112.973 F1000
G1 X135.673 Y113.667 F1000
G1 X135.327 Y113.667 F1000
G1 X134.633 Y114.360 F1000
G1 X134.287 Y114.360 F1000
G1 X133.593 Y115.053 F1000
G1 X133.247 Y115.053 F1000
G1 X132.553 Y115.747 F1000
G1 X132.207 Y115.747 F1000
G1 X131.513 Y116.440 F1000
G1 X131.167 Y116.440 F1000
G1 X130.473 Y117.133 F1000
G1 X130.127 Y117.133 F1000
G1 X129.433 Y117.827 F1000
G1 X129.087 Y117.827 F1000
G1 X128.393 Y118.520 F1000
G1 X128.047 Y118.520 F1000
G1 X127.353 Y119.213 F1000
G1 X127.007 Y119.213 F1000
G1 X126.313 Y119.907 F1000
G1 X125.967 Y119.907 F1000
G1 X125.273 Y120.600 F1000
G1 X124.927 Y120.600 F1000
G1 X124.233 Y121.293 F1000
G1 X123.887 Y121.293 F1000
G1 X123.193 Y121.987 F1000
G1 X122.847 Y121.987 F1000
G1 X122.153 Y122.680 F1000
G1 X121.807 Y122.680 F1000
G1 X121.113 Y123.373 F1000
G1 X120.767 Y123.373 F1000
G1 X120.073 Y124.067 F1000
G1 X119.727 Y124.067 F1000
G1 X119.033 Y124.760 F1000
G1 X118.687 Y124.760 F1000
G1 X117.993 Y125.453 F1000
G1 X117.647 Y125.453 F1000
G1 X116.953 Y126.147 F1000
G1 X116.607 Y126.147 F1000
G1 X115.913 Y126.840 F1000
G1 X115.567 Y126.840 F1000
G1 X114.873 Y127.533 F1000
G1 X114.527 Y127.533 F1000
G1 X113.833 Y128.227 F1000
G1 X113.487 Y128.227 F1000
G1 X112.793 Y128.920 F1000
G1 X112.447 Y128.920 F1000
G1 X111.753 Y129.613 F1000
G1 X111.407 Y129.613 F1000
G1 X110.713 Y130.307 F1000
G1 X110.367 Y130.307 F1000
G1 X109.673 Y131.000 F1000
G1 X109.327 Y131.000 F1000
G1 X108.633 Y131.693 F1000
G1 X108.287 Y131.693 F1000
G1 X107.593 Y132.387 F1000
G1 X107.247 Y132.387 F1000
G1 X106.553 Y133.080 F1000
G1 X106.207 Y133.080 F1000
G1 X105.513 Y133.773 F1000
G1 X105.167 Y133.773 F1000
G1 X104.473 Y134.467 F1000
G1 X104.127 Y134.467 F1000
G1 X103.433 Y135.160 F1000
G1 X103.087 Y135.160 F1000
G1 X102.393 Y135.853 F1000
G1 X102.047 Y135.853 F1000
G1 X101.353 Y136.547 F1000
G1 X101.007 Y136.547 F1000
G1 X100.313 Y137.240 F1000
G1 X99.967 Y137.240 F1000
G1 X99.273 Y137.933 F1000
G1 X98.927 Y137.933 F1000
G1 X98.233 Y138.627 F1000
G1 X97.887 Y138.627 F1000
G1 X97.193 Y139.320 F1000
G1 X96.847 Y139.320 F1000
G1 X96.153 Y140.013 F1000
G1 X95.807 Y140.013 F1000
G1 X95.113 Y140.707 F1000
G1 X94.767 Y140.707 F1000
G1 X94.073 Y141.400 F1000
G1 X93.727 Y141.400 F1000
G1 X93.033 Y142.093 F1000
G1 X92.687 Y142.093 F1000
G1 X91.993 Y142.787 F1000
G1 X91.647 Y142.787 F1000
G1 X90.953 Y143.480 F1000
G1 X90.607 Y143.480 F1000
G1 X89.913 Y144.173 F1000
G1 X89.567 Y144.173 F1000
G1 X88.873 Y144.867 F1000
G1 X88.527 Y144.867 F1000
G1 X87.833 Y145.560 F1000
G1 X87.487 Y145.560 F1000
G1 X86.793 Y146.253 F1000
G1 X86.447 Y146.253 F1000
G1 X85.753 Y146.947 F1000
G1 X85.407 Y146.947 F1000
G1 X84.713 Y147.640 F1000
G1 X84.367 Y147.640 F1000
G1 X83.673 Y148.333 F1000
G1 X83.327 Y148.333 F1000
G1 X82.633 Y149.027 F1000
G1 X82.287 Y149.027 F1000
G1 X81.593 Y149.720 F1000
G1 X81.247 Y149.720 F1000
G1 X80.553 Y150.413 F1000
G1 X80.207 Y150.413 F1000
G1 X79.513 Y151.107 F1000
G1 X79.167 Y151.107 F1000
G1 X78.473 Y151.800 F1000
G1 X78.127 Y151.800 F1000
G1 X77.433 Y152.493 F1000
G1 X77.087 Y152.493 F1000
G1 X76.393 Y153.187 F1000
G1 X76.047 Y153.187 F1000
G1 X75.353 Y153.880 F1000
G1 X75.007 Y153.880 F1000
G1 X74.313 Y154.573 F1000
G1 X73.967 Y154.573 F1000
G1 X73.273 Y155.267 F1000
G1 X72.927 Y155.267 F1000
G1 X72.233 Y155.960 F1000
G1 X71.887 Y155.960 F1000
G1 X71.193 Y156.653 F1000
G1 X70.847 Y156.653 F1000
G1 X70.153 Y157.347 F1000
G1 X69.807 Y157.347 F1000
G1 X69.113 Y158.040 F1000
G1 X68.767 Y158.040 F1000
G1 X68.073 Y158.733 F1000
G1 X67.727 Y158.733 F1000
G1 X67.033 Y159.427 F1000
G1 X66.687 Y159.427 F1000
G1 X65.993 Y160.120 F1000
G1 X65.647 Y160.120 F1000
G1 X64.953 Y160.813 F1000
G1 X64.607 Y160.813 F1000
G1 X63.913 Y161.507 F1000
G1 X63.567 Y161.507 F1000
G1 X62.873 Y162.200 F1000
G1 X62.527 Y162.200 F1000
G1 X61.833 Y162.893 F1000
G1 X61.487 Y162.893 F1000
G1 X60.793 Y163.587 F1000
G1 X60.447 Y163.587 F1000
G1 X59.753 Y164.280 F1000
G1 X59.407 Y164.280 F1000
G1 X58.713 Y164.973 F1000
G1 X58.367 Y164.973 F1000
G1 X57.673 Y165.667 F1000
G1 X57.327 Y165.667 F1000
G1 X56.633 Y166.360 F1000
G1 X56.287 Y166.360 F1000
G1 X55.593 Y167.053 F1000
G1 X55.247 Y167.053 F1000
G1 X54.553 Y167.747 F1000
G1 X54.207 Y167.747 F1000
G1 X53.513 Y168.440 F1000
G1 X53.167 Y168.440 F1000
G1 X52.473 Y169.133 F1000
G1 X52.127 Y169.133 F1000
G1 X51.433 Y169.827 F1000
G1 X51.087 Y169.827 F1000
G1 X50.393 Y170.520 F1000
G1 X50.047 Y170.520 F1000
G1 X49.353 Y171.213 F1000
G1 X49.007 Y171.213 F1000
G1 X48.313 Y171.907 F1000
G1 X47.967 Y171.907 F1000
G1 X47.273 Y172.600 F1000
G1 X46.927 Y172.600 F1000
G1 X46.927 Y172.947 F1000
G1 X46.233 Y173.640 F1000
G1 X45.193 Y173.640 F1000
G1 X44.847 Y173.293 F1000
G0 Z3.0 ; Pen up

G0 X46.580 Y173.293 F3000 ; Travel to line 2
G0 Z0.0 ; Pen down
G1 X47.620 Y172.253 F1000
G1 X47.967 Y172.253 F1000
G1 X48.660 Y171.560 F1000
G1 X49.007 Y171.560 F1000
G1 X49.700 Y170.867 F1000
G1 X50.047 Y170.867 F1000
G1 X50.740 Y170.173 F1000
G1 X51.087 Y170.173 F1000
G1 X51.780 Y169.480 F1000
G1 X52.127 Y169.480 F1000
G1 X52.820 Y168.787 F1000
G1 X53.167 Y168.787 F1000
G1 X53.860 Y168.093 F1000
G1 X54.207 Y168.093 F1000
G1 X54.900 Y167.400 F1000
G1 X55.247 Y167.400 F1000
G1 X55.940 Y166.707 F1000
G1 X56.287 Y166.707 F1000
G1 X56.980 Y166.013 F1000
G1 X57.327 Y166.013 F1000
G1 X58.020 Y165.320 F1000
G1 X58.367 Y165.320 F1000
G1 X59.060 Y164.627 F1000
G1 X59.407 Y164.627 F1000
G1 X60.100 Y163.933 F1000
G1 X60.447 Y163.933 F1000
G1 X61.140 Y163.240 F1000
G1 X61.487 Y163.240 F1000
G1 X62.180 Y162.547 F1000
G1 X62.527 Y162.547 F1000
G1 X63.220 Y161.853 F1000
G1 X63.567 Y161.853 F1000
G1 X64.260 Y161.160 F1000
G1 X64.607 Y161.160 F1000
G1 X65.300 Y160.467 F1000
G1 X65.647 Y160.467 F1000
G1 X66.340 Y159.773 F1000
G1 X66.687 Y159.773 F1000
G1 X67.380 Y159.080 F1000
G1 X67.727 Y159.080 F1000
G1 X68.420 Y158.387 F1000
G1 X68.767 Y158.387 F1000
G1 X69.460 Y157.693 F1000
G1 X69.807 Y157.693 F1000
G1 X70.500 Y157.000 F1000
G1 X70.847 Y157.000 F1000
G1 X71.540 Y156.307 F1000
G1 X71.887 Y156.307 F1000
G1 X72.580 Y155.613 F1000
G1 X72.927 Y155.613 F1000
G1 X73.620 Y154.920 F1000
G1 X73.967 Y154.920 F1000
G1 X74.660 Y154.227 F1000
G1 X75.007 Y154.227 F1000
G1 X75.700 Y153.533 F1000
G1 X76.047 Y153.533 F1000
G1 X76.740 Y152.840 F1000
G1 X77.087 Y152.840 F1000
G1 X77.780 Y152.147 F1000
G1 X78.127 Y152.147 F1000
G1 X78.820 Y151.453 F1000
G1 X79.167 Y151.453 F1000
G1 X79.860 Y150.760 F1000
G1 X80.207 Y150.760 F1000
G1 X80.900 Y150.067 F1000
G1 X81.247 Y150.067 F1000
G1 X81.940 Y149.373 F1000
G1 X82.287 Y149.373 F1000
G1 X82.980 Y148.680 F1000
G1 X83.327 Y148.680 F1000
G1 X84.020 Y147.987 F1000
G1 X84.367 Y147.987 F1000
G1 X85.060 Y147.293 F1000
G1 X85.407 Y147.293 F1000
G1 X86.100 Y146.600 F1000
G1 X86.447 Y146.600 F1000
G1 X87.140 Y145.907 F1000
G1 X87.487 Y145.907 F1000
G1 X88.180 Y145.213 F1000
G1 X88.527 Y145.213 F1000
G1 X89.220 Y144.520 F1000
G1 X89.567 Y144.520 F1000
G1 X90.260 Y143.827 F1000
G1 X90.607 Y143.827 F1000
G1 X91.300 Y143.133 F1000
G1 X91.647 Y143.133 F1000
G1 X92.340 Y142.440 F1000
G1 X92.687 Y142.440 F1000
G1 X93.380 Y141.747 F1000
G1 X93.727 Y141.747 F1000
G1 X94.420 Y141.053 F1000
G1 X94.767 Y141.053 F1000
G1 X95.460 Y140.360 F1000
G1 X95.807 Y140.360 F1000
G1 X96.500 Y139.667 F1000
G1 X96.847 Y139.667 F1000
G1 X97.540 Y138.973 F1000
G1 X97.887 Y138.973 F1000
G1 X98.580 Y138.280 F1000
G1 X98.927 Y138.280 F1000
G1 X99.620 Y137.587 F1000
G1 X99.967 Y137.587 F1000
G1 X100.660 Y136.893 F1000
G1 X101.007 Y136.893 F1000
G1 X101.700 Y136.200 F1000
G1 X102.047 Y136.200 F1000
G1 X102.740 Y135.507 F1000
G1 X103.087 Y135.507 F1000
G1 X103.780 Y134.813 F1000
G1 X104.127 Y134.813 F1000
G1 X104.820 Y134.120 F1000
G1 X105.167 Y134.120 F1000
G1 X105.860 Y133.427 F1000
G1 X106.207 Y133.427 F1000
G1 X106.900 Y132.733 F1000
G1 X107.247 Y132.733 F1000
G1 X107.940 Y132.040 F1000
G1 X108.287 Y132.040 F1000
G1 X108.980 Y131.347 F1000
G1 X109.327 Y131.347 F1000
G1 X110.020 Y130.653 F1000
G1 X110.367 Y130.653 F1000
G1 X111.060 Y129.960 F1000
G1 X111.407 Y129.960 F1000
G1 X112.100 Y129.267 F1000
G1 X112.447 Y129.267 F1000
G1 X113.140 Y128.573 F1000
G1 X113.487 Y128.573 F1000
G1 X114.180 Y127.880 F1000
G1 X114.527 Y127.880 F1000
G1 X115.220 Y127.187 F1000
G1 X115.567 Y127.187 F1000
G1 X116.260 Y126.493 F1000
G1 X116.607 Y126.493 F1000
G1 X117.300 Y125.800 F1000
G1 X117.647 Y125.800 F1000
G1 X118.340 Y125.107 F1000
G1 X118.687 Y125.107 F1000
G1 X119.380 Y124.413 F1000
G1 X119.727 Y124.413 F1000
G1 X120.420 Y123.720 F1000
G1 X120.767 Y123.720 F1000
G1 X121.460 Y123.027 F1000
G1 X121.807 Y123.027 F1000
G1 X122.500 Y122.333 F1000
G1 X122.847 Y122.333 F1000
G1 X123.540 Y121.640 F1000
G1 X123.887 Y121.640 F1000
G1 X124.580 Y120.947 F1000
G1 X124.927 Y120.947 F1000
G1 X125.620 Y120.253 F1000
G1 X125.967 Y120.253 F1000
G1 X126.660 Y119.560 F1000
G1 X127.007 Y119.560 F1000
G1 X127.700 Y118.867 F1000
G1 X128.047 Y118.867 F1000
G1 X128.740 Y118.173 F1000
G1 X129.087 Y118.173 F1000
G1 X129.780 Y117.480 F1000
G1 X130.127 Y117.480 F1000
G1 X130.820 Y116.787 F1000
G1 X131.167 Y116.787 F1000
G1 X131.860 Y116.093 F1000
G1 X132.207 Y116.093 F1000
G1 X132.900 Y115.400 F1000
G1 X133.247 Y115.400 F1000
G1 X133.940 Y114.707 F1000
G1 X134.287 Y114.707 F1000
G1 X134.980 Y114.013 F1000
G1 X135.327 Y114.013 F1000
G1 X136.020 Y113.320 F1000
G1 X136.367 Y113.320 F1000
G1 X137.060 Y112.627 F1000
G1 X137.407 Y112.627 F1000
G1 X138.100 Y111.933 F1000
G1 X138.447 Y111.933 F1000
G1 X139.140 Y111.240 F1000
G1 X139.487 Y111.240 F1000
G1 X140.180 Y110.547 F1000
G1 X140.527 Y110.547 F1000
G1 X141.220 Y109.853 F1000
G1 X141.567 Y109.853 F1000
G1 X142.260 Y109.160 F1000
G1 X142.607 Y109.160 F1000
G1 X143.300 Y108.467 F1000
G1 X143.647 Y108.467 F1000
G1 X144.340 Y107.773 F1000
G1 X144.687 Y107.773 F1000
G1 X145.380 Y107.080 F1000
G1 X145.727 Y107.080 F1000
G1 X146.420 Y106.387 F1000
G1 X146.767 Y106.387 F1000
G1 X147.807 Y105.347 F1000
G1 X148.153 Y105.347 F1000
G1 X148.500 Y105.693 F1000
G1 X148.500 Y139.320 F1000
G1 X148.500 Y105.000 F1000
G1 X148.847 Y104.653 F1000
G1 X149.887 Y104.653 F1000
G1 X150.233 Y105.000 F1000
G1 X182.820 Y105.000 F1000
G1 X150.580 Y105.000 F1000
G1 X150.233 Y104.653 F1000
G1 X150.233 Y103.960 F1000
G1 X150.580 Y103.613 F1000
G1 X150.927 Y103.613 F1000
G1 X151.620 Y102.920 F1000
G1 X151.967 Y102.920 F1000
G1 X152.660 Y102.227 F1000
G1 X153.007 Y102.227 F1000
G1 X153.700 Y101.533 F1000
G1 X154.047 Y101.533 F1000
G1 X154.740 Y100.840 F1000
G1 X155.087 Y100.840 F1000
G1 X155.780 Y100.147 F1000
G1 X156.127 Y100.147 F1000
G1 X156.820 Y99.453 F1000
G1 X157.167 Y99.453 F1000
G1 X157.860 Y98.760 F1000
G1 X158.207 Y98.760 F1000
G1 X158.900 Y98.067 F1000
G1 X159.247 Y98.067 F1000
G1 X159.940 Y97.373 F1000
G1 X160.287 Y97.373 F1000
G1 X160.980 Y96.680 F1000
G1 X161.327 Y96.680 F1000
G1 X162.020 Y95.987 F1000
G1 X162.367 Y95.987 F1000
G1 X163.060 Y95.293 F1000
G1 X163.407 Y95.293 F1000
G1 X164.100 Y94.600 F1000
G1 X164.447 Y94.600 F1000
G1 X165.140 Y93.907 F1000
G1 X165.487 Y93.907 F1000
G1 X166.180 Y93.213 F1000
G1 X166.527 Y93.213 F1000
G1 X167.220 Y92.520 F1000
G1 X167.567 Y92.520 F1000
G1 X168.260 Y91.827 F1000
G1 X168.607 Y91.827 F1000
G1 X169.300 Y91.133 F1000
G1 X169.647 Y91.133 F1000
G1 X170.340 Y90.440 F1000
G1 X170.687 Y90.440 F1000
G1 X171.380 Y89.747 F1000
G1 X171.727 Y89.747 F1000
G1 X172.420 Y89.053 F1000
G1 X172.767 Y89.053 F1000
G1 X173.460 Y88.360 F1000
G1 X173.807 Y88.360 F1000
G1 X174.500 Y87.667 F1000
G1 X174.847 Y87.667 F1000
G1 X175.540 Y86.973 F1000
G1 X175.887 Y86.973 F1000
G1 X176.580 Y86.280 F1000
G1 X176.927 Y86.280 F1000
G1 X177.620 Y85.587 F1000
G1 X177.967 Y85.587 F1000
G1 X178.660 Y84.893 F1000
G1 X179.007 Y84.893 F1000
G1 X179.700 Y84.200 F1000
G1 X180.047 Y84.200 F1000
G1 X180.740 Y83.507 F1000
G1 X181.087 Y83.507 F1000
G1 X181.780 Y82.813 F1000
G1 X182.127 Y82.813 F1000
G1 X182.820 Y82.120 F1000
G1 X183.167 Y82.120 F1000
G1 X183.860 Y81.427 F1000
G1 X184.207 Y81.427 F1000
G1 X184.900 Y80.733 F1000
G1 X185.247 Y80.733 F1000
G1 X185.940 Y80.040 F1000
G1 X186.287 Y80.040 F1000
G1 X186.980 Y79.347 F1000
G1 X187.327 Y79.347 F1000
G1 X188.020 Y78.653 F1000
G1 X188.367 Y78.653 F1000
G1 X189.060 Y77.960 F1000
G1 X189.407 Y77.960 F1000
G1 X190.100 Y77.267 F1000
G1 X190.447 Y77.267 F1000
G1 X191.140 Y76.573 F1000
G1 X191.487 Y76.573 F1000
G1 X192.180 Y75.880 F1000
G1 X192.527 Y75.880 F1000
G1 X193.220 Y75.187 F1000
G1 X193.567 Y75.187 F1000
G1 X194.260 Y74.493 F1000
G1 X194.607 Y74.493 F1000
G1 X195.300 Y73.800 F1000
G1 X195.647 Y73.800 F1000
G1 X196.340 Y73.107 F1000
G1 X196.687 Y73.107 F1000
G1 X197.380 Y72.413 F1000
G1 X197.727 Y72.413 F1000
G1 X198.420 Y71.720 F1000
G1 X198.767 Y71.720 F1000
G1 X199.460 Y71.027 F1000
G1 X199.807 Y71.027 F1000
G1 X200.500 Y70.333 F1000
G1 X200.847 Y70.333 F1000
G1 X201.540 Y69.640 F1000
G1 X201.887 Y69.640 F1000
G1 X202.580 Y68.947 F1000
G1 X202.927 Y68.947 F1000
G1 X203.620 Y68.253 F1000
G1 X203.967 Y68.253 F1000
G1 X204.660 Y67.560 F1000
G1 X205.007 Y67.560 F1000
G1 X205.700 Y66.867 F1000
G1 X206.047 Y66.867 F1000
G1 X206.740 Y66.173 F1000
G1 X207.087 Y66.173 F1000
G1 X207.780 Y65.480 F1000
G1 X208.127 Y65.480 F1000
G1 X208.820 Y64.787 F1000
G1 X209.167 Y64.787 F1000
G1 X209.860 Y64.093 F1000
G1 X210.207 Y64.093 F1000
G1 X210.900 Y63.400 F1000
G1 X211.247 Y63.400 F1000
G1 X211.940 Y62.707 F1000
G1 X212.287 Y62.707 F1000
G1 X212.980 Y62.013 F1000
G1 X213.327 Y62.013 F1000
G1 X214.020 Y61.320 F1000
G1 X214.367 Y61.320 F1000
G1 X215.060 Y60.627 F1000
G1 X215.407 Y60.627 F1000
G1 X216.100 Y59.933 F1000
G1 X216.447 Y59.933 F1000
G1 X217.140 Y59.240 F1000
G1 X217.487 Y59.240 F1000
G1 X218.180 Y58.547 F1000
G1 X218.527 Y58.547 F1000
G1 X219.220 Y57.853 F1000
G1 X219.567 Y57.853 F1000
G1 X220.260 Y57.160 F1000
G1 X220.607 Y57.160 F1000
G1 X221.300 Y56.467 F1000
G1 X221.647 Y56.467 F1000
G1 X222.340 Y55.773 F1000
G1 X222.687 Y55.773 F1000
G1 X223.380 Y55.080 F1000
G1 X223.727 Y55.080 F1000
G1 X224.420 Y54.387 F1000
G1 X224.767 Y54.387 F1000
G1 X225.460 Y53.693 F1000
G1 X225.807 Y53.693 F1000
G1 X226.500 Y53.000 F1000
G1 X226.847 Y53.000 F1000
G1 X227.540 Y52.307 F1000
G1 X227.887 Y52.307 F1000
G1 X228.580 Y51.613 F1000
G1 X228.927 Y51.613 F1000
G1 X229.620 Y50.920 F1000
G1 X229.967 Y50.920 F1000
G1 X230.660 Y50.227 F1000
G1 X231.007 Y50.227 F1000
G1 X231.700 Y49.533 F1000
G1 X232.047 Y49.533 F1000
G1 X232.740 Y48.840 F1000
G1 X233.087 Y48.840 F1000
G1 X233.780 Y48.147 F1000
G1 X234.127 Y48.147 F1000
G1 X234.820 Y47.453 F1000
G1 X235.167 Y47.453 F1000
G1 X235.860 Y46.760 F1000
G1 X236.207 Y46.760 F1000
G1 X236.900 Y46.067 F1000
G1 X237.247 Y46.067 F1000
G1 X237.940 Y45.373 F1000
G1 X238.287 Y45.373 F1000
G1 X238.980 Y44.680 F1000
G1 X239.327 Y44.680 F1000
G1 X240.020 Y43.987 F1000
G1 X240.367 Y43.987 F1000
G1 X241.060 Y43.293 F1000
G1 X241.407 Y43.293 F1000
G1 X242.100 Y42.600 F1000
G1 X242.447 Y42.600 F1000
G1 X243.140 Y41.907 F1000
G1 X243.487 Y41.907 F1000
G1 X244.180 Y41.213 F1000
G1 X244.527 Y41.213 F1000
G1 X245.220 Y40.520 F1000
G1 X245.567 Y40.520 F1000
G1 X246.260 Y39.827 F1000
G1 X246.607 Y39.827 F1000
G1 X247.300 Y39.133 F1000
G1 X247.647 Y39.133 F1000
G1 X248.340 Y38.440 F1000
G1 X248.687 Y38.440 F1000
G1 X249.380 Y37.747 F1000
G1 X249.727 Y37.747 F1000
G1 X250.420 Y37.053 F1000
G1 X250.420 Y36.707 F1000
G1 X250.767 Y36.360 F1000
G1 X251.807 Y36.360 F1000
G1 X252.153 Y36.707 F1000
G1 X252.153 Y173.640 F1000
G1 X251.807 Y173.987 F1000
G1 X46.927 Y173.987 F1000
G1 X46.580 Y173.640 F1000
G0 Z3.0 ; Pen up

G0 X46.580 Y173.987 F3000 ; Travel to line 3
G0 Z0.0 ; Pen down
G1 X46.233 Y173.640 F1000
G1 X44.847 Y173.640 F1000
G1 X44.847 Y36.013 F1000
G1 X250.073 Y36.013 F1000
G1 X250.420 Y36.360 F1000
G1 X251.807 Y36.360 F1000
G1 X252.153 Y36.707 F1000
G1 X252.153 Y173.987 F1000
G0 Z3.0 ; Pen up

; Return to origin
G0 X0 Y0
G0 Z3.0

; Total drawing distance: 1886.60 mm
; Total travel distance: 59.81 mm
; Total lines: 3
; Estimated time: 114.4 seconds (1.9 minutes)
M2 ; End program