; Blueprint to G-code
; Input: test_images/test8_interlocking_gears.png
; Generated with blueprint2gcode.py

G21 ; Set units to millimeters
G90 ; Absolute positioning
G0 Z3.0 ; Pen up
G0 X0 Y0 ; Move to origin

G0 X38.260 Y74.008 F3000 ; Travel to line 1
G0 Z0.0 ; Pen down
G1 X38.468 Y73.800 F1000
G1 X112.932 Y73.800 F1000
G1 X113.140 Y74.008 F1000
G1 X113.140 Y75.880 F1000
G1 X113.140 Y73.592 F1000
G1 X112.932 Y73.800 F1000
G1 X38.468 Y73.800 F1000
G1 X38.260 Y73.592 F1000
G1 X38.260 Y71.720 F1000
G1 X38.260 Y75.880 F1000
G0 Z3.0 ; Pen up

G0 X65.508 Y75.880 F3000 ; Travel to line 2
G0 Z0.0 ; Pen down
G1 X65.508 Y75.256 F1000
G1 X65.716 Y75.048 F1000
G1 X66.548 Y75.880 F1000
G1 X66.548 Y76.088 F1000
G1 X66.340 Y76.296 F1000
G1 X65.924 Y76.296 F1000
G1 X65.924 Y76.296 F1000
G1 X65.508 Y75.880 F1000
G1 X65.508 Y75.048 F1000
G1 X65.924 Y74.632 F1000
G1 X66.548 Y74.632 F1000
G1 X66.756 Y74.840 F1000
G1 X66.756 Y76.088 F1000
G1 X66.964 Y76.296 F1000
G1 X66.756 Y76.088 F1000
G1 X66.548 Y76.296 F1000
G0 Z3.0 ; Pen up

G0 X66.548 Y75.880 F3000 ; Travel to line 3
G0 Z0.0 ; Pen down
G1 X66.756 Y75.672 F1000
G1 X66.756 Y75.048 F1000
G1 X66.340 Y74.632 F1000
G1 X65.924 Y74.632 F1000
G1 X65.716 Y74.840 F1000
G1 X65.924 Y75.048 F1000
G1 X65.924 Y75.256 F1000
G0 Z3.0 ; Pen up

G0 X67.588 Y76.296 F3000 ; Travel to line 4
G0 Z0.0 ; Pen down
G1 X67.380 Y76.088 F1000
G1 X67.588 Y76.296 F1000
G1 X68.004 Y76.296 F1000
G1 X68.212 Y76.088 F1000
G1 X68.212 Y75.672 F1000
G1 X68.004 Y75.464 F1000
G1 X67.588 Y75.464 F1000
G1 X68.004 Y75.464 F1000
G1 X68.212 Y75.256 F1000
G1 X68.212 Y74.840 F1000
G1 X68.004 Y74.632 F1000
G1 X67.588 Y74.632 F1000
G1 X67.380 Y74.840 F1000
G1 X67.588 Y74.632 F1000
G1 X68.004 Y74.632 F1000
G1 X68.212 Y74.840 F1000
G1 X68.212 Y75.256 F1000
G1 X68.004 Y75.464 F1000
G1 X68.212 Y75.672 F1000
G1 X68.212 Y76.088 F1000
G1 X68.004 Y76.296 F1000
G0 Z3.0 ; Pen up

G0 X69.460 Y76.296 F3000 ; Travel to line 5
G0 Z0.0 ; Pen down
G1 X69.044 Y75.880 F1000
G1 X69.044 Y74.840 F1000
G1 X69.252 Y74.632 F1000
G1 X69.876 Y74.632 F1000
G1 X70.084 Y74.840 F1000
G1 X70.084 Y75.464 F1000
G1 X69.876 Y75.672 F1000
G1 X69.460 Y75.672 F1000
G1 X69.252 Y75.464 F1000
G1 X69.044 Y75.672 F1000
G1 X69.044 Y75.880 F1000
G1 X69.460 Y76.296 F1000
G1 X69.876 Y76.296 F1000
G0 Z3.0 ; Pen up

G0 X69.460 Y75.672 F3000 ; Travel to line 6
G0 Z0.0 ; Pen down
G1 X69.668 Y75.672 F1000
G1 X70.084 Y75.256 F1000
G1 X70.084 Y75.048 F1000
G1 X69.668 Y74.632 F1000
G1 X69.460 Y74.632 F1000
G1 X69.044 Y75.048 F1000
G1 X69.044 Y75.256 F1000
G0 Z3.0 ; Pen up

G0 X70.708 Y75.880 F3000 ; Travel to line 7
G0 Z0.0 ; Pen down
G1 X70.708 Y75.048 F1000
G1 X71.124 Y74.632 F1000
G1 X71.332 Y74.632 F1000
G1 X71.540 Y74.840 F1000
G1 X71.540 Y75.048 F1000
G1 X71.748 Y75.256 F1000
G1 X71.748 Y75.672 F1000
G1 X71.540 Y75.880 F1000
G1 X71.540 Y76.088 F1000
G1 X71.332 Y76.296 F1000
G1 X71.124 Y76.296 F1000
G0 Z3.0 ; Pen up

G0 X71.332 Y76.296 F3000 ; Travel to line 8
G0 Z0.0 ; Pen down
G1 X71.748 Y75.880 F1000
G1 X71.748 Y75.048 F1000
G1 X71.332 Y74.632 F1000
G1 X70.916 Y74.632 F1000
G1 X70.708 Y74.840 F1000
G1 X70.708 Y76.088 F1000
G1 X70.916 Y76.296 F1000
G0 Z3.0 ; Pen up

G0 X72.372 Y75.880 F3000 ; Travel to line 9
G0 Z0.0 ; Pen down
G1 X72.164 Y75.672 F1000
G1 X72.164 Y74.632 F1000
G1 X72.164 Y75.672 F1000
G1 X72.372 Y75.880 F1000
G1 X72.788 Y75.880 F1000
G1 X72.996 Y75.672 F1000
G1 X72.996 Y74.632 F1000
G1 X72.996 Y75.464 F1000
G1 X73.412 Y75.880 F1000
G1 X73.620 Y75.880 F1000
G1 X74.036 Y75.464 F1000
G1 X74.036 Y74.632 F1000
G1 X74.036 Y75.464 F1000
G1 X73.828 Y75.672 F1000
G1 X73.828 Y75.880 F1000
G1 X73.412 Y75.880 F1000
G1 X73.204 Y75.672 F1000
G1 X72.996 Y75.880 F1000
G0 Z3.0 ; Pen up

G0 X74.868 Y75.880 F3000 ; Travel to line 10
G0 Z0.0 ; Pen down
G1 X74.660 Y75.672 F1000
G1 X74.660 Y74.632 F1000
G1 X74.660 Y75.672 F1000
G1 X74.868 Y75.880 F1000
G1 X75.284 Y75.880 F1000
G1 X75.492 Y75.672 F1000
G1 X75.492 Y74.632 F1000
G1 X75.492 Y75.464 F1000
G1 X75.908 Y75.880 F1000
G1 X76.116 Y75.880 F1000
G1 X76.532 Y75.464 F1000
G1 X76.532 Y74.632 F1000
G1 X76.532 Y75.464 F1000
G1 X76.324 Y75.672 F1000
G1 X76.324 Y75.880 F1000
G1 X75.908 Y75.880 F1000
G1 X75.700 Y75.672 F1000
G1 X75.492 Y75.880 F1000
G0 Z3.0 ; Pen up

G0 X71.124 Y78.584 F3000 ; Travel to line 11
G0 Z0.0 ; Pen down
G1 X71.332 Y78.584 F1000
G1 X71.748 Y78.168 F1000
G1 X71.332 Y77.752 F1000
G1 X71.124 Y77.752 F1000
G1 X70.708 Y78.168 F1000
G0 Z3.0 ; Pen up

G0 X70.708 Y79.000 F3000 ; Travel to line 12
G0 Z0.0 ; Pen down
G1 X71.124 Y78.584 F1000
G1 X71.332 Y78.584 F1000
G1 X71.540 Y78.792 F1000
G1 X71.540 Y79.208 F1000
G1 X71.332 Y79.416 F1000
G1 X71.124 Y79.416 F1000
G0 Z3.0 ; Pen up

G0 X70.916 Y79.416 F3000 ; Travel to line 13
G0 Z0.0 ; Pen down
G1 X70.708 Y79.208 F1000
G1 X70.708 Y78.792 F1000
G1 X70.916 Y78.584 F1000
G1 X70.708 Y78.376 F1000
G1 X70.708 Y77.960 F1000
G1 X70.916 Y77.752 F1000
G1 X71.540 Y77.752 F1000
G1 X71.748 Y77.960 F1000
G1 X71.748 Y78.376 F1000
G1 X71.540 Y78.584 F1000
G1 X71.540 Y79.416 F1000
G0 Z3.0 ; Pen up

G0 X69.876 Y79.208 F3000 ; Travel to line 14
G0 Z0.0 ; Pen down
G1 X69.876 Y77.752 F1000
G1 X69.876 Y77.960 F1000
G1 X69.668 Y78.168 F1000
G1 X69.044 Y78.168 F1000
G1 X69.044 Y78.584 F1000
G1 X69.460 Y79.000 F1000
G1 X69.460 Y79.208 F1000
G0 Z3.0 ; Pen up

G0 X69.668 Y79.208 F3000 ; Travel to line 15
G0 Z0.0 ; Pen down
G1 X69.876 Y79.000 F1000
G1 X69.876 Y78.376 F1000
G1 X69.668 Y78.168 F1000
G1 X69.252 Y78.168 F1000
G1 X69.044 Y78.376 F1000
G1 X69.044 Y78.584 F1000
G0 Z3.0 ; Pen up

G0 X68.420 Y78.584 F3000 ; Travel to line 16
G0 Z0.0 ; Pen down
G1 X66.964 Y78.584 F1000
G0 Z3.0 ; Pen up

G0 X66.964 Y78.168 F3000 ; Travel to line 17
G0 Z0.0 ; Pen down
G1 X68.420 Y78.168 F1000
G0 Z3.0 ; Pen up

G0 X66.548 Y79.416 F3000 ; Travel to line 18
G0 Z0.0 ; Pen down
G1 X66.132 Y79.416 F1000
G1 X65.924 Y79.208 F1000
G1 X65.924 Y77.752 F1000
G1 X65.924 Y79.208 F1000
G1 X65.716 Y79.416 F1000
G1 X65.300 Y79.416 F1000
G0 Z3.0 ; Pen up

G0 X65.924 Y83.576 F3000 ; Travel to line 19
G0 Z0.0 ; Pen down
G1 X65.508 Y83.160 F1000
G1 X65.508 Y82.120 F1000
G1 X65.924 Y81.704 F1000
G1 X66.964 Y81.704 F1000
G1 X66.964 Y82.536 F1000
G1 X66.548 Y82.536 F1000
G1 X66.756 Y82.536 F1000
G1 X66.964 Y82.328 F1000
G1 X66.964 Y81.912 F1000
G1 X66.756 Y81.704 F1000
G1 X66.132 Y81.704 F1000
G1 X65.508 Y82.328 F1000
G1 X65.508 Y82.952 F1000
G1 X66.132 Y83.576 F1000
G1 X66.756 Y83.576 F1000
G1 X66.964 Y83.368 F1000
G1 X66.756 Y83.576 F1000
G0 Z3.0 ; Pen up

G0 X68.004 Y83.576 F3000 ; Travel to line 20
G0 Z0.0 ; Pen down
G1 X67.796 Y83.368 F1000
G1 X67.796 Y81.912 F1000
G1 X68.004 Y81.704 F1000
G1 X69.044 Y81.704 F1000
G1 X68.004 Y81.704 F1000
G1 X67.796 Y81.912 F1000
G1 X67.796 Y82.536 F1000
G1 X68.004 Y82.744 F1000
G1 X69.044 Y82.744 F1000
G1 X68.004 Y82.744 F1000
G1 X67.796 Y82.952 F1000
G1 X67.796 Y83.368 F1000
G1 X68.004 Y83.576 F1000
G1 X69.044 Y83.576 F1000
G0 Z3.0 ; Pen up

G0 X70.084 Y83.368 F3000 ; Travel to line 21
G0 Z0.0 ; Pen down
G1 X70.084 Y82.952 F1000
G1 X69.876 Y82.744 F1000
G1 X69.876 Y82.536 F1000
G1 X69.668 Y82.328 F1000
G1 X69.668 Y81.704 F1000
G1 X69.668 Y82.120 F1000
G1 X69.876 Y82.328 F1000
G1 X70.708 Y82.328 F1000
G1 X71.124 Y81.912 F1000
G1 X71.124 Y81.704 F1000
G1 X71.124 Y82.120 F1000
G1 X70.708 Y82.536 F1000
G1 X70.708 Y83.160 F1000
G1 X70.500 Y83.368 F1000
G0 Z3.0 ; Pen up

G0 X70.084 Y83.160 F3000 ; Travel to line 22
G0 Z0.0 ; Pen down
G1 X70.292 Y83.368 F1000
G1 X70.708 Y82.952 F1000
G1 X70.708 Y82.536 F1000
G1 X70.500 Y82.328 F1000
G1 X70.084 Y82.328 F1000
G1 X69.876 Y82.536 F1000
G1 X70.084 Y82.744 F1000
G0 Z3.0 ; Pen up

G0 X71.540 Y82.744 F3000 ; Travel to line 23
G0 Z0.0 ; Pen down
G1 X71.748 Y82.536 F1000
G1 X72.372 Y82.536 F1000
G1 X72.580 Y82.744 F1000
G1 X72.580 Y83.368 F1000
G1 X72.372 Y83.576 F1000
G1 X71.748 Y83.576 F1000
G1 X71.540 Y83.368 F1000
G0 Z3.0 ; Pen up

G0 X71.748 Y83.576 F3000 ; Travel to line 24
G0 Z0.0 ; Pen down
G1 X71.540 Y83.368 F1000
G1 X71.540 Y81.912 F1000
G1 X71.540 Y82.328 F1000
G1 X71.748 Y82.536 F1000
G1 X72.372 Y82.536 F1000
G1 X72.580 Y82.328 F1000
G1 X72.580 Y82.120 F1000
G1 X72.580 Y83.576 F1000
G0 Z3.0 ; Pen up

G0 X74.868 Y83.368 F3000 ; Travel to line 25
G0 Z0.0 ; Pen down
G1 X74.868 Y82.952 F1000
G1 X74.660 Y82.744 F1000
G1 X74.660 Y82.536 F1000
G1 X74.452 Y82.328 F1000
G1 X74.452 Y81.704 F1000
G1 X74.452 Y82.120 F1000
G1 X74.660 Y82.328 F1000
G1 X75.492 Y82.328 F1000
G1 X75.908 Y81.912 F1000
G1 X75.908 Y81.704 F1000
G1 X75.908 Y82.120 F1000
G1 X75.492 Y82.536 F1000
G1 X75.492 Y83.160 F1000
G1 X75.284 Y83.368 F1000
G0 Z3.0 ; Pen up

G0 X74.868 Y83.160 F3000 ; Travel to line 26
G0 Z0.0 ; Pen down
G1 X75.076 Y83.368 F1000
G1 X75.492 Y82.952 F1000
G1 X75.492 Y82.536 F1000
G1 X75.284 Y82.328 F1000
G1 X74.868 Y82.328 F1000
G1 X74.660 Y82.536 F1000
G1 X74.868 Y82.744 F1000
G0 Z3.0 ; Pen up

G0 X74.452 Y88.776 F3000 ; Travel to line 27
G0 Z0.0 ; Pen down
G1 X74.660 Y88.568 F1000
G1 X76.532 Y88.568 F1000
G1 X76.740 Y88.776 F1000
G1 X76.740 Y92.520 F1000
G1 X76.532 Y92.728 F1000
G1 X74.660 Y92.728 F1000
G1 X74.452 Y92.520 F1000
G0 Z3.0 ; Pen up

G0 X72.372 Y92.728 F3000 ; Travel to line 28
G0 Z0.0 ; Pen down
G1 X72.580 Y92.936 F1000
G1 X72.788 Y92.936 F1000
G1 X72.996 Y92.728 F1000
G1 X74.244 Y92.728 F1000
G1 X74.452 Y92.520 F1000
G1 X74.452 Y88.776 F1000
G1 X74.244 Y88.568 F1000
G1 X72.788 Y88.568 F1000
G1 X72.580 Y88.776 F1000
G1 X72.164 Y88.776 F1000
G1 X71.956 Y88.984 F1000
G1 X71.956 Y89.192 F1000
G1 X72.164 Y89.400 F1000
G1 X72.164 Y91.272 F1000
G1 X72.372 Y91.480 F1000
G0 Z3.0 ; Pen up

G0 X70.084 Y92.312 F3000 ; Travel to line 29
G0 Z0.0 ; Pen down
G1 X69.876 Y92.104 F1000
G1 X69.876 Y90.856 F1000
G1 X69.668 Y90.648 F1000
G1 X69.668 Y89.608 F1000
G1 X69.460 Y89.400 F1000
G1 X69.460 Y89.192 F1000
G1 X69.668 Y88.984 F1000
G1 X70.500 Y88.984 F1000
G1 X70.708 Y88.776 F1000
G1 X71.748 Y88.776 F1000
G1 X71.956 Y88.984 F1000
G1 X71.956 Y89.192 F1000
G1 X72.164 Y89.400 F1000
G1 X72.164 Y91.272 F1000
G1 X72.372 Y91.480 F1000
G1 X72.372 Y92.728 F1000
G1 X72.164 Y92.936 F1000
G1 X71.124 Y92.936 F1000
G1 X70.916 Y93.144 F1000
G1 X70.292 Y93.144 F1000
G1 X70.084 Y92.936 F1000
G0 Z3.0 ; Pen up

G0 X68.004 Y92.936 F3000 ; Travel to line 30
G0 Z0.0 ; Pen down
G1 X67.796 Y92.728 F1000
G1 X67.796 Y91.896 F1000
G1 X67.588 Y91.688 F1000
G1 X67.588 Y90.856 F1000
G1 X67.380 Y90.648 F1000
G1 X67.380 Y89.816 F1000
G1 X67.172 Y89.608 F1000
G1 X67.380 Y89.400 F1000
G1 X68.004 Y89.400 F1000
G1 X68.212 Y89.192 F1000
G1 X69.252 Y89.192 F1000
G1 X69.668 Y89.608 F1000
G1 X69.668 Y90.648 F1000
G1 X69.876 Y90.856 F1000
G1 X69.876 Y92.104 F1000
G1 X70.084 Y92.312 F1000
G1 X70.084 Y92.936 F1000
G1 X69.876 Y93.144 F1000
G1 X69.668 Y93.144 F1000
G1 X69.460 Y93.352 F1000
G1 X68.628 Y93.352 F1000
G1 X68.420 Y93.560 F1000
G1 X68.212 Y93.560 F1000
G1 X68.004 Y93.352 F1000
G0 Z3.0 ; Pen up

G0 X65.924 Y93.560 F3000 ; Travel to line 31
G0 Z0.0 ; Pen down
G1 X65.716 Y93.352 F1000
G1 X65.716 Y92.936 F1000
G1 X65.508 Y92.728 F1000
G1 X65.508 Y92.312 F1000
G1 X65.300 Y92.104 F1000
G1 X65.300 Y91.480 F1000
G1 X65.092 Y91.272 F1000
G1 X65.092 Y90.856 F1000
G1 X64.884 Y90.648 F1000
G1 X64.884 Y90.232 F1000
G1 X65.092 Y90.024 F1000
G1 X65.508 Y90.024 F1000
G1 X65.716 Y89.816 F1000
G1 X66.132 Y89.816 F1000
G1 X66.340 Y89.608 F1000
G1 X67.172 Y89.608 F1000
G1 X67.380 Y89.816 F1000
G1 X67.380 Y90.648 F1000
G1 X67.588 Y90.856 F1000
G1 X67.588 Y91.688 F1000
G1 X67.796 Y91.896 F1000
G1 X67.796 Y92.728 F1000
G1 X68.004 Y92.936 F1000
G1 X68.004 Y93.352 F1000
G1 X67.588 Y93.768 F1000
G1 X66.964 Y93.768 F1000
G1 X66.756 Y93.976 F1000
G1 X66.132 Y93.976 F1000
G1 X65.924 Y93.768 F1000
G0 Z3.0 ; Pen up

G0 X63.844 Y94.392 F3000 ; Travel to line 32
G0 Z0.0 ; Pen down
G1 X63.636 Y94.184 F1000
G1 X63.636 Y93.768 F1000
G1 X63.428 Y93.560 F1000
G1 X63.428 Y93.352 F1000
G1 X63.220 Y93.144 F1000
G1 X63.220 Y92.728 F1000
G1 X63.012 Y92.520 F1000
G1 X63.012 Y92.104 F1000
G1 X62.804 Y91.896 F1000
G1 X62.804 Y91.688 F1000
G1 X62.596 Y91.480 F1000
G1 X62.596 Y91.064 F1000
G1 X63.012 Y90.648 F1000
G1 X63.428 Y90.648 F1000
G1 X63.636 Y90.440 F1000
G1 X64.052 Y90.440 F1000
G1 X64.260 Y90.232 F1000
G1 X64.676 Y90.232 F1000
G1 X64.884 Y90.440 F1000
G1 X64.884 Y90.648 F1000
G1 X65.092 Y90.856 F1000
G1 X65.092 Y91.272 F1000
G1 X65.300 Y91.480 F1000
G1 X65.300 Y92.104 F1000
G1 X65.508 Y92.312 F1000
G1 X65.508 Y92.728 F1000
G1 X65.716 Y92.936 F1000
G1 X65.716 Y93.352 F1000
G1 X65.924 Y93.560 F1000
G1 X65.924 Y93.976 F1000
G1 X65.716 Y94.184 F1000
G1 X65.508 Y94.184 F1000
G1 X65.300 Y94.392 F1000
G1 X64.884 Y94.392 F1000
G1 X64.676 Y94.600 F1000
G1 X64.260 Y94.600 F1000
G1 X64.052 Y94.808 F1000
G1 X63.844 Y94.600 F1000
G0 Z3.0 ; Pen up

G0 X61.764 Y95.224 F3000 ; Travel to line 33
G0 Z0.0 ; Pen down
G1 X61.556 Y95.016 F1000
G1 X61.556 Y94.808 F1000
G1 X61.348 Y94.600 F1000
G1 X61.348 Y94.392 F1000
G1 X61.140 Y94.184 F1000
G1 X61.140 Y93.976 F1000
G1 X60.932 Y93.768 F1000
G1 X60.932 Y93.352 F1000
G1 X60.724 Y93.144 F1000
G1 X60.724 Y92.936 F1000
G1 X60.516 Y92.728 F1000
G1 X60.516 Y92.520 F1000
G1 X60.308 Y92.312 F1000
G1 X60.308 Y91.896 F1000
G1 X60.516 Y91.688 F1000
G1 X60.724 Y91.688 F1000
G1 X60.932 Y91.480 F1000
G1 X61.348 Y91.480 F1000
G1 X61.556 Y91.272 F1000
G1 X61.764 Y91.272 F1000
G1 X61.972 Y91.064 F1000
G1 X62.388 Y91.064 F1000
G1 X62.596 Y91.272 F1000
G1 X62.596 Y91.480 F1000
G1 X62.804 Y91.688 F1000
G1 X62.804 Y91.896 F1000
G1 X63.012 Y92.104 F1000
G1 X63.012 Y92.520 F1000
G1 X63.220 Y92.728 F1000
G1 X63.220 Y93.144 F1000
G1 X63.428 Y93.352 F1000
G1 X63.428 Y93.560 F1000
G1 X63.636 Y93.768 F1000
G1 X63.636 Y94.184 F1000
G1 X63.844 Y94.392 F1000
G1 X63.844 Y94.808 F1000
G1 X63.636 Y95.016 F1000
G1 X63.220 Y95.016 F1000
G1 X63.012 Y95.224 F1000
G1 X62.804 Y95.224 F1000
G1 X62.596 Y95.432 F1000
G1 X62.180 Y95.432 F1000
G1 X61.972 Y95.640 F1000
G1 X61.764 Y95.432 F1000
G0 Z3.0 ; Pen up

G0 X60.100 Y96.472 F3000 ; Travel to line 34
G0 Z0.0 ; Pen down
G1 X60.308 Y96.472 F1000
G1 X60.516 Y96.264 F1000
G1 X60.724 Y96.264 F1000
G1 X60.932 Y96.056 F1000
G1 X61.140 Y96.056 F1000
G1 X61.348 Y95.848 F1000
G1 X61.556 Y95.848 F1000
G1 X61.764 Y95.640 F1000
G1 X61.764 Y95.224 F1000
G1 X61.556 Y95.016 F1000
G1 X61.556 Y94.808 F1000
G1 X61.348 Y94.600 F1000
G1 X61.348 Y94.392 F1000
G1 X61.140 Y94.184 F1000
G1 X61.140 Y93.976 F1000
G1 X60.932 Y93.768 F1000
G1 X60.932 Y93.352 F1000
G1 X60.724 Y93.144 F1000
G1 X60.724 Y92.936 F1000
G1 X60.516 Y92.728 F1000
G1 X60.516 Y92.520 F1000
G1 X60.100 Y92.104 F1000
G1 X59.476 Y92.104 F1000
G1 X59.268 Y92.312 F1000
G1 X59.060 Y92.312 F1000
G1 X58.852 Y92.520 F1000
G1 X58.644 Y92.520 F1000
G1 X58.228 Y92.936 F1000
G1 X58.228 Y93.144 F1000
G1 X58.436 Y93.352 F1000
G1 X58.436 Y93.560 F1000
G1 X58.644 Y93.768 F1000
G1 X58.644 Y93.976 F1000
G1 X58.852 Y94.184 F1000
G1 X58.852 Y94.392 F1000
G1 X59.060 Y94.600 F1000
G1 X59.060 Y94.808 F1000
G1 X59.268 Y95.016 F1000
G1 X59.268 Y95.224 F1000
G1 X59.476 Y95.432 F1000
G1 X59.476 Y95.640 F1000
G1 X59.684 Y95.848 F1000
G1 X59.684 Y96.056 F1000
G0 Z3.0 ; Pen up

G0 X58.020 Y97.512 F3000 ; Travel to line 35
G0 Z0.0 ; Pen down
G1 X58.436 Y97.512 F1000
G1 X58.644 Y97.304 F1000
G1 X58.852 Y97.304 F1000
G1 X59.268 Y96.888 F1000
G1 X59.476 Y96.888 F1000
G1 X59.892 Y96.472 F1000
G1 X59.892 Y96.264 F1000
G1 X59.684 Y96.056 F1000
G1 X59.684 Y95.848 F1000
G1 X59.476 Y95.640 F1000
G1 X59.476 Y95.432 F1000
G1 X59.268 Y95.224 F1000
G1 X59.268 Y95.016 F1000
G1 X59.060 Y94.808 F1000
G1 X59.060 Y94.600 F1000
G1 X58.852 Y94.392 F1000
G1 X58.852 Y94.184 F1000
G1 X58.644 Y93.976 F1000
G1 X58.644 Y93.768 F1000
G1 X58.436 Y93.560 F1000
G1 X58.436 Y93.352 F1000
G1 X58.228 Y93.144 F1000
G1 X57.604 Y93.144 F1000
G1 X57.396 Y93.352 F1000
G1 X57.188 Y93.352 F1000
G1 X56.980 Y93.560 F1000
G1 X56.772 Y93.560 F1000
G1 X56.356 Y93.976 F1000
G1 X56.148 Y93.976 F1000
G1 X55.940 Y94.184 F1000
G1 X55.940 Y94.600 F1000
G1 X56.356 Y95.016 F1000
G1 X56.356 Y95.224 F1000
G1 X56.772 Y95.640 F1000
G1 X56.772 Y95.848 F1000
G1 X56.980 Y96.056 F1000
G1 X56.980 Y96.264 F1000
G1 X57.396 Y96.680 F1000
G1 X57.396 Y96.888 F1000
G0 Z3.0 ; Pen up

G0 X55.940 Y98.344 F3000 ; Travel to line 36
G0 Z0.0 ; Pen down
G1 X55.524 Y97.928 F1000
G1 X55.524 Y97.720 F1000
G1 X55.108 Y97.304 F1000
G1 X55.108 Y97.096 F1000
G1 X54.484 Y96.472 F1000
G1 X54.484 Y96.264 F1000
G1 X54.068 Y95.848 F1000
G1 X54.068 Y95.432 F1000
G1 X54.484 Y95.016 F1000
G1 X54.692 Y95.016 F1000
G1 X55.108 Y94.600 F1000
G1 X55.316 Y94.600 F1000
G1 X55.524 Y94.392 F1000
G1 X55.732 Y94.392 F1000
G1 X56.356 Y95.016 F1000
G1 X56.356 Y95.224 F1000
G1 X56.772 Y95.640 F1000
G1 X56.772 Y95.848 F1000
G1 X56.980 Y96.056 F1000
G1 X56.980 Y96.264 F1000
G1 X57.396 Y96.680 F1000
G1 X57.396 Y96.888 F1000
G1 X57.812 Y97.304 F1000
G1 X57.812 Y97.720 F1000
G1 X57.188 Y98.344 F1000
G1 X56.980 Y98.344 F1000
G1 X56.564 Y98.760 F1000
G1 X56.148 Y98.760 F1000
G1 X55.940 Y98.552 F1000
G0 Z3.0 ; Pen up

G0 X54.484 Y100.216 F3000 ; Travel to line 37
G0 Z0.0 ; Pen down
G1 X54.692 Y100.008 F1000
G1 X54.900 Y100.008 F1000
G1 X55.524 Y99.384 F1000
G1 X55.732 Y99.384 F1000
G1 X55.940 Y99.176 F1000
G1 X55.940 Y98.344 F1000
G1 X55.524 Y97.928 F1000
G1 X55.524 Y97.720 F1000
G1 X55.108 Y97.304 F1000
G1 X55.108 Y97.096 F1000
G1 X54.484 Y96.472 F1000
G1 X54.484 Y96.264 F1000
G1 X53.860 Y95.640 F1000
G1 X53.652 Y95.640 F1000
G1 X53.236 Y96.056 F1000
G1 X53.028 Y96.056 F1000
G1 X52.404 Y96.680 F1000
G1 X52.196 Y96.680 F1000
G1 X51.988 Y96.888 F1000
G1 X51.988 Y97.096 F1000
G1 X52.196 Y97.304 F1000
G1 X52.196 Y97.512 F1000
G1 X53.236 Y98.552 F1000
G1 X53.236 Y98.760 F1000
G1 X54.068 Y99.592 F1000
G1 X54.068 Y99.800 F1000
G0 Z3.0 ; Pen up

G0 X52.820 Y101.672 F3000 ; Travel to line 38
G0 Z0.0 ; Pen down
G1 X53.444 Y101.048 F1000
G1 X53.652 Y101.048 F1000
G1 X54.276 Y100.424 F1000
G1 X54.276 Y100.008 F1000
G1 X54.068 Y99.800 F1000
G1 X54.068 Y99.592 F1000
G1 X53.236 Y98.760 F1000
G1 X53.236 Y98.552 F1000
G1 X51.780 Y97.096 F1000
G1 X50.116 Y98.760 F1000
G1 X51.364 Y100.008 F1000
G1 X51.364 Y100.216 F1000
G0 Z3.0 ; Pen up

G0 X49.908 Y101.672 F3000 ; Travel to line 39
G0 Z0.0 ; Pen down
G1 X49.700 Y101.672 F1000
G1 X48.452 Y100.424 F1000
G1 X48.452 Y100.216 F1000
G1 X49.908 Y98.760 F1000
G1 X50.116 Y98.968 F1000
G1 X50.324 Y98.968 F1000
G1 X51.364 Y100.008 F1000
G1 X51.364 Y100.216 F1000
G1 X52.612 Y101.464 F1000
G1 X52.612 Y101.880 F1000
G1 X51.364 Y103.128 F1000
G0 Z3.0 ; Pen up

G0 X49.908 Y104.792 F3000 ; Travel to line 40
G0 Z0.0 ; Pen down
G1 X50.948 Y103.752 F1000
G1 X50.948 Y103.544 F1000
G1 X51.156 Y103.336 F1000
G1 X51.156 Y102.920 F1000
G1 X50.116 Y101.880 F1000
G1 X49.908 Y101.880 F1000
G1 X48.660 Y100.632 F1000
G1 X48.244 Y100.632 F1000
G1 X46.996 Y101.880 F1000
G1 X46.996 Y102.088 F1000
G1 X46.788 Y102.296 F1000
G1 X47.204 Y102.712 F1000
G1 X47.412 Y102.712 F1000
G1 X48.244 Y103.544 F1000
G1 X48.452 Y103.544 F1000
G1 X49.284 Y104.376 F1000
G1 X49.492 Y104.376 F1000
G0 Z3.0 ; Pen up

G0 X48.244 Y106.248 F3000 ; Travel to line 41
G0 Z0.0 ; Pen down
G1 X48.452 Y106.456 F1000
G1 X48.660 Y106.456 F1000
G1 X49.284 Y105.832 F1000
G1 X49.284 Y105.624 F1000
G1 X49.700 Y105.208 F1000
G1 X49.700 Y104.584 F1000
G1 X49.492 Y104.376 F1000
G1 X49.284 Y104.376 F1000
G1 X48.452 Y103.544 F1000
G1 X48.244 Y103.544 F1000
G1 X47.412 Y102.712 F1000
G1 X47.204 Y102.712 F1000
G1 X46.996 Y102.504 F1000
G1 X46.788 Y102.504 F1000
G1 X46.580 Y102.296 F1000
G1 X46.164 Y102.712 F1000
G1 X46.164 Y102.920 F1000
G1 X45.748 Y103.336 F1000
G1 X45.748 Y103.544 F1000
G1 X45.332 Y103.960 F1000
G1 X45.332 Y104.376 F1000
G1 X45.540 Y104.584 F1000
G1 X45.748 Y104.584 F1000
G1 X46.164 Y105.000 F1000
G1 X46.372 Y105.000 F1000
G1 X46.788 Y105.416 F1000
G1 X46.996 Y105.416 F1000
G1 X47.412 Y105.832 F1000
G1 X47.620 Y105.832 F1000
G1 X48.036 Y106.248 F1000
G0 Z3.0 ; Pen up

G0 X46.788 Y107.912 F3000 ; Travel to line 42
G0 Z0.0 ; Pen down
G1 X46.580 Y107.912 F1000
G1 X46.164 Y107.496 F1000
G1 X45.956 Y107.496 F1000
G1 X45.540 Y107.080 F1000
G1 X45.332 Y107.080 F1000
G1 X44.916 Y106.664 F1000
G1 X44.708 Y106.664 F1000
G1 X44.084 Y106.040 F1000
G1 X44.084 Y105.832 F1000
G1 X44.500 Y105.416 F1000
G1 X44.500 Y105.208 F1000
G1 X44.916 Y104.792 F1000
G1 X44.916 Y104.584 F1000
G1 X45.124 Y104.376 F1000
G1 X45.332 Y104.584 F1000
G1 X45.748 Y104.584 F1000
G1 X46.164 Y105.000 F1000
G1 X46.372 Y105.000 F1000
G1 X46.788 Y105.416 F1000
G1 X46.996 Y105.416 F1000
G1 X47.412 Y105.832 F1000
G1 X47.620 Y105.832 F1000
G1 X48.036 Y106.248 F1000
G1 X48.244 Y106.248 F1000
G1 X48.452 Y106.456 F1000
G1 X48.452 Y106.872 F1000
G1 X48.244 Y107.080 F1000
G1 X48.244 Y107.288 F1000
G1 X47.828 Y107.704 F1000
G1 X47.828 Y107.912 F1000
G1 X47.412 Y108.328 F1000
G1 X47.204 Y108.328 F1000
G0 Z3.0 ; Pen up

G0 X45.748 Y109.992 F3000 ; Travel to line 43
G0 Z0.0 ; Pen down
G1 X45.956 Y110.200 F1000
G1 X46.372 Y110.200 F1000
G1 X46.580 Y109.992 F1000
G1 X46.580 Y109.784 F1000
G1 X46.788 Y109.576 F1000
G1 X46.788 Y109.368 F1000
G1 X47.204 Y108.952 F1000
G1 X47.204 Y108.328 F1000
G1 X46.788 Y107.912 F1000
G1 X46.580 Y107.912 F1000
G1 X46.164 Y107.496 F1000
G1 X45.956 Y107.496 F1000
G1 X45.540 Y107.080 F1000
G1 X45.332 Y107.080 F1000
G1 X44.916 Y106.664 F1000
G1 X44.708 Y106.664 F1000
G1 X44.292 Y106.248 F1000
G1 X43.876 Y106.248 F1000
G1 X43.460 Y106.664 F1000
G1 X43.460 Y106.872 F1000
G1 X43.252 Y107.080 F1000
G1 X43.252 Y107.288 F1000
G1 X43.044 Y107.496 F1000
G1 X43.044 Y107.704 F1000
G1 X42.628 Y108.120 F1000
G1 X42.628 Y108.328 F1000
G1 X42.836 Y108.536 F1000
G1 X43.044 Y108.536 F1000
G1 X43.252 Y108.744 F1000
G1 X43.460 Y108.744 F1000
G1 X43.668 Y108.952 F1000
G1 X43.876 Y108.952 F1000
G1 X44.084 Y109.160 F1000
G1 X44.292 Y109.160 F1000
G1 X44.708 Y109.576 F1000
G1 X44.916 Y109.576 F1000
G1 X45.124 Y109.784 F1000
G1 X45.332 Y109.784 F1000
G1 X45.540 Y109.992 F1000
G0 Z3.0 ; Pen up

G0 X44.916 Y111.864 F3000 ; Travel to line 44
G0 Z0.0 ; Pen down
G1 X45.124 Y112.072 F1000
G1 X45.332 Y112.072 F1000
G1 X45.748 Y111.656 F1000
G1 X45.748 Y111.448 F1000
G1 X45.956 Y111.240 F1000
G1 X45.956 Y111.032 F1000
G1 X46.164 Y110.824 F1000
G1 X46.164 Y110.408 F1000
G1 X45.956 Y110.200 F1000
G1 X45.748 Y110.200 F1000
G1 X45.540 Y109.992 F1000
G1 X45.332 Y109.992 F1000
G1 X45.124 Y109.784 F1000
G1 X44.916 Y109.784 F1000
G1 X44.708 Y109.576 F1000
G1 X44.500 Y109.576 F1000
G1 X44.084 Y109.160 F1000
G1 X43.876 Y109.160 F1000
G1 X43.668 Y108.952 F1000
G1 X43.460 Y108.952 F1000
G1 X43.252 Y108.744 F1000
G1 X43.044 Y108.744 F1000
G1 X42.836 Y108.536 F1000
G1 X42.628 Y108.536 F1000
G1 X42.420 Y108.744 F1000
G1 X42.420 Y108.952 F1000
G1 X42.212 Y109.160 F1000
G1 X42.212 Y109.368 F1000
G1 X42.004 Y109.576 F1000
G1 X42.004 Y109.784 F1000
G1 X41.796 Y109.992 F1000
G1 X41.796 Y110.200 F1000
G1 X41.588 Y110.408 F1000
G1 X41.796 Y110.616 F1000
G1 X42.004 Y110.616 F1000
G1 X42.212 Y110.824 F1000
G1 X42.420 Y110.824 F1000
G1 X42.628 Y111.032 F1000
G1 X43.044 Y111.032 F1000
G1 X43.252 Y111.240 F1000
G1 X43.460 Y111.240 F1000
G1 X43.668 Y111.448 F1000
G1 X43.876 Y111.448 F1000
G1 X44.084 Y111.656 F1000
G1 X44.292 Y111.656 F1000
G1 X44.500 Y111.864 F1000
G0 Z3.0 ; Pen up

G0 X43.876 Y113.944 F3000 ; Travel to line 45
G0 Z0.0 ; Pen down
G1 X44.084 Y114.152 F1000
G1 X44.500 Y114.152 F1000
G1 X44.708 Y113.944 F1000
G1 X44.708 Y113.736 F1000
G1 X44.916 Y113.528 F1000
G1 X44.916 Y113.320 F1000
G1 X45.124 Y113.112 F1000
G1 X45.124 Y112.696 F1000
G1 X45.332 Y112.488 F1000
G1 X45.332 Y112.280 F1000
G1 X45.124 Y112.072 F1000
G1 X44.916 Y112.072 F1000
G1 X44.708 Y111.864 F1000
G1 X44.500 Y111.864 F1000
G1 X44.292 Y111.656 F1000
G1 X43.876 Y111.656 F1000
G1 X43.668 Y111.448 F1000
G1 X43.460 Y111.448 F1000
G1 X43.252 Y111.240 F1000
G1 X43.044 Y111.240 F1000
G1 X42.836 Y111.032 F1000
G1 X42.628 Y111.032 F1000
G1 X42.420 Y110.824 F1000
G1 X42.004 Y110.824 F1000
G1 X41.796 Y110.616 F1000
G1 X41.588 Y110.616 F1000
G1 X41.380 Y110.824 F1000
G1 X41.380 Y111.032 F1000
G1 X41.172 Y111.240 F1000
G1 X41.172 Y111.448 F1000
G1 X40.964 Y111.656 F1000
G1 X40.964 Y111.864 F1000
G1 X40.756 Y112.072 F1000
G1 X40.756 Y112.696 F1000
G1 X40.964 Y112.904 F1000
G1 X41.172 Y112.904 F1000
G1 X41.380 Y113.112 F1000
G1 X41.588 Y113.112 F1000
G1 X41.796 Y113.320 F1000
G1 X42.212 Y113.320 F1000
G1 X42.420 Y113.528 F1000
G1 X42.836 Y113.528 F1000
G1 X43.044 Y113.736 F1000
G1 X43.460 Y113.736 F1000
G1 X43.668 Y113.944 F1000
G0 Z3.0 ; Pen up

G0 X43.044 Y116.024 F3000 ; Travel to line 46
G0 Z0.0 ; Pen down
G1 X43.252 Y116.232 F1000
G1 X43.668 Y116.232 F1000
G1 X44.084 Y115.816 F1000
G1 X44.084 Y115.400 F1000
G1 X44.292 Y115.192 F1000
G1 X44.292 Y114.776 F1000
G1 X44.500 Y114.568 F1000
G1 X44.500 Y114.360 F1000
G1 X44.292 Y114.152 F1000
G1 X43.876 Y114.152 F1000
G1 X43.668 Y113.944 F1000
G1 X43.460 Y113.944 F1000
G1 X43.252 Y113.736 F1000
G1 X42.836 Y113.736 F1000
G1 X42.628 Y113.528 F1000
G1 X42.212 Y113.528 F1000
G1 X42.004 Y113.320 F1000
G1 X41.588 Y113.320 F1000
G1 X41.380 Y113.112 F1000
G1 X41.172 Y113.112 F1000
G1 X40.964 Y112.904 F1000
G1 X40.756 Y112.904 F1000
G1 X40.548 Y113.112 F1000
G1 X40.548 Y113.320 F1000
G1 X40.340 Y113.528 F1000
G1 X40.340 Y113.944 F1000
G1 X40.132 Y114.152 F1000
G1 X40.132 Y114.568 F1000
G1 X39.924 Y114.776 F1000
G1 X39.924 Y114.984 F1000
G1 X40.132 Y115.192 F1000
G1 X40.340 Y115.192 F1000
G1 X40.548 Y115.400 F1000
G1 X40.964 Y115.400 F1000
G1 X41.172 Y115.608 F1000
G1 X41.588 Y115.608 F1000
G1 X41.796 Y115.816 F1000
G1 X42.420 Y115.816 F1000
G1 X42.628 Y116.024 F1000
G0 Z3.0 ; Pen up

G0 X42.212 Y118.104 F3000 ; Travel to line 47
G0 Z0.0 ; Pen down
G1 X42.420 Y118.312 F1000
G1 X43.252 Y118.312 F1000
G1 X43.460 Y118.104 F1000
G1 X43.460 Y117.480 F1000
G1 X43.668 Y117.272 F1000
G1 X43.668 Y116.440 F1000
G1 X43.460 Y116.232 F1000
G1 X43.044 Y116.232 F1000
G1 X42.836 Y116.024 F1000
G1 X42.420 Y116.024 F1000
G1 X42.212 Y115.816 F1000
G1 X41.796 Y115.816 F1000
G1 X41.588 Y115.608 F1000
G1 X40.964 Y115.608 F1000
G1 X40.756 Y115.400 F1000
G1 X40.340 Y115.400 F1000
G1 X40.132 Y115.192 F1000
G1 X39.924 Y115.192 F1000
G1 X39.716 Y115.400 F1000
G1 X39.716 Y115.608 F1000
G1 X39.508 Y115.816 F1000
G1 X39.508 Y116.232 F1000
G1 X39.300 Y116.440 F1000
G1 X39.300 Y117.480 F1000
G1 X39.508 Y117.688 F1000
G1 X40.132 Y117.688 F1000
G1 X40.340 Y117.896 F1000
G1 X41.172 Y117.896 F1000
G1 X41.380 Y118.104 F1000
G0 Z3.0 ; Pen up

G0 X41.380 Y120.184 F3000 ; Travel to line 48
G0 Z0.0 ; Pen down
G1 X41.588 Y120.392 F1000
G1 X42.628 Y120.392 F1000
G1 X43.044 Y119.976 F1000
G1 X43.044 Y119.144 F1000
G1 X43.252 Y118.936 F1000
G1 X43.252 Y118.520 F1000
G1 X43.044 Y118.312 F1000
G1 X42.212 Y118.312 F1000
G1 X42.004 Y118.104 F1000
G1 X41.172 Y118.104 F1000
G1 X40.964 Y117.896 F1000
G1 X40.132 Y117.896 F1000
G1 X39.924 Y117.688 F1000
G1 X39.300 Y117.688 F1000
G1 X39.092 Y117.896 F1000
G1 X39.092 Y118.520 F1000
G1 X38.884 Y118.728 F1000
G1 X38.884 Y119.768 F1000
G1 X39.092 Y119.976 F1000
G1 X40.132 Y119.976 F1000
G1 X40.340 Y120.184 F1000
G0 Z3.0 ; Pen up

G0 X40.340 Y122.472 F3000 ; Travel to line 49
G0 Z0.0 ; Pen down
G1 X40.548 Y122.680 F1000
G1 X42.420 Y122.680 F1000
G1 X42.628 Y122.472 F1000
G1 X42.628 Y121.640 F1000
G1 X42.836 Y121.432 F1000
G1 X42.836 Y120.600 F1000
G1 X42.628 Y120.392 F1000
G1 X41.380 Y120.392 F1000
G1 X41.172 Y120.184 F1000
G1 X40.132 Y120.184 F1000
G1 X39.924 Y119.976 F1000
G1 X38.884 Y119.976 F1000
G1 X38.676 Y120.184 F1000
G1 X38.676 Y120.600 F1000
G1 X38.468 Y120.808 F1000
G1 X38.468 Y122.264 F1000
G1 X38.676 Y122.472 F1000
G0 Z3.0 ; Pen up

G0 X38.260 Y123.304 F3000 ; Travel to line 50
G0 Z0.0 ; Pen down
G1 X38.468 Y123.096 F1000
G1 X38.468 Y122.680 F1000
G1 X38.676 Y122.472 F1000
G1 X40.132 Y122.472 F1000
G1 X40.340 Y122.680 F1000
G1 X42.420 Y122.680 F1000
G1 X42.628 Y122.888 F1000
G1 X42.628 Y123.304 F1000
G1 X42.420 Y123.512 F1000
G1 X42.420 Y124.760 F1000
G1 X42.212 Y124.968 F1000
G1 X38.468 Y124.968 F1000
G1 X38.260 Y124.760 F1000
G0 Z3.0 ; Pen up

G0 X38.260 Y125.176 F3000 ; Travel to line 51
G0 Z0.0 ; Pen down
G1 X38.468 Y124.968 F1000
G1 X42.212 Y124.968 F1000
G1 X42.420 Y125.176 F1000
G1 X42.420 Y127.048 F1000
G1 X42.212 Y127.256 F1000
G1 X38.468 Y127.256 F1000
G1 X38.260 Y127.048 F1000
G0 Z3.0 ; Pen up

G0 X38.468 Y128.504 F3000 ; Travel to line 52
G0 Z0.0 ; Pen down
G1 X38.260 Y128.296 F1000
G1 X38.260 Y127.464 F1000
G1 X38.468 Y127.256 F1000
G1 X42.212 Y127.256 F1000
G1 X42.420 Y127.464 F1000
G1 X42.420 Y128.088 F1000
G1 X42.628 Y128.296 F1000
G1 X42.628 Y129.128 F1000
G1 X42.420 Y129.336 F1000
G1 X40.340 Y129.336 F1000
G1 X40.132 Y129.544 F1000
G1 X38.676 Y129.544 F1000
G1 X38.468 Y129.336 F1000
G0 Z3.0 ; Pen up

G0 X38.676 Y131.000 F3000 ; Travel to line 53
G0 Z0.0 ; Pen down
G1 X38.468 Y130.792 F1000
G1 X38.468 Y129.752 F1000
G1 X38.676 Y129.544 F1000
G1 X40.340 Y129.544 F1000
G1 X40.548 Y129.336 F1000
G1 X42.420 Y129.336 F1000
G1 X42.628 Y129.544 F1000
G1 X42.628 Y129.960 F1000
G1 X42.836 Y130.168 F1000
G1 X42.836 Y131.416 F1000
G1 X42.628 Y131.624 F1000
G1 X41.380 Y131.624 F1000
G1 X41.172 Y131.832 F1000
G1 X40.132 Y131.832 F1000
G1 X39.924 Y132.040 F1000
G1 X38.884 Y132.040 F1000
G1 X38.676 Y131.832 F1000
G0 Z3.0 ; Pen up

G0 X39.300 Y133.912 F3000 ; Travel to line 54
G0 Z0.0 ; Pen down
G1 X39.092 Y133.704 F1000
G1 X39.092 Y133.080 F1000
G1 X38.884 Y132.872 F1000
G1 X38.884 Y132.248 F1000
G1 X39.092 Y132.040 F1000
G1 X40.132 Y132.040 F1000
G1 X40.340 Y131.832 F1000
G1 X41.380 Y131.832 F1000
G1 X41.588 Y131.624 F1000
G1 X42.836 Y131.624 F1000
G1 X43.044 Y131.832 F1000
G1 X43.044 Y132.456 F1000
G1 X43.252 Y132.664 F1000
G1 X43.252 Y133.496 F1000
G1 X43.044 Y133.704 F1000
G1 X42.212 Y133.704 F1000
G1 X42.004 Y133.912 F1000
G1 X41.172 Y133.912 F1000
G1 X40.964 Y134.120 F1000
G1 X40.132 Y134.120 F1000
G1 X39.924 Y134.328 F1000
G1 X39.508 Y134.328 F1000
G1 X39.300 Y134.120 F1000
G0 Z3.0 ; Pen up

G0 X39.716 Y135.992 F3000 ; Travel to line 55
G0 Z0.0 ; Pen down
G1 X39.508 Y135.784 F1000
G1 X39.508 Y135.368 F1000
G1 X39.300 Y135.160 F1000
G1 X39.300 Y134.536 F1000
G1 X39.508 Y134.328 F1000
G1 X40.132 Y134.328 F1000
G1 X40.340 Y134.120 F1000
G1 X41.172 Y134.120 F1000
G1 X41.380 Y133.912 F1000
G1 X42.212 Y133.912 F1000
G1 X42.420 Y133.704 F1000
G1 X43.252 Y133.704 F1000
G1 X43.460 Y133.912 F1000
G1 X43.460 Y134.120 F1000
G1 X43.668 Y134.328 F1000
G1 X43.668 Y134.952 F1000
G1 X43.876 Y135.160 F1000
G1 X43.876 Y135.576 F1000
G1 X43.668 Y135.784 F1000
G1 X43.044 Y135.784 F1000
G1 X42.836 Y135.992 F1000
G1 X42.420 Y135.992 F1000
G1 X42.212 Y136.200 F1000
G1 X41.796 Y136.200 F1000
G1 X41.588 Y136.408 F1000
G1 X40.964 Y136.408 F1000
G1 X40.756 Y136.616 F1000
G1 X40.340 Y136.616 F1000
G1 X40.132 Y136.824 F1000
G1 X39.924 Y136.824 F1000
G1 X39.716 Y136.616 F1000
G0 Z3.0 ; Pen up

G0 X40.548 Y138.280 F3000 ; Travel to line 56
G0 Z0.0 ; Pen down
G1 X40.340 Y138.072 F1000
G1 X40.340 Y137.656 F1000
G1 X40.132 Y137.448 F1000
G1 X40.132 Y136.824 F1000
G1 X40.340 Y136.616 F1000
G1 X40.964 Y136.616 F1000
G1 X41.172 Y136.408 F1000
G1 X41.588 Y136.408 F1000
G1 X41.796 Y136.200 F1000
G1 X42.420 Y136.200 F1000
G1 X42.628 Y135.992 F1000
G1 X43.044 Y135.992 F1000
G1 X43.252 Y135.784 F1000
G1 X43.876 Y135.784 F1000
G1 X44.084 Y135.992 F1000
G1 X44.084 Y136.200 F1000
G1 X44.292 Y136.408 F1000
G1 X44.292 Y136.824 F1000
G1 X44.500 Y137.032 F1000
G1 X44.500 Y137.656 F1000
G1 X44.292 Y137.864 F1000
G1 X43.876 Y137.864 F1000
G1 X43.668 Y138.072 F1000
G1 X43.460 Y138.072 F1000
G1 X43.252 Y138.280 F1000
G1 X42.836 Y138.280 F1000
G1 X42.628 Y138.488 F1000
G1 X42.212 Y138.488 F1000
G1 X42.004 Y138.696 F1000
G1 X41.588 Y138.696 F1000
G1 X41.380 Y138.904 F1000
G1 X41.172 Y138.904 F1000
G1 X40.964 Y139.112 F1000
G1 X40.756 Y139.112 F1000
G1 X40.548 Y138.904 F1000
G0 Z3.0 ; Pen up

G0 X41.380 Y140.776 F3000 ; Travel to line 57
G0 Z0.0 ; Pen down
G1 X41.172 Y140.568 F1000
G1 X41.172 Y140.360 F1000
G1 X40.964 Y140.152 F1000
G1 X40.964 Y139.528 F1000
G1 X40.756 Y139.320 F1000
G1 X40.964 Y139.112 F1000
G1 X41.172 Y139.112 F1000
G1 X41.380 Y138.904 F1000
G1 X41.588 Y138.904 F1000
G1 X41.796 Y138.696 F1000
G1 X42.212 Y138.696 F1000
G1 X42.420 Y138.488 F1000
G1 X42.836 Y138.488 F1000
G1 X43.044 Y138.280 F1000
G1 X43.460 Y138.280 F1000
G1 X43.668 Y138.072 F1000
G1 X43.876 Y138.072 F1000
G1 X44.084 Y137.864 F1000
G1 X44.708 Y137.864 F1000
G1 X44.916 Y138.072 F1000
G1 X44.916 Y138.280 F1000
G1 X45.124 Y138.488 F1000
G1 X45.124 Y138.904 F1000
G1 X45.332 Y139.112 F1000
G1 X45.332 Y139.736 F1000
G1 X45.124 Y139.944 F1000
G1 X44.916 Y139.944 F1000
G1 X44.708 Y140.152 F1000
G1 X44.500 Y140.152 F1000
G1 X44.292 Y140.360 F1000
G1 X43.876 Y140.360 F1000
G1 X43.668 Y140.568 F1000
G1 X43.460 Y140.568 F1000
G1 X43.252 Y140.776 F1000
G1 X43.044 Y140.776 F1000
G1 X42.836 Y140.984 F1000
G1 X42.628 Y140.984 F1000
G1 X42.420 Y141.192 F1000
G1 X41.588 Y141.192 F1000
G1 X41.380 Y140.984 F1000
G0 Z3.0 ; Pen up

G0 X42.628 Y143.064 F3000 ; Travel to line 58
G0 Z0.0 ; Pen down
G1 X42.420 Y142.856 F1000
G1 X42.420 Y142.648 F1000
G1 X42.212 Y142.440 F1000
G1 X42.212 Y142.232 F1000
G1 X42.004 Y142.024 F1000
G1 X42.004 Y141.816 F1000
G1 X41.796 Y141.608 F1000
G1 X41.796 Y141.400 F1000
G1 X42.004 Y141.192 F1000
G1 X42.420 Y141.192 F1000
G1 X42.628 Y140.984 F1000
G1 X43.044 Y140.984 F1000
G1 X43.252 Y140.776 F1000
G1 X43.460 Y140.776 F1000
G1 X43.668 Y140.568 F1000
G1 X43.876 Y140.568 F1000
G1 X44.084 Y140.360 F1000
G1 X44.292 Y140.360 F1000
G1 X44.500 Y140.152 F1000
G1 X44.916 Y140.152 F1000
G1 X45.124 Y139.944 F1000
G1 X45.540 Y139.944 F1000
G1 X45.956 Y140.360 F1000
G1 X45.956 Y140.568 F1000
G1 X46.164 Y140.776 F1000
G1 X46.164 Y140.984 F1000
G1 X46.372 Y141.192 F1000
G1 X46.372 Y141.400 F1000
G1 X45.956 Y141.816 F1000
G1 X45.748 Y141.816 F1000
G1 X45.540 Y142.024 F1000
G1 X45.332 Y142.024 F1000
G1 X45.124 Y142.232 F1000
G1 X44.916 Y142.232 F1000
G1 X44.708 Y142.440 F1000
G1 X44.500 Y142.440 F1000
G1 X44.084 Y142.856 F1000
G1 X43.876 Y142.856 F1000
G1 X43.668 Y143.064 F1000
G1 X43.460 Y143.064 F1000
G1 X43.252 Y143.272 F1000
G1 X43.044 Y143.272 F1000
G1 X42.836 Y143.480 F1000
G1 X42.628 Y143.272 F1000
G0 Z3.0 ; Pen up

G0 X43.460 Y145.144 F3000 ; Travel to line 59
G0 Z0.0 ; Pen down
G1 X43.460 Y144.936 F1000
G1 X43.252 Y144.728 F1000
G1 X43.252 Y144.520 F1000
G1 X43.044 Y144.312 F1000
G1 X43.044 Y144.104 F1000
G1 X42.836 Y143.896 F1000
G1 X42.836 Y143.480 F1000
G1 X43.044 Y143.272 F1000
G1 X43.460 Y143.272 F1000
G1 X43.668 Y143.064 F1000
G1 X43.876 Y143.064 F1000
G1 X44.084 Y142.856 F1000
G1 X44.292 Y142.856 F1000
G1 X44.708 Y142.440 F1000
G1 X44.916 Y142.440 F1000
G1 X45.124 Y142.232 F1000
G1 X45.332 Y142.232 F1000
G1 X45.540 Y142.024 F1000
G1 X45.748 Y142.024 F1000
G1 X45.956 Y141.816 F1000
G1 X46.164 Y141.816 F1000
G1 X46.372 Y141.608 F1000
G1 X46.788 Y142.024 F1000
G1 X46.788 Y142.232 F1000
G1 X47.204 Y142.648 F1000
G1 X47.204 Y142.856 F1000
G1 X47.412 Y143.064 F1000
G1 X47.412 Y143.480 F1000
G1 X47.204 Y143.688 F1000
G1 X46.996 Y143.688 F1000
G1 X46.580 Y144.104 F1000
G1 X46.372 Y144.104 F1000
G1 X45.956 Y144.520 F1000
G1 X45.748 Y144.520 F1000
G1 X45.332 Y144.936 F1000
G1 X45.124 Y144.936 F1000
G1 X44.708 Y145.352 F1000
G1 X44.500 Y145.352 F1000
G1 X44.292 Y145.560 F1000
G1 X43.876 Y145.560 F1000
G0 Z3.0 ; Pen up

G0 X46.372 Y149.096 F3000 ; Travel to line 60
G0 Z0.0 ; Pen down
G1 X45.748 Y148.472 F1000
G1 X45.748 Y148.264 F1000
G1 X45.540 Y148.056 F1000
G1 X45.540 Y147.848 F1000
G1 X45.332 Y147.640 F1000
G1 X45.956 Y147.016 F1000
G1 X46.164 Y147.016 F1000
G1 X46.580 Y146.600 F1000
G1 X46.788 Y146.600 F1000
G1 X47.204 Y146.184 F1000
G1 X47.412 Y146.184 F1000
G1 X47.828 Y145.768 F1000
G1 X48.036 Y145.768 F1000
G1 X48.244 Y145.560 F1000
G1 X48.036 Y145.768 F1000
G1 X47.828 Y145.768 F1000
G1 X47.412 Y146.184 F1000
G1 X47.204 Y146.184 F1000
G1 X46.788 Y146.600 F1000
G1 X46.580 Y146.600 F1000
G1 X46.164 Y147.016 F1000
G1 X45.956 Y147.016 F1000
G1 X45.540 Y147.432 F1000
G1 X45.332 Y147.432 F1000
G1 X44.916 Y147.016 F1000
G1 X44.916 Y146.808 F1000
G1 X44.500 Y146.392 F1000
G1 X44.500 Y146.184 F1000
G1 X44.292 Y145.976 F1000
G1 X44.292 Y145.560 F1000
G1 X44.500 Y145.352 F1000
G1 X44.708 Y145.352 F1000
G1 X45.124 Y144.936 F1000
G1 X45.332 Y144.936 F1000
G1 X45.748 Y144.520 F1000
G1 X45.956 Y144.520 F1000
G1 X46.372 Y144.104 F1000
G1 X46.580 Y144.104 F1000
G1 X46.996 Y143.688 F1000
G1 X47.620 Y143.688 F1000
G1 X48.244 Y144.312 F1000
G1 X48.244 Y144.520 F1000
G1 X48.660 Y144.936 F1000
G1 X48.660 Y145.144 F1000
G1 X49.284 Y145.768 F1000
G1 X49.284 Y145.976 F1000
G1 X49.908 Y146.600 F1000
G1 X49.908 Y146.808 F1000
G1 X49.700 Y147.016 F1000
G1 X49.700 Y147.224 F1000
G1 X49.284 Y147.640 F1000
G1 X49.076 Y147.640 F1000
G1 X48.244 Y148.472 F1000
G1 X48.036 Y148.472 F1000
G1 X47.204 Y149.304 F1000
G1 X46.996 Y149.304 F1000
G1 X46.788 Y149.512 F1000
G1 X46.580 Y149.512 F1000
G1 X46.372 Y149.304 F1000
G0 Z3.0 ; Pen up

G0 X46.996 Y149.720 F3000 ; Travel to line 61
G0 Z0.0 ; Pen down
G1 X46.996 Y149.512 F1000
G1 X48.036 Y148.472 F1000
G1 X48.244 Y148.472 F1000
G1 X49.076 Y147.640 F1000
G1 X49.284 Y147.640 F1000
G1 X49.700 Y147.224 F1000
G1 X49.908 Y147.224 F1000
G1 X50.116 Y147.016 F1000
G1 X50.948 Y147.848 F1000
G1 X50.948 Y148.056 F1000
G1 X51.364 Y148.472 F1000
G1 X51.156 Y148.680 F1000
G1 X51.156 Y148.888 F1000
G1 X49.908 Y150.136 F1000
G1 X49.700 Y150.136 F1000
G1 X48.660 Y151.176 F1000
G1 X48.452 Y151.176 F1000
G0 Z3.0 ; Pen up

G0 X49.700 Y152.840 F3000 ; Travel to line 62
G0 Z0.0 ; Pen down
G1 X48.660 Y151.800 F1000
G1 X48.660 Y151.592 F1000
G1 X48.452 Y151.384 F1000
G1 X49.492 Y150.344 F1000
G1 X49.700 Y150.344 F1000
G1 X51.156 Y148.888 F1000
G1 X51.364 Y148.888 F1000
G1 X51.572 Y148.680 F1000
G1 X52.820 Y149.928 F1000
G1 X52.612 Y150.136 F1000
G1 X52.612 Y150.344 F1000
G1 X51.156 Y151.800 F1000
G1 X51.156 Y152.008 F1000
G1 X50.116 Y153.048 F1000
G1 X49.908 Y152.840 F1000
G0 Z3.0 ; Pen up

G0 X50.116 Y153.672 F3000 ; Travel to line 63
G0 Z0.0 ; Pen down
G1 X49.908 Y153.464 F1000
G1 X49.908 Y153.256 F1000
G1 X50.116 Y153.048 F1000
G1 X50.740 Y153.672 F1000
G1 X50.740 Y153.880 F1000
G1 X50.324 Y154.296 F1000
G1 X50.116 Y154.088 F1000
G0 Z3.0 ; Pen up

G0 X50.948 Y153.880 F3000 ; Travel to line 64
G0 Z0.0 ; Pen down
G1 X50.740 Y153.672 F1000
G1 X50.740 Y153.464 F1000
G1 X50.324 Y153.048 F1000
G1 X50.324 Y152.840 F1000
G1 X51.156 Y152.008 F1000
G1 X51.156 Y151.800 F1000
G1 X52.612 Y150.344 F1000
G1 X52.820 Y150.344 F1000
G1 X53.028 Y150.136 F1000
G1 X53.444 Y150.552 F1000
G1 X53.652 Y150.552 F1000
G1 X54.484 Y151.384 F1000
G1 X54.276 Y151.592 F1000
G1 X54.276 Y151.800 F1000
G1 X53.860 Y152.216 F1000
G1 X53.860 Y152.424 F1000
G1 X53.028 Y153.256 F1000
G1 X53.028 Y153.464 F1000
G1 X52.612 Y153.880 F1000
G1 X52.404 Y153.672 F1000
G1 X51.780 Y153.672 F1000
G1 X51.364 Y154.088 F1000
G1 X51.156 Y153.880 F1000
G0 Z3.0 ; Pen up

G0 X51.572 Y154.296 F3000 ; Travel to line 65
G0 Z0.0 ; Pen down
G1 X51.572 Y154.088 F1000
G1 X51.988 Y153.672 F1000
G1 X52.196 Y153.672 F1000
G1 X52.404 Y153.880 F1000
G1 X52.404 Y154.504 F1000
G1 X52.196 Y154.712 F1000
G1 X51.988 Y154.712 F1000
G0 Z3.0 ; Pen up

G0 X54.068 Y154.712 F3000 ; Travel to line 66
G0 Z0.0 ; Pen down
G1 X54.276 Y154.504 F1000
G1 X54.692 Y154.504 F1000
G1 X54.900 Y154.712 F1000
G1 X54.900 Y154.920 F1000
G1 X54.484 Y155.336 F1000
G1 X54.276 Y155.336 F1000
G1 X54.068 Y155.128 F1000
G0 Z3.0 ; Pen up

G0 X55.108 Y157.000 F3000 ; Travel to line 67
G0 Z0.0 ; Pen down
G1 X54.692 Y156.584 F1000
G1 X54.484 Y156.584 F1000
G1 X54.068 Y156.168 F1000
G1 X54.068 Y155.960 F1000
G1 X54.276 Y155.752 F1000
G1 X54.276 Y155.544 F1000
G1 X54.484 Y155.336 F1000
G1 X54.692 Y155.336 F1000
G1 X54.692 Y155.128 F1000
G1 X54.900 Y154.920 F1000
G1 X54.900 Y154.712 F1000
G1 X55.108 Y154.504 F1000
G1 X55.316 Y154.504 F1000
G1 X55.524 Y154.712 F1000
G1 X55.524 Y155.336 F1000
G1 X55.524 Y154.504 F1000
G1 X55.316 Y154.296 F1000
G1 X55.316 Y154.088 F1000
G1 X55.732 Y153.672 F1000
G1 X55.732 Y153.464 F1000
G1 X55.940 Y153.256 F1000
G1 X55.732 Y153.464 F1000
G1 X55.732 Y153.672 F1000
G1 X55.316 Y154.088 F1000
G1 X55.316 Y154.296 F1000
G1 X55.108 Y154.504 F1000
G1 X54.276 Y154.504 F1000
G1 X54.068 Y154.296 F1000
G1 X54.068 Y153.672 F1000
G1 X54.068 Y155.336 F1000
G1 X54.276 Y155.544 F1000
G1 X54.276 Y155.752 F1000
G1 X54.068 Y155.960 F1000
G1 X53.444 Y155.960 F1000
G1 X53.028 Y155.544 F1000
G1 X52.820 Y155.544 F1000
G1 X52.196 Y154.920 F1000
G1 X52.196 Y154.712 F1000
G1 X52.404 Y154.504 F1000
G1 X52.404 Y154.088 F1000
G1 X53.028 Y153.464 F1000
G1 X53.028 Y153.256 F1000
G1 X53.860 Y152.424 F1000
G1 X53.860 Y152.216 F1000
G1 X54.276 Y151.800 F1000
G1 X54.484 Y151.800 F1000
G1 X54.692 Y151.592 F1000
G1 X54.900 Y151.592 F1000
G1 X55.524 Y152.216 F1000
G1 X55.732 Y152.216 F1000
G1 X56.356 Y152.840 F1000
G1 X56.564 Y152.840 F1000
G1 X56.980 Y153.256 F1000
G1 X57.188 Y153.256 F1000
G1 X57.812 Y153.880 F1000
G1 X57.812 Y154.296 F1000
G1 X57.604 Y154.504 F1000
G1 X57.604 Y154.712 F1000
G1 X57.188 Y155.128 F1000
G1 X57.188 Y155.336 F1000
G1 X56.980 Y155.544 F1000
G1 X56.564 Y155.128 F1000
G1 X56.564 Y153.672 F1000
G1 X56.564 Y155.128 F1000
G1 X56.356 Y155.336 F1000
G1 X55.940 Y155.336 F1000
G1 X56.564 Y155.336 F1000
G1 X56.772 Y155.544 F1000
G1 X56.772 Y155.960 F1000
G1 X56.564 Y156.168 F1000
G1 X56.564 Y156.376 F1000
G1 X56.148 Y156.792 F1000
G1 X56.148 Y157.000 F1000
G1 X55.940 Y157.208 F1000
G1 X55.524 Y157.208 F1000
G1 X55.316 Y157.000 F1000
G0 Z3.0 ; Pen up

G0 X57.188 Y158.040 F3000 ; Travel to line 68
G0 Z0.0 ; Pen down
G1 X56.564 Y158.040 F1000
G1 X55.940 Y157.416 F1000
G1 X55.940 Y157.208 F1000
G1 X56.148 Y157.000 F1000
G1 X56.148 Y156.792 F1000
G1 X56.564 Y156.376 F1000
G1 X56.564 Y156.168 F1000
G1 X56.772 Y155.960 F1000
G1 X56.772 Y155.752 F1000
G1 X57.188 Y155.336 F1000
G1 X57.188 Y155.128 F1000
G1 X57.604 Y154.712 F1000
G1 X57.604 Y154.504 F1000
G1 X58.020 Y154.088 F1000
G1 X58.436 Y154.088 F1000
G1 X58.644 Y154.296 F1000
G1 X58.852 Y154.296 F1000
G1 X59.268 Y154.712 F1000
G1 X59.476 Y154.712 F1000
G1 X59.892 Y155.128 F1000
G1 X59.684 Y155.336 F1000
G1 X59.684 Y155.544 F1000
G1 X59.476 Y155.752 F1000
G1 X59.476 Y155.960 F1000
G1 X59.268 Y156.168 F1000
G1 X59.268 Y156.376 F1000
G1 X59.060 Y156.584 F1000
G1 X59.060 Y156.792 F1000
G1 X58.852 Y157.000 F1000
G1 X58.852 Y157.208 F1000
G1 X58.644 Y157.416 F1000
G1 X58.644 Y157.624 F1000
G1 X58.228 Y158.040 F1000
G1 X58.020 Y158.040 F1000
G1 X58.020 Y158.248 F1000
G1 X57.812 Y158.456 F1000
G1 X57.604 Y158.456 F1000
G0 Z3.0 ; Pen up

G0 X58.020 Y158.664 F3000 ; Travel to line 69
G0 Z0.0 ; Pen down
G1 X58.020 Y158.248 F1000
G1 X58.228 Y158.040 F1000
G1 X58.436 Y158.248 F1000
G1 X58.852 Y158.248 F1000
G1 X59.060 Y158.456 F1000
G1 X58.852 Y158.664 F1000
G1 X58.852 Y158.872 F1000
G1 X58.644 Y159.080 F1000
G1 X58.436 Y159.080 F1000
G0 Z3.0 ; Pen up

G0 X59.060 Y159.288 F3000 ; Travel to line 70
G0 Z0.0 ; Pen down
G1 X58.852 Y159.080 F1000
G1 X58.852 Y158.664 F1000
G1 X59.060 Y158.456 F1000
G1 X59.060 Y158.248 F1000
G1 X58.644 Y158.248 F1000
G1 X58.436 Y158.040 F1000
G1 X58.436 Y157.832 F1000
G1 X58.644 Y157.624 F1000
G1 X58.644 Y157.416 F1000
G1 X58.852 Y157.208 F1000
G1 X58.852 Y157.000 F1000
G1 X59.060 Y156.792 F1000
G1 X59.060 Y156.584 F1000
G1 X59.268 Y156.376 F1000
G1 X59.268 Y156.168 F1000
G1 X59.476 Y155.960 F1000
G1 X59.476 Y155.752 F1000
G1 X60.100 Y155.128 F1000
G1 X60.308 Y155.128 F1000
G1 X60.516 Y155.336 F1000
G1 X60.724 Y155.336 F1000
G1 X60.932 Y155.544 F1000
G1 X61.140 Y155.544 F1000
G1 X61.556 Y155.960 F1000
G1 X61.556 Y156.584 F1000
G1 X61.348 Y156.792 F1000
G1 X61.348 Y157.000 F1000
G1 X61.140 Y157.208 F1000
G1 X61.140 Y157.416 F1000
G1 X60.932 Y157.624 F1000
G1 X60.932 Y157.832 F1000
G1 X60.724 Y158.040 F1000
G1 X60.724 Y158.456 F1000
G1 X60.516 Y158.664 F1000
G1 X59.892 Y158.664 F1000
G1 X59.684 Y158.456 F1000
G1 X59.684 Y157.832 F1000
G1 X59.684 Y159.288 F1000
G1 X59.476 Y159.496 F1000
G1 X59.268 Y159.288 F1000
G0 Z3.0 ; Pen up

G0 X59.684 Y159.288 F3000 ; Travel to line 71
G0 Z0.0 ; Pen down
G1 X59.892 Y159.496 F1000
G1 X60.100 Y159.496 F1000
G1 X60.516 Y159.080 F1000
G1 X60.516 Y158.872 F1000
G1 X60.308 Y158.664 F1000
G1 X59.892 Y158.664 F1000
G1 X59.684 Y158.872 F1000
G0 Z3.0 ; Pen up

G0 X61.348 Y158.872 F3000 ; Travel to line 72
G0 Z0.0 ; Pen down
G1 X61.556 Y158.664 F1000
G1 X61.972 Y158.664 F1000
G1 X62.388 Y159.080 F1000
G1 X61.972 Y159.496 F1000
G1 X61.556 Y159.496 F1000
G1 X61.348 Y159.288 F1000
G0 Z3.0 ; Pen up

G0 X61.348 Y158.456 F3000 ; Travel to line 73
G0 Z0.0 ; Pen down
G1 X61.556 Y158.664 F1000
G1 X62.180 Y158.664 F1000
G1 X62.388 Y158.456 F1000
G1 X62.388 Y158.040 F1000
G1 X62.180 Y157.832 F1000
G1 X61.556 Y157.832 F1000
G1 X61.348 Y158.040 F1000
G0 Z3.0 ; Pen up

G0 X61.556 Y160.328 F3000 ; Travel to line 74
G0 Z0.0 ; Pen down
G1 X61.764 Y160.536 F1000
G1 X62.180 Y160.536 F1000
G1 X62.596 Y160.120 F1000
G1 X62.596 Y159.912 F1000
G1 X62.804 Y159.704 F1000
G1 X62.804 Y159.288 F1000
G1 X63.012 Y159.080 F1000
G1 X63.012 Y158.456 F1000
G1 X63.220 Y158.248 F1000
G1 X63.220 Y158.040 F1000
G1 X63.428 Y157.832 F1000
G1 X63.428 Y157.624 F1000
G1 X63.636 Y157.416 F1000
G1 X63.636 Y156.792 F1000
G1 X63.428 Y156.584 F1000
G1 X63.220 Y156.584 F1000
G1 X63.012 Y156.376 F1000
G1 X62.596 Y156.376 F1000
G1 X62.388 Y156.168 F1000
G1 X61.764 Y156.168 F1000
G1 X61.556 Y156.376 F1000
G1 X61.556 Y156.584 F1000
G1 X61.348 Y156.792 F1000
G1 X61.348 Y157.000 F1000
G1 X61.140 Y157.208 F1000
G1 X61.140 Y157.624 F1000
G1 X61.348 Y157.832 F1000
G1 X62.180 Y157.832 F1000
G1 X62.388 Y158.040 F1000
G1 X62.388 Y158.456 F1000
G1 X62.180 Y158.664 F1000
G1 X62.388 Y158.872 F1000
G1 X62.388 Y159.288 F1000
G1 X62.180 Y159.496 F1000
G1 X61.348 Y159.496 F1000
G1 X61.348 Y157.832 F1000
G1 X61.140 Y157.624 F1000
G1 X60.724 Y158.040 F1000
G1 X60.724 Y158.456 F1000
G1 X60.516 Y158.664 F1000
G1 X60.516 Y159.080 F1000
G1 X60.308 Y159.288 F1000
G1 X60.308 Y159.704 F1000
G1 X60.724 Y160.120 F1000
G1 X60.932 Y160.120 F1000
G1 X61.140 Y160.328 F1000
G0 Z3.0 ; Pen up

G0 X63.428 Y161.160 F3000 ; Travel to line 75
G0 Z0.0 ; Pen down
G1 X63.220 Y160.952 F1000
G1 X62.596 Y160.952 F1000
G1 X62.388 Y160.744 F1000
G1 X62.388 Y160.328 F1000
G1 X62.596 Y160.120 F1000
G1 X62.596 Y159.912 F1000
G1 X62.804 Y159.704 F1000
G1 X62.804 Y159.288 F1000
G1 X63.012 Y159.080 F1000
G1 X63.012 Y158.456 F1000
G1 X63.220 Y158.248 F1000
G1 X63.220 Y158.040 F1000
G1 X63.428 Y157.832 F1000
G1 X63.844 Y157.832 F1000
G1 X64.052 Y158.040 F1000
G1 X64.052 Y158.248 F1000
G1 X64.260 Y158.456 F1000
G1 X64.260 Y159.496 F1000
G1 X64.260 Y158.248 F1000
G1 X63.844 Y157.832 F1000
G1 X63.636 Y157.832 F1000
G1 X63.428 Y157.624 F1000
G1 X63.636 Y157.416 F1000
G1 X63.636 Y157.208 F1000
G1 X63.844 Y157.000 F1000
G1 X64.468 Y157.000 F1000
G1 X64.676 Y157.208 F1000
G1 X65.092 Y157.208 F1000
G1 X65.300 Y157.416 F1000
G1 X65.508 Y157.416 F1000
G1 X65.716 Y157.624 F1000
G1 X65.716 Y158.248 F1000
G1 X65.300 Y158.664 F1000
G1 X65.092 Y158.664 F1000
G1 X64.884 Y158.456 F1000
G1 X64.884 Y157.832 F1000
G1 X64.884 Y159.496 F1000
G1 X65.092 Y159.704 F1000
G1 X65.092 Y160.328 F1000
G1 X64.884 Y160.536 F1000
G1 X64.884 Y160.952 F1000
G1 X64.468 Y161.368 F1000
G1 X64.052 Y161.368 F1000
G1 X63.844 Y161.160 F1000
G0 Z3.0 ; Pen up

G0 X65.716 Y161.992 F3000 ; Travel to line 76
G0 Z0.0 ; Pen down
G1 X65.508 Y161.784 F1000
G1 X64.884 Y161.784 F1000
G1 X64.676 Y161.576 F1000
G1 X64.676 Y161.160 F1000
G1 X64.884 Y160.952 F1000
G1 X64.884 Y160.536 F1000
G1 X65.092 Y160.328 F1000
G1 X65.092 Y159.704 F1000
G1 X65.508 Y159.288 F1000
G1 X65.924 Y159.288 F1000
G1 X65.924 Y158.872 F1000
G1 X65.716 Y158.872 F1000
G1 X65.508 Y158.664 F1000
G1 X65.508 Y158.456 F1000
G1 X65.716 Y158.248 F1000
G1 X65.716 Y157.832 F1000
G1 X65.924 Y157.624 F1000
G1 X66.132 Y157.624 F1000
G1 X66.548 Y158.040 F1000
G1 X66.548 Y159.496 F1000
G1 X66.548 Y158.040 F1000
G1 X66.756 Y157.832 F1000
G1 X67.172 Y157.832 F1000
G1 X67.380 Y158.040 F1000
G1 X67.588 Y158.040 F1000
G1 X67.796 Y158.248 F1000
G1 X67.796 Y158.872 F1000
G1 X67.588 Y159.080 F1000
G1 X67.588 Y159.912 F1000
G1 X67.380 Y160.120 F1000
G1 X67.380 Y160.952 F1000
G1 X67.172 Y161.160 F1000
G1 X67.172 Y161.992 F1000
G1 X66.964 Y162.200 F1000
G1 X66.548 Y162.200 F1000
G1 X66.340 Y161.992 F1000
G0 Z3.0 ; Pen up

G0 X66.548 Y162.408 F3000 ; Travel to line 77
G0 Z0.0 ; Pen down
G1 X66.756 Y162.200 F1000
G1 X67.380 Y162.200 F1000
G1 X67.588 Y162.408 F1000
G1 X67.588 Y162.616 F1000
G1 X67.380 Y162.824 F1000
G1 X66.756 Y162.824 F1000
G1 X66.548 Y162.616 F1000
G0 Z3.0 ; Pen up

G0 X66.548 Y163.032 F3000 ; Travel to line 78
G0 Z0.0 ; Pen down
G1 X66.756 Y162.824 F1000
G1 X67.172 Y162.824 F1000
G1 X67.588 Y163.240 F1000
G1 X67.172 Y163.656 F1000
G1 X66.756 Y163.656 F1000
G1 X66.548 Y163.448 F1000
G0 Z3.0 ; Pen up

G0 X65.092 Y163.656 F3000 ; Travel to line 79
G0 Z0.0 ; Pen down
G1 X65.508 Y163.656 F1000
G1 X65.924 Y163.240 F1000
G1 X65.924 Y162.200 F1000
G1 X65.508 Y161.784 F1000
G1 X65.300 Y161.784 F1000
G1 X64.676 Y162.408 F1000
G1 X64.676 Y163.240 F1000
G0 Z3.0 ; Pen up

G0 X62.804 Y163.032 F3000 ; Travel to line 80
G0 Z0.0 ; Pen down
G1 X63.012 Y162.824 F1000
G1 X63.844 Y162.824 F1000
G1 X64.052 Y163.032 F1000
G1 X64.052 Y163.656 F1000
G1 X64.052 Y162.616 F1000
G1 X63.844 Y162.824 F1000
G1 X63.012 Y162.824 F1000
G1 X62.804 Y162.616 F1000
G1 X62.804 Y161.992 F1000
G1 X62.804 Y163.656 F1000
G0 Z3.0 ; Pen up

G0 X61.140 Y163.656 F3000 ; Travel to line 81
G0 Z0.0 ; Pen down
G1 X61.348 Y163.448 F1000
G1 X61.348 Y163.032 F1000
G1 X61.140 Y162.824 F1000
G1 X61.140 Y162.616 F1000
G1 X61.348 Y162.408 F1000
G1 X61.348 Y161.992 F1000
G1 X61.348 Y162.408 F1000
G1 X60.932 Y162.824 F1000
G1 X60.516 Y162.824 F1000
G1 X60.308 Y162.616 F1000
G1 X60.308 Y161.992 F1000
G1 X60.308 Y163.656 F1000
G0 Z3.0 ; Pen up

G0 X60.308 Y163.448 F3000 ; Travel to line 82
G0 Z0.0 ; Pen down
G1 X60.516 Y163.656 F1000
G1 X60.932 Y163.656 F1000
G1 X61.348 Y163.240 F1000
G1 X60.932 Y162.824 F1000
G1 X60.516 Y162.824 F1000
G1 X60.308 Y163.032 F1000
G0 Z3.0 ; Pen up

G0 X59.060 Y163.448 F3000 ; Travel to line 83
G0 Z0.0 ; Pen down
G1 X59.268 Y163.240 F1000
G1 X59.268 Y162.824 F1000
G1 X59.476 Y162.616 F1000
G1 X59.268 Y162.408 F1000
G1 X58.852 Y162.408 F1000
G1 X58.644 Y162.616 F1000
G1 X58.644 Y163.032 F1000
G0 Z3.0 ; Pen up

G0 X58.020 Y163.656 F3000 ; Travel to line 84
G0 Z0.0 ; Pen down
G1 X57.188 Y163.656 F1000
G1 X56.980 Y163.448 F1000
G1 X56.980 Y163.032 F1000
G1 X57.188 Y162.824 F1000
G1 X58.020 Y162.824 F1000
G1 X57.188 Y162.824 F1000
G1 X56.980 Y162.616 F1000
G1 X56.980 Y162.200 F1000
G1 X57.188 Y161.992 F1000
G1 X58.228 Y161.992 F1000
G1 X58.436 Y162.200 F1000
G1 X58.436 Y162.408 F1000
G1 X58.644 Y162.616 F1000
G1 X58.644 Y163.240 F1000
G1 X58.852 Y163.448 F1000
G1 X59.060 Y163.448 F1000
G1 X59.268 Y163.240 F1000
G1 X59.268 Y162.824 F1000
G1 X59.476 Y162.616 F1000
G1 X59.476 Y162.408 F1000
G1 X58.644 Y162.408 F1000
G1 X58.436 Y162.200 F1000
G1 X58.436 Y161.992 F1000
G1 X56.980 Y161.992 F1000
G1 X56.980 Y163.656 F1000
G0 Z3.0 ; Pen up

G0 X56.148 Y163.656 F3000 ; Travel to line 85
G0 Z0.0 ; Pen down
G1 X56.356 Y163.448 F1000
G1 X56.148 Y163.656 F1000
G1 X55.524 Y163.656 F1000
G1 X55.108 Y163.240 F1000
G1 X55.108 Y162.408 F1000
G1 X55.524 Y161.992 F1000
G1 X56.148 Y161.992 F1000
G1 X56.356 Y162.200 F1000
G1 X56.356 Y162.616 F1000
G1 X56.148 Y162.824 F1000
G1 X55.940 Y162.824 F1000
G1 X56.356 Y162.824 F1000
G1 X56.356 Y162.200 F1000
G1 X56.148 Y161.992 F1000
G1 X55.524 Y161.992 F1000
G1 X55.108 Y162.408 F1000
G1 X55.108 Y163.240 F1000
G1 X55.524 Y163.656 F1000
G0 Z3.0 ; Pen up

G0 X52.404 Y163.656 F3000 ; Travel to line 86
G0 Z0.0 ; Pen down
G1 X52.404 Y161.992 F1000
G1 X52.404 Y162.616 F1000
G1 X52.612 Y162.824 F1000
G1 X53.444 Y162.824 F1000
G1 X53.652 Y162.616 F1000
G1 X53.652 Y163.656 F1000
G1 X53.652 Y163.032 F1000
G1 X53.444 Y162.824 F1000
G1 X52.612 Y162.824 F1000
G1 X52.404 Y163.032 F1000
G0 Z3.0 ; Pen up

G0 X51.780 Y163.656 F3000 ; Travel to line 87
G0 Z0.0 ; Pen down
G1 X51.364 Y163.656 F1000
G1 X51.156 Y163.448 F1000
G1 X51.156 Y161.992 F1000
G1 X51.156 Y163.448 F1000
G1 X50.948 Y163.656 F1000
G1 X50.532 Y163.656 F1000
G0 Z3.0 ; Pen up

G0 X50.116 Y163.656 F3000 ; Travel to line 88
G0 Z0.0 ; Pen down
G1 X50.116 Y161.992 F1000
G0 Z3.0 ; Pen up

G0 X49.908 Y159.496 F3000 ; Travel to line 89
G0 Z0.0 ; Pen down
G1 X49.908 Y157.832 F1000
G0 Z3.0 ; Pen up

G0 X49.492 Y159.496 F3000 ; Travel to line 90
G0 Z0.0 ; Pen down
G1 X49.076 Y159.496 F1000
G1 X48.868 Y159.288 F1000
G1 X48.868 Y157.832 F1000
G1 X48.868 Y159.288 F1000
G1 X48.660 Y159.496 F1000
G1 X47.620 Y159.496 F1000
G1 X47.412 Y159.288 F1000
G1 X47.412 Y157.832 F1000
G1 X47.412 Y159.288 F1000
G1 X47.204 Y159.496 F1000
G1 X46.788 Y159.496 F1000
G0 Z3.0 ; Pen up

G0 X45.124 Y159.496 F3000 ; Travel to line 91
G0 Z0.0 ; Pen down
G1 X45.124 Y158.248 F1000
G1 X45.332 Y158.040 F1000
G1 X45.332 Y157.832 F1000
G1 X45.956 Y157.832 F1000
G1 X46.372 Y158.248 F1000
G1 X46.372 Y159.496 F1000
G1 X46.372 Y158.456 F1000
G1 X46.164 Y158.248 F1000
G1 X46.164 Y158.040 F1000
G1 X45.956 Y157.832 F1000
G1 X45.540 Y157.832 F1000
G1 X45.124 Y158.248 F1000
G0 Z3.0 ; Pen up

G0 X44.500 Y159.496 F3000 ; Travel to line 92
G0 Z0.0 ; Pen down
G1 X44.708 Y159.288 F1000
G1 X44.500 Y159.496 F1000
G1 X43.876 Y159.496 F1000
G1 X43.460 Y159.080 F1000
G1 X43.460 Y158.248 F1000
G1 X43.876 Y157.832 F1000
G1 X44.500 Y157.832 F1000
G1 X44.708 Y158.040 F1000
G1 X44.500 Y157.832 F1000
G1 X43.876 Y157.832 F1000
G1 X43.460 Y158.248 F1000
G1 X43.460 Y159.080 F1000
G1 X43.876 Y159.496 F1000
G0 Z3.0 ; Pen up

G0 X41.796 Y159.496 F3000 ; Travel to line 93
G0 Z0.0 ; Pen down
G1 X42.004 Y159.288 F1000
G1 X42.004 Y158.872 F1000
G1 X41.796 Y158.664 F1000
G1 X41.796 Y158.456 F1000
G1 X42.004 Y158.248 F1000
G1 X42.004 Y157.832 F1000
G1 X42.004 Y158.248 F1000
G1 X41.588 Y158.664 F1000
G1 X41.172 Y158.664 F1000
G1 X40.964 Y158.456 F1000
G1 X40.964 Y157.832 F1000
G1 X40.964 Y159.496 F1000
G0 Z3.0 ; Pen up

G0 X40.964 Y159.288 F3000 ; Travel to line 94
G0 Z0.0 ; Pen down
G1 X41.172 Y159.496 F1000
G1 X41.588 Y159.496 F1000
G1 X42.004 Y159.080 F1000
G1 X41.588 Y158.664 F1000
G1 X41.172 Y158.664 F1000
G1 X40.964 Y158.872 F1000
G0 Z3.0 ; Pen up

G0 X40.340 Y159.496 F3000 ; Travel to line 95
G0 Z0.0 ; Pen down
G1 X39.508 Y159.496 F1000
G1 X39.300 Y159.288 F1000
G1 X39.300 Y158.872 F1000
G1 X39.508 Y158.664 F1000
G1 X40.340 Y158.664 F1000
G1 X39.508 Y158.664 F1000
G1 X39.300 Y158.456 F1000
G1 X39.300 Y158.040 F1000
G1 X39.508 Y157.832 F1000
G1 X40.340 Y157.832 F1000
G1 X39.300 Y157.832 F1000
G1 X39.300 Y159.496 F1000
G0 Z3.0 ; Pen up

G0 X38.884 Y159.496 F3000 ; Travel to line 96
G0 Z0.0 ; Pen down
G1 X38.468 Y159.496 F1000
G1 X38.260 Y159.288 F1000
G1 X38.260 Y157.832 F1000
G1 X38.260 Y159.288 F1000
G1 X38.052 Y159.496 F1000
G1 X37.636 Y159.496 F1000
G0 Z3.0 ; Pen up

G0 X37.220 Y159.496 F3000 ; Travel to line 97
G0 Z0.0 ; Pen down
G1 X36.596 Y159.496 F1000
G1 X36.388 Y159.288 F1000
G1 X36.388 Y158.872 F1000
G1 X36.596 Y158.664 F1000
G1 X37.220 Y158.664 F1000
G1 X36.596 Y158.664 F1000
G1 X36.388 Y158.456 F1000
G1 X36.388 Y157.832 F1000
G1 X36.388 Y159.496 F1000
G0 Z3.0 ; Pen up

G0 X35.140 Y159.288 F3000 ; Travel to line 98
G0 Z0.0 ; Pen down
G1 X34.932 Y159.080 F1000
G1 X34.932 Y158.456 F1000
G1 X34.724 Y158.248 F1000
G1 X34.724 Y157.832 F1000
G1 X34.724 Y158.040 F1000
G1 X34.932 Y158.248 F1000
G1 X35.764 Y158.248 F1000
G1 X35.764 Y158.456 F1000
G1 X35.556 Y158.664 F1000
G1 X35.556 Y159.080 F1000
G1 X35.348 Y159.288 F1000
G1 X35.348 Y159.288 F1000
G1 X35.556 Y159.080 F1000
G1 X35.556 Y158.664 F1000
G1 X35.764 Y158.456 F1000
G1 X35.556 Y158.248 F1000
G1 X35.140 Y158.248 F1000
G1 X34.932 Y158.456 F1000
G1 X34.932 Y158.872 F1000
G0 Z3.0 ; Pen up

G0 X33.476 Y159.496 F3000 ; Travel to line 99
G0 Z0.0 ; Pen down
G1 X33.060 Y159.496 F1000
G1 X32.852 Y159.288 F1000
G1 X32.852 Y157.832 F1000
G1 X32.852 Y159.288 F1000
G1 X32.644 Y159.496 F1000
G1 X32.228 Y159.496 F1000
G0 Z3.0 ; Pen up

G0 X31.396 Y159.288 F3000 ; Travel to line 100
G0 Z0.0 ; Pen down
G1 X31.188 Y159.080 F1000
G1 X31.188 Y158.456 F1000
G1 X30.980 Y158.248 F1000
G1 X30.980 Y157.832 F1000
G1 X30.980 Y158.040 F1000
G1 X31.188 Y158.248 F1000
G1 X32.020 Y158.248 F1000
G1 X32.020 Y158.456 F1000
G1 X31.812 Y158.664 F1000
G1 X31.812 Y159.080 F1000
G1 X31.604 Y159.288 F1000
G1 X31.604 Y159.288 F1000
G1 X31.812 Y159.080 F1000
G1 X31.812 Y158.664 F1000
G1 X32.020 Y158.456 F1000
G1 X31.812 Y158.248 F1000
G1 X31.396 Y158.248 F1000
G1 X31.188 Y158.456 F1000
G1 X31.188 Y158.872 F1000
G0 Z3.0 ; Pen up

G0 X30.356 Y159.496 F3000 ; Travel to line 101
G0 Z0.0 ; Pen down
G1 X29.524 Y159.496 F1000
G1 X29.316 Y159.288 F1000
G1 X29.316 Y158.872 F1000
G1 X29.524 Y158.664 F1000
G1 X30.356 Y158.664 F1000
G1 X29.524 Y158.664 F1000
G1 X29.316 Y158.456 F1000
G1 X29.316 Y158.040 F1000
G1 X29.524 Y157.832 F1000
G1 X30.356 Y157.832 F1000
G1 X29.316 Y157.832 F1000
G1 X29.316 Y159.496 F1000
G0 Z3.0 ; Pen up

G0 X28.484 Y159.496 F3000 ; Travel to line 102
G0 Z0.0 ; Pen down
G1 X28.692 Y159.288 F1000
G1 X28.692 Y158.872 F1000
G1 X28.484 Y158.664 F1000
G1 X28.484 Y158.456 F1000
G1 X28.692 Y158.248 F1000
G1 X28.692 Y157.832 F1000
G1 X28.692 Y158.248 F1000
G1 X28.276 Y158.664 F1000
G1 X27.860 Y158.664 F1000
G1 X27.652 Y158.456 F1000
G1 X27.652 Y157.832 F1000
G1 X27.652 Y159.496 F1000
G0 Z3.0 ; Pen up

G0 X27.652 Y159.288 F3000 ; Travel to line 103
G0 Z0.0 ; Pen down
G1 X27.860 Y159.496 F1000
G1 X28.276 Y159.496 F1000
G1 X28.692 Y159.080 F1000
G1 X28.276 Y158.664 F1000
G1 X27.860 Y158.664 F1000
G1 X27.652 Y158.872 F1000
G0 Z3.0 ; Pen up

G0 X27.028 Y159.496 F3000 ; Travel to line 104
G0 Z0.0 ; Pen down
G1 X26.612 Y159.496 F1000
G1 X26.404 Y159.288 F1000
G1 X26.404 Y157.832 F1000
G1 X26.404 Y159.288 F1000
G1 X26.196 Y159.496 F1000
G1 X25.780 Y159.496 F1000
G0 Z3.0 ; Pen up

G0 X24.740 Y159.496 F3000 ; Travel to line 105
G0 Z0.0 ; Pen down
G1 X24.324 Y159.496 F1000
G1 X24.116 Y159.288 F1000
G1 X24.116 Y157.832 F1000
G1 X24.116 Y159.288 F1000
G1 X23.908 Y159.496 F1000
G1 X23.492 Y159.496 F1000
G0 Z3.0 ; Pen up

G0 X22.660 Y159.288 F3000 ; Travel to line 106
G0 Z0.0 ; Pen down
G1 X22.452 Y159.080 F1000
G1 X22.452 Y158.456 F1000
G1 X22.244 Y158.248 F1000
G1 X22.244 Y157.832 F1000
G1 X22.244 Y158.040 F1000
G1 X22.452 Y158.248 F1000
G1 X23.284 Y158.248 F1000
G1 X23.284 Y158.456 F1000
G1 X23.076 Y158.664 F1000
G1 X23.076 Y159.080 F1000
G1 X22.868 Y159.288 F1000
G1 X22.868 Y159.288 F1000
G1 X23.076 Y159.080 F1000
G1 X23.076 Y158.664 F1000
G1 X23.284 Y158.456 F1000
G1 X23.076 Y158.248 F1000
G1 X22.660 Y158.248 F1000
G1 X22.452 Y158.456 F1000
G1 X22.452 Y158.872 F1000
G0 Z3.0 ; Pen up

G0 X21.620 Y159.496 F3000 ; Travel to line 107
G0 Z0.0 ; Pen down
G1 X20.788 Y159.496 F1000
G1 X20.580 Y159.288 F1000
G1 X20.580 Y158.872 F1000
G1 X20.788 Y158.664 F1000
G1 X21.620 Y158.664 F1000
G1 X20.788 Y158.664 F1000
G1 X20.580 Y158.456 F1000
G1 X20.580 Y158.040 F1000
G1 X20.788 Y157.832 F1000
G1 X21.620 Y157.832 F1000
G1 X20.580 Y157.832 F1000
G1 X20.580 Y159.496 F1000
G0 Z3.0 ; Pen up

G0 X18.708 Y159.496 F3000 ; Travel to line 108
G0 Z0.0 ; Pen down
G1 X18.708 Y157.832 F1000
G1 X18.708 Y158.456 F1000
G1 X18.916 Y158.664 F1000
G1 X19.748 Y158.664 F1000
G1 X19.956 Y158.456 F1000
G1 X19.956 Y159.496 F1000
G1 X19.956 Y158.872 F1000
G1 X19.748 Y158.664 F1000
G1 X18.916 Y158.664 F1000
G1 X18.708 Y158.872 F1000
G0 Z3.0 ; Pen up

G0 X16.212 Y159.496 F3000 ; Travel to line 109
G0 Z0.0 ; Pen down
G1 X16.420 Y159.288 F1000
G1 X16.420 Y158.664 F1000
G1 X15.796 Y158.040 F1000
G1 X16.004 Y157.832 F1000
G1 X16.420 Y157.832 F1000
G1 X15.796 Y157.832 F1000
G1 X15.796 Y158.248 F1000
G1 X16.420 Y158.872 F1000
G1 X16.420 Y159.288 F1000
G1 X16.212 Y159.496 F1000
G1 X15.796 Y159.496 F1000
G1 X15.588 Y159.288 F1000
G1 X15.796 Y159.496 F1000
G0 Z3.0 ; Pen up

G0 X15.796 Y155.336 F3000 ; Travel to line 110
G0 Z0.0 ; Pen down
G1 X15.588 Y155.128 F1000
G1 X15.796 Y155.336 F1000
G1 X16.212 Y155.336 F1000
G1 X16.420 Y155.128 F1000
G1 X16.420 Y154.712 F1000
G1 X16.212 Y154.504 F1000
G1 X15.796 Y154.504 F1000
G1 X16.212 Y154.504 F1000
G1 X16.420 Y154.296 F1000
G1 X16.420 Y153.880 F1000
G1 X16.212 Y153.672 F1000
G1 X15.796 Y153.672 F1000
G1 X15.588 Y153.880 F1000
G1 X15.796 Y153.672 F1000
G1 X16.212 Y153.672 F1000
G1 X16.420 Y153.880 F1000
G1 X16.420 Y154.296 F1000
G1 X16.212 Y154.504 F1000
G1 X16.420 Y154.712 F1000
G1 X16.420 Y155.128 F1000
G1 X16.212 Y155.336 F1000
G0 Z3.0 ; Pen up

G0 X18.916 Y155.336 F3000 ; Travel to line 111
G0 Z0.0 ; Pen down
G1 X18.708 Y155.128 F1000
G1 X18.708 Y154.712 F1000
G1 X18.916 Y154.504 F1000
G1 X19.332 Y154.504 F1000
G1 X19.748 Y154.088 F1000
G1 X19.332 Y153.672 F1000
G1 X18.916 Y153.672 F1000
G1 X18.708 Y153.880 F1000
G1 X18.916 Y153.672 F1000
G1 X19.540 Y153.672 F1000
G1 X19.748 Y153.880 F1000
G1 X19.748 Y154.296 F1000
G1 X19.540 Y154.504 F1000
G1 X19.124 Y154.504 F1000
G1 X18.708 Y154.920 F1000
G1 X19.124 Y155.336 F1000
G1 X19.540 Y155.336 F1000
G0 Z3.0 ; Pen up

G0 X20.372 Y155.336 F3000 ; Travel to line 112
G0 Z0.0 ; Pen down
G1 X20.372 Y153.672 F1000
G1 X20.372 Y154.296 F1000
G1 X20.580 Y154.504 F1000
G1 X21.412 Y154.504 F1000
G1 X21.620 Y154.296 F1000
G1 X21.620 Y155.336 F1000
G1 X21.620 Y154.712 F1000
G1 X21.412 Y154.504 F1000
G1 X20.580 Y154.504 F1000
G1 X20.372 Y154.712 F1000
G0 Z3.0 ; Pen up

G0 X22.452 Y154.712 F3000 ; Travel to line 113
G0 Z0.0 ; Pen down
G1 X22.452 Y154.296 F1000
G1 X22.660 Y154.088 F1000
G1 X23.076 Y154.088 F1000
G1 X23.284 Y154.296 F1000
G1 X23.076 Y154.504 F1000
G1 X23.076 Y154.920 F1000
G1 X22.868 Y155.128 F1000
G1 X22.868 Y155.128 F1000
G1 X23.076 Y154.920 F1000
G1 X23.076 Y154.504 F1000
G1 X23.284 Y154.296 F1000
G1 X23.284 Y154.088 F1000
G1 X22.452 Y154.088 F1000
G1 X22.244 Y153.880 F1000
G1 X22.244 Y153.672 F1000
G1 X22.244 Y154.088 F1000
G1 X22.452 Y154.296 F1000
G1 X22.452 Y154.920 F1000
G1 X22.660 Y155.128 F1000
G0 Z3.0 ; Pen up

G0 X23.908 Y155.336 F3000 ; Travel to line 114
G0 Z0.0 ; Pen down
G1 X23.908 Y153.672 F1000
G1 X23.908 Y154.296 F1000
G1 X24.116 Y154.504 F1000
G1 X24.740 Y154.504 F1000
G1 X24.116 Y154.504 F1000
G1 X23.908 Y154.712 F1000
G1 X23.908 Y155.128 F1000
G1 X24.116 Y155.336 F1000
G1 X24.740 Y155.336 F1000
G0 Z3.0 ; Pen up

G0 X25.156 Y155.336 F3000 ; Travel to line 115
G0 Z0.0 ; Pen down
G1 X25.572 Y155.336 F1000
G1 X25.780 Y155.128 F1000
G1 X25.780 Y153.672 F1000
G1 X25.780 Y155.128 F1000
G1 X25.988 Y155.336 F1000
G1 X26.404 Y155.336 F1000
G0 Z3.0 ; Pen up

G0 X27.444 Y155.336 F3000 ; Travel to line 116
G0 Z0.0 ; Pen down
G1 X27.860 Y155.336 F1000
G1 X28.068 Y155.128 F1000
G1 X28.068 Y153.672 F1000
G1 X28.068 Y155.128 F1000
G1 X28.276 Y155.336 F1000
G1 X28.692 Y155.336 F1000
G0 Z3.0 ; Pen up

G0 X29.108 Y154.920 F3000 ; Travel to line 117
G0 Z0.0 ; Pen down
G1 X29.108 Y154.088 F1000
G1 X29.524 Y153.672 F1000
G1 X29.940 Y153.672 F1000
G1 X30.356 Y154.088 F1000
G1 X30.356 Y154.920 F1000
G1 X29.940 Y155.336 F1000
G1 X29.524 Y155.336 F1000
G1 X29.524 Y155.336 F1000
G1 X29.108 Y154.920 F1000
G1 X29.108 Y154.088 F1000
G1 X29.524 Y153.672 F1000
G1 X30.148 Y153.672 F1000
G1 X30.356 Y153.880 F1000
G1 X30.356 Y155.128 F1000
G1 X30.148 Y155.336 F1000
G0 Z3.0 ; Pen up

G0 X31.188 Y155.336 F3000 ; Travel to line 118
G0 Z0.0 ; Pen down
G1 X31.188 Y153.672 F1000
G1 X33.476 Y153.672 F1000
G1 X32.644 Y153.672 F1000
G1 X32.436 Y153.880 F1000
G1 X32.436 Y154.296 F1000
G1 X32.644 Y154.504 F1000
G1 X33.476 Y154.504 F1000
G1 X32.644 Y154.504 F1000
G1 X32.436 Y154.712 F1000
G1 X32.436 Y155.128 F1000
G1 X32.644 Y155.336 F1000
G1 X33.476 Y155.336 F1000
G1 X32.436 Y155.336 F1000
G1 X32.436 Y153.880 F1000
G1 X32.228 Y153.672 F1000
G1 X31.396 Y153.672 F1000
G1 X31.188 Y153.880 F1000
G0 Z3.0 ; Pen up

G0 X34.100 Y154.712 F3000 ; Travel to line 119
G0 Z0.0 ; Pen down
G1 X34.308 Y154.504 F1000
G1 X34.724 Y154.504 F1000
G1 X35.140 Y154.920 F1000
G1 X34.724 Y155.336 F1000
G1 X34.308 Y155.336 F1000
G1 X34.100 Y155.128 F1000
G0 Z3.0 ; Pen up

G0 X34.100 Y155.336 F3000 ; Travel to line 120
G0 Z0.0 ; Pen down
G1 X34.100 Y153.672 F1000
G1 X34.100 Y154.296 F1000
G1 X34.308 Y154.504 F1000
G1 X34.724 Y154.504 F1000
G1 X35.140 Y154.088 F1000
G1 X35.140 Y153.672 F1000
G1 X35.764 Y153.672 F1000
G1 X35.764 Y153.880 F1000
G1 X35.972 Y154.088 F1000
G1 X36.804 Y154.088 F1000
G1 X36.804 Y154.296 F1000
G1 X36.596 Y154.504 F1000
G1 X36.596 Y154.920 F1000
G1 X36.388 Y155.128 F1000
G1 X36.180 Y155.128 F1000
G1 X35.972 Y154.920 F1000
G1 X35.972 Y154.296 F1000
G1 X35.764 Y154.088 F1000
G1 X35.764 Y153.880 F1000
G1 X35.556 Y153.672 F1000
G1 X35.348 Y153.672 F1000
G1 X35.140 Y153.880 F1000
G1 X35.140 Y154.088 F1000
G1 X34.932 Y154.296 F1000
G1 X34.932 Y154.504 F1000
G1 X35.140 Y154.712 F1000
G1 X35.140 Y155.128 F1000
G1 X34.932 Y155.336 F1000
G0 Z3.0 ; Pen up

G0 X35.972 Y154.712 F3000 ; Travel to line 121
G0 Z0.0 ; Pen down
G1 X35.972 Y154.296 F1000
G1 X36.180 Y154.088 F1000
G1 X36.596 Y154.088 F1000
G1 X36.804 Y154.296 F1000
G1 X36.596 Y154.504 F1000
G1 X36.596 Y154.920 F1000
G1 X36.388 Y155.128 F1000
G0 Z3.0 ; Pen up

G0 X38.676 Y155.336 F3000 ; Travel to line 122
G0 Z0.0 ; Pen down
G1 X38.676 Y154.296 F1000
G1 X38.468 Y154.088 F1000
G1 X38.052 Y154.504 F1000
G1 X38.052 Y154.712 F1000
G1 X37.844 Y154.920 F1000
G1 X37.428 Y154.920 F1000
G1 X37.428 Y153.672 F1000
G1 X37.428 Y154.712 F1000
G1 X37.636 Y154.920 F1000
G1 X38.052 Y154.504 F1000
G1 X38.052 Y154.296 F1000
G1 X38.260 Y154.088 F1000
G1 X38.676 Y154.088 F1000
G0 Z3.0 ; Pen up

G0 X39.716 Y155.336 F3000 ; Travel to line 123
G0 Z0.0 ; Pen down
G1 X39.300 Y154.920 F1000
G1 X39.300 Y154.088 F1000
G1 X39.716 Y153.672 F1000
G1 X40.340 Y153.672 F1000
G1 X40.548 Y153.880 F1000
G1 X40.340 Y153.672 F1000
G1 X39.716 Y153.672 F1000
G1 X39.300 Y154.088 F1000
G1 X39.300 Y154.920 F1000
G1 X39.716 Y155.336 F1000
G1 X40.340 Y155.336 F1000
G1 X40.548 Y155.128 F1000
G1 X40.340 Y155.336 F1000
G0 Z3.0 ; Pen up

G0 X40.964 Y155.336 F3000 ; Travel to line 124
G0 Z0.0 ; Pen down
G1 X40.964 Y153.672 F1000
G1 X42.004 Y153.672 F1000
G1 X41.172 Y153.672 F1000
G1 X40.964 Y153.880 F1000
G1 X40.964 Y154.296 F1000
G1 X41.172 Y154.504 F1000
G1 X42.004 Y154.504 F1000
G1 X41.172 Y154.504 F1000
G1 X40.964 Y154.712 F1000
G1 X40.964 Y155.128 F1000
G1 X41.172 Y155.336 F1000
G1 X42.004 Y155.336 F1000
G0 Z3.0 ; Pen up

G0 X42.836 Y155.336 F3000 ; Travel to line 125
G0 Z0.0 ; Pen down
G1 X42.628 Y155.128 F1000
G1 X42.628 Y154.712 F1000
G1 X42.836 Y154.504 F1000
G1 X43.252 Y154.504 F1000
G1 X43.668 Y154.088 F1000
G1 X43.252 Y153.672 F1000
G1 X42.836 Y153.672 F1000
G1 X42.628 Y153.880 F1000
G1 X42.836 Y153.672 F1000
G1 X43.460 Y153.672 F1000
G1 X43.668 Y153.880 F1000
G1 X43.668 Y154.296 F1000
G1 X43.460 Y154.504 F1000
G1 X43.044 Y154.504 F1000
G1 X42.628 Y154.920 F1000
G1 X43.044 Y155.336 F1000
G1 X43.460 Y155.336 F1000
G0 Z3.0 ; Pen up

G0 X45.748 Y155.336 F3000 ; Travel to line 126
G0 Z0.0 ; Pen down
G1 X45.748 Y153.672 F1000
G1 X45.748 Y154.296 F1000
G1 X45.956 Y154.504 F1000
G1 X46.788 Y154.504 F1000
G1 X46.996 Y154.296 F1000
G1 X46.996 Y155.336 F1000
G1 X46.996 Y154.712 F1000
G1 X46.788 Y154.504 F1000
G1 X45.956 Y154.504 F1000
G1 X45.748 Y154.712 F1000
G0 Z3.0 ; Pen up

G0 X47.828 Y155.336 F3000 ; Travel to line 127
G0 Z0.0 ; Pen down
G1 X48.452 Y155.336 F1000
G1 X48.660 Y155.128 F1000
G1 X48.660 Y154.920 F1000
G1 X48.452 Y154.712 F1000
G1 X48.452 Y154.504 F1000
G1 X48.244 Y154.296 F1000
G1 X48.244 Y153.672 F1000
G1 X48.244 Y154.088 F1000
G1 X48.452 Y154.296 F1000
G1 X48.452 Y154.504 F1000
G1 X48.660 Y154.712 F1000
G1 X48.660 Y155.336 F1000
G0 Z3.0 ; Pen up

G0 X49.700 Y155.336 F3000 ; Travel to line 128
G0 Z0.0 ; Pen down
G1 X49.700 Y155.128 F1000
G1 X49.492 Y154.920 F1000
G1 X49.492 Y154.504 F1000
G1 X49.284 Y154.296 F1000
G1 X49.284 Y153.880 F1000
G1 X49.076 Y153.672 F1000
G1 X49.076 Y153.464 F1000
G1 X49.076 Y153.672 F1000
G1 X49.284 Y153.880 F1000
G1 X49.284 Y154.296 F1000
G1 X49.492 Y154.504 F1000
G1 X49.492 Y154.920 F1000
G1 X49.700 Y155.128 F1000
G0 Z3.0 ; Pen up

G0 X51.988 Y158.248 F3000 ; Travel to line 129
G0 Z0.0 ; Pen down
G1 X51.572 Y158.248 F1000
G1 X51.364 Y158.456 F1000
G1 X51.364 Y158.664 F1000
G1 X50.948 Y159.080 F1000
G1 X50.740 Y158.872 F1000
G1 X50.740 Y157.832 F1000
G1 X50.740 Y159.080 F1000
G1 X51.156 Y159.080 F1000
G1 X51.364 Y158.872 F1000
G1 X51.364 Y158.664 F1000
G1 X51.780 Y158.248 F1000
G1 X51.988 Y158.456 F1000
G1 X51.988 Y159.496 F1000
G0 Z3.0 ; Pen up

G0 X53.028 Y159.496 F3000 ; Travel to line 130
G0 Z0.0 ; Pen down
G1 X52.612 Y159.080 F1000
G1 X52.612 Y158.248 F1000
G1 X53.028 Y157.832 F1000
G1 X53.652 Y157.832 F1000
G1 X53.860 Y158.040 F1000
G1 X53.860 Y158.664 F1000
G1 X53.444 Y158.664 F1000
G1 X53.652 Y158.664 F1000
G1 X53.860 Y158.456 F1000
G1 X53.860 Y158.040 F1000
G1 X53.652 Y157.832 F1000
G1 X53.028 Y157.832 F1000
G1 X52.612 Y158.248 F1000
G1 X52.612 Y159.080 F1000
G1 X53.028 Y159.496 F1000
G1 X53.652 Y159.496 F1000
G1 X53.860 Y159.288 F1000
G1 X53.652 Y159.496 F1000
G0 Z3.0 ; Pen up

G0 X47.620 Y163.032 F3000 ; Travel to line 131
G0 Z0.0 ; Pen down
G1 X47.828 Y162.824 F1000
G1 X47.828 Y162.408 F1000
G1 X48.036 Y162.200 F1000
G1 X48.244 Y162.408 F1000
G1 X48.244 Y163.032 F1000
G1 X48.452 Y163.240 F1000
G1 X48.660 Y163.240 F1000
G1 X48.660 Y163.032 F1000
G1 X48.868 Y162.824 F1000
G1 X48.868 Y162.408 F1000
G1 X49.076 Y162.200 F1000
G1 X49.284 Y162.408 F1000
G1 X49.284 Y163.032 F1000
G1 X49.492 Y163.240 F1000
G1 X49.492 Y163.656 F1000
G1 X49.492 Y163.032 F1000
G1 X49.284 Y162.824 F1000
G1 X49.284 Y162.200 F1000
G1 X48.868 Y162.200 F1000
G1 X48.868 Y162.824 F1000
G1 X48.452 Y163.240 F1000
G1 X48.244 Y163.032 F1000
G1 X48.244 Y162.408 F1000
G1 X48.036 Y162.200 F1000
G1 X47.828 Y162.200 F1000
G1 X47.828 Y162.616 F1000
G1 X47.620 Y162.824 F1000
G1 X47.620 Y163.656 F1000
G0 Z3.0 ; Pen up

G0 X46.372 Y163.656 F3000 ; Travel to line 132
G0 Z0.0 ; Pen down
G1 X45.956 Y163.656 F1000
G1 X45.748 Y163.448 F1000
G1 X45.748 Y161.992 F1000
G1 X45.748 Y163.448 F1000
G1 X45.540 Y163.656 F1000
G1 X45.124 Y163.656 F1000
G0 Z3.0 ; Pen up

G0 X43.460 Y163.656 F3000 ; Travel to line 133
G0 Z0.0 ; Pen down
G1 X43.460 Y162.408 F1000
G1 X43.668 Y162.200 F1000
G1 X43.668 Y161.992 F1000
G1 X44.292 Y161.992 F1000
G1 X44.708 Y162.408 F1000
G1 X44.708 Y163.656 F1000
G1 X44.708 Y162.616 F1000
G1 X44.500 Y162.408 F1000
G1 X44.500 Y162.200 F1000
G1 X44.292 Y161.992 F1000
G1 X43.876 Y161.992 F1000
G1 X43.460 Y162.408 F1000
G0 Z3.0 ; Pen up

G0 X42.836 Y163.656 F3000 ; Travel to line 134
G0 Z0.0 ; Pen down
G1 X43.044 Y163.448 F1000
G1 X42.836 Y163.656 F1000
G1 X42.212 Y163.656 F1000
G1 X41.796 Y163.240 F1000
G1 X41.796 Y162.408 F1000
G1 X42.212 Y161.992 F1000
G1 X42.836 Y161.992 F1000
G1 X43.044 Y162.200 F1000
G1 X42.836 Y161.992 F1000
G1 X42.212 Y161.992 F1000
G1 X41.796 Y162.408 F1000
G1 X41.796 Y163.240 F1000
G1 X42.212 Y163.656 F1000
G0 Z3.0 ; Pen up

G0 X40.340 Y163.656 F3000 ; Travel to line 135
G0 Z0.0 ; Pen down
G1 X39.508 Y163.656 F1000
G1 X39.300 Y163.448 F1000
G1 X39.300 Y163.032 F1000
G1 X39.508 Y162.824 F1000
G1 X40.340 Y162.824 F1000
G1 X39.508 Y162.824 F1000
G1 X39.300 Y162.616 F1000
G1 X39.300 Y162.200 F1000
G1 X39.508 Y161.992 F1000
G1 X40.340 Y161.992 F1000
G1 X39.300 Y161.992 F1000
G1 X39.300 Y163.656 F1000
G0 Z3.0 ; Pen up

G0 X38.468 Y163.656 F3000 ; Travel to line 136
G0 Z0.0 ; Pen down
G1 X38.676 Y163.448 F1000
G1 X38.676 Y163.032 F1000
G1 X38.468 Y162.824 F1000
G1 X38.676 Y162.616 F1000
G1 X38.676 Y162.200 F1000
G1 X38.468 Y161.992 F1000
G1 X37.636 Y161.992 F1000
G1 X37.636 Y163.656 F1000
G0 Z3.0 ; Pen up

G0 X37.636 Y163.448 F3000 ; Travel to line 137
G0 Z0.0 ; Pen down
G1 X37.844 Y163.656 F1000
G1 X38.260 Y163.656 F1000
G1 X38.676 Y163.240 F1000
G1 X38.260 Y162.824 F1000
G1 X37.844 Y162.824 F1000
G1 X37.636 Y163.032 F1000
G0 Z3.0 ; Pen up

G0 X37.636 Y162.616 F3000 ; Travel to line 138
G0 Z0.0 ; Pen down
G1 X37.844 Y162.824 F1000
G1 X38.468 Y162.824 F1000
G1 X38.676 Y162.616 F1000
G1 X38.676 Y162.200 F1000
G1 X38.468 Y161.992 F1000
G1 X37.844 Y161.992 F1000
G1 X37.636 Y162.200 F1000
G0 Z3.0 ; Pen up

G0 X35.972 Y163.656 F3000 ; Travel to line 139
G0 Z0.0 ; Pen down
G1 X36.180 Y163.448 F1000
G1 X36.180 Y162.200 F1000
G1 X35.972 Y161.992 F1000
G1 X35.348 Y161.992 F1000
G1 X34.932 Y162.408 F1000
G1 X34.932 Y163.240 F1000
G1 X35.348 Y163.656 F1000
G1 X35.348 Y163.656 F1000
G1 X35.764 Y163.656 F1000
G1 X36.180 Y163.240 F1000
G1 X36.180 Y162.408 F1000
G1 X35.764 Y161.992 F1000
G1 X35.348 Y161.992 F1000
G1 X34.932 Y162.408 F1000
G1 X34.932 Y163.240 F1000
G0 Z3.0 ; Pen up

G0 X34.516 Y163.656 F3000 ; Travel to line 140
G0 Z0.0 ; Pen down
G1 X34.100 Y163.656 F1000
G1 X33.892 Y163.448 F1000
G1 X33.892 Y161.992 F1000
G1 X33.892 Y163.448 F1000
G1 X33.684 Y163.656 F1000
G1 X33.268 Y163.656 F1000
G0 Z3.0 ; Pen up

G0 X31.812 Y163.656 F3000 ; Travel to line 141
G0 Z0.0 ; Pen down
G1 X31.396 Y163.656 F1000
G1 X30.980 Y163.240 F1000
G1 X31.396 Y162.824 F1000
G1 X31.812 Y162.824 F1000
G1 X32.020 Y162.616 F1000
G1 X32.020 Y162.200 F1000
G1 X31.812 Y161.992 F1000
G1 X31.188 Y161.992 F1000
G1 X30.980 Y162.200 F1000
G1 X31.188 Y161.992 F1000
G1 X31.604 Y161.992 F1000
G1 X32.020 Y162.408 F1000
G1 X31.604 Y162.824 F1000
G1 X31.188 Y162.824 F1000
G1 X30.980 Y163.032 F1000
G1 X30.980 Y163.448 F1000
G1 X31.188 Y163.656 F1000
G0 Z3.0 ; Pen up

G0 X30.148 Y163.656 F3000 ; Travel to line 142
G0 Z0.0 ; Pen down
G1 X30.356 Y163.448 F1000
G1 X30.356 Y163.032 F1000
G1 X30.148 Y162.824 F1000
G1 X30.148 Y162.616 F1000
G1 X30.356 Y162.408 F1000
G1 X30.356 Y161.992 F1000
G1 X30.356 Y162.408 F1000
G1 X29.940 Y162.824 F1000
G1 X29.524 Y162.824 F1000
G1 X29.316 Y162.616 F1000
G1 X29.316 Y161.992 F1000
G1 X29.316 Y163.656 F1000
G0 Z3.0 ; Pen up

G0 X29.316 Y163.448 F3000 ; Travel to line 143
G0 Z0.0 ; Pen down
G1 X29.524 Y163.656 F1000
G1 X29.940 Y163.656 F1000
G1 X30.356 Y163.240 F1000
G1 X29.940 Y162.824 F1000
G1 X29.524 Y162.824 F1000
G1 X29.316 Y163.032 F1000
G0 Z3.0 ; Pen up

G0 X28.068 Y163.448 F3000 ; Travel to line 144
G0 Z0.0 ; Pen down
G1 X27.860 Y163.240 F1000
G1 X27.860 Y162.616 F1000
G1 X27.652 Y162.408 F1000
G1 X27.652 Y161.992 F1000
G1 X27.652 Y162.200 F1000
G1 X27.860 Y162.408 F1000
G1 X28.692 Y162.408 F1000
G1 X28.692 Y162.616 F1000
G1 X28.484 Y162.824 F1000
G1 X28.484 Y163.240 F1000
G1 X28.276 Y163.448 F1000
G1 X28.276 Y163.448 F1000
G1 X28.484 Y163.240 F1000
G1 X28.484 Y162.824 F1000
G1 X28.692 Y162.616 F1000
G1 X28.484 Y162.408 F1000
G1 X28.068 Y162.408 F1000
G1 X27.860 Y162.616 F1000
G1 X27.860 Y163.032 F1000
G0 Z3.0 ; Pen up

G0 X27.028 Y163.656 F3000 ; Travel to line 145
G0 Z0.0 ; Pen down
G1 X26.196 Y163.656 F1000
G1 X25.988 Y163.448 F1000
G1 X25.988 Y163.032 F1000
G1 X26.196 Y162.824 F1000
G1 X27.028 Y162.824 F1000
G1 X26.196 Y162.824 F1000
G1 X25.988 Y162.616 F1000
G1 X25.988 Y162.200 F1000
G1 X26.196 Y161.992 F1000
G1 X27.028 Y161.992 F1000
G1 X25.988 Y161.992 F1000
G1 X25.988 Y163.656 F1000
G0 Z3.0 ; Pen up

G0 X25.156 Y163.656 F3000 ; Travel to line 146
G0 Z0.0 ; Pen down
G1 X25.364 Y163.448 F1000
G1 X25.156 Y163.656 F1000
G1 X24.532 Y163.656 F1000
G1 X24.116 Y163.240 F1000
G1 X24.116 Y162.408 F1000
G1 X24.532 Y161.992 F1000
G1 X25.156 Y161.992 F1000
G1 X25.364 Y162.200 F1000
G1 X25.364 Y162.616 F1000
G1 X25.156 Y162.824 F1000
G1 X24.948 Y162.824 F1000
G1 X25.364 Y162.824 F1000
G1 X25.364 Y162.200 F1000
G1 X25.156 Y161.992 F1000
G1 X24.532 Y161.992 F1000
G1 X24.116 Y162.408 F1000
G1 X24.116 Y163.240 F1000
G1 X24.532 Y163.656 F1000
G0 Z3.0 ; Pen up

G0 X21.828 Y163.656 F3000 ; Travel to line 147
G0 Z0.0 ; Pen down
G1 X21.828 Y161.992 F1000
G1 X22.868 Y161.992 F1000
G1 X22.036 Y161.992 F1000
G1 X21.828 Y162.200 F1000
G0 Z3.0 ; Pen up

G0 X20.372 Y162.200 F3000 ; Travel to line 148
G0 Z0.0 ; Pen down
G1 X20.580 Y161.992 F1000
G1 X21.412 Y161.992 F1000
G1 X20.372 Y161.992 F1000
G1 X20.372 Y163.656 F1000
G0 Z3.0 ; Pen up

G0 X19.124 Y163.448 F3000 ; Travel to line 149
G0 Z0.0 ; Pen down
G1 X18.916 Y163.240 F1000
G1 X18.916 Y162.616 F1000
G1 X18.708 Y162.408 F1000
G1 X18.708 Y161.992 F1000
G1 X18.708 Y162.200 F1000
G1 X18.916 Y162.408 F1000
G1 X19.748 Y162.408 F1000
G1 X19.748 Y162.616 F1000
G1 X19.540 Y162.824 F1000
G1 X19.540 Y163.240 F1000
G1 X19.332 Y163.448 F1000
G1 X19.332 Y163.448 F1000
G1 X19.540 Y163.240 F1000
G1 X19.540 Y162.824 F1000
G1 X19.748 Y162.616 F1000
G1 X19.540 Y162.408 F1000
G1 X19.124 Y162.408 F1000
G1 X18.916 Y162.616 F1000
G1 X18.916 Y163.032 F1000
G0 Z3.0 ; Pen up

G0 X16.004 Y163.656 F3000 ; Travel to line 150
G0 Z0.0 ; Pen down
G1 X16.004 Y162.200 F1000
G1 X16.212 Y161.992 F1000
G1 X16.628 Y161.992 F1000
G1 X15.796 Y161.992 F1000
G1 X16.004 Y162.200 F1000
G1 X16.004 Y163.448 F1000
G1 X15.796 Y163.656 F1000
G1 X15.588 Y163.656 F1000
G0 Z3.0 ; Pen up

G0 X17.044 Y167.400 F3000 ; Travel to line 151
G0 Z0.0 ; Pen down
G1 X16.628 Y167.400 F1000
G1 X16.420 Y167.608 F1000
G1 X16.420 Y167.816 F1000
G1 X16.212 Y168.024 F1000
G1 X16.212 Y168.232 F1000
G1 X16.004 Y168.440 F1000
G1 X15.796 Y168.440 F1000
G1 X15.588 Y168.232 F1000
G1 X15.588 Y167.192 F1000
G1 X15.588 Y168.440 F1000
G1 X16.212 Y168.440 F1000
G1 X16.212 Y168.232 F1000
G1 X16.420 Y168.024 F1000
G1 X16.420 Y167.816 F1000
G1 X16.836 Y167.400 F1000
G1 X17.044 Y167.608 F1000
G1 X17.044 Y168.856 F1000
G0 Z3.0 ; Pen up

G0 X17.668 Y168.232 F3000 ; Travel to line 152
G0 Z0.0 ; Pen down
G1 X17.668 Y167.608 F1000
G1 X18.292 Y166.984 F1000
G1 X18.708 Y166.984 F1000
G1 X19.332 Y167.608 F1000
G1 X19.332 Y168.232 F1000
G1 X18.708 Y168.856 F1000
G1 X18.292 Y168.856 F1000
G0 Z3.0 ; Pen up

G0 X18.084 Y168.856 F3000 ; Travel to line 153
G0 Z0.0 ; Pen down
G1 X17.668 Y168.440 F1000
G1 X17.668 Y167.400 F1000
G1 X18.084 Y166.984 F1000
G1 X18.916 Y166.984 F1000
G1 X19.332 Y167.400 F1000
G1 X19.332 Y168.440 F1000
G1 X18.916 Y168.856 F1000
G0 Z3.0 ; Pen up

G0 X19.748 Y168.856 F3000 ; Travel to line 154
G0 Z0.0 ; Pen down
G1 X20.372 Y168.856 F1000
G1 X20.580 Y168.648 F1000
G1 X20.580 Y166.984 F1000
G1 X20.580 Y168.648 F1000
G1 X20.788 Y168.856 F1000
G1 X21.412 Y168.856 F1000
G0 Z3.0 ; Pen up

G0 X22.036 Y168.856 F3000 ; Travel to line 155
G0 Z0.0 ; Pen down
G1 X21.828 Y168.648 F1000
G1 X21.828 Y167.192 F1000
G1 X22.036 Y166.984 F1000
G1 X23.076 Y166.984 F1000
G1 X22.036 Y166.984 F1000
G1 X21.828 Y167.192 F1000
G1 X21.828 Y167.816 F1000
G1 X22.036 Y168.024 F1000
G1 X23.076 Y168.024 F1000
G1 X22.036 Y168.024 F1000
G1 X21.828 Y168.232 F1000
G1 X21.828 Y168.648 F1000
G1 X22.036 Y168.856 F1000
G1 X23.076 Y168.856 F1000
G0 Z3.0 ; Pen up

G0 X23.908 Y168.856 F3000 ; Travel to line 156
G0 Z0.0 ; Pen down
G1 X23.700 Y168.648 F1000
G1 X23.700 Y168.232 F1000
G1 X23.908 Y168.024 F1000
G1 X24.116 Y168.024 F1000
G1 X24.324 Y167.816 F1000
G1 X24.532 Y167.816 F1000
G1 X24.948 Y167.400 F1000
G1 X24.532 Y166.984 F1000
G1 X23.908 Y166.984 F1000
G1 X23.700 Y167.192 F1000
G1 X23.908 Y166.984 F1000
G1 X24.740 Y166.984 F1000
G1 X24.948 Y167.192 F1000
G1 X24.948 Y167.608 F1000
G1 X24.740 Y167.816 F1000
G1 X24.532 Y167.816 F1000
G1 X24.324 Y168.024 F1000
G1 X24.116 Y168.024 F1000
G1 X23.700 Y168.440 F1000
G1 X24.116 Y168.856 F1000
G1 X24.740 Y168.856 F1000
G0 Z3.0 ; Pen up

G0 X25.780 Y168.232 F3000 ; Travel to line 157
G0 Z0.0 ; Pen down
G1 X25.780 Y168.024 F1000
G0 Z3.0 ; Pen up

G0 X25.780 Y167.192 F3000 ; Travel to line 158
G0 Z0.0 ; Pen down
G1 X25.780 Y166.984 F1000
G0 Z3.0 ; Pen up

G0 X30.980 Y186.328 F3000 ; Travel to line 159
G0 Z0.0 ; Pen down
G1 X30.980 Y188.616 F1000
G0 Z3.0 ; Pen up

G0 X33.268 Y188.408 F3000 ; Travel to line 160
G0 Z0.0 ; Pen down
G1 X33.268 Y186.952 F1000
G1 X33.268 Y188.200 F1000
G1 X33.476 Y188.408 F1000
G1 X33.684 Y188.200 F1000
G1 X33.684 Y187.992 F1000
G1 X33.892 Y187.784 F1000
G1 X33.892 Y187.576 F1000
G1 X34.100 Y187.576 F1000
G1 X34.308 Y187.784 F1000
G1 X34.308 Y187.992 F1000
G1 X34.516 Y188.200 F1000
G1 X34.724 Y187.992 F1000
G1 X34.724 Y186.952 F1000
G1 X34.724 Y188.200 F1000
G1 X34.308 Y188.200 F1000
G1 X34.308 Y187.784 F1000
G1 X34.100 Y187.576 F1000
G1 X33.684 Y187.992 F1000
G1 X33.684 Y188.408 F1000
G0 Z3.0 ; Pen up

G0 X35.556 Y187.992 F3000 ; Travel to line 161
G0 Z0.0 ; Pen down
G1 X35.556 Y187.576 F1000
G1 X35.764 Y187.368 F1000
G1 X36.180 Y187.368 F1000
G1 X36.388 Y187.576 F1000
G1 X36.180 Y187.784 F1000
G1 X36.180 Y188.200 F1000
G1 X35.972 Y188.408 F1000
G1 X35.972 Y188.408 F1000
G1 X36.180 Y188.200 F1000
G1 X36.180 Y187.784 F1000
G1 X36.388 Y187.576 F1000
G1 X36.388 Y187.368 F1000
G1 X35.556 Y187.368 F1000
G1 X35.348 Y187.160 F1000
G1 X35.348 Y186.952 F1000
G1 X35.348 Y187.368 F1000
G1 X35.556 Y187.576 F1000
G1 X35.556 Y188.200 F1000
G1 X35.764 Y188.408 F1000
G0 Z3.0 ; Pen up

G0 X36.804 Y188.616 F3000 ; Travel to line 162
G0 Z0.0 ; Pen down
G1 X37.220 Y188.616 F1000
G1 X37.428 Y188.408 F1000
G1 X37.428 Y186.952 F1000
G1 X37.428 Y188.408 F1000
G1 X37.636 Y188.616 F1000
G1 X38.052 Y188.616 F1000
G0 Z3.0 ; Pen up

G0 X38.468 Y188.616 F3000 ; Travel to line 163
G0 Z0.0 ; Pen down
G1 X38.468 Y186.952 F1000
G1 X39.508 Y186.952 F1000
G1 X38.676 Y186.952 F1000
G1 X38.468 Y187.160 F1000
G1 X38.468 Y187.576 F1000
G1 X38.676 Y187.784 F1000
G1 X39.508 Y187.784 F1000
G1 X38.676 Y187.784 F1000
G1 X38.468 Y187.992 F1000
G1 X38.468 Y188.408 F1000
G1 X38.676 Y188.616 F1000
G1 X39.508 Y188.616 F1000
G0 Z3.0 ; Pen up

G0 X39.924 Y188.616 F3000 ; Travel to line 164
G0 Z0.0 ; Pen down
G1 X39.924 Y186.952 F1000
G1 X39.924 Y187.576 F1000
G1 X40.132 Y187.784 F1000
G1 X40.548 Y187.784 F1000
G1 X40.964 Y187.368 F1000
G1 X40.964 Y186.952 F1000
G1 X40.964 Y187.368 F1000
G1 X40.756 Y187.576 F1000
G1 X40.756 Y187.784 F1000
G1 X40.964 Y187.992 F1000
G1 X40.964 Y188.408 F1000
G1 X40.756 Y188.616 F1000
G0 Z3.0 ; Pen up

G0 X39.924 Y188.408 F3000 ; Travel to line 165
G0 Z0.0 ; Pen down
G1 X40.132 Y188.616 F1000
G1 X40.548 Y188.616 F1000
G1 X40.964 Y188.200 F1000
G1 X40.548 Y187.784 F1000
G1 X40.132 Y187.784 F1000
G1 X39.924 Y187.992 F1000
G0 Z3.0 ; Pen up

G0 X41.796 Y188.616 F3000 ; Travel to line 166
G0 Z0.0 ; Pen down
G1 X41.796 Y186.952 F1000
G0 Z3.0 ; Pen up

G0 X42.628 Y187.992 F3000 ; Travel to line 167
G0 Z0.0 ; Pen down
G1 X42.628 Y187.576 F1000
G1 X42.836 Y187.368 F1000
G1 X43.252 Y187.368 F1000
G1 X43.460 Y187.576 F1000
G1 X43.252 Y187.784 F1000
G1 X43.252 Y188.200 F1000
G1 X43.044 Y188.408 F1000
G1 X43.044 Y188.408 F1000
G1 X43.252 Y188.200 F1000
G1 X43.252 Y187.784 F1000
G1 X43.460 Y187.576 F1000
G1 X43.460 Y187.368 F1000
G1 X42.628 Y187.368 F1000
G1 X42.420 Y187.160 F1000
G1 X42.420 Y186.952 F1000
G1 X42.420 Y187.368 F1000
G1 X42.628 Y187.576 F1000
G1 X42.628 Y188.200 F1000
G1 X42.836 Y188.408 F1000
G0 Z3.0 ; Pen up

G0 X44.292 Y188.616 F3000 ; Travel to line 168
G0 Z0.0 ; Pen down
G1 X44.292 Y186.952 F1000
G1 X45.540 Y186.952 F1000
G1 X44.500 Y186.952 F1000
G1 X44.292 Y187.160 F1000
G0 Z3.0 ; Pen up

G0 X47.412 Y188.616 F3000 ; Travel to line 169
G0 Z0.0 ; Pen down
G1 X47.204 Y188.408 F1000
G1 X47.204 Y187.992 F1000
G1 X47.412 Y187.784 F1000
G1 X47.828 Y187.784 F1000
G1 X48.244 Y187.368 F1000
G1 X47.828 Y186.952 F1000
G1 X47.412 Y186.952 F1000
G1 X47.204 Y187.160 F1000
G1 X47.412 Y186.952 F1000
G1 X48.036 Y186.952 F1000
G1 X48.244 Y187.160 F1000
G1 X48.244 Y187.576 F1000
G1 X48.036 Y187.784 F1000
G1 X47.620 Y187.784 F1000
G1 X47.204 Y188.200 F1000
G1 X47.620 Y188.616 F1000
G1 X48.036 Y188.616 F1000
G0 Z3.0 ; Pen up

G0 X48.660 Y188.616 F3000 ; Travel to line 170
G0 Z0.0 ; Pen down
G1 X49.076 Y188.616 F1000
G1 X49.284 Y188.408 F1000
G1 X49.284 Y186.952 F1000
G1 X49.284 Y188.408 F1000
G1 X49.492 Y188.616 F1000
G1 X49.908 Y188.616 F1000
G0 Z3.0 ; Pen up

G0 X50.324 Y188.616 F3000 ; Travel to line 171
G0 Z0.0 ; Pen down
G1 X50.324 Y186.952 F1000
G1 X51.364 Y186.952 F1000
G1 X50.532 Y186.952 F1000
G1 X50.324 Y187.160 F1000
G1 X50.324 Y187.576 F1000
G1 X50.532 Y187.784 F1000
G1 X51.364 Y187.784 F1000
G1 X50.532 Y187.784 F1000
G1 X50.324 Y187.992 F1000
G1 X50.324 Y188.408 F1000
G1 X50.532 Y188.616 F1000
G1 X51.364 Y188.616 F1000
G0 Z3.0 ; Pen up

G0 X51.988 Y188.616 F3000 ; Travel to line 172
G0 Z0.0 ; Pen down
G1 X51.988 Y186.952 F1000
G1 X53.028 Y186.952 F1000
G1 X52.196 Y186.952 F1000
G1 X51.988 Y187.160 F1000
G1 X51.988 Y187.576 F1000
G1 X52.196 Y187.784 F1000
G1 X53.028 Y187.784 F1000
G1 X52.196 Y187.784 F1000
G1 X51.988 Y187.992 F1000
G1 X51.988 Y188.408 F1000
G1 X52.196 Y188.616 F1000
G1 X53.028 Y188.616 F1000
G0 Z3.0 ; Pen up

G0 X53.444 Y188.616 F3000 ; Travel to line 173
G0 Z0.0 ; Pen down
G1 X53.444 Y186.952 F1000
G1 X54.484 Y186.952 F1000
G1 X53.652 Y186.952 F1000
G1 X53.444 Y187.160 F1000
G0 Z3.0 ; Pen up

G0 X56.772 Y186.328 F3000 ; Travel to line 174
G0 Z0.0 ; Pen down
G1 X56.772 Y188.616 F1000
G0 Z3.0 ; Pen up

G0 X58.852 Y188.616 F3000 ; Travel to line 175
G0 Z0.0 ; Pen down
G1 X58.852 Y186.952 F1000
G1 X59.684 Y186.952 F1000
G1 X59.892 Y187.160 F1000
G1 X60.100 Y187.160 F1000
G1 X60.100 Y188.408 F1000
G1 X59.892 Y188.408 F1000
G1 X59.684 Y188.616 F1000
G0 Z3.0 ; Pen up

G0 X58.852 Y188.408 F3000 ; Travel to line 176
G0 Z0.0 ; Pen down
G1 X59.060 Y188.616 F1000
G1 X59.684 Y188.616 F1000
G1 X60.100 Y188.200 F1000
G1 X60.100 Y187.368 F1000
G1 X59.684 Y186.952 F1000
G1 X59.060 Y186.952 F1000
G1 X58.852 Y187.160 F1000
G0 Z3.0 ; Pen up

G0 X60.724 Y187.992 F3000 ; Travel to line 177
G0 Z0.0 ; Pen down
G1 X60.932 Y187.784 F1000
G1 X60.932 Y187.368 F1000
G1 X61.140 Y187.160 F1000
G1 X61.348 Y187.368 F1000
G1 X61.348 Y187.992 F1000
G1 X61.556 Y188.200 F1000
G1 X61.764 Y188.200 F1000
G1 X61.764 Y187.992 F1000
G1 X61.972 Y187.784 F1000
G1 X61.972 Y187.368 F1000
G1 X62.180 Y187.160 F1000
G1 X62.388 Y187.368 F1000
G1 X62.388 Y187.992 F1000
G1 X62.596 Y188.200 F1000
G1 X62.596 Y188.616 F1000
G1 X62.596 Y187.992 F1000
G1 X62.388 Y187.784 F1000
G1 X62.388 Y187.160 F1000
G1 X61.972 Y187.160 F1000
G1 X61.972 Y187.784 F1000
G1 X61.556 Y188.200 F1000
G1 X61.348 Y187.992 F1000
G1 X61.348 Y187.368 F1000
G1 X61.140 Y187.160 F1000
G1 X60.932 Y187.160 F1000
G1 X60.932 Y187.576 F1000
G1 X60.724 Y187.784 F1000
G1 X60.724 Y188.616 F1000
G0 Z3.0 ; Pen up

G0 X63.636 Y188.616 F3000 ; Travel to line 178
G0 Z0.0 ; Pen down
G1 X63.220 Y188.200 F1000
G1 X63.220 Y187.368 F1000
G1 X63.636 Y186.952 F1000
G1 X64.260 Y186.952 F1000
G1 X64.468 Y187.160 F1000
G1 X64.468 Y187.784 F1000
G1 X64.052 Y187.784 F1000
G1 X64.260 Y187.784 F1000
G1 X64.468 Y187.576 F1000
G1 X64.468 Y187.160 F1000
G1 X64.260 Y186.952 F1000
G1 X63.636 Y186.952 F1000
G1 X63.220 Y187.368 F1000
G1 X63.220 Y188.200 F1000
G1 X63.636 Y188.616 F1000
G1 X64.260 Y188.616 F1000
G1 X64.468 Y188.408 F1000
G1 X64.260 Y188.616 F1000
G0 Z3.0 ; Pen up

G0 X67.172 Y188.616 F3000 ; Travel to line 179
G0 Z0.0 ; Pen down
G1 X67.172 Y187.576 F1000
G1 X66.964 Y187.368 F1000
G1 X66.548 Y187.784 F1000
G1 X66.548 Y187.992 F1000
G1 X66.340 Y188.200 F1000
G1 X65.924 Y188.200 F1000
G1 X65.924 Y186.952 F1000
G1 X65.924 Y187.992 F1000
G1 X66.132 Y188.200 F1000
G1 X66.548 Y187.784 F1000
G1 X66.548 Y187.576 F1000
G1 X66.756 Y187.368 F1000
G1 X67.172 Y187.368 F1000
G0 Z3.0 ; Pen up

G0 X67.796 Y188.200 F3000 ; Travel to line 180
G0 Z0.0 ; Pen down
G1 X67.796 Y187.368 F1000
G1 X68.212 Y186.952 F1000
G1 X68.628 Y186.952 F1000
G1 X69.044 Y187.368 F1000
G1 X69.044 Y188.200 F1000
G1 X68.628 Y188.616 F1000
G1 X68.212 Y188.616 F1000
G1 X68.212 Y188.616 F1000
G1 X67.796 Y188.200 F1000
G1 X67.796 Y187.368 F1000
G1 X68.212 Y186.952 F1000
G1 X68.836 Y186.952 F1000
G1 X69.044 Y187.160 F1000
G1 X69.044 Y188.408 F1000
G1 X68.836 Y188.616 F1000
G0 Z3.0 ; Pen up

G0 X71.956 Y188.616 F3000 ; Travel to line 181
G0 Z0.0 ; Pen down
G1 X71.540 Y188.200 F1000
G1 X71.540 Y187.368 F1000
G1 X71.956 Y186.952 F1000
G1 X72.580 Y186.952 F1000
G1 X72.788 Y187.160 F1000
G1 X72.788 Y187.784 F1000
G1 X72.372 Y187.784 F1000
G1 X72.580 Y187.784 F1000
G1 X72.788 Y187.576 F1000
G1 X72.788 Y187.160 F1000
G1 X72.580 Y186.952 F1000
G1 X71.956 Y186.952 F1000
G1 X71.540 Y187.368 F1000
G1 X71.540 Y188.200 F1000
G1 X71.956 Y188.616 F1000
G1 X72.580 Y188.616 F1000
G1 X72.788 Y188.408 F1000
G1 X72.996 Y188.616 F1000
G1 X73.412 Y188.616 F1000
G1 X73.620 Y188.408 F1000
G1 X73.620 Y186.952 F1000
G1 X73.620 Y188.408 F1000
G1 X73.828 Y188.616 F1000
G1 X74.244 Y188.616 F1000
G1 X72.996 Y188.616 F1000
G1 X72.788 Y188.408 F1000
G1 X72.580 Y188.616 F1000
G0 Z3.0 ; Pen up

G0 X74.660 Y187.576 F3000 ; Travel to line 182
G0 Z0.0 ; Pen down
G1 X75.076 Y187.576 F1000
G0 Z3.0 ; Pen up

G0 X75.700 Y188.616 F3000 ; Travel to line 183
G0 Z0.0 ; Pen down
G1 X75.492 Y188.408 F1000
G1 X75.700 Y188.616 F1000
G1 X76.116 Y188.616 F1000
G1 X76.324 Y188.408 F1000
G1 X76.324 Y187.992 F1000
G1 X75.700 Y187.368 F1000
G1 X75.700 Y186.952 F1000
G1 X76.324 Y186.952 F1000
G1 X75.908 Y186.952 F1000
G1 X75.700 Y187.160 F1000
G1 X76.324 Y187.784 F1000
G1 X76.324 Y188.408 F1000
G1 X76.116 Y188.616 F1000
G0 Z3.0 ; Pen up

G0 X77.156 Y188.200 F3000 ; Travel to line 184
G0 Z0.0 ; Pen down
G1 X77.156 Y187.368 F1000
G1 X77.572 Y186.952 F1000
G1 X77.780 Y186.952 F1000
G1 X77.988 Y187.160 F1000
G1 X77.988 Y187.368 F1000
G1 X78.196 Y187.576 F1000
G1 X78.196 Y187.992 F1000
G1 X77.988 Y188.200 F1000
G1 X77.988 Y188.408 F1000
G1 X77.780 Y188.616 F1000
G1 X77.572 Y188.616 F1000
G0 Z3.0 ; Pen up

G0 X77.364 Y188.616 F3000 ; Travel to line 185
G0 Z0.0 ; Pen down
G1 X77.156 Y188.408 F1000
G1 X77.156 Y187.160 F1000
G1 X77.364 Y186.952 F1000
G1 X77.780 Y186.952 F1000
G1 X78.196 Y187.368 F1000
G1 X78.196 Y188.200 F1000
G1 X77.780 Y188.616 F1000
G0 Z3.0 ; Pen up

G0 X78.820 Y188.616 F3000 ; Travel to line 186
G0 Z0.0 ; Pen down
G1 X78.612 Y188.408 F1000
G1 X78.820 Y188.616 F1000
G1 X79.236 Y188.616 F1000
G1 X79.444 Y188.408 F1000
G1 X79.444 Y187.992 F1000
G1 X78.820 Y187.368 F1000
G1 X78.820 Y186.952 F1000
G1 X79.444 Y186.952 F1000
G1 X79.028 Y186.952 F1000
G1 X78.820 Y187.160 F1000
G1 X79.444 Y187.784 F1000
G1 X79.444 Y188.408 F1000
G1 X79.236 Y188.616 F1000
G0 Z3.0 ; Pen up

G0 X80.276 Y188.616 F3000 ; Travel to line 187
G0 Z0.0 ; Pen down
G1 X80.276 Y187.992 F1000
G1 X80.900 Y187.992 F1000
G1 X81.108 Y187.784 F1000
G1 X81.108 Y187.160 F1000
G1 X80.900 Y186.952 F1000
G1 X80.484 Y186.952 F1000
G1 X80.276 Y187.160 F1000
G1 X80.484 Y186.952 F1000
G1 X80.900 Y186.952 F1000
G1 X81.108 Y187.160 F1000
G1 X81.108 Y187.784 F1000
G1 X80.900 Y187.992 F1000
G1 X80.484 Y187.992 F1000
G1 X80.276 Y188.200 F1000
G1 X80.276 Y188.408 F1000
G1 X80.484 Y188.616 F1000
G1 X81.108 Y188.616 F1000
G0 Z3.0 ; Pen up

G0 X81.732 Y187.576 F3000 ; Travel to line 188
G0 Z0.0 ; Pen down
G1 X82.148 Y187.576 F1000
G0 Z3.0 ; Pen up

G0 X82.772 Y188.200 F3000 ; Travel to line 189
G0 Z0.0 ; Pen down
G1 X82.772 Y187.368 F1000
G1 X83.188 Y186.952 F1000
G1 X83.396 Y186.952 F1000
G1 X83.604 Y187.160 F1000
G1 X83.604 Y187.368 F1000
G1 X83.812 Y187.576 F1000
G1 X83.812 Y187.992 F1000
G1 X83.604 Y188.200 F1000
G1 X83.604 Y188.408 F1000
G1 X83.396 Y188.616 F1000
G1 X83.188 Y188.616 F1000
G0 Z3.0 ; Pen up

G0 X82.980 Y188.616 F3000 ; Travel to line 190
G0 Z0.0 ; Pen down
G1 X82.772 Y188.408 F1000
G1 X82.772 Y187.160 F1000
G1 X82.980 Y186.952 F1000
G1 X83.396 Y186.952 F1000
G1 X83.812 Y187.368 F1000
G1 X83.812 Y188.200 F1000
G1 X83.396 Y188.616 F1000
G0 Z3.0 ; Pen up

G0 X84.228 Y188.200 F3000 ; Travel to line 191
G0 Z0.0 ; Pen down
G1 X84.228 Y187.368 F1000
G1 X84.644 Y186.952 F1000
G1 X84.852 Y186.952 F1000
G1 X85.060 Y187.160 F1000
G1 X85.060 Y187.368 F1000
G1 X85.268 Y187.576 F1000
G1 X85.268 Y187.992 F1000
G1 X85.060 Y188.200 F1000
G1 X85.060 Y188.408 F1000
G1 X84.852 Y188.616 F1000
G1 X84.644 Y188.616 F1000
G0 Z3.0 ; Pen up

G0 X84.436 Y188.616 F3000 ; Travel to line 192
G0 Z0.0 ; Pen down
G1 X84.228 Y188.408 F1000
G1 X84.228 Y187.160 F1000
G1 X84.436 Y186.952 F1000
G1 X84.852 Y186.952 F1000
G1 X85.268 Y187.368 F1000
G1 X85.268 Y188.200 F1000
G1 X84.852 Y188.616 F1000
G0 Z3.0 ; Pen up

G0 X85.892 Y188.616 F3000 ; Travel to line 193
G0 Z0.0 ; Pen down
G1 X86.100 Y188.616 F1000
G1 X86.308 Y188.408 F1000
G1 X86.308 Y187.160 F1000
G1 X86.100 Y186.952 F1000
G1 X86.932 Y186.952 F1000
G1 X86.516 Y186.952 F1000
G1 X86.308 Y187.160 F1000
G1 X86.308 Y188.616 F1000
G0 Z3.0 ; Pen up

G0 X86.724 Y196.312 F3000 ; Travel to line 194
G0 Z0.0 ; Pen down
G1 X86.516 Y196.104 F1000
G1 X86.308 Y196.104 F1000
G1 X85.892 Y195.688 F1000
G1 X85.892 Y195.480 F1000
G1 X85.684 Y195.272 F1000
G1 X85.684 Y194.232 F1000
G1 X85.892 Y194.024 F1000
G1 X85.892 Y193.816 F1000
G1 X86.308 Y193.400 F1000
G1 X86.516 Y193.400 F1000
G1 X86.724 Y193.192 F1000
G1 X87.764 Y193.192 F1000
G1 X87.972 Y193.400 F1000
G1 X88.180 Y193.400 F1000
G1 X88.180 Y194.648 F1000
G1 X87.556 Y194.648 F1000
G1 X87.972 Y194.648 F1000
G1 X88.180 Y194.440 F1000
G1 X88.180 Y193.608 F1000
G1 X87.764 Y193.192 F1000
G1 X86.724 Y193.192 F1000
G1 X86.516 Y193.400 F1000
G1 X86.308 Y193.400 F1000
G1 X86.100 Y193.608 F1000
G1 X86.100 Y193.816 F1000
G1 X85.684 Y194.232 F1000
G1 X85.684 Y195.272 F1000
G1 X86.100 Y195.688 F1000
G1 X86.100 Y195.896 F1000
G1 X86.308 Y196.104 F1000
G1 X86.516 Y196.104 F1000
G1 X86.724 Y196.312 F1000
G1 X87.972 Y196.312 F1000
G1 X88.388 Y195.896 F1000
G1 X87.972 Y196.312 F1000
G0 Z3.0 ; Pen up

G0 X89.844 Y196.312 F3000 ; Travel to line 195
G0 Z0.0 ; Pen down
G1 X89.844 Y193.400 F1000
G1 X90.052 Y193.192 F1000
G1 X91.508 Y193.192 F1000
G1 X90.052 Y193.192 F1000
G1 X89.844 Y193.400 F1000
G1 X89.844 Y194.648 F1000
G1 X90.052 Y194.856 F1000
G1 X91.300 Y194.856 F1000
G1 X90.052 Y194.856 F1000
G1 X89.844 Y195.064 F1000
G1 X89.844 Y196.104 F1000
G1 X90.052 Y196.312 F1000
G1 X91.300 Y196.312 F1000
G0 Z3.0 ; Pen up

G0 X93.796 Y195.480 F3000 ; Travel to line 196
G0 Z0.0 ; Pen down
G1 X93.796 Y195.064 F1000
G1 X93.588 Y194.856 F1000
G1 X93.588 Y194.440 F1000
G1 X93.380 Y194.232 F1000
G1 X93.380 Y194.024 F1000
G1 X93.588 Y193.816 F1000
G1 X95.044 Y193.816 F1000
G1 X95.252 Y194.024 F1000
G1 X95.252 Y194.648 F1000
G1 X95.044 Y194.856 F1000
G1 X95.044 Y195.272 F1000
G1 X94.836 Y195.480 F1000
G1 X94.836 Y195.688 F1000
G1 X94.628 Y195.896 F1000
G1 X94.212 Y195.896 F1000
G0 Z3.0 ; Pen up

G0 X94.004 Y195.896 F3000 ; Travel to line 197
G0 Z0.0 ; Pen down
G1 X94.004 Y195.688 F1000
G1 X93.796 Y195.480 F1000
G1 X93.796 Y195.064 F1000
G1 X93.588 Y194.856 F1000
G1 X93.588 Y194.440 F1000
G1 X93.380 Y194.232 F1000
G1 X93.380 Y194.024 F1000
G1 X93.172 Y193.816 F1000
G1 X93.172 Y193.400 F1000
G1 X93.172 Y193.608 F1000
G1 X93.380 Y193.816 F1000
G1 X95.044 Y193.816 F1000
G1 X95.252 Y194.024 F1000
G1 X95.460 Y193.816 F1000
G1 X95.460 Y193.608 F1000
G1 X95.668 Y193.400 F1000
G1 X95.460 Y193.608 F1000
G1 X95.460 Y193.816 F1000
G1 X95.252 Y194.024 F1000
G1 X95.252 Y194.648 F1000
G1 X95.044 Y194.856 F1000
G1 X95.044 Y195.272 F1000
G1 X94.836 Y195.480 F1000
G1 X94.836 Y195.688 F1000
G1 X94.628 Y195.896 F1000
G0 Z3.0 ; Pen up

G0 X97.124 Y196.104 F3000 ; Travel to line 198
G0 Z0.0 ; Pen down
G1 X97.332 Y196.312 F1000
G1 X98.372 Y196.312 F1000
G1 X98.788 Y195.896 F1000
G1 X98.788 Y194.856 F1000
G1 X98.580 Y194.648 F1000
G1 X97.332 Y194.648 F1000
G1 X97.124 Y194.856 F1000
G0 Z3.0 ; Pen up

G0 X97.124 Y196.312 F3000 ; Travel to line 199
G0 Z0.0 ; Pen down
G1 X97.124 Y193.608 F1000
G1 X97.124 Y194.440 F1000
G1 X97.332 Y194.648 F1000
G1 X98.580 Y194.648 F1000
G1 X98.788 Y194.440 F1000
G1 X98.788 Y194.024 F1000
G1 X98.996 Y193.816 F1000
G1 X98.996 Y193.608 F1000
G1 X99.204 Y193.400 F1000
G1 X99.204 Y193.192 F1000
G1 X99.412 Y193.192 F1000
G1 X99.620 Y192.984 F1000
G1 X98.996 Y193.608 F1000
G1 X98.996 Y194.024 F1000
G1 X98.788 Y194.232 F1000
G1 X98.788 Y194.440 F1000
G1 X98.580 Y194.648 F1000
G1 X98.788 Y194.856 F1000
G1 X98.788 Y196.104 F1000
G1 X98.580 Y196.312 F1000
G0 Z3.0 ; Pen up

G0 X102.116 Y196.312 F3000 ; Travel to line 200
G0 Z0.0 ; Pen down
G1 X103.156 Y196.312 F1000
G1 X103.364 Y196.104 F1000
G1 X103.364 Y193.400 F1000
G1 X103.364 Y196.104 F1000
G1 X103.572 Y196.312 F1000
G1 X104.612 Y196.312 F1000
G0 Z3.0 ; Pen up

G0 X106.068 Y196.312 F3000 ; Travel to line 201
G0 Z0.0 ; Pen down
G1 X106.068 Y193.608 F1000
G1 X106.068 Y194.440 F1000
G1 X106.276 Y194.648 F1000
G1 X107.524 Y194.648 F1000
G1 X107.732 Y194.440 F1000
G1 X107.732 Y194.024 F1000
G1 X107.940 Y193.816 F1000
G1 X107.940 Y193.608 F1000
G1 X108.148 Y193.400 F1000
G1 X108.148 Y193.192 F1000
G1 X108.356 Y193.192 F1000
G1 X108.564 Y192.984 F1000
G1 X107.940 Y193.608 F1000
G1 X107.940 Y194.024 F1000
G1 X107.732 Y194.232 F1000
G1 X107.732 Y194.440 F1000
G1 X107.524 Y194.648 F1000
G1 X107.732 Y194.856 F1000
G1 X107.732 Y196.104 F1000
G1 X107.524 Y196.312 F1000
G0 Z3.0 ; Pen up

G0 X106.068 Y196.104 F3000 ; Travel to line 202
G0 Z0.0 ; Pen down
G1 X106.276 Y196.312 F1000
G1 X107.316 Y196.312 F1000
G1 X107.732 Y195.896 F1000
G1 X107.732 Y194.856 F1000
G1 X107.524 Y194.648 F1000
G1 X106.276 Y194.648 F1000
G1 X106.068 Y194.856 F1000
G0 Z3.0 ; Pen up

G0 X110.436 Y195.480 F3000 ; Travel to line 203
G0 Z0.0 ; Pen down
G1 X110.436 Y195.064 F1000
G1 X110.228 Y194.856 F1000
G1 X110.228 Y194.440 F1000
G1 X110.020 Y194.232 F1000
G1 X110.020 Y194.024 F1000
G1 X110.228 Y193.816 F1000
G1 X111.684 Y193.816 F1000
G1 X111.892 Y194.024 F1000
G1 X111.892 Y194.648 F1000
G1 X111.684 Y194.856 F1000
G1 X111.684 Y195.272 F1000
G1 X111.476 Y195.480 F1000
G1 X111.476 Y195.688 F1000
G1 X111.268 Y195.896 F1000
G1 X110.852 Y195.896 F1000
G0 Z3.0 ; Pen up

G0 X110.644 Y195.896 F3000 ; Travel to line 204
G0 Z0.0 ; Pen down
G1 X110.644 Y195.688 F1000
G1 X110.436 Y195.480 F1000
G1 X110.436 Y195.064 F1000
G1 X110.228 Y194.856 F1000
G1 X110.228 Y194.440 F1000
G1 X110.020 Y194.232 F1000
G1 X110.020 Y194.024 F1000
G1 X109.812 Y193.816 F1000
G1 X109.812 Y193.400 F1000
G1 X109.812 Y193.608 F1000
G1 X110.020 Y193.816 F1000
G1 X111.684 Y193.816 F1000
G1 X111.892 Y194.024 F1000
G1 X112.100 Y193.816 F1000
G1 X112.100 Y193.608 F1000
G1 X112.308 Y193.400 F1000
G1 X112.100 Y193.608 F1000
G1 X112.100 Y193.816 F1000
G1 X111.892 Y194.024 F1000
G1 X111.892 Y194.648 F1000
G1 X111.684 Y194.856 F1000
G1 X111.684 Y195.272 F1000
G1 X111.476 Y195.480 F1000
G1 X111.476 Y195.688 F1000
G1 X111.268 Y195.896 F1000
G0 Z3.0 ; Pen up

G0 X113.764 Y196.104 F3000 ; Travel to line 205
G0 Z0.0 ; Pen down
G1 X113.764 Y193.608 F1000
G0 Z3.0 ; Pen up

G0 X117.924 Y193.816 F3000 ; Travel to line 206
G0 Z0.0 ; Pen down
G1 X117.716 Y193.816 F1000
G1 X117.508 Y194.024 F1000
G1 X117.300 Y194.024 F1000
G1 X116.884 Y194.440 F1000
G1 X116.884 Y194.648 F1000
G1 X116.260 Y195.272 F1000
G1 X116.052 Y195.272 F1000
G1 X115.844 Y195.480 F1000
G1 X115.636 Y195.272 F1000
G1 X115.636 Y193.608 F1000
G1 X115.636 Y195.480 F1000
G1 X115.844 Y195.480 F1000
G1 X116.052 Y195.272 F1000
G1 X116.260 Y195.272 F1000
G1 X116.468 Y195.064 F1000
G1 X116.676 Y195.064 F1000
G1 X116.676 Y194.856 F1000
G1 X116.884 Y194.648 F1000
G1 X116.884 Y194.440 F1000
G1 X117.300 Y194.024 F1000
G1 X117.508 Y194.024 F1000
G1 X117.716 Y193.816 F1000
G1 X117.924 Y194.024 F1000
G1 X117.924 Y196.104 F1000
G0 Z3.0 ; Pen up

G0 X122.084 Y195.480 F3000 ; Travel to line 207
G0 Z0.0 ; Pen down
G1 X122.084 Y195.064 F1000
G1 X121.876 Y194.856 F1000
G1 X121.876 Y194.440 F1000
G1 X121.668 Y194.232 F1000
G1 X121.668 Y194.024 F1000
G1 X121.876 Y193.816 F1000
G1 X123.332 Y193.816 F1000
G1 X123.540 Y194.024 F1000
G1 X123.540 Y194.648 F1000
G1 X123.332 Y194.856 F1000
G1 X123.332 Y195.272 F1000
G1 X123.124 Y195.480 F1000
G1 X123.124 Y195.688 F1000
G1 X122.916 Y195.896 F1000
G1 X122.500 Y195.896 F1000
G0 Z3.0 ; Pen up

G0 X122.292 Y195.896 F3000 ; Travel to line 208
G0 Z0.0 ; Pen down
G1 X122.292 Y195.688 F1000
G1 X122.084 Y195.480 F1000
G1 X122.084 Y195.064 F1000
G1 X121.876 Y194.856 F1000
G1 X121.876 Y194.440 F1000
G1 X121.668 Y194.232 F1000
G1 X121.668 Y194.024 F1000
G1 X121.460 Y193.816 F1000
G1 X121.460 Y193.400 F1000
G1 X121.460 Y193.608 F1000
G1 X121.668 Y193.816 F1000
G1 X123.332 Y193.816 F1000
G1 X123.540 Y194.024 F1000
G1 X123.748 Y193.816 F1000
G1 X123.748 Y193.608 F1000
G1 X123.956 Y193.400 F1000
G1 X123.748 Y193.608 F1000
G1 X123.748 Y193.816 F1000
G1 X123.540 Y194.024 F1000
G1 X123.540 Y194.648 F1000
G1 X123.332 Y194.856 F1000
G1 X123.332 Y195.272 F1000
G1 X123.124 Y195.480 F1000
G1 X123.124 Y195.688 F1000
G1 X122.916 Y195.896 F1000
G0 Z3.0 ; Pen up

G0 X125.828 Y196.312 F3000 ; Travel to line 209
G0 Z0.0 ; Pen down
G1 X125.620 Y196.104 F1000
G1 X125.412 Y196.104 F1000
G1 X125.412 Y195.896 F1000
G1 X125.204 Y195.688 F1000
G1 X125.204 Y195.480 F1000
G1 X125.412 Y195.272 F1000
G1 X125.412 Y195.064 F1000
G1 X125.620 Y194.856 F1000
G1 X126.036 Y194.856 F1000
G1 X126.244 Y194.648 F1000
G1 X126.660 Y194.648 F1000
G1 X127.076 Y194.232 F1000
G1 X127.076 Y193.608 F1000
G1 X126.660 Y193.192 F1000
G1 X125.620 Y193.192 F1000
