; Blueprint to G-code
; Input: test_images/test3_geometric.png
; Generated with blueprint2gcode.py

G21 ; Set units to millimeters
G90 ; Absolute positioning
G0 Z3.0 ; Pen up
G0 X0 Y0 ; Move to origin

G0 X39.480 Y128.740 F3000 ; Travel to line 1
G0 Z0.0 ; Pen down
G1 X39.220 Y128.480 F1000
G1 X39.220 Y128.220 F1000
G1 X38.960 Y127.960 F1000
G1 X38.960 Y127.700 F1000
G1 X38.700 Y127.440 F1000
G1 X38.700 Y127.180 F1000
G1 X38.440 Y126.920 F1000
G1 X38.440 Y126.660 F1000
G1 X38.180 Y126.400 F1000
G1 X38.180 Y126.140 F1000
G1 X37.920 Y125.880 F1000
G1 X37.920 Y125.620 F1000
G1 X37.660 Y125.360 F1000
G1 X37.660 Y125.100 F1000
G1 X37.400 Y124.840 F1000
G1 X37.400 Y124.580 F1000
G1 X37.140 Y124.320 F1000
G1 X37.140 Y124.060 F1000
G1 X36.880 Y123.800 F1000
G1 X36.880 Y123.540 F1000
G1 X36.620 Y123.280 F1000
G1 X36.620 Y123.020 F1000
G1 X36.360 Y122.760 F1000
G1 X36.360 Y122.500 F1000
G1 X36.100 Y122.240 F1000
G1 X36.100 Y121.980 F1000
G1 X35.840 Y121.720 F1000
G1 X35.840 Y121.460 F1000
G1 X35.580 Y121.200 F1000
G1 X35.580 Y120.940 F1000
G1 X35.320 Y120.680 F1000
G1 X35.320 Y120.420 F1000
G1 X35.060 Y120.160 F1000
G1 X35.060 Y119.900 F1000
G1 X34.800 Y119.640 F1000
G1 X34.800 Y119.380 F1000
G1 X34.540 Y119.120 F1000
G1 X34.540 Y118.860 F1000
G1 X34.280 Y118.600 F1000
G1 X34.280 Y118.340 F1000
G1 X33.760 Y117.820 F1000
G1 X32.200 Y117.820 F1000
G1 X31.940 Y117.560 F1000
G1 X30.640 Y117.560 F1000
G1 X30.380 Y117.300 F1000
G1 X28.820 Y117.300 F1000
G1 X28.560 Y117.040 F1000
G1 X27.260 Y117.040 F1000
G1 X27.000 Y116.780 F1000
G1 X25.440 Y116.780 F1000
G1 X25.180 Y116.520 F1000
G1 X23.620 Y116.520 F1000
G1 X23.360 Y116.260 F1000
G1 X22.060 Y116.260 F1000
G1 X21.800 Y116.000 F1000
G1 X21.280 Y116.000 F1000
G1 X21.020 Y115.740 F1000
G1 X21.020 Y115.220 F1000
G1 X24.920 Y111.320 F1000
G1 X25.180 Y111.320 F1000
G1 X29.860 Y106.640 F1000
G1 X29.860 Y106.380 F1000
G1 X30.120 Y106.120 F1000
G1 X29.860 Y105.860 F1000
G1 X29.860 Y104.560 F1000
G1 X29.600 Y104.300 F1000
G1 X29.600 Y103.000 F1000
G1 X29.340 Y102.740 F1000
G1 X29.340 Y101.440 F1000
G1 X29.080 Y101.180 F1000
G1 X29.080 Y100.140 F1000
G1 X28.820 Y99.880 F1000
G1 X28.820 Y98.580 F1000
G1 X28.560 Y98.320 F1000
G1 X28.560 Y97.020 F1000
G1 X28.300 Y96.760 F1000
G1 X28.300 Y95.460 F1000
G1 X28.040 Y95.200 F1000
G1 X28.040 Y93.900 F1000
G1 X28.300 Y93.640 F1000
G1 X28.560 Y93.900 F1000
G1 X28.820 Y93.900 F1000
G1 X29.080 Y94.160 F1000
G1 X29.340 Y94.160 F1000
G1 X29.600 Y94.420 F1000
G1 X29.860 Y94.420 F1000
G1 X30.120 Y94.680 F1000
G1 X30.380 Y94.680 F1000
G1 X30.640 Y94.940 F1000
G1 X30.900 Y94.940 F1000
G1 X31.160 Y95.200 F1000
G1 X31.420 Y95.200 F1000
G1 X31.680 Y95.460 F1000
G1 X31.940 Y95.460 F1000
G1 X32.200 Y95.720 F1000
G1 X32.460 Y95.720 F1000
G1 X32.720 Y95.980 F1000
G1 X32.980 Y95.980 F1000
G1 X33.240 Y96.240 F1000
G1 X33.500 Y96.240 F1000
G1 X33.760 Y96.500 F1000
G1 X34.020 Y96.500 F1000
G1 X34.280 Y96.760 F1000
G1 X34.540 Y96.760 F1000
G1 X34.800 Y97.020 F1000
G1 X35.060 Y97.020 F1000
G1 X35.320 Y97.280 F1000
G1 X35.580 Y97.280 F1000
G1 X35.840 Y97.540 F1000
G1 X36.100 Y97.540 F1000
G1 X36.360 Y97.800 F1000
G1 X36.620 Y97.800 F1000
G1 X36.880 Y98.060 F1000
G1 X37.140 Y98.060 F1000
G1 X37.400 Y98.320 F1000
G1 X37.660 Y98.320 F1000
G1 X37.920 Y98.580 F1000
G1 X38.180 Y98.580 F1000
G1 X38.440 Y98.840 F1000
G1 X38.700 Y98.840 F1000
G1 X38.960 Y99.100 F1000
G1 X41.040 Y99.100 F1000
G1 X41.300 Y98.840 F1000
G1 X41.560 Y98.840 F1000
G1 X41.820 Y98.580 F1000
G1 X42.080 Y98.580 F1000
G1 X42.340 Y98.320 F1000
G1 X42.600 Y98.320 F1000
G1 X42.860 Y98.060 F1000
G1 X43.120 Y98.060 F1000
G1 X43.380 Y97.800 F1000
G1 X43.640 Y97.800 F1000
G1 X43.900 Y97.540 F1000
G1 X44.160 Y97.540 F1000
G1 X44.420 Y97.280 F1000
G1 X44.680 Y97.280 F1000
G1 X44.940 Y97.020 F1000
G1 X45.200 Y97.020 F1000
G1 X45.460 Y96.760 F1000
G1 X45.720 Y96.760 F1000
G1 X46.240 Y96.240 F1000
G1 X46.500 Y96.240 F1000
G1 X46.760 Y95.980 F1000
G1 X47.020 Y95.980 F1000
G1 X47.280 Y95.720 F1000
G1 X47.540 Y95.720 F1000
G1 X47.800 Y95.460 F1000
G1 X48.060 Y95.460 F1000
G1 X48.320 Y95.200 F1000
G1 X48.580 Y95.200 F1000
G1 X48.840 Y94.940 F1000
G1 X49.100 Y94.940 F1000
G1 X49.360 Y94.680 F1000
G1 X49.620 Y94.680 F1000
G1 X49.880 Y94.420 F1000
G1 X50.140 Y94.420 F1000
G1 X50.400 Y94.160 F1000
G1 X50.660 Y94.160 F1000
G1 X50.920 Y93.900 F1000
G1 X51.440 Y93.900 F1000
G1 X51.700 Y94.160 F1000
G1 X51.700 Y94.680 F1000
G1 X51.440 Y94.940 F1000
G1 X51.440 Y96.240 F1000
G1 X51.180 Y96.500 F1000
G1 X51.180 Y97.800 F1000
G1 X50.920 Y98.060 F1000
G1 X50.920 Y99.100 F1000
G1 X50.660 Y99.360 F1000
G1 X50.660 Y100.660 F1000
G1 X50.400 Y100.920 F1000
G1 X50.400 Y102.220 F1000
G1 X50.140 Y102.480 F1000
G1 X50.140 Y103.780 F1000
G1 X49.880 Y104.040 F1000
G1 X49.880 Y105.340 F1000
G1 X49.620 Y105.600 F1000
G1 X49.620 Y106.380 F1000
G1 X54.560 Y111.320 F1000
G1 X54.820 Y111.320 F1000
G1 X58.720 Y115.220 F1000
G1 X58.720 Y115.480 F1000
G1 X58.980 Y115.740 F1000
G1 X58.720 Y116.000 F1000
G1 X57.940 Y116.000 F1000
G1 X57.680 Y116.260 F1000
G1 X56.380 Y116.260 F1000
G1 X56.120 Y116.520 F1000
G1 X54.560 Y116.520 F1000
G1 X54.300 Y116.780 F1000
G1 X52.740 Y116.780 F1000
G1 X52.480 Y117.040 F1000
G1 X51.180 Y117.040 F1000
G1 X50.920 Y117.300 F1000
G1 X49.360 Y117.300 F1000
G1 X49.100 Y117.560 F1000
G1 X47.800 Y117.560 F1000
G1 X47.540 Y117.820 F1000
G1 X45.980 Y117.820 F1000
G1 X45.460 Y118.340 F1000
G1 X45.460 Y118.600 F1000
G1 X45.200 Y118.860 F1000
G1 X45.200 Y119.120 F1000
G1 X44.940 Y119.380 F1000
G1 X44.940 Y119.640 F1000
G1 X44.680 Y119.900 F1000
G1 X44.680 Y120.160 F1000
G1 X44.420 Y120.420 F1000
G1 X44.420 Y120.680 F1000
G1 X44.160 Y120.940 F1000
G1 X44.160 Y121.200 F1000
G1 X43.900 Y121.460 F1000
G1 X43.900 Y121.720 F1000
G1 X43.640 Y121.980 F1000
G1 X43.640 Y122.240 F1000
G1 X43.380 Y122.500 F1000
G1 X43.380 Y122.760 F1000
G1 X43.120 Y123.020 F1000
G1 X43.120 Y123.280 F1000
G1 X42.860 Y123.540 F1000
G1 X42.860 Y123.800 F1000
G1 X42.600 Y124.060 F1000
G1 X42.600 Y124.320 F1000
G1 X42.340 Y124.580 F1000
G1 X42.340 Y124.840 F1000
G1 X42.080 Y125.100 F1000
G1 X42.080 Y125.360 F1000
G1 X41.820 Y125.620 F1000
G1 X41.820 Y125.880 F1000
G1 X41.560 Y126.140 F1000
G1 X41.560 Y126.400 F1000
G1 X41.300 Y126.660 F1000
G1 X41.300 Y126.920 F1000
G1 X41.040 Y127.180 F1000
G1 X41.040 Y127.440 F1000
G1 X40.780 Y127.700 F1000
G1 X40.780 Y127.960 F1000
G1 X40.520 Y128.220 F1000
G1 X40.520 Y128.480 F1000
G1 X40.000 Y129.000 F1000
G1 X39.740 Y128.740 F1000
G0 Z3.0 ; Pen up

G0 X40.000 Y129.000 F3000 ; Travel to line 2
G0 Z0.0 ; Pen down
G1 X40.520 Y128.480 F1000
G1 X40.520 Y128.220 F1000
G1 X40.780 Y127.960 F1000
G1 X40.780 Y127.700 F1000
G1 X41.040 Y127.440 F1000
G1 X41.040 Y127.180 F1000
G1 X41.300 Y126.920 F1000
G1 X41.300 Y126.660 F1000
G1 X41.560 Y126.400 F1000
G1 X41.560 Y126.140 F1000
G1 X41.820 Y125.880 F1000
G1 X41.820 Y125.620 F1000
G1 X42.080 Y125.360 F1000
G1 X42.080 Y125.100 F1000
G1 X42.340 Y124.840 F1000
G1 X42.340 Y124.580 F1000
G1 X42.600 Y124.320 F1000
G1 X42.600 Y124.060 F1000
G1 X42.860 Y123.800 F1000
G1 X42.860 Y123.540 F1000
G1 X43.120 Y123.280 F1000
G1 X43.120 Y123.020 F1000
G1 X43.380 Y122.760 F1000
G1 X43.380 Y122.500 F1000
G1 X43.640 Y122.240 F1000
G1 X43.640 Y121.980 F1000
G1 X43.900 Y121.720 F1000
G1 X43.900 Y121.460 F1000
G1 X44.160 Y121.200 F1000
G1 X44.160 Y120.940 F1000
G1 X44.420 Y120.680 F1000
G1 X44.420 Y120.420 F1000
G1 X44.680 Y120.160 F1000
G1 X44.680 Y119.900 F1000
G1 X44.940 Y119.640 F1000
G1 X44.940 Y119.380 F1000
G1 X45.200 Y119.120 F1000
G1 X45.200 Y118.860 F1000
G1 X45.460 Y118.600 F1000
G1 X45.460 Y118.340 F1000
G1 X45.720 Y118.080 F1000
G1 X45.980 Y118.080 F1000
G1 X46.240 Y117.820 F1000
G1 X47.540 Y117.820 F1000
G1 X47.800 Y117.560 F1000
G1 X49.100 Y117.560 F1000
G1 X49.360 Y117.300 F1000
G1 X50.920 Y117.300 F1000
G1 X51.180 Y117.040 F1000
G1 X52.480 Y117.040 F1000
G1 X52.740 Y116.780 F1000
G1 X54.300 Y116.780 F1000
G1 X54.560 Y116.520 F1000
G1 X56.120 Y116.520 F1000
G1 X56.380 Y116.260 F1000
G1 X57.680 Y116.260 F1000
G1 X57.940 Y116.000 F1000
G1 X58.720 Y116.000 F1000
G1 X58.980 Y115.740 F1000
G1 X59.240 Y116.000 F1000
G1 X58.720 Y115.480 F1000
G1 X58.720 Y115.220 F1000
G1 X54.820 Y111.320 F1000
G1 X54.560 Y111.320 F1000
G1 X49.620 Y106.380 F1000
G1 X49.620 Y105.600 F1000
G1 X49.880 Y105.340 F1000
G1 X49.880 Y104.040 F1000
G1 X50.140 Y103.780 F1000
G1 X50.140 Y102.480 F1000
G1 X50.400 Y102.220 F1000
G1 X50.400 Y100.920 F1000
G1 X50.660 Y100.660 F1000
G1 X50.660 Y99.360 F1000
G1 X50.920 Y99.100 F1000
G1 X50.920 Y98.060 F1000
G1 X51.180 Y97.800 F1000
G1 X51.180 Y96.500 F1000
G1 X51.440 Y96.240 F1000
G1 X51.440 Y94.940 F1000
G1 X51.700 Y94.680 F1000
G1 X51.700 Y93.640 F1000
G1 X52.220 Y93.120 F1000
G1 X51.960 Y93.380 F1000
G1 X51.700 Y93.380 F1000
G1 X51.700 Y93.640 F1000
G1 X51.440 Y93.900 F1000
G1 X50.660 Y93.900 F1000
G1 X50.400 Y94.160 F1000
G1 X50.140 Y94.160 F1000
G1 X49.880 Y94.420 F1000
G1 X49.620 Y94.420 F1000
G1 X49.360 Y94.680 F1000
G1 X49.100 Y94.680 F1000
G1 X48.840 Y94.940 F1000
G1 X48.580 Y94.940 F1000
G1 X48.320 Y95.200 F1000
G1 X48.060 Y95.200 F1000
G1 X47.800 Y95.460 F1000
G1 X47.540 Y95.460 F1000
G1 X47.280 Y95.720 F1000
G1 X47.020 Y95.720 F1000
G1 X46.760 Y95.980 F1000
G1 X46.500 Y95.980 F1000
G1 X45.980 Y96.500 F1000
G1 X45.720 Y96.500 F1000
G1 X45.460 Y96.760 F1000
G1 X45.200 Y96.760 F1000
G1 X44.940 Y97.020 F1000
G1 X44.680 Y97.020 F1000
G1 X44.420 Y97.280 F1000
G1 X44.160 Y97.280 F1000
G1 X43.900 Y97.540 F1000
G1 X43.640 Y97.540 F1000
G1 X43.380 Y97.800 F1000
G1 X43.120 Y97.800 F1000
G1 X42.860 Y98.060 F1000
G1 X42.600 Y98.060 F1000
G1 X42.340 Y98.320 F1000
G1 X42.080 Y98.320 F1000
G1 X41.820 Y98.580 F1000
G1 X41.560 Y98.580 F1000
G1 X41.300 Y98.840 F1000
G1 X41.040 Y98.840 F1000
G1 X40.780 Y99.100 F1000
G1 X39.220 Y99.100 F1000
G1 X38.960 Y98.840 F1000
G1 X38.700 Y98.840 F1000
G1 X38.440 Y98.580 F1000
G1 X38.180 Y98.580 F1000
G1 X37.920 Y98.320 F1000
G1 X37.660 Y98.320 F1000
G1 X37.400 Y98.060 F1000
G1 X37.140 Y98.060 F1000
G1 X36.880 Y97.800 F1000
G1 X36.620 Y97.800 F1000
G1 X36.360 Y97.540 F1000
G1 X36.100 Y97.540 F1000
G1 X35.840 Y97.280 F1000
G1 X35.580 Y97.280 F1000
G1 X35.320 Y97.020 F1000
G1 X35.060 Y97.020 F1000
G1 X34.800 Y96.760 F1000
G1 X34.540 Y96.760 F1000
G1 X34.280 Y96.500 F1000
G1 X34.020 Y96.500 F1000
G1 X33.760 Y96.240 F1000
G1 X33.500 Y96.240 F1000
G1 X33.240 Y95.980 F1000
G1 X32.980 Y95.980 F1000
G1 X32.720 Y95.720 F1000
G1 X32.460 Y95.720 F1000
G1 X32.200 Y95.460 F1000
G1 X31.940 Y95.460 F1000
G1 X31.680 Y95.200 F1000
G1 X31.420 Y95.200 F1000
G1 X31.160 Y94.940 F1000
G1 X30.900 Y94.940 F1000
G1 X30.640 Y94.680 F1000
G1 X30.380 Y94.680 F1000
G1 X30.120 Y94.420 F1000
G1 X29.860 Y94.420 F1000
G1 X29.600 Y94.160 F1000
G1 X29.340 Y94.160 F1000
G1 X29.080 Y93.900 F1000
G1 X28.560 Y93.900 F1000
G1 X28.300 Y93.640 F1000
G1 X28.040 Y93.640 F1000
G1 X27.520 Y93.120 F1000
G1 X28.040 Y93.640 F1000
G1 X28.040 Y95.200 F1000
G1 X28.300 Y95.460 F1000
G1 X28.300 Y96.760 F1000
G1 X28.560 Y97.020 F1000
G1 X28.560 Y98.320 F1000
G1 X28.820 Y98.580 F1000
G1 X28.820 Y99.880 F1000
G1 X29.080 Y100.140 F1000
G1 X29.080 Y101.180 F1000
G1 X29.340 Y101.440 F1000
G1 X29.340 Y102.740 F1000
G1 X29.600 Y103.000 F1000
G1 X29.600 Y104.300 F1000
G1 X29.860 Y104.560 F1000
G1 X29.860 Y105.860 F1000
G1 X30.120 Y106.120 F1000
G1 X29.860 Y106.380 F1000
G1 X29.860 Y106.640 F1000
G1 X25.180 Y111.320 F1000
G1 X24.920 Y111.320 F1000
G1 X21.020 Y115.220 F1000
G1 X21.020 Y115.480 F1000
G1 X20.500 Y116.000 F1000
G1 X20.760 Y115.740 F1000
G1 X21.020 Y116.000 F1000
G1 X21.800 Y116.000 F1000
G1 X22.060 Y116.260 F1000
G1 X23.360 Y116.260 F1000
G1 X23.620 Y116.520 F1000
G1 X25.180 Y116.520 F1000
G1 X25.440 Y116.780 F1000
G1 X27.000 Y116.780 F1000
G1 X27.260 Y117.040 F1000
G1 X28.560 Y117.040 F1000
G1 X28.820 Y117.300 F1000
G1 X30.380 Y117.300 F1000
G1 X30.640 Y117.560 F1000
G1 X31.940 Y117.560 F1000
G1 X32.200 Y117.820 F1000
G1 X33.500 Y117.820 F1000
G1 X33.760 Y118.080 F1000
G1 X34.020 Y118.080 F1000
G1 X34.280 Y118.340 F1000
G1 X34.280 Y118.600 F1000
G1 X34.540 Y118.860 F1000
G1 X34.540 Y119.120 F1000
G1 X34.800 Y119.380 F1000
G1 X34.800 Y119.640 F1000
G1 X35.060 Y119.900 F1000
G1 X35.060 Y120.160 F1000
G1 X35.320 Y120.420 F1000
G1 X35.320 Y120.680 F1000
G1 X35.580 Y120.940 F1000
G1 X35.580 Y121.200 F1000
G1 X35.840 Y121.460 F1000
G1 X35.840 Y121.720 F1000
G1 X36.100 Y121.980 F1000
G1 X36.100 Y122.240 F1000
G1 X36.360 Y122.500 F1000
G1 X36.360 Y122.760 F1000
G1 X36.620 Y123.020 F1000
G1 X36.620 Y123.280 F1000
G1 X36.880 Y123.540 F1000
G1 X36.880 Y123.800 F1000
G1 X37.140 Y124.060 F1000
G1 X37.140 Y124.320 F1000
G1 X37.400 Y124.580 F1000
G1 X37.400 Y124.840 F1000
G1 X37.660 Y125.100 F1000
G1 X37.660 Y125.360 F1000
G1 X37.920 Y125.620 F1000
G1 X37.920 Y125.880 F1000
G1 X38.180 Y126.140 F1000
G1 X38.180 Y126.400 F1000
G1 X38.440 Y126.660 F1000
G1 X38.440 Y126.920 F1000
G1 X38.700 Y127.180 F1000
G1 X38.700 Y127.440 F1000
G1 X38.960 Y127.700 F1000
G1 X38.960 Y127.960 F1000
G1 X39.220 Y128.220 F1000
G1 X39.220 Y128.480 F1000
G1 X40.000 Y129.260 F1000
G1 X40.000 Y129.780 F1000
G0 Z3.0 ; Pen up

G0 X84.980 Y155.520 F3000 ; Travel to line 3
G0 Z0.0 ; Pen down
G1 X84.980 Y155.260 F1000
G1 X84.720 Y155.000 F1000
G1 X84.720 Y154.740 F1000
G1 X84.460 Y154.480 F1000
G1 X84.460 Y154.220 F1000
G1 X83.940 Y153.700 F1000
G1 X83.940 Y153.440 F1000
G1 X83.680 Y153.180 F1000
G1 X83.680 Y152.920 F1000
G1 X83.420 Y152.660 F1000
G1 X83.420 Y152.400 F1000
G1 X82.900 Y151.880 F1000
G1 X82.900 Y151.620 F1000
G1 X82.640 Y151.360 F1000
G1 X82.640 Y151.100 F1000
G1 X82.380 Y150.840 F1000
G1 X82.380 Y150.580 F1000
G1 X81.860 Y150.060 F1000
G1 X81.860 Y149.800 F1000
G1 X81.600 Y149.540 F1000
G1 X81.600 Y149.280 F1000
G1 X81.340 Y149.020 F1000
G1 X81.340 Y148.760 F1000
G1 X80.820 Y148.240 F1000
G1 X80.820 Y147.980 F1000
G1 X80.560 Y147.720 F1000
G1 X80.560 Y147.460 F1000
G1 X80.300 Y147.200 F1000
G1 X80.300 Y146.940 F1000
G1 X80.040 Y146.680 F1000
G1 X80.040 Y146.420 F1000
G1 X79.520 Y145.900 F1000
G1 X79.520 Y145.640 F1000
G1 X79.260 Y145.380 F1000
G1 X79.260 Y145.120 F1000
G1 X79.000 Y144.860 F1000
G1 X79.000 Y144.600 F1000
G1 X78.480 Y144.080 F1000
G1 X78.480 Y143.820 F1000
G1 X78.220 Y143.560 F1000
G1 X78.220 Y143.300 F1000
G1 X77.960 Y143.040 F1000
G1 X77.960 Y142.780 F1000
G1 X77.440 Y142.260 F1000
G1 X77.440 Y142.000 F1000
G1 X77.180 Y141.740 F1000
G1 X77.180 Y141.480 F1000
G1 X76.920 Y141.220 F1000
G1 X76.920 Y140.960 F1000
G1 X76.400 Y140.440 F1000
G1 X76.400 Y140.180 F1000
G1 X76.140 Y139.920 F1000
G1 X76.140 Y139.660 F1000
G1 X75.880 Y139.400 F1000
G1 X75.880 Y139.140 F1000
G1 X75.360 Y138.620 F1000
G1 X75.360 Y138.360 F1000
G1 X75.100 Y138.100 F1000
G1 X75.100 Y137.840 F1000
G1 X74.840 Y137.580 F1000
G1 X74.840 Y137.320 F1000
G1 X74.320 Y136.800 F1000
G1 X74.320 Y136.540 F1000
G1 X74.060 Y136.280 F1000
G1 X74.060 Y136.020 F1000
G1 X73.800 Y135.760 F1000
G1 X73.800 Y135.500 F1000
G1 X73.280 Y134.980 F1000
G1 X73.280 Y134.720 F1000
G1 X73.020 Y134.460 F1000
G1 X73.020 Y134.200 F1000
G1 X72.760 Y133.940 F1000
G1 X72.760 Y133.680 F1000
G1 X72.240 Y133.160 F1000
G1 X72.240 Y132.900 F1000
G1 X71.980 Y132.640 F1000
G1 X71.980 Y132.380 F1000
G1 X71.720 Y132.120 F1000
G1 X71.720 Y131.860 F1000
G1 X71.200 Y131.340 F1000
G1 X71.200 Y131.080 F1000
G1 X70.940 Y130.820 F1000
G1 X70.940 Y130.560 F1000
G1 X70.680 Y130.300 F1000
G1 X70.680 Y130.040 F1000
G1 X70.420 Y129.780 F1000
G1 X70.420 Y129.520 F1000
G1 X69.900 Y129.000 F1000
G1 X69.900 Y128.740 F1000
G1 X69.640 Y128.480 F1000
G1 X69.640 Y128.220 F1000
G1 X69.380 Y127.960 F1000
G1 X69.380 Y127.700 F1000
G1 X68.860 Y127.180 F1000
G1 X68.860 Y126.920 F1000
G1 X68.600 Y126.660 F1000
G1 X68.600 Y126.400 F1000
G1 X68.340 Y126.140 F1000
G1 X68.340 Y125.880 F1000
G1 X67.820 Y125.360 F1000
G1 X67.820 Y125.100 F1000
G1 X67.560 Y124.840 F1000
G1 X67.560 Y124.580 F1000
G1 X67.300 Y124.320 F1000
G1 X67.300 Y124.060 F1000
G1 X66.780 Y123.540 F1000
G1 X66.780 Y123.280 F1000
G1 X66.520 Y123.020 F1000
G1 X66.520 Y121.980 F1000
G1 X66.780 Y121.720 F1000
G1 X66.780 Y121.460 F1000
G1 X67.300 Y120.940 F1000
G1 X67.300 Y120.680 F1000
G1 X67.560 Y120.420 F1000
G1 X67.560 Y120.160 F1000
G1 X68.080 Y119.640 F1000
G1 X68.080 Y119.380 F1000
G1 X68.340 Y119.120 F1000
G1 X68.340 Y118.860 F1000
G1 X68.600 Y118.600 F1000
G1 X68.600 Y118.340 F1000
G1 X69.120 Y117.820 F1000
G1 X69.120 Y117.560 F1000
G1 X69.380 Y117.300 F1000
G1 X69.380 Y117.040 F1000
G1 X69.900 Y116.520 F1000
G1 X69.900 Y116.260 F1000
G1 X70.160 Y116.000 F1000
G1 X70.160 Y115.740 F1000
G1 X70.420 Y115.480 F1000
G1 X70.420 Y115.220 F1000
G1 X70.940 Y114.700 F1000
G1 X70.940 Y114.440 F1000
G1 X71.200 Y114.180 F1000
G1 X71.200 Y113.920 F1000
G1 X71.720 Y113.400 F1000
G1 X71.720 Y113.140 F1000
G1 X71.980 Y112.880 F1000
G1 X71.980 Y112.620 F1000
G1 X72.240 Y112.360 F1000
G1 X72.240 Y112.100 F1000
G1 X72.760 Y111.580 F1000
G1 X72.760 Y111.320 F1000
G1 X73.020 Y111.060 F1000
G1 X73.020 Y110.800 F1000
G1 X73.280 Y110.540 F1000
G1 X73.280 Y110.280 F1000
G1 X73.800 Y109.760 F1000
G1 X73.800 Y109.500 F1000
G1 X74.060 Y109.240 F1000
G1 X74.060 Y108.980 F1000
G1 X74.580 Y108.460 F1000
G1 X74.580 Y108.200 F1000
G1 X74.840 Y107.940 F1000
G1 X74.840 Y107.680 F1000
G1 X75.100 Y107.420 F1000
G1 X75.100 Y107.160 F1000
G1 X75.620 Y106.640 F1000
G1 X75.620 Y106.380 F1000
G1 X75.880 Y106.120 F1000
G1 X75.880 Y105.860 F1000
G1 X76.400 Y105.340 F1000
G1 X76.400 Y105.080 F1000
G1 X76.660 Y104.820 F1000
G1 X76.660 Y104.560 F1000
G1 X76.920 Y104.300 F1000
G1 X76.920 Y104.040 F1000
G1 X77.440 Y103.520 F1000
G1 X77.440 Y103.260 F1000
G1 X77.700 Y103.000 F1000
G1 X77.700 Y102.740 F1000
G1 X78.220 Y102.220 F1000
G1 X78.220 Y101.960 F1000
G1 X78.480 Y101.700 F1000
G1 X78.480 Y101.440 F1000
G1 X78.740 Y101.180 F1000
G1 X78.740 Y100.920 F1000
G1 X79.260 Y100.400 F1000
G1 X79.260 Y100.140 F1000
G1 X79.520 Y99.880 F1000
G1 X79.520 Y99.620 F1000
G1 X79.780 Y99.360 F1000
G1 X79.780 Y99.100 F1000
G1 X80.300 Y98.580 F1000
G1 X80.300 Y98.320 F1000
G1 X80.560 Y98.060 F1000
G1 X80.560 Y97.800 F1000
G1 X81.080 Y97.280 F1000
G1 X81.080 Y97.020 F1000
G1 X81.340 Y96.760 F1000
G1 X81.340 Y96.500 F1000
G1 X81.600 Y96.240 F1000
G1 X81.600 Y95.980 F1000
G1 X82.120 Y95.460 F1000
G1 X82.120 Y95.200 F1000
G1 X82.380 Y94.940 F1000
G1 X82.380 Y94.680 F1000
G1 X82.900 Y94.160 F1000
G1 X82.900 Y93.900 F1000
G1 X83.160 Y93.640 F1000
G1 X83.160 Y93.380 F1000
G1 X83.420 Y93.120 F1000
G1 X83.420 Y92.860 F1000
G1 X83.940 Y92.340 F1000
G1 X83.940 Y92.080 F1000
G1 X84.200 Y91.820 F1000
G1 X84.200 Y91.560 F1000
G1 X84.720 Y91.040 F1000
G1 X84.720 Y90.780 F1000
G1 X84.980 Y90.520 F1000
G1 X84.980 Y90.260 F1000
G1 X85.240 Y90.000 F1000
G1 X85.240 Y89.740 F1000
G1 X85.760 Y89.220 F1000
G1 X124.240 Y89.220 F1000
G1 X124.500 Y89.480 F1000
G1 X124.500 Y89.740 F1000
G1 X124.760 Y90.000 F1000
G1 X124.760 Y90.260 F1000
G1 X125.020 Y90.520 F1000
G1 X125.020 Y90.780 F1000
G1 X125.540 Y91.300 F1000
G1 X125.540 Y91.560 F1000
G1 X125.800 Y91.820 F1000
G1 X125.800 Y92.080 F1000
G1 X126.320 Y92.600 F1000
G1 X126.320 Y92.860 F1000
G1 X126.580 Y93.120 F1000
G1 X126.580 Y93.380 F1000
G1 X126.840 Y93.640 F1000
G1 X126.840 Y93.900 F1000
G1 X127.360 Y94.420 F1000
G1 X127.360 Y94.680 F1000
G1 X127.620 Y94.940 F1000
G1 X127.620 Y95.200 F1000
G1 X128.140 Y95.720 F1000
G1 X128.140 Y95.980 F1000
G1 X128.400 Y96.240 F1000
G1 X128.400 Y96.500 F1000
G1 X128.660 Y96.760 F1000
G1 X128.660 Y97.020 F1000
G1 X129.180 Y97.540 F1000
G1 X129.180 Y97.800 F1000
G1 X129.440 Y98.060 F1000
G1 X129.440 Y98.320 F1000
G1 X129.960 Y98.840 F1000
G1 X129.960 Y99.100 F1000
G1 X130.220 Y99.360 F1000
G1 X130.220 Y99.620 F1000
G1 X130.480 Y99.880 F1000
G1 X130.480 Y100.140 F1000
G1 X131.000 Y100.660 F1000
G1 X131.000 Y100.920 F1000
G1 X131.260 Y101.180 F1000
G1 X131.260 Y101.440 F1000
G1 X131.520 Y101.700 F1000
G1 X131.520 Y101.960 F1000
G1 X132.040 Y102.480 F1000
G1 X132.040 Y102.740 F1000
G1 X132.300 Y103.000 F1000
G1 X132.300 Y103.260 F1000
G1 X132.820 Y103.780 F1000
G1 X132.820 Y104.040 F1000
G1 X133.080 Y104.300 F1000
G1 X133.080 Y104.560 F1000
G1 X133.340 Y104.820 F1000
G1 X133.340 Y105.080 F1000
G1 X133.860 Y105.600 F1000
G1 X133.860 Y105.860 F1000
G1 X134.120 Y106.120 F1000
G1 X134.120 Y106.380 F1000
G1 X134.640 Y106.900 F1000
G1 X134.640 Y107.160 F1000
G1 X134.900 Y107.420 F1000
G1 X134.900 Y107.680 F1000
G1 X135.160 Y107.940 F1000
G1 X135.160 Y108.200 F1000
G1 X135.680 Y108.720 F1000
G1 X135.680 Y108.980 F1000
G1 X135.940 Y109.240 F1000
G1 X135.940 Y109.500 F1000
G1 X136.460 Y110.020 F1000
G1 X136.460 Y110.280 F1000
G1 X136.720 Y110.540 F1000
G1 X136.720 Y110.800 F1000
G1 X136.980 Y111.060 F1000
G1 X136.980 Y111.320 F1000
G1 X137.500 Y111.840 F1000
G1 X137.500 Y112.100 F1000
G1 X137.760 Y112.360 F1000
G1 X137.760 Y112.620 F1000
G1 X138.020 Y112.880 F1000
G1 X138.020 Y113.140 F1000
G1 X138.540 Y113.660 F1000
G1 X138.540 Y113.920 F1000
G1 X138.800 Y114.180 F1000
G1 X138.800 Y114.440 F1000
G1 X139.320 Y114.960 F1000
G1 X139.320 Y115.220 F1000
G1 X139.580 Y115.480 F1000
G1 X139.580 Y115.740 F1000
G1 X139.840 Y116.000 F1000
G1 X139.840 Y116.260 F1000
G1 X140.360 Y116.780 F1000
G1 X140.360 Y117.040 F1000
G1 X140.620 Y117.300 F1000
G1 X140.620 Y117.560 F1000
G1 X141.140 Y118.080 F1000
G1 X141.140 Y118.340 F1000
G1 X141.400 Y118.600 F1000
G1 X141.400 Y118.860 F1000
G1 X141.660 Y119.120 F1000
G1 X141.660 Y119.380 F1000
G1 X142.180 Y119.900 F1000
G1 X142.180 Y120.160 F1000
G1 X142.440 Y120.420 F1000
G1 X142.440 Y120.680 F1000
G1 X142.960 Y121.200 F1000
G1 X142.960 Y121.460 F1000
G1 X143.220 Y121.720 F1000
G1 X143.220 Y121.980 F1000
G1 X143.480 Y122.240 F1000
G1 X143.480 Y122.760 F1000
G1 X143.220 Y123.020 F1000
G1 X143.220 Y123.280 F1000
G1 X142.700 Y123.800 F1000
G1 X142.700 Y124.060 F1000
G1 X142.440 Y124.320 F1000
G1 X142.440 Y124.580 F1000
G1 X142.180 Y124.840 F1000
G1 X142.180 Y125.100 F1000
G1 X141.660 Y125.620 F1000
G1 X141.660 Y125.880 F1000
G1 X141.400 Y126.140 F1000
G1 X141.400 Y126.400 F1000
G1 X140.880 Y126.920 F1000
G1 X140.880 Y127.180 F1000
G1 X140.620 Y127.440 F1000
G1 X140.620 Y127.700 F1000
G1 X140.360 Y127.960 F1000
G1 X140.360 Y128.220 F1000
G1 X139.840 Y128.740 F1000
G1 X139.840 Y129.000 F1000
G1 X139.580 Y129.260 F1000
G1 X139.580 Y129.520 F1000
G1 X139.060 Y130.040 F1000
G1 X139.060 Y130.300 F1000
G1 X138.800 Y130.560 F1000
G1 X138.800 Y130.820 F1000
G1 X138.540 Y131.080 F1000
G1 X138.540 Y131.340 F1000
G1 X138.020 Y131.860 F1000
G1 X138.020 Y132.120 F1000
G1 X137.760 Y132.380 F1000
G1 X137.760 Y132.640 F1000
G1 X137.240 Y133.160 F1000
G1 X137.240 Y133.420 F1000
G1 X136.980 Y133.680 F1000
G1 X136.980 Y133.940 F1000
G1 X136.720 Y134.200 F1000
G1 X136.720 Y134.460 F1000
G1 X136.200 Y134.980 F1000
G1 X136.200 Y135.240 F1000
G1 X135.940 Y135.500 F1000
G1 X135.940 Y135.760 F1000
G1 X135.420 Y136.280 F1000
G1 X135.420 Y136.540 F1000
G1 X135.160 Y136.800 F1000
G1 X135.160 Y137.060 F1000
G1 X134.900 Y137.320 F1000
G1 X134.900 Y137.580 F1000
G1 X134.380 Y138.100 F1000
G1 X134.380 Y138.360 F1000
G1 X134.120 Y138.620 F1000
G1 X134.120 Y138.880 F1000
G1 X133.600 Y139.400 F1000
G1 X133.600 Y139.660 F1000
G1 X133.340 Y139.920 F1000
G1 X133.340 Y140.180 F1000
G1 X132.820 Y140.700 F1000
G1 X132.820 Y140.960 F1000
G1 X132.560 Y141.220 F1000
G1 X132.560 Y141.480 F1000
G1 X132.300 Y141.740 F1000
G1 X132.300 Y142.000 F1000
G1 X131.780 Y142.520 F1000
G1 X131.780 Y142.780 F1000
G1 X131.520 Y143.040 F1000
G1 X131.520 Y143.300 F1000
G1 X131.000 Y143.820 F1000
G1 X131.000 Y144.080 F1000
G1 X130.740 Y144.340 F1000
G1 X130.740 Y144.600 F1000
G1 X130.480 Y144.860 F1000
G1 X130.480 Y145.120 F1000
G1 X129.960 Y145.640 F1000
G1 X129.960 Y145.900 F1000
G1 X129.700 Y146.160 F1000
G1 X129.700 Y146.420 F1000
G1 X129.180 Y146.940 F1000
G1 X129.180 Y147.200 F1000
G1 X128.920 Y147.460 F1000
G1 X128.920 Y147.720 F1000
G1 X128.660 Y147.980 F1000
G1 X128.660 Y148.240 F1000
G1 X128.140 Y148.760 F1000
G1 X128.140 Y149.020 F1000
G1 X127.880 Y149.280 F1000
G1 X127.880 Y149.540 F1000
G1 X127.360 Y150.060 F1000
G1 X127.360 Y150.320 F1000
G1 X127.100 Y150.580 F1000
G1 X127.100 Y150.840 F1000
G1 X126.840 Y151.100 F1000
G1 X126.840 Y151.360 F1000
G1 X126.320 Y151.880 F1000
G1 X126.320 Y152.140 F1000
G1 X126.060 Y152.400 F1000
G1 X126.060 Y152.660 F1000
G1 X125.540 Y153.180 F1000
G1 X125.540 Y153.440 F1000
G1 X125.280 Y153.700 F1000
G1 X125.280 Y153.960 F1000
G1 X125.020 Y154.220 F1000
G1 X125.020 Y154.480 F1000
G1 X124.500 Y155.000 F1000
G1 X124.500 Y155.260 F1000
G1 X124.240 Y155.520 F1000
G1 X124.240 Y155.780 F1000
G1 X123.980 Y156.040 F1000
G1 X85.500 Y156.040 F1000
G1 X85.500 Y156.040 F1000
G1 X84.980 Y155.520 F1000
G1 X84.980 Y155.260 F1000
G1 X84.720 Y155.000 F1000
G1 X84.720 Y154.740 F1000
G1 X84.200 Y154.220 F1000
G1 X84.200 Y153.960 F1000
G1 X83.940 Y153.700 F1000
G1 X83.940 Y153.440 F1000
G1 X83.680 Y153.180 F1000
G1 X83.680 Y152.920 F1000
G1 X83.160 Y152.400 F1000
G1 X83.160 Y152.140 F1000
G1 X82.900 Y151.880 F1000
G1 X82.900 Y151.620 F1000
G1 X82.640 Y151.360 F1000
G1 X82.640 Y151.100 F1000
G1 X82.120 Y150.580 F1000
G1 X82.120 Y150.320 F1000
G1 X81.860 Y150.060 F1000
G1 X81.860 Y149.800 F1000
G1 X81.600 Y149.540 F1000
G1 X81.600 Y149.280 F1000
G1 X81.080 Y148.760 F1000
G1 X81.080 Y148.500 F1000
G1 X80.820 Y148.240 F1000
G1 X80.820 Y147.980 F1000
G1 X80.560 Y147.720 F1000
G1 X80.560 Y147.460 F1000
G1 X80.300 Y147.200 F1000
G1 X80.300 Y146.940 F1000
G1 X79.780 Y146.420 F1000
G1 X79.780 Y146.160 F1000
G1 X79.520 Y145.900 F1000
G1 X79.520 Y145.640 F1000
G1 X79.260 Y145.380 F1000
G1 X79.260 Y145.120 F1000
G1 X78.740 Y144.600 F1000
G1 X78.740 Y144.340 F1000
G1 X78.480 Y144.080 F1000
G1 X78.480 Y143.820 F1000
G1 X78.220 Y143.560 F1000
G1 X78.220 Y143.300 F1000
G1 X77.700 Y142.780 F1000
G1 X77.700 Y142.520 F1000
G1 X77.440 Y142.260 F1000
G1 X77.440 Y142.000 F1000
G1 X77.180 Y141.740 F1000
G1 X77.180 Y141.480 F1000
G1 X76.660 Y140.960 F1000
G1 X76.660 Y140.700 F1000
G1 X76.400 Y140.440 F1000
G1 X76.400 Y140.180 F1000
G1 X76.140 Y139.920 F1000
G1 X76.140 Y139.660 F1000
G1 X75.620 Y139.140 F1000
G1 X75.620 Y138.880 F1000
G1 X75.360 Y138.620 F1000
G1 X75.360 Y138.360 F1000
G1 X75.100 Y138.100 F1000
G1 X75.100 Y137.840 F1000
G1 X74.580 Y137.320 F1000
G1 X74.580 Y137.060 F1000
G1 X74.320 Y136.800 F1000
G1 X74.320 Y136.540 F1000
G1 X74.060 Y136.280 F1000
G1 X74.060 Y136.020 F1000
G1 X73.540 Y135.500 F1000
G1 X73.540 Y135.240 F1000
G1 X73.280 Y134.980 F1000
G1 X73.280 Y134.720 F1000
G1 X73.020 Y134.460 F1000
G1 X73.020 Y134.200 F1000
G1 X72.500 Y133.680 F1000
G1 X72.500 Y133.420 F1000
G1 X72.240 Y133.160 F1000
G1 X72.240 Y132.900 F1000
G1 X71.980 Y132.640 F1000
G1 X71.980 Y132.380 F1000
G1 X71.460 Y131.860 F1000
G1 X71.460 Y131.600 F1000
G1 X71.200 Y131.340 F1000
G1 X71.200 Y131.080 F1000
G1 X70.940 Y130.820 F1000
G1 X70.940 Y130.560 F1000
G1 X70.680 Y130.300 F1000
G1 X70.680 Y130.040 F1000
G1 X70.160 Y129.520 F1000
G1 X70.160 Y129.260 F1000
G1 X69.900 Y129.000 F1000
G1 X69.900 Y128.740 F1000
G1 X69.640 Y128.480 F1000
G1 X69.640 Y128.220 F1000
G1 X69.120 Y127.700 F1000
G1 X69.120 Y127.440 F1000
G1 X68.860 Y127.180 F1000
G1 X68.860 Y126.920 F1000
G1 X68.600 Y126.660 F1000
G1 X68.600 Y126.400 F1000
G1 X68.080 Y125.880 F1000
G1 X68.080 Y125.620 F1000
G1 X67.820 Y125.360 F1000
G1 X67.820 Y125.100 F1000
G1 X67.560 Y124.840 F1000
G1 X67.560 Y124.580 F1000
G1 X67.040 Y124.060 F1000
G1 X67.040 Y123.800 F1000
G1 X66.780 Y123.540 F1000
G1 X66.780 Y123.280 F1000
G1 X66.520 Y123.020 F1000
G1 X66.520 Y121.980 F1000
G1 X66.780 Y121.720 F1000
G1 X66.780 Y121.460 F1000
G1 X67.040 Y121.200 F1000
G1 X67.040 Y120.940 F1000
G1 X67.560 Y120.420 F1000
G1 X67.560 Y120.160 F1000
G1 X67.820 Y119.900 F1000
G1 X67.820 Y119.640 F1000
G1 X68.340 Y119.120 F1000
G1 X68.340 Y118.860 F1000
G1 X68.600 Y118.600 F1000
G1 X68.600 Y118.340 F1000
G1 X68.860 Y118.080 F1000
G1 X68.860 Y117.820 F1000
G1 X69.380 Y117.300 F1000
G1 X69.380 Y117.040 F1000
G1 X69.640 Y116.780 F1000
G1 X69.640 Y116.520 F1000
G1 X70.160 Y116.000 F1000
G1 X70.160 Y115.740 F1000
G1 X70.420 Y115.480 F1000
G1 X70.420 Y115.220 F1000
G1 X70.680 Y114.960 F1000
G1 X70.680 Y114.700 F1000
G1 X71.200 Y114.180 F1000
G1 X71.200 Y113.920 F1000
G1 X71.460 Y113.660 F1000
G1 X71.460 Y113.400 F1000
G1 X71.980 Y112.880 F1000
G1 X71.980 Y112.620 F1000
G1 X72.240 Y112.360 F1000
G1 X72.240 Y112.100 F1000
G1 X72.500 Y111.840 F1000
G1 X72.500 Y111.580 F1000
G1 X73.020 Y111.060 F1000
G1 X73.020 Y110.800 F1000
G1 X73.280 Y110.540 F1000
G1 X73.280 Y110.280 F1000
G1 X73.540 Y110.020 F1000
G1 X73.540 Y109.760 F1000
G1 X74.060 Y109.240 F1000
G1 X74.060 Y108.980 F1000
G1 X74.320 Y108.720 F1000
G1 X74.320 Y108.460 F1000
G1 X74.840 Y107.940 F1000
G1 X74.840 Y107.680 F1000
G1 X75.100 Y107.420 F1000
G1 X75.100 Y107.160 F1000
G1 X75.360 Y106.900 F1000
G1 X75.360 Y106.640 F1000
G1 X75.880 Y106.120 F1000
G1 X75.880 Y105.860 F1000
G1 X76.140 Y105.600 F1000
G1 X76.140 Y105.340 F1000
G1 X76.660 Y104.820 F1000
G1 X76.660 Y104.560 F1000
G1 X76.920 Y104.300 F1000
G1 X76.920 Y104.040 F1000
G1 X77.180 Y103.780 F1000
G1 X77.180 Y103.520 F1000
G1 X77.700 Y103.000 F1000
G1 X77.700 Y102.740 F1000
G1 X77.960 Y102.480 F1000
G1 X77.960 Y102.220 F1000
G1 X78.480 Y101.700 F1000
G1 X78.480 Y101.440 F1000
G1 X78.740 Y101.180 F1000
G1 X78.740 Y100.920 F1000
G1 X79.000 Y100.660 F1000
G1 X79.000 Y100.400 F1000
G1 X79.520 Y99.880 F1000
G1 X79.520 Y99.620 F1000
G1 X79.780 Y99.360 F1000
G1 X79.780 Y99.100 F1000
G1 X80.040 Y98.840 F1000
G1 X80.040 Y98.580 F1000
G1 X80.560 Y98.060 F1000
G1 X80.560 Y97.800 F1000
G1 X80.820 Y97.540 F1000
G1 X80.820 Y97.280 F1000
G1 X81.340 Y96.760 F1000
G1 X81.340 Y96.500 F1000
G1 X81.600 Y96.240 F1000
G1 X81.600 Y95.980 F1000
G1 X81.860 Y95.720 F1000
G1 X81.860 Y95.460 F1000
G1 X82.380 Y94.940 F1000
G1 X82.380 Y94.680 F1000
G1 X82.640 Y94.420 F1000
G1 X82.640 Y94.160 F1000
G1 X83.160 Y93.640 F1000
G1 X83.160 Y93.380 F1000
G1 X83.420 Y93.120 F1000
G1 X83.420 Y92.860 F1000
G1 X83.680 Y92.600 F1000
G1 X83.680 Y92.340 F1000
G1 X84.200 Y91.820 F1000
G1 X84.200 Y91.560 F1000
G1 X84.460 Y91.300 F1000
G1 X84.460 Y91.040 F1000
G1 X84.980 Y90.520 F1000
G1 X84.980 Y90.260 F1000
G1 X85.240 Y90.000 F1000
G1 X85.240 Y89.740 F1000
G1 X85.760 Y89.220 F1000
G1 X124.240 Y89.220 F1000
G1 X124.500 Y89.480 F1000
G1 X124.500 Y89.740 F1000
G1 X124.760 Y90.000 F1000
G1 X124.760 Y90.260 F1000
G1 X125.280 Y90.780 F1000
G1 X125.280 Y91.040 F1000
G1 X125.540 Y91.300 F1000
G1 X125.540 Y91.560 F1000
G1 X126.060 Y92.080 F1000
G1 X126.060 Y92.340 F1000
G1 X126.320 Y92.600 F1000
G1 X126.320 Y92.860 F1000
G1 X126.580 Y93.120 F1000
G1 X126.580 Y93.380 F1000
G1 X127.100 Y93.900 F1000
G1 X127.100 Y94.160 F1000
G1 X127.360 Y94.420 F1000
G1 X127.360 Y94.680 F1000
G1 X127.880 Y95.200 F1000
G1 X127.880 Y95.460 F1000
G1 X128.140 Y95.720 F1000
G1 X128.140 Y95.980 F1000
G1 X128.400 Y96.240 F1000
G1 X128.400 Y96.500 F1000
G1 X128.920 Y97.020 F1000
G1 X128.920 Y97.280 F1000
G1 X129.180 Y97.540 F1000
G1 X129.180 Y97.800 F1000
G1 X129.700 Y98.320 F1000
G1 X129.700 Y98.580 F1000
G1 X129.960 Y98.840 F1000
G1 X129.960 Y99.100 F1000
G1 X130.220 Y99.360 F1000
G1 X130.220 Y99.620 F1000
G1 X130.740 Y100.140 F1000
G1 X130.740 Y100.400 F1000
G1 X131.000 Y100.660 F1000
G1 X131.000 Y100.920 F1000
G1 X131.260 Y101.180 F1000
G1 X131.260 Y101.440 F1000
G1 X131.780 Y101.960 F1000
G1 X131.780 Y102.220 F1000
G1 X132.040 Y102.480 F1000
G1 X132.040 Y102.740 F1000
G1 X132.560 Y103.260 F1000
G1 X132.560 Y103.520 F1000
G1 X132.820 Y103.780 F1000
G1 X132.820 Y104.040 F1000
G1 X133.080 Y104.300 F1000
G1 X133.080 Y104.560 F1000
G1 X133.600 Y105.080 F1000
G1 X133.600 Y105.340 F1000
G1 X133.860 Y105.600 F1000
G1 X133.860 Y105.860 F1000
G1 X134.380 Y106.380 F1000
G1 X134.380 Y106.640 F1000
G1 X134.640 Y106.900 F1000
G1 X134.640 Y107.160 F1000
G1 X134.900 Y107.420 F1000
G1 X134.900 Y107.680 F1000
G1 X135.420 Y108.200 F1000
G1 X135.420 Y108.460 F1000
G1 X135.680 Y108.720 F1000
G1 X135.680 Y108.980 F1000
G1 X136.200 Y109.500 F1000
G1 X136.200 Y109.760 F1000
G1 X136.460 Y110.020 F1000
G1 X136.460 Y110.280 F1000
G1 X136.720 Y110.540 F1000
G1 X136.720 Y110.800 F1000
G1 X137.240 Y111.320 F1000
G1 X137.240 Y111.580 F1000
G1 X137.500 Y111.840 F1000
G1 X137.500 Y112.100 F1000
G1 X137.760 Y112.360 F1000
G1 X137.760 Y112.620 F1000
G1 X138.280 Y113.140 F1000
G1 X138.280 Y113.400 F1000
G1 X138.540 Y113.660 F1000
G1 X138.540 Y113.920 F1000
G1 X139.060 Y114.440 F1000
G1 X139.060 Y114.700 F1000
G1 X139.320 Y114.960 F1000
G1 X139.320 Y115.220 F1000
G1 X139.580 Y115.480 F1000
G1 X139.580 Y115.740 F1000
G1 X140.100 Y116.260 F1000
G1 X140.100 Y116.520 F1000
G1 X140.360 Y116.780 F1000
G1 X140.360 Y117.040 F1000
G1 X140.880 Y117.560 F1000
G1 X140.880 Y117.820 F1000
G1 X141.140 Y118.080 F1000
G1 X141.140 Y118.340 F1000
G1 X141.400 Y118.600 F1000
G1 X141.400 Y118.860 F1000
G1 X141.920 Y119.380 F1000
G1 X141.920 Y119.640 F1000
G1 X142.180 Y119.900 F1000
G1 X142.180 Y120.160 F1000
G1 X142.700 Y120.680 F1000
G1 X142.700 Y120.940 F1000
G1 X142.960 Y121.200 F1000
G1 X142.960 Y121.460 F1000
G1 X143.220 Y121.720 F1000
G1 X143.220 Y121.980 F1000
G1 X143.480 Y122.240 F1000
G1 X143.480 Y122.760 F1000
G1 X143.220 Y123.020 F1000
G1 X143.220 Y123.280 F1000
G1 X142.960 Y123.540 F1000
G1 X142.960 Y123.800 F1000
G1 X142.440 Y124.320 F1000
G1 X142.440 Y124.580 F1000
G1 X142.180 Y124.840 F1000
G1 X142.180 Y125.100 F1000
G1 X141.920 Y125.360 F1000
G1 X141.920 Y125.620 F1000
G1 X141.400 Y126.140 F1000
G1 X141.400 Y126.400 F1000
G1 X141.140 Y126.660 F1000
G1 X141.140 Y126.920 F1000
G1 X140.620 Y127.440 F1000
G1 X140.620 Y127.700 F1000
G1 X140.360 Y127.960 F1000
G1 X140.360 Y128.220 F1000
G1 X140.100 Y128.480 F1000
G1 X140.100 Y128.740 F1000
G1 X139.580 Y129.260 F1000
G1 X139.580 Y129.520 F1000
G1 X139.320 Y129.780 F1000
G1 X139.320 Y130.040 F1000
G1 X138.800 Y130.560 F1000
G1 X138.800 Y130.820 F1000
G1 X138.540 Y131.080 F1000
G1 X138.540 Y131.340 F1000
G1 X138.280 Y131.600 F1000
G1 X138.280 Y131.860 F1000
G1 X137.760 Y132.380 F1000
G1 X137.760 Y132.640 F1000
G1 X137.500 Y132.900 F1000
G1 X137.500 Y133.160 F1000
G1 X136.980 Y133.680 F1000
G1 X136.980 Y133.940 F1000
G1 X136.720 Y134.200 F1000
G1 X136.720 Y134.460 F1000
G1 X136.460 Y134.720 F1000
G1 X136.460 Y134.980 F1000
G1 X135.940 Y135.500 F1000
G1 X135.940 Y135.760 F1000
G1 X135.680 Y136.020 F1000
G1 X135.680 Y136.280 F1000
G1 X135.160 Y136.800 F1000
G1 X135.160 Y137.060 F1000
G1 X134.900 Y137.320 F1000
G1 X134.900 Y137.580 F1000
G1 X134.640 Y137.840 F1000
G1 X134.640 Y138.100 F1000
G1 X134.120 Y138.620 F1000
G1 X134.120 Y138.880 F1000
G1 X133.860 Y139.140 F1000
G1 X133.860 Y139.400 F1000
G1 X133.340 Y139.920 F1000
G1 X133.340 Y140.180 F1000
G1 X133.080 Y140.440 F1000
G1 X133.080 Y140.700 F1000
G1 X132.560 Y141.220 F1000
G1 X132.560 Y141.480 F1000
G1 X132.300 Y141.740 F1000
G1 X132.300 Y142.000 F1000
G1 X132.040 Y142.260 F1000
G1 X132.040 Y142.520 F1000
G1 X131.520 Y143.040 F1000
G1 X131.520 Y143.300 F1000
G1 X131.260 Y143.560 F1000
G1 X131.260 Y143.820 F1000
G1 X130.740 Y144.340 F1000
G1 X130.740 Y144.600 F1000
G1 X130.480 Y144.860 F1000
G1 X130.480 Y145.120 F1000
G1 X130.220 Y145.380 F1000
G1 X130.220 Y145.640 F1000
G1 X129.700 Y146.160 F1000
G1 X129.700 Y146.420 F1000
G1 X129.440 Y146.680 F1000
G1 X129.440 Y146.940 F1000
G1 X128.920 Y147.460 F1000
G1 X128.920 Y147.720 F1000
G1 X128.660 Y147.980 F1000
G1 X128.660 Y148.240 F1000
G1 X128.400 Y148.500 F1000
G1 X128.400 Y148.760 F1000
G1 X127.880 Y149.280 F1000
G1 X127.880 Y149.540 F1000
G1 X127.620 Y149.800 F1000
G1 X127.620 Y150.060 F1000
G1 X127.100 Y150.580 F1000
G1 X127.100 Y150.840 F1000
G1 X126.840 Y151.100 F1000
G1 X126.840 Y151.360 F1000
G1 X126.580 Y151.620 F1000
G1 X126.580 Y151.880 F1000
G1 X126.060 Y152.400 F1000
G1 X126.060 Y152.660 F1000
G1 X125.800 Y152.920 F1000
G1 X125.800 Y153.180 F1000
G1 X125.280 Y153.700 F1000
G1 X125.280 Y153.960 F1000
G1 X125.020 Y154.220 F1000
G1 X125.020 Y154.480 F1000
G1 X124.760 Y154.740 F1000
G1 X124.760 Y155.000 F1000
G1 X124.240 Y155.520 F1000
G1 X124.240 Y155.780 F1000
G1 X123.980 Y156.040 F1000
G0 Z3.0 ; Pen up

G0 X165.840 Y131.080 F3000 ; Travel to line 4
G0 Z0.0 ; Pen down
G1 X165.580 Y130.820 F1000
G1 X165.060 Y130.820 F1000
G1 X164.800 Y130.560 F1000
G1 X164.280 Y130.560 F1000
G1 X164.020 Y130.300 F1000
G1 X163.760 Y130.300 F1000
G1 X163.500 Y130.040 F1000
G1 X162.980 Y130.040 F1000
G1 X162.720 Y129.780 F1000
G1 X162.200 Y129.780 F1000
G1 X161.940 Y129.520 F1000
G1 X161.420 Y129.520 F1000
G1 X161.160 Y129.260 F1000
G1 X160.640 Y129.260 F1000
G1 X160.120 Y128.740 F1000
G1 X159.860 Y128.740 F1000
G1 X159.340 Y128.220 F1000
G1 X159.080 Y128.220 F1000
G1 X158.300 Y127.440 F1000
G1 X158.040 Y127.440 F1000
G1 X157.520 Y126.920 F1000
G1 X157.260 Y126.920 F1000
G1 X156.480 Y126.140 F1000
G1 X156.220 Y126.140 F1000
G1 X155.700 Y125.620 F1000
G1 X155.440 Y125.620 F1000
G1 X154.660 Y124.840 F1000
G1 X154.660 Y124.580 F1000
G1 X153.880 Y123.800 F1000
G1 X153.880 Y123.540 F1000
G1 X153.100 Y122.760 F1000
G1 X153.100 Y122.500 F1000
G1 X152.320 Y121.720 F1000
G1 X152.320 Y121.460 F1000
G1 X151.540 Y120.680 F1000
G1 X151.540 Y120.420 F1000
G1 X151.280 Y120.160 F1000
G1 X151.280 Y119.900 F1000
G1 X151.020 Y119.640 F1000
G1 X151.020 Y119.120 F1000
G1 X150.760 Y118.860 F1000
G1 X150.760 Y118.340 F1000
G1 X150.500 Y118.080 F1000
G1 X150.500 Y117.560 F1000
G1 X150.240 Y117.300 F1000
G1 X150.240 Y117.040 F1000
G1 X149.980 Y116.780 F1000
G1 X149.980 Y116.260 F1000
G1 X149.720 Y116.000 F1000
G1 X149.720 Y115.480 F1000
G1 X149.460 Y115.220 F1000
G1 X149.460 Y114.700 F1000
G1 X149.200 Y114.440 F1000
G1 X149.200 Y111.060 F1000
G1 X148.940 Y110.800 F1000
G1 X148.940 Y108.200 F1000
G1 X149.200 Y107.940 F1000
G1 X149.200 Y107.160 F1000
G1 X149.460 Y106.900 F1000
G1 X149.460 Y106.120 F1000
G1 X149.720 Y105.860 F1000
G1 X149.720 Y105.080 F1000
G1 X149.980 Y104.820 F1000
G1 X149.980 Y104.040 F1000
G1 X150.240 Y103.780 F1000
G1 X150.240 Y103.000 F1000
G1 X150.500 Y102.740 F1000
G1 X150.500 Y102.220 F1000
G1 X150.760 Y101.960 F1000
G1 X150.760 Y101.700 F1000
G1 X151.020 Y101.440 F1000
G1 X151.020 Y101.180 F1000
G1 X151.540 Y100.660 F1000
G1 X151.540 Y100.400 F1000
G1 X151.800 Y100.140 F1000
G1 X151.800 Y99.880 F1000
G1 X152.320 Y99.360 F1000
G1 X152.320 Y99.100 F1000
G1 X152.580 Y98.840 F1000
G1 X152.580 Y98.580 F1000
G1 X153.100 Y98.060 F1000
G1 X153.100 Y97.800 F1000
G1 X153.360 Y97.540 F1000
G1 X153.360 Y97.280 F1000
G1 X154.400 Y96.240 F1000
G1 X154.660 Y96.240 F1000
G1 X155.960 Y94.940 F1000
G1 X156.220 Y94.940 F1000
G1 X157.520 Y93.640 F1000
G1 X157.780 Y93.640 F1000
G1 X158.560 Y92.860 F1000
G1 X158.820 Y92.860 F1000
G1 X159.080 Y92.600 F1000
G1 X159.600 Y92.600 F1000
G1 X159.860 Y92.340 F1000
G1 X160.120 Y92.340 F1000
G1 X160.380 Y92.080 F1000
G1 X160.640 Y92.080 F1000
G1 X160.900 Y91.820 F1000
G1 X161.420 Y91.820 F1000
G1 X161.680 Y91.560 F1000
G1 X161.940 Y91.560 F1000
G1 X162.200 Y91.300 F1000
G1 X162.460 Y91.300 F1000
G1 X162.720 Y91.040 F1000
G1 X163.240 Y91.040 F1000
G1 X163.500 Y90.780 F1000
G1 X163.760 Y90.780 F1000
G1 X164.020 Y90.520 F1000
G1 X165.840 Y90.520 F1000
G1 X166.100 Y90.260 F1000
G1 X167.660 Y90.260 F1000
G1 X167.920 Y90.000 F1000
G1 X171.040 Y90.000 F1000
G1 X171.300 Y90.260 F1000
G1 X172.340 Y90.260 F1000
G1 X172.600 Y90.520 F1000
G1 X173.380 Y90.520 F1000
G1 X173.640 Y90.780 F1000
G1 X174.680 Y90.780 F1000
G1 X174.940 Y91.040 F1000
G1 X175.720 Y91.040 F1000
G1 X175.980 Y91.300 F1000
G1 X176.240 Y91.300 F1000
G1 X176.500 Y91.560 F1000
G1 X176.760 Y91.560 F1000
G1 X177.020 Y91.820 F1000
G1 X177.280 Y91.820 F1000
G1 X177.540 Y92.080 F1000
G1 X177.800 Y92.080 F1000
G1 X178.060 Y92.340 F1000
G1 X178.320 Y92.340 F1000
G1 X178.580 Y92.600 F1000
G1 X178.840 Y92.600 F1000
G1 X179.100 Y92.860 F1000
G1 X179.360 Y92.860 F1000
G1 X179.620 Y93.120 F1000
G1 X179.880 Y93.120 F1000
G1 X180.140 Y93.380 F1000
G1 X180.400 Y93.380 F1000
G1 X180.660 Y93.640 F1000
G1 X180.920 Y93.640 F1000
G1 X183.000 Y95.720 F1000
G1 X183.000 Y95.980 F1000
G1 X185.080 Y98.060 F1000
G1 X185.080 Y98.320 F1000
G1 X185.340 Y98.580 F1000
G1 X185.340 Y98.840 F1000
G1 X185.600 Y99.100 F1000
G1 X185.600 Y99.360 F1000
G1 X186.120 Y99.880 F1000
G1 X186.120 Y100.140 F1000
G1 X186.380 Y100.400 F1000
G1 X186.380 Y100.660 F1000
G1 X186.900 Y101.180 F1000
G1 X186.900 Y101.440 F1000
G1 X187.160 Y101.700 F1000
G1 X187.160 Y101.960 F1000
G1 X187.420 Y102.220 F1000
G1 X187.420 Y102.480 F1000
G1 X187.680 Y102.740 F1000
G1 X187.680 Y103.000 F1000
G1 X187.940 Y103.260 F1000
G1 X187.940 Y104.560 F1000
G1 X188.200 Y104.820 F1000
G1 X188.200 Y105.860 F1000
G1 X188.460 Y106.120 F1000
G1 X188.460 Y107.420 F1000
G1 X188.720 Y107.680 F1000
G1 X188.720 Y109.500 F1000
G1 X188.460 Y109.760 F1000
G1 X188.460 Y111.320 F1000
G1 X188.200 Y111.580 F1000
G1 X188.200 Y113.140 F1000
G1 X187.940 Y113.400 F1000
G1 X187.940 Y114.440 F1000
G1 X187.680 Y114.700 F1000
G1 X187.680 Y114.960 F1000
G1 X187.420 Y115.220 F1000
G1 X187.420 Y115.480 F1000
G1 X187.160 Y115.740 F1000
G1 X187.160 Y116.000 F1000
G1 X186.900 Y116.260 F1000
G1 X186.900 Y116.520 F1000
G1 X186.640 Y116.780 F1000
G1 X186.640 Y117.040 F1000
G1 X186.380 Y117.300 F1000
G1 X186.380 Y117.560 F1000
G1 X186.120 Y117.820 F1000
G1 X186.120 Y118.080 F1000
G1 X185.860 Y118.340 F1000
G1 X185.860 Y118.600 F1000
G1 X184.820 Y119.640 F1000
G1 X184.820 Y119.900 F1000
G1 X183.000 Y121.720 F1000
G1 X183.000 Y121.980 F1000
G1 X181.960 Y123.020 F1000
G1 X181.700 Y123.020 F1000
G1 X181.180 Y123.540 F1000
G1 X180.920 Y123.540 F1000
G1 X180.400 Y124.060 F1000
G1 X180.140 Y124.060 F1000
G1 X179.620 Y124.580 F1000
G1 X179.360 Y124.580 F1000
G1 X178.840 Y125.100 F1000
G1 X178.580 Y125.100 F1000
G1 X178.060 Y125.620 F1000
G1 X177.800 Y125.620 F1000
G1 X177.540 Y125.880 F1000
G1 X176.760 Y125.880 F1000
G1 X176.500 Y126.140 F1000
G1 X175.720 Y126.140 F1000
G1 X175.460 Y126.400 F1000
G1 X174.680 Y126.400 F1000
G1 X174.420 Y126.660 F1000
G1 X173.640 Y126.660 F1000
G1 X173.380 Y126.920 F1000
G1 X167.140 Y126.920 F1000
G1 X166.880 Y126.660 F1000
G1 X166.360 Y126.660 F1000
G1 X166.100 Y126.400 F1000
G1 X165.840 Y126.400 F1000
G1 X165.580 Y126.140 F1000
G1 X165.060 Y126.140 F1000
G1 X164.800 Y125.880 F1000
G1 X164.280 Y125.880 F1000
G1 X164.020 Y125.620 F1000
G1 X163.500 Y125.620 F1000
G1 X163.240 Y125.360 F1000
G1 X162.980 Y125.360 F1000
G1 X162.720 Y125.100 F1000
G1 X162.200 Y125.100 F1000
G1 X161.680 Y124.580 F1000
G1 X161.420 Y124.580 F1000
G1 X160.640 Y123.800 F1000
G1 X160.380 Y123.800 F1000
G1 X159.600 Y123.020 F1000
G1 X159.340 Y123.020 F1000
G1 X158.560 Y122.240 F1000
G1 X158.300 Y122.240 F1000
G1 X157.520 Y121.460 F1000
G1 X157.520 Y121.200 F1000
G1 X157.000 Y120.680 F1000
G1 X157.000 Y120.420 F1000
G1 X156.480 Y119.900 F1000
G1 X156.480 Y119.640 F1000
G1 X155.700 Y118.860 F1000
G1 X155.700 Y118.600 F1000
G1 X155.180 Y118.080 F1000
G1 X155.180 Y117.820 F1000
G1 X154.920 Y117.560 F1000
G1 X154.920 Y117.300 F1000
G1 X154.660 Y117.040 F1000
G1 X154.660 Y116.520 F1000
G1 X154.400 Y116.260 F1000
G1 X154.400 Y115.740 F1000
G1 X154.140 Y115.480 F1000
G1 X154.140 Y114.960 F1000
G1 X153.880 Y114.700 F1000
G1 X153.880 Y114.180 F1000
G1 X153.620 Y113.920 F1000
G1 X153.620 Y113.400 F1000
G1 X153.360 Y113.140 F1000
G1 X153.360 Y110.540 F1000
G1 X153.100 Y110.280 F1000
G1 X153.100 Y108.200 F1000
G1 X153.360 Y107.940 F1000
G1 X153.360 Y107.420 F1000
G1 X153.620 Y107.160 F1000
G1 X153.620 Y106.640 F1000
G1 X153.880 Y106.380 F1000
G1 X153.880 Y105.860 F1000
G1 X154.140 Y105.600 F1000
G1 X154.140 Y105.080 F1000
G1 X154.400 Y104.820 F1000
G1 X154.400 Y104.300 F1000
G1 X154.660 Y104.040 F1000
G1 X154.660 Y103.780 F1000
G1 X154.920 Y103.520 F1000
G1 X154.920 Y103.260 F1000
G1 X155.440 Y102.740 F1000
G1 X155.440 Y102.480 F1000
G1 X155.700 Y102.220 F1000
G1 X155.700 Y101.960 F1000
G1 X156.220 Y101.440 F1000
G1 X156.220 Y101.180 F1000
G1 X156.740 Y100.660 F1000
G1 X156.740 Y100.400 F1000
G1 X157.000 Y100.140 F1000
G1 X157.000 Y99.880 F1000
G1 X158.300 Y98.580 F1000
G1 X158.560 Y98.580 F1000
G1 X160.120 Y97.020 F1000
G1 X160.380 Y97.020 F1000
G1 X161.160 Y96.240 F1000
G1 X161.680 Y96.240 F1000
G1 X161.940 Y95.980 F1000
G1 X162.460 Y95.980 F1000
G1 X162.720 Y95.720 F1000
G1 X163.240 Y95.720 F1000
G1 X163.500 Y95.460 F1000
G1 X163.760 Y95.460 F1000
G1 X164.020 Y95.200 F1000
G1 X164.540 Y95.200 F1000
G1 X164.800 Y94.940 F1000
G1 X165.320 Y94.940 F1000
G1 X165.580 Y94.680 F1000
G1 X167.660 Y94.680 F1000
G1 X167.920 Y94.420 F1000
G1 X171.300 Y94.420 F1000
G1 X171.560 Y94.680 F1000
G1 X172.340 Y94.680 F1000
G1 X172.600 Y94.940 F1000
G1 X173.640 Y94.940 F1000
G1 X173.900 Y95.200 F1000
G1 X174.680 Y95.200 F1000
G1 X174.940 Y95.460 F1000
G1 X175.200 Y95.460 F1000
G1 X175.460 Y95.720 F1000
G1 X175.720 Y95.720 F1000
G1 X175.980 Y95.980 F1000
G1 X176.240 Y95.980 F1000
G1 X176.760 Y96.500 F1000
G1 X177.020 Y96.500 F1000
G1 X177.280 Y96.760 F1000
G1 X177.540 Y96.760 F1000
G1 X177.800 Y97.020 F1000
G1 X178.060 Y97.020 F1000
G1 X178.320 Y97.280 F1000
G1 X178.580 Y97.280 F1000
G1 X180.140 Y98.840 F1000
G1 X180.140 Y99.100 F1000
G1 X181.960 Y100.920 F1000
G1 X181.960 Y101.180 F1000
G1 X182.220 Y101.440 F1000
G1 X182.220 Y101.700 F1000
G1 X182.480 Y101.960 F1000
G1 X182.480 Y102.220 F1000
G1 X182.740 Y102.480 F1000
G1 X182.740 Y102.740 F1000
G1 X183.000 Y103.000 F1000
G1 X183.000 Y103.260 F1000
G1 X183.260 Y103.520 F1000
G1 X183.260 Y103.780 F1000
G1 X183.520 Y104.040 F1000
G1 X183.520 Y104.820 F1000
G1 X183.780 Y105.080 F1000
G1 X183.780 Y106.380 F1000
G1 X184.040 Y106.640 F1000
G1 X184.040 Y107.940 F1000
G1 X184.300 Y108.200 F1000
G1 X184.300 Y109.760 F1000
G1 X184.040 Y110.020 F1000
G1 X184.040 Y111.320 F1000
G1 X183.780 Y111.580 F1000
G1 X183.780 Y112.620 F1000
G1 X183.520 Y112.880 F1000
G1 X183.520 Y113.660 F1000
G1 X183.260 Y113.920 F1000
G1 X183.260 Y114.180 F1000
G1 X183.000 Y114.440 F1000
G1 X183.000 Y114.700 F1000
G1 X182.740 Y114.960 F1000
G1 X182.740 Y115.220 F1000
G1 X182.480 Y115.480 F1000
G1 X182.480 Y115.740 F1000
G1 X182.220 Y116.000 F1000
G1 X182.220 Y116.260 F1000
G1 X181.960 Y116.520 F1000
G1 X181.960 Y116.780 F1000
G1 X178.840 Y119.900 F1000
G1 X178.580 Y119.900 F1000
G1 X178.060 Y120.420 F1000
G1 X177.800 Y120.420 F1000
G1 X177.280 Y120.940 F1000
G1 X177.020 Y120.940 F1000
G1 X176.760 Y121.200 F1000
G1 X176.500 Y121.200 F1000
G1 X175.980 Y121.720 F1000
G1 X175.720 Y121.720 F1000
G1 X175.460 Y121.980 F1000
G1 X174.680 Y121.980 F1000
G1 X174.420 Y122.240 F1000
G1 X173.640 Y122.240 F1000
G1 X173.380 Y122.500 F1000
G1 X172.860 Y122.500 F1000
G1 X172.600 Y122.760 F1000
G1 X169.740 Y122.760 F1000
G1 X169.480 Y122.500 F1000
G1 X167.660 Y122.500 F1000
G1 X167.400 Y122.240 F1000
G1 X166.880 Y122.240 F1000
G1 X166.620 Y121.980 F1000
G1 X166.100 Y121.980 F1000
G1 X165.840 Y121.720 F1000
G1 X165.580 Y121.720 F1000
G1 X165.320 Y121.460 F1000
G1 X164.800 Y121.460 F1000
G1 X164.540 Y121.200 F1000
G1 X164.020 Y121.200 F1000
G1 X163.240 Y120.420 F1000
G1 X162.980 Y120.420 F1000
G1 X161.680 Y119.120 F1000
G1 X161.420 Y119.120 F1000
G1 X160.380 Y118.080 F1000
G1 X160.380 Y117.820 F1000
G1 X159.860 Y117.300 F1000
G1 X159.860 Y117.040 F1000
G1 X159.340 Y116.520 F1000
G1 X159.340 Y116.260 F1000
G1 X158.820 Y115.740 F1000
G1 X158.820 Y115.480 F1000
G1 X158.560 Y115.220 F1000
G1 X158.560 Y114.960 F1000
G1 X158.300 Y114.700 F1000
G1 X158.300 Y114.180 F1000
G1 X158.040 Y113.920 F1000
G1 X158.040 Y113.140 F1000
G1 X157.780 Y112.880 F1000
G1 X157.780 Y112.360 F1000
G1 X157.520 Y112.100 F1000
G1 X157.520 Y108.200 F1000
G1 X157.780 Y107.940 F1000
G1 X157.780 Y107.420 F1000
G1 X158.040 Y107.160 F1000
G1 X158.040 Y106.380 F1000
G1 X158.300 Y106.120 F1000
G1 X158.300 Y105.600 F1000
G1 X158.560 Y105.340 F1000
G1 X158.560 Y105.080 F1000
G1 X158.820 Y104.820 F1000
G1 X158.820 Y104.560 F1000
G1 X159.600 Y103.780 F1000
G1 X159.600 Y103.520 F1000
G1 X160.380 Y102.740 F1000
G1 X160.380 Y102.480 F1000
G1 X161.160 Y101.700 F1000
G1 X161.420 Y101.700 F1000
G1 X162.200 Y100.920 F1000
G1 X162.460 Y100.920 F1000
G1 X162.980 Y100.400 F1000
G1 X163.240 Y100.400 F1000
G1 X163.760 Y99.880 F1000
G1 X164.280 Y99.880 F1000
G1 X164.540 Y99.620 F1000
G1 X165.060 Y99.620 F1000
G1 X165.320 Y99.360 F1000
G1 X165.840 Y99.360 F1000
G1 X166.100 Y99.100 F1000
G1 X166.620 Y99.100 F1000
G1 X166.880 Y98.840 F1000
G1 X171.300 Y98.840 F1000
G1 X171.560 Y99.100 F1000
G1 X172.340 Y99.100 F1000
G1 X172.600 Y99.360 F1000
G1 X173.380 Y99.360 F1000
G1 X173.640 Y99.620 F1000
G1 X173.900 Y99.620 F1000
G1 X174.420 Y100.140 F1000
G1 X174.680 Y100.140 F1000
G1 X175.200 Y100.660 F1000
G1 X175.460 Y100.660 F1000
G1 X175.980 Y101.180 F1000
G1 X176.240 Y101.180 F1000
G1 X177.280 Y102.220 F1000
G1 X177.280 Y102.480 F1000
G1 X178.580 Y103.780 F1000
G1 X178.580 Y104.040 F1000
G1 X178.840 Y104.300 F1000
G1 X178.840 Y104.560 F1000
G1 X179.100 Y104.820 F1000
G1 X179.100 Y105.080 F1000
G1 X179.360 Y105.340 F1000
G1 X179.360 Y105.600 F1000
G1 X179.620 Y105.860 F1000
G1 X179.620 Y107.420 F1000
G1 X179.880 Y107.680 F1000
G1 X179.880 Y110.020 F1000
G1 X179.620 Y110.280 F1000
G1 X179.620 Y111.580 F1000
G1 X179.360 Y111.840 F1000
G1 X179.360 Y112.620 F1000
G1 X179.100 Y112.880 F1000
G1 X179.100 Y113.140 F1000
G1 X178.840 Y113.400 F1000
G1 X178.840 Y113.660 F1000
G1 X178.580 Y113.920 F1000
G1 X178.580 Y114.180 F1000
G1 X175.980 Y116.780 F1000
G1 X175.720 Y116.780 F1000
G1 X175.460 Y117.040 F1000
G1 X175.200 Y117.040 F1000
G1 X174.940 Y117.300 F1000
G1 X174.680 Y117.300 F1000
G1 X174.420 Y117.560 F1000
G1 X174.160 Y117.560 F1000
G1 X173.900 Y117.820 F1000
G1 X173.640 Y117.820 F1000
G1 X173.380 Y118.080 F1000
G1 X172.340 Y118.080 F1000
G1 X172.080 Y118.340 F1000
G1 X168.180 Y118.340 F1000
G1 X167.920 Y118.080 F1000
G1 X167.660 Y118.080 F1000
G1 X167.400 Y117.820 F1000
G1 X167.140 Y117.820 F1000
G1 X166.880 Y117.560 F1000
G1 X166.360 Y117.560 F1000
G1 X166.100 Y117.300 F1000
G1 X165.840 Y117.300 F1000
G1 X163.500 Y114.960 F1000
G1 X163.500 Y114.700 F1000
G1 X163.240 Y114.440 F1000
G1 X163.240 Y114.180 F1000
G1 X162.720 Y113.660 F1000
G1 X162.720 Y113.400 F1000
G1 X162.460 Y113.140 F1000
G1 X162.460 Y112.880 F1000
G1 X162.200 Y112.620 F1000
G1 X162.200 Y112.100 F1000
G1 X161.940 Y111.840 F1000
G1 X161.940 Y111.320 F1000
G1 X161.680 Y111.060 F1000
G1 X161.680 Y110.280 F1000
G1 X161.940 Y110.020 F1000
G1 X161.940 Y108.720 F1000
G1 X162.200 Y108.460 F1000
G1 X162.200 Y108.200 F1000
G1 X162.460 Y107.940 F1000
G1 X162.460 Y107.420 F1000
G1 X162.720 Y107.160 F1000
G1 X162.720 Y106.900 F1000
G1 X162.980 Y106.640 F1000
G1 X162.980 Y106.380 F1000
G1 X163.760 Y105.600 F1000
G1 X163.760 Y105.340 F1000
G1 X164.540 Y104.560 F1000
G1 X164.800 Y104.560 F1000
G1 X165.320 Y104.040 F1000
G1 X165.580 Y104.040 F1000
G1 X166.100 Y103.520 F1000
G1 X166.880 Y103.520 F1000
G1 X167.140 Y103.260 F1000
G1 X171.040 Y103.260 F1000
G1 X171.300 Y103.520 F1000
G1 X172.080 Y103.520 F1000
G1 X172.340 Y103.780 F1000
G1 X172.600 Y103.780 F1000
G1 X173.120 Y104.300 F1000
G1 X173.380 Y104.300 F1000
G1 X174.420 Y105.340 F1000
G1 X174.420 Y105.600 F1000
G1 X175.200 Y106.380 F1000
G1 X175.200 Y106.900 F1000
G1 X175.460 Y107.160 F1000
G1 X175.460 Y110.540 F1000
G1 X175.200 Y110.800 F1000
G1 X175.200 Y111.060 F1000
G1 X174.940 Y111.320 F1000
G1 X174.940 Y111.580 F1000
G1 X174.420 Y112.100 F1000
G1 X174.420 Y112.360 F1000
G1 X173.900 Y112.880 F1000
G1 X173.640 Y112.880 F1000
G1 X173.120 Y113.400 F1000
G1 X172.860 Y113.400 F1000
G1 X172.340 Y113.920 F1000
G1 X172.080 Y113.920 F1000
G1 X171.820 Y114.180 F1000
G1 X170.520 Y114.180 F1000
G1 X170.260 Y113.920 F1000
G1 X168.960 Y113.920 F1000
G1 X168.700 Y113.660 F1000
G1 X168.440 Y113.660 F1000
G1 X168.180 Y113.400 F1000
G1 X167.920 Y113.400 F1000
G1 X166.360 Y111.840 F1000
G1 X166.360 Y111.320 F1000
G1 X166.100 Y111.060 F1000
G1 X166.100 Y110.280 F1000
G1 X166.360 Y110.020 F1000
G1 X166.360 Y109.240 F1000
G1 X166.620 Y108.980 F1000
G1 X166.620 Y108.460 F1000
G1 X167.140 Y107.940 F1000
G1 X167.400 Y107.940 F1000
G1 X167.920 Y107.420 F1000
G1 X170.000 Y107.420 F1000
G1 X170.260 Y107.680 F1000
G1 X170.520 Y107.680 F1000
G1 X171.300 Y108.460 F1000
G1 X171.300 Y109.240 F1000
G1 X171.300 Y108.460 F1000
G1 X170.520 Y107.680 F1000
G1 X170.000 Y107.680 F1000
G1 X169.740 Y107.420 F1000
G1 X168.180 Y107.420 F1000
G1 X167.920 Y107.680 F1000
G1 X167.660 Y107.680 F1000
G1 X167.140 Y108.200 F1000
G1 X166.880 Y108.200 F1000
G1 X166.620 Y108.460 F1000
G1 X166.620 Y108.980 F1000
G1 X166.360 Y109.240 F1000
G1 X166.360 Y110.020 F1000
G1 X166.100 Y110.280 F1000
G1 X166.100 Y111.060 F1000
G1 X166.360 Y111.320 F1000
G1 X166.360 Y111.580 F1000
G1 X166.620 Y111.840 F1000
G1 X166.620 Y112.100 F1000
G1 X167.920 Y113.400 F1000
G1 X168.440 Y113.400 F1000
G1 X168.700 Y113.660 F1000
G1 X168.960 Y113.660 F1000
G1 X169.220 Y113.920 F1000
G1 X170.260 Y113.920 F1000
G1 X170.520 Y114.180 F1000
G1 X171.820 Y114.180 F1000
G1 X172.080 Y113.920 F1000
G1 X172.340 Y113.920 F1000
G1 X172.860 Y113.400 F1000
G1 X173.120 Y113.400 F1000
G1 X173.640 Y112.880 F1000
G1 X173.900 Y112.880 F1000
G1 X174.420 Y112.360 F1000
G1 X174.420 Y112.100 F1000
G1 X174.940 Y111.580 F1000
G1 X174.940 Y111.320 F1000
G1 X175.200 Y111.060 F1000
G1 X175.200 Y110.800 F1000
G1 X175.460 Y110.540 F1000
G1 X175.460 Y107.160 F1000
G1 X175.200 Y106.900 F1000
G1 X175.200 Y106.380 F1000
G1 X174.420 Y105.600 F1000
G1 X174.420 Y105.340 F1000
G1 X173.640 Y104.560 F1000
G1 X173.380 Y104.560 F1000
G1 X172.860 Y104.040 F1000
G1 X172.600 Y104.040 F1000
G1 X172.080 Y103.520 F1000
G1 X171.300 Y103.520 F1000
G1 X171.040 Y103.260 F1000
G1 X167.400 Y103.260 F1000
G1 X167.140 Y103.520 F1000
G1 X166.100 Y103.520 F1000
G1 X165.580 Y104.040 F1000
G1 X165.320 Y104.040 F1000
G1 X164.800 Y104.560 F1000
G1 X164.540 Y104.560 F1000
G1 X163.760 Y105.340 F1000
G1 X163.760 Y105.600 F1000
G1 X162.980 Y106.380 F1000
G1 X162.980 Y106.640 F1000
G1 X162.720 Y106.900 F1000
G1 X162.720 Y107.160 F1000
G1 X162.460 Y107.420 F1000
G1 X162.460 Y107.940 F1000
G1 X162.200 Y108.200 F1000
G1 X162.200 Y108.460 F1000
G1 X161.940 Y108.720 F1000
G1 X161.940 Y110.020 F1000
G1 X161.680 Y110.280 F1000
G1 X161.680 Y111.060 F1000
G1 X161.940 Y111.320 F1000
G1 X161.940 Y111.840 F1000
G1 X162.200 Y112.100 F1000
G1 X162.200 Y112.620 F1000
G1 X162.460 Y112.880 F1000
G1 X162.460 Y113.140 F1000
G1 X162.720 Y113.400 F1000
G1 X162.720 Y113.660 F1000
G1 X163.240 Y114.180 F1000
G1 X163.240 Y114.440 F1000
G1 X163.500 Y114.700 F1000
G1 X163.500 Y114.960 F1000
G1 X165.840 Y117.300 F1000
G1 X166.360 Y117.300 F1000
G1 X166.620 Y117.560 F1000
G1 X166.880 Y117.560 F1000
G1 X167.140 Y117.820 F1000
G1 X167.660 Y117.820 F1000
G1 X167.920 Y118.080 F1000
G1 X168.180 Y118.080 F1000
G1 X168.440 Y118.340 F1000
G1 X171.820 Y118.340 F1000
G1 X172.080 Y118.080 F1000
G1 X173.120 Y118.080 F1000
G1 X173.380 Y117.820 F1000
G1 X173.640 Y117.820 F1000
G1 X173.900 Y117.560 F1000
G1 X174.160 Y117.560 F1000
G1 X174.420 Y117.300 F1000
G1 X174.680 Y117.300 F1000
G1 X174.940 Y117.040 F1000
G1 X175.200 Y117.040 F1000
G1 X175.460 Y116.780 F1000
G1 X175.980 Y116.780 F1000
G1 X178.320 Y114.440 F1000
G1 X178.320 Y114.180 F1000
G1 X178.580 Y113.920 F1000
G1 X178.580 Y113.660 F1000
G1 X178.840 Y113.400 F1000
G1 X178.840 Y113.140 F1000
G1 X179.100 Y112.880 F1000
G1 X179.100 Y112.620 F1000
G1 X179.360 Y112.360 F1000
G1 X179.360 Y111.840 F1000
G1 X179.620 Y111.580 F1000
G1 X179.620 Y110.280 F1000
G1 X179.880 Y110.020 F1000
G1 X179.880 Y107.680 F1000
G1 X179.620 Y107.420 F1000
G1 X179.620 Y105.860 F1000
G1 X179.360 Y105.600 F1000
G1 X179.360 Y105.340 F1000
G1 X179.100 Y105.080 F1000
G1 X179.100 Y104.820 F1000
G1 X178.840 Y104.560 F1000
G1 X178.840 Y104.300 F1000
G1 X178.580 Y104.040 F1000
G1 X178.580 Y103.780 F1000
G1 X177.280 Y102.480 F1000
G1 X177.280 Y102.220 F1000
G1 X176.240 Y101.180 F1000
G1 X175.980 Y101.180 F1000
G1 X175.460 Y100.660 F1000
G1 X175.200 Y100.660 F1000
G1 X174.680 Y100.140 F1000
G1 X174.420 Y100.140 F1000
G1 X173.900 Y99.620 F1000
G1 X173.640 Y99.620 F1000
G1 X173.380 Y99.360 F1000
G1 X172.340 Y99.360 F1000
G1 X172.080 Y99.100 F1000
G1 X171.300 Y99.100 F1000
G1 X171.040 Y98.840 F1000
G1 X167.140 Y98.840 F1000
G1 X166.880 Y99.100 F1000
G1 X166.360 Y99.100 F1000
G1 X166.100 Y99.360 F1000
G1 X165.580 Y99.360 F1000
G1 X165.320 Y99.620 F1000
G1 X164.800 Y99.620 F1000
G1 X164.540 Y99.880 F1000
G1 X163.760 Y99.880 F1000
G1 X163.240 Y100.400 F1000
G1 X162.980 Y100.400 F1000
G1 X162.200 Y101.180 F1000
G1 X161.940 Y101.180 F1000
G1 X161.420 Y101.700 F1000
G1 X161.160 Y101.700 F1000
G1 X160.380 Y102.480 F1000
G1 X160.380 Y102.740 F1000
G1 X159.600 Y103.520 F1000
G1 X159.600 Y103.780 F1000
G1 X158.820 Y104.560 F1000
G1 X158.820 Y104.820 F1000
G1 X158.560 Y105.080 F1000
G1 X158.560 Y105.340 F1000
G1 X158.300 Y105.600 F1000
G1 X158.300 Y106.120 F1000
G1 X158.040 Y106.380 F1000
G1 X158.040 Y107.160 F1000
G1 X157.780 Y107.420 F1000
G1 X157.780 Y107.940 F1000
G1 X157.520 Y108.200 F1000
G1 X157.520 Y112.100 F1000
G1 X157.780 Y112.360 F1000
G1 X157.780 Y112.880 F1000
G1 X158.040 Y113.140 F1000
G1 X158.040 Y113.920 F1000
G1 X158.300 Y114.180 F1000
G1 X158.300 Y114.700 F1000
G1 X158.560 Y114.960 F1000
G1 X158.560 Y115.220 F1000
G1 X158.820 Y115.480 F1000
G1 X158.820 Y115.740 F1000
G1 X159.340 Y116.260 F1000
G1 X159.340 Y116.520 F1000
G1 X159.860 Y117.040 F1000
G1 X159.860 Y117.300 F1000
G1 X160.380 Y117.820 F1000
G1 X160.380 Y118.080 F1000
G1 X161.420 Y119.120 F1000
G1 X161.680 Y119.120 F1000
G1 X162.980 Y120.420 F1000
G1 X163.240 Y120.420 F1000
G1 X164.020 Y121.200 F1000
G1 X164.800 Y121.200 F1000
G1 X165.060 Y121.460 F1000
G1 X165.580 Y121.460 F1000
G1 X165.840 Y121.720 F1000
G1 X166.100 Y121.720 F1000
G1 X166.360 Y121.980 F1000
G1 X166.880 Y121.980 F1000
G1 X167.140 Y122.240 F1000
G1 X167.660 Y122.240 F1000
G1 X167.920 Y122.500 F1000
G1 X169.480 Y122.500 F1000
G1 X169.740 Y122.760 F1000
G1 X172.340 Y122.760 F1000
G1 X172.600 Y122.500 F1000
G1 X173.380 Y122.500 F1000
G1 X173.640 Y122.240 F1000
G1 X174.160 Y122.240 F1000
G1 X174.420 Y121.980 F1000
G1 X175.460 Y121.980 F1000
G1 X175.720 Y121.720 F1000
G1 X175.980 Y121.720 F1000
G1 X176.500 Y121.200 F1000
G1 X176.760 Y121.200 F1000
G1 X177.280 Y120.680 F1000
G1 X177.540 Y120.680 F1000
G1 X177.800 Y120.420 F1000
G1 X178.060 Y120.420 F1000
G1 X178.580 Y119.900 F1000
G1 X178.840 Y119.900 F1000
G1 X181.960 Y116.780 F1000
G1 X181.960 Y116.520 F1000
G1 X182.220 Y116.260 F1000
G1 X182.220 Y116.000 F1000
G1 X182.480 Y115.740 F1000
G1 X182.480 Y115.480 F1000
G1 X182.740 Y115.220 F1000
G1 X182.740 Y114.960 F1000
G1 X183.000 Y114.700 F1000
G1 X183.000 Y114.440 F1000
G1 X183.260 Y114.180 F1000
G1 X183.260 Y113.920 F1000
G1 X183.520 Y113.660 F1000
G1 X183.520 Y112.880 F1000
G1 X183.780 Y112.620 F1000
G1 X183.780 Y111.580 F1000
G1 X184.040 Y111.320 F1000
G1 X184.040 Y110.020 F1000
G1 X184.300 Y109.760 F1000
G1 X184.300 Y108.200 F1000
G1 X184.040 Y107.940 F1000
G1 X184.040 Y106.640 F1000
G1 X183.780 Y106.380 F1000
G1 X183.780 Y105.080 F1000
G1 X183.520 Y104.820 F1000
G1 X183.520 Y104.040 F1000
G1 X183.260 Y103.780 F1000
G1 X183.260 Y103.520 F1000
G1 X183.000 Y103.260 F1000
G1 X183.000 Y103.000 F1000
G1 X182.740 Y102.740 F1000
G1 X182.740 Y102.480 F1000
G1 X182.480 Y102.220 F1000
G1 X182.480 Y101.960 F1000
G1 X182.220 Y101.700 F1000
G1 X182.220 Y101.440 F1000
G1 X181.960 Y101.180 F1000
G1 X181.960 Y100.920 F1000
G1 X180.140 Y99.100 F1000
G1 X180.140 Y98.840 F1000
G1 X178.580 Y97.280 F1000
G1 X178.060 Y97.280 F1000
G1 X177.800 Y97.020 F1000
G1 X177.540 Y97.020 F1000
G1 X177.280 Y96.760 F1000
G1 X177.020 Y96.760 F1000
G1 X176.500 Y96.240 F1000
G1 X176.240 Y96.240 F1000
G1 X175.980 Y95.980 F1000
G1 X175.720 Y95.980 F1000
G1 X175.460 Y95.720 F1000
G1 X175.200 Y95.720 F1000
G1 X174.940 Y95.460 F1000
G1 X174.680 Y95.460 F1000
G1 X174.420 Y95.200 F1000
G1 X173.640 Y95.200 F1000
G1 X173.380 Y94.940 F1000
G1 X172.600 Y94.940 F1000
G1 X172.340 Y94.680 F1000
G1 X171.300 Y94.680 F1000
G1 X171.040 Y94.420 F1000
G1 X168.180 Y94.420 F1000
G1 X167.920 Y94.680 F1000
G1 X165.840 Y94.680 F1000
G1 X165.580 Y94.940 F1000
G1 X165.060 Y94.940 F1000
G1 X164.800 Y95.200 F1000
G1 X164.280 Y95.200 F1000
G1 X164.020 Y95.460 F1000
G1 X163.500 Y95.460 F1000
G1 X163.240 Y95.720 F1000
G1 X162.980 Y95.720 F1000
G1 X162.720 Y95.980 F1000
G1 X162.200 Y95.980 F1000
G1 X161.940 Y96.240 F1000
G1 X161.160 Y96.240 F1000
G1 X160.120 Y97.280 F1000
G1 X159.860 Y97.280 F1000
G1 X158.300 Y98.840 F1000
G1 X158.040 Y98.840 F1000
G1 X157.000 Y99.880 F1000
G1 X157.000 Y100.140 F1000
G1 X156.740 Y100.400 F1000
G1 X156.740 Y100.660 F1000
G1 X156.220 Y101.180 F1000
G1 X156.220 Y101.440 F1000
G1 X155.700 Y101.960 F1000
G1 X155.700 Y102.220 F1000
G1 X155.440 Y102.480 F1000
G1 X155.440 Y102.740 F1000
G1 X154.920 Y103.260 F1000
G1 X154.920 Y103.520 F1000
G1 X154.660 Y103.780 F1000
G1 X154.660 Y104.040 F1000
G1 X154.400 Y104.300 F1000
G1 X154.400 Y104.820 F1000
G1 X154.140 Y105.080 F1000
G1 X154.140 Y105.600 F1000
G1 X153.880 Y105.860 F1000
G1 X153.880 Y106.380 F1000
G1 X153.620 Y106.640 F1000
G1 X153.620 Y107.160 F1000
G1 X153.360 Y107.420 F1000
G1 X153.360 Y107.940 F1000
G1 X153.100 Y108.200 F1000
G1 X153.100 Y110.280 F1000
G1 X153.360 Y110.540 F1000
G1 X153.360 Y113.140 F1000
G1 X153.620 Y113.400 F1000
G1 X153.620 Y113.920 F1000
G1 X153.880 Y114.180 F1000
G1 X153.880 Y114.700 F1000
G1 X154.140 Y114.960 F1000
G1 X154.140 Y115.480 F1000
G1 X154.400 Y115.740 F1000
G1 X154.400 Y116.260 F1000
G1 X154.660 Y116.520 F1000
G1 X154.660 Y117.040 F1000
G1 X154.920 Y117.300 F1000
G1 X154.920 Y117.560 F1000
G1 X155.180 Y117.820 F1000
G1 X155.180 Y118.080 F1000
G1 X155.700 Y118.600 F1000
G1 X155.700 Y118.860 F1000
G1 X156.480 Y119.640 F1000
G1 X156.480 Y119.900 F1000
G1 X157.000 Y120.420 F1000
G1 X157.000 Y120.680 F1000
G1 X157.520 Y121.200 F1000
G1 X157.520 Y121.460 F1000
G1 X158.300 Y122.240 F1000
G1 X158.560 Y122.240 F1000
G1 X159.340 Y123.020 F1000
G1 X159.600 Y123.020 F1000
G1 X160.380 Y123.800 F1000
G1 X160.640 Y123.800 F1000
G1 X161.420 Y124.580 F1000
G1 X161.680 Y124.580 F1000
G1 X162.200 Y125.100 F1000
G1 X162.980 Y125.100 F1000
G1 X163.240 Y125.360 F1000
G1 X163.500 Y125.360 F1000
G1 X163.760 Y125.620 F1000
G1 X164.280 Y125.620 F1000
G1 X164.540 Y125.880 F1000
G1 X165.060 Y125.880 F1000
G1 X165.320 Y126.140 F1000
G1 X165.840 Y126.140 F1000
G1 X166.100 Y126.400 F1000
G1 X166.360 Y126.400 F1000
G1 X166.620 Y126.660 F1000
G1 X167.140 Y126.660 F1000
G1 X167.400 Y126.920 F1000
G1 X173.120 Y126.920 F1000
G1 X173.380 Y126.660 F1000
G1 X174.160 Y126.660 F1000
G1 X174.420 Y126.400 F1000
G1 X175.200 Y126.400 F1000
G1 X175.460 Y126.140 F1000
G1 X176.240 Y126.140 F1000
G1 X176.500 Y125.880 F1000
G1 X177.540 Y125.880 F1000
G1 X177.800 Y125.620 F1000
G1 X178.060 Y125.620 F1000
G1 X178.580 Y125.100 F1000
G1 X178.840 Y125.100 F1000
G1 X179.360 Y124.580 F1000
G1 X179.620 Y124.580 F1000
G1 X180.140 Y124.060 F1000
G1 X180.400 Y124.060 F1000
G1 X180.920 Y123.540 F1000
G1 X181.180 Y123.540 F1000
G1 X181.700 Y123.020 F1000
G1 X181.960 Y123.020 F1000
G1 X183.000 Y121.980 F1000
G1 X183.000 Y121.720 F1000
G1 X184.820 Y119.900 F1000
G1 X184.820 Y119.640 F1000
G1 X185.860 Y118.600 F1000
G1 X185.860 Y118.340 F1000
G1 X186.120 Y118.080 F1000
G1 X186.120 Y117.820 F1000
G1 X186.380 Y117.560 F1000
G1 X186.380 Y117.300 F1000
G1 X186.640 Y117.040 F1000
G1 X186.640 Y116.780 F1000
G1 X186.900 Y116.520 F1000
G1 X186.900 Y116.260 F1000
G1 X187.160 Y116.000 F1000
G1 X187.160 Y115.740 F1000
G1 X187.420 Y115.480 F1000
G1 X187.420 Y115.220 F1000
G1 X187.680 Y114.960 F1000
G1 X187.680 Y114.700 F1000
G1 X187.940 Y114.440 F1000
G1 X187.940 Y113.400 F1000
G1 X188.200 Y113.140 F1000
G1 X188.200 Y111.580 F1000
G1 X188.460 Y111.320 F1000
G1 X188.460 Y109.760 F1000
G1 X188.720 Y109.500 F1000
G1 X188.720 Y107.680 F1000
G1 X188.460 Y107.420 F1000
G1 X188.460 Y106.120 F1000
G1 X188.200 Y105.860 F1000
G1 X188.200 Y104.820 F1000
G1 X187.940 Y104.560 F1000
G1 X187.940 Y103.260 F1000
G1 X187.680 Y103.000 F1000
G1 X187.680 Y102.740 F1000
G1 X187.420 Y102.480 F1000
G1 X187.420 Y102.220 F1000
G1 X187.160 Y101.960 F1000
G1 X187.160 Y101.700 F1000
G1 X186.900 Y101.440 F1000
G1 X186.900 Y101.180 F1000
G1 X186.380 Y100.660 F1000
G1 X186.380 Y100.400 F1000
G1 X186.120 Y100.140 F1000
G1 X186.120 Y99.880 F1000
G1 X185.600 Y99.360 F1000
G1 X185.600 Y99.100 F1000
G1 X185.340 Y98.840 F1000
G1 X185.340 Y98.580 F1000
G1 X185.080 Y98.320 F1000
G1 X185.080 Y98.060 F1000
G1 X183.000 Y95.980 F1000
G1 X183.000 Y95.720 F1000
G1 X180.920 Y93.640 F1000
G1 X180.400 Y93.640 F1000
G1 X180.140 Y93.380 F1000
G1 X179.880 Y93.380 F1000
G1 X179.620 Y93.120 F1000
G1 X179.360 Y93.120 F1000
G1 X179.100 Y92.860 F1000
G1 X178.840 Y92.860 F1000
G1 X178.580 Y92.600 F1000
G1 X178.320 Y92.600 F1000
G1 X178.060 Y92.340 F1000
G1 X177.800 Y92.340 F1000
G1 X177.540 Y92.080 F1000
G1 X177.280 Y92.080 F1000
G1 X177.020 Y91.820 F1000
G1 X176.760 Y91.820 F1000
G1 X176.500 Y91.560 F1000
G1 X176.240 Y91.560 F1000
G1 X175.980 Y91.300 F1000
G1 X175.720 Y91.300 F1000
G1 X175.460 Y91.040 F1000
G1 X174.680 Y91.040 F1000
G1 X174.420 Y90.780 F1000
G1 X173.380 Y90.780 F1000
G1 X173.120 Y90.520 F1000
G1 X172.340 Y90.520 F1000
G1 X172.080 Y90.260 F1000
G1 X171.040 Y90.260 F1000
G1 X170.780 Y90.000 F1000
G1 X168.180 Y90.000 F1000
G1 X167.920 Y90.260 F1000
G1 X166.360 Y90.260 F1000
G1 X166.100 Y90.520 F1000
G1 X164.280 Y90.520 F1000
G1 X164.020 Y90.780 F1000
G1 X163.760 Y90.780 F1000
G1 X163.500 Y91.040 F1000
G1 X162.980 Y91.040 F1000
G1 X162.720 Y91.300 F1000
G1 X162.460 Y91.300 F1000
G1 X162.200 Y91.560 F1000
G1 X161.940 Y91.560 F1000
G1 X161.680 Y91.820 F1000
G1 X161.160 Y91.820 F1000
G1 X160.900 Y92.080 F1000
G1 X160.640 Y92.080 F1000
G1 X160.380 Y92.340 F1000
G1 X160.120 Y92.340 F1000
G1 X159.860 Y92.600 F1000
G1 X159.340 Y92.600 F1000
G1 X159.080 Y92.860 F1000
G1 X158.560 Y92.860 F1000
G1 X157.780 Y93.640 F1000
G1 X157.520 Y93.640 F1000
G1 X156.220 Y94.940 F1000
G1 X155.960 Y94.940 F1000
G1 X154.660 Y96.240 F1000
G1 X154.400 Y96.240 F1000
G1 X153.360 Y97.280 F1000
G1 X153.360 Y97.540 F1000
G1 X153.100 Y97.800 F1000
G1 X153.100 Y98.060 F1000
G1 X152.580 Y98.580 F1000
G1 X152.580 Y98.840 F1000
G1 X152.320 Y99.100 F1000
G1 X152.320 Y99.360 F1000
G1 X151.800 Y99.880 F1000
G1 X151.800 Y100.140 F1000
G1 X151.540 Y100.400 F1000
G1 X151.540 Y100.660 F1000
G1 X151.020 Y101.180 F1000
G1 X151.020 Y101.440 F1000
G1 X150.760 Y101.700 F1000
G1 X150.760 Y101.960 F1000
G1 X150.500 Y102.220 F1000
G1 X150.500 Y102.740 F1000
G1 X150.240 Y103.000 F1000
G1 X150.240 Y103.780 F1000
G1 X149.980 Y104.040 F1000
G1 X149.980 Y104.820 F1000
G1 X149.720 Y105.080 F1000
G1 X149.720 Y105.860 F1000
G1 X149.460 Y106.120 F1000
G1 X149.460 Y106.900 F1000
G1 X149.200 Y107.160 F1000
G1 X149.200 Y107.940 F1000
G1 X148.940 Y108.200 F1000
G1 X148.940 Y110.800 F1000
G1 X149.200 Y111.060 F1000
G1 X149.200 Y114.440 F1000
G1 X149.460 Y114.700 F1000
G1 X149.460 Y115.220 F1000
G1 X149.720 Y115.480 F1000
G1 X149.720 Y116.000 F1000
G1 X149.980 Y116.260 F1000
G1 X149.980 Y116.780 F1000
G1 X150.240 Y117.040 F1000
G1 X150.240 Y117.300 F1000
G1 X150.500 Y117.560 F1000
G1 X150.500 Y118.080 F1000
G1 X150.760 Y118.340 F1000
G1 X150.760 Y118.860 F1000
G1 X151.020 Y119.120 F1000
G1 X151.020 Y119.640 F1000
G1 X151.280 Y119.900 F1000
G1 X151.280 Y120.160 F1000
G1 X151.540 Y120.420 F1000
G1 X151.540 Y120.680 F1000
G1 X152.320 Y121.460 F1000
G1 X152.320 Y121.720 F1000
G1 X153.100 Y122.500 F1000
G1 X153.100 Y122.760 F1000
G1 X153.880 Y123.540 F1000
G1 X153.880 Y123.800 F1000
G1 X154.660 Y124.580 F1000
G1 X154.660 Y124.840 F1000
G1 X155.440 Y125.620 F1000
G1 X155.700 Y125.620 F1000
G1 X156.220 Y126.140 F1000
G1 X156.480 Y126.140 F1000
G1 X157.260 Y126.920 F1000
G1 X157.520 Y126.920 F1000
G1 X158.040 Y127.440 F1000
G1 X158.300 Y127.440 F1000
G1 X159.080 Y128.220 F1000
G1 X159.340 Y128.220 F1000
G1 X159.860 Y128.740 F1000
G1 X160.120 Y128.740 F1000
G1 X160.640 Y129.260 F1000
G1 X161.420 Y129.260 F1000
G1 X161.680 Y129.520 F1000
G1 X162.200 Y129.520 F1000
G1 X162.460 Y129.780 F1000
G1 X162.980 Y129.780 F1000
G1 X163.240 Y130.040 F1000
G1 X163.500 Y130.040 F1000
G1 X163.760 Y130.300 F1000
G1 X164.280 Y130.300 F1000
G1 X164.540 Y130.560 F1000
G1 X165.060 Y130.560 F1000
G1 X165.320 Y130.820 F1000
G1 X165.840 Y130.820 F1000
G1 X166.100 Y131.080 F1000
G1 X166.620 Y131.080 F1000
G0 Z3.0 ; Pen up

G0 X155.960 Y237.680 F3000 ; Travel to line 5
G0 Z0.0 ; Pen down
G1 X155.960 Y237.420 F1000
G1 X155.180 Y236.640 F1000
G1 X155.180 Y236.380 F1000
G1 X154.400 Y235.600 F1000
G1 X154.400 Y235.340 F1000
G1 X153.620 Y234.560 F1000
G1 X153.620 Y234.300 F1000
G1 X152.840 Y233.520 F1000
G1 X152.840 Y233.260 F1000
G1 X152.060 Y232.480 F1000
G1 X152.060 Y232.220 F1000
G1 X151.280 Y231.440 F1000
G1 X151.280 Y231.180 F1000
G1 X150.500 Y230.400 F1000
G1 X150.500 Y230.140 F1000
G1 X149.720 Y229.360 F1000
G1 X149.720 Y229.100 F1000
G1 X148.940 Y228.320 F1000
G1 X148.940 Y228.060 F1000
G1 X148.160 Y227.280 F1000
G1 X148.160 Y227.020 F1000
G1 X147.380 Y226.240 F1000
G1 X147.380 Y225.980 F1000
G1 X146.600 Y225.200 F1000
G1 X146.600 Y224.940 F1000
G1 X145.820 Y224.160 F1000
G1 X145.820 Y223.900 F1000
G1 X145.040 Y223.120 F1000
G1 X145.040 Y222.860 F1000
G1 X144.260 Y222.080 F1000
G1 X144.260 Y221.820 F1000
G1 X143.480 Y221.040 F1000
G1 X143.480 Y220.780 F1000
G1 X142.700 Y220.000 F1000
G1 X142.700 Y219.740 F1000
G1 X141.920 Y218.960 F1000
G1 X141.920 Y218.700 F1000
G1 X141.140 Y217.920 F1000
G1 X141.140 Y217.660 F1000
G1 X140.360 Y216.880 F1000
G1 X140.360 Y216.620 F1000
G1 X139.580 Y215.840 F1000
G1 X139.580 Y215.580 F1000
G1 X138.800 Y214.800 F1000
G1 X138.800 Y214.540 F1000
G1 X138.020 Y213.760 F1000
G1 X138.020 Y213.500 F1000
G1 X137.240 Y212.720 F1000
G1 X137.240 Y212.460 F1000
G1 X136.460 Y211.680 F1000
G1 X136.460 Y211.420 F1000
G1 X135.680 Y210.640 F1000
G1 X135.680 Y210.380 F1000
G1 X134.900 Y209.600 F1000
G1 X134.900 Y209.340 F1000
G1 X134.120 Y208.560 F1000
G1 X134.120 Y208.300 F1000
G1 X133.340 Y207.520 F1000
G1 X133.340 Y207.260 F1000
G1 X132.560 Y206.480 F1000
G1 X132.560 Y206.220 F1000
G1 X131.780 Y205.440 F1000
G1 X131.780 Y205.180 F1000
G1 X131.000 Y204.400 F1000
G1 X131.000 Y204.140 F1000
G1 X130.220 Y203.360 F1000
G1 X130.220 Y203.100 F1000
G1 X129.440 Y202.320 F1000
G1 X129.440 Y202.060 F1000
G1 X128.660 Y201.280 F1000
G1 X128.660 Y201.020 F1000
G1 X127.880 Y200.240 F1000
G1 X127.880 Y199.980 F1000
G1 X127.100 Y199.200 F1000
G1 X127.100 Y198.940 F1000
G1 X126.320 Y198.160 F1000
G1 X126.320 Y197.900 F1000
G1 X125.540 Y197.120 F1000
G1 X125.540 Y196.860 F1000
G1 X124.760 Y196.080 F1000
G1 X124.760 Y195.820 F1000
G1 X123.980 Y195.040 F1000
G1 X123.980 Y194.780 F1000
G1 X123.200 Y194.000 F1000
G1 X123.200 Y193.740 F1000
G1 X122.420 Y192.960 F1000
G1 X122.420 Y192.700 F1000
G1 X121.640 Y191.920 F1000
G1 X121.640 Y191.660 F1000
G1 X120.860 Y190.880 F1000
G1 X120.860 Y190.620 F1000
G1 X120.080 Y189.840 F1000
G1 X120.080 Y189.580 F1000
G1 X119.300 Y188.800 F1000
G1 X119.300 Y188.280 F1000
G1 X119.040 Y188.020 F1000
G1 X119.300 Y187.760 F1000
G1 X194.700 Y187.760 F1000
G1 X194.960 Y188.020 F1000
G1 X194.960 Y188.280 F1000
G1 X194.440 Y188.800 F1000
G1 X194.440 Y189.060 F1000
G1 X193.660 Y189.840 F1000
G1 X193.660 Y190.100 F1000
G1 X192.880 Y190.880 F1000
G1 X192.880 Y191.140 F1000
G1 X192.100 Y191.920 F1000
G1 X192.100 Y192.180 F1000
G1 X191.320 Y192.960 F1000
G1 X191.320 Y193.220 F1000
G1 X190.540 Y194.000 F1000
G1 X190.540 Y194.260 F1000
G1 X189.760 Y195.040 F1000
G1 X189.760 Y195.300 F1000
G1 X188.980 Y196.080 F1000
G1 X188.980 Y196.340 F1000
G1 X188.200 Y197.120 F1000
G1 X188.200 Y197.380 F1000
G1 X187.420 Y198.160 F1000
G1 X187.420 Y198.420 F1000
G1 X186.640 Y199.200 F1000
G1 X186.640 Y199.460 F1000
G1 X185.860 Y200.240 F1000
G1 X185.860 Y200.500 F1000
G1 X185.080 Y201.280 F1000
G1 X185.080 Y201.540 F1000
G1 X184.300 Y202.320 F1000
G1 X184.300 Y202.580 F1000
G1 X183.520 Y203.360 F1000
G1 X183.520 Y203.620 F1000
G1 X182.740 Y204.400 F1000
G1 X182.740 Y204.660 F1000
G1 X181.960 Y205.440 F1000
G1 X181.960 Y205.700 F1000
G1 X181.180 Y206.480 F1000
G1 X181.180 Y206.740 F1000
G1 X180.400 Y207.520 F1000
G1 X180.400 Y207.780 F1000
G1 X179.620 Y208.560 F1000
G1 X179.620 Y208.820 F1000
G1 X178.840 Y209.600 F1000
G1 X178.840 Y209.860 F1000
G1 X178.060 Y210.640 F1000
G1 X178.060 Y210.900 F1000
G1 X177.280 Y211.680 F1000
G1 X177.280 Y211.940 F1000
G1 X176.500 Y212.720 F1000
G1 X176.500 Y212.980 F1000
G1 X175.720 Y213.760 F1000
G1 X175.720 Y214.020 F1000
G1 X174.940 Y214.800 F1000
G1 X174.940 Y215.060 F1000
G1 X174.160 Y215.840 F1000
G1 X174.160 Y216.100 F1000
G1 X173.380 Y216.880 F1000
G1 X173.380 Y217.140 F1000
G1 X172.600 Y217.920 F1000
G1 X172.600 Y218.180 F1000
G1 X171.820 Y218.960 F1000
G1 X171.820 Y219.220 F1000
G1 X171.040 Y220.000 F1000
G1 X171.040 Y220.260 F1000
G1 X170.260 Y221.040 F1000
G1 X170.260 Y221.300 F1000
G1 X169.480 Y222.080 F1000
G1 X169.480 Y222.340 F1000
G1 X168.700 Y223.120 F1000
G1 X168.700 Y223.380 F1000
G1 X167.920 Y224.160 F1000
G1 X167.920 Y224.420 F1000
G1 X167.140 Y225.200 F1000
G1 X167.140 Y225.460 F1000
G1 X166.360 Y226.240 F1000
G1 X166.360 Y226.500 F1000
G1 X165.580 Y227.280 F1000
G1 X165.580 Y227.540 F1000
G1 X164.800 Y228.320 F1000
G1 X164.800 Y228.580 F1000
G1 X164.020 Y229.360 F1000
G1 X164.020 Y229.620 F1000
G1 X163.240 Y230.400 F1000
G1 X163.240 Y230.660 F1000
G1 X162.460 Y231.440 F1000
G1 X162.460 Y231.700 F1000
G1 X161.680 Y232.480 F1000
G1 X161.680 Y232.740 F1000
G1 X160.900 Y233.520 F1000
G1 X160.900 Y233.780 F1000
G1 X160.120 Y234.560 F1000
G1 X160.120 Y234.820 F1000
G1 X159.340 Y235.600 F1000
G1 X159.340 Y235.860 F1000
G1 X158.560 Y236.640 F1000
G1 X158.560 Y236.900 F1000
G1 X157.780 Y237.680 F1000
G1 X157.780 Y237.940 F1000
G1 X157.260 Y238.460 F1000
G1 X156.740 Y238.460 F1000
G0 Z3.0 ; Pen up

G0 X157.000 Y238.720 F3000 ; Travel to line 6
G0 Z0.0 ; Pen down
G1 X157.260 Y238.460 F1000
G1 X157.520 Y238.460 F1000
G1 X157.780 Y238.200 F1000
G1 X157.780 Y237.940 F1000
G1 X158.560 Y237.160 F1000
G1 X158.560 Y236.900 F1000
G1 X159.340 Y236.120 F1000
G1 X159.340 Y235.860 F1000
G1 X160.120 Y235.080 F1000
G1 X160.120 Y234.820 F1000
G1 X160.900 Y234.040 F1000
G1 X160.900 Y233.780 F1000
G1 X161.680 Y233.000 F1000
G1 X161.680 Y232.740 F1000
G1 X162.460 Y231.960 F1000
G1 X162.460 Y231.700 F1000
G1 X163.240 Y230.920 F1000
G1 X163.240 Y230.660 F1000
G1 X164.020 Y229.880 F1000
G1 X164.020 Y229.620 F1000
G1 X164.800 Y228.840 F1000
G1 X164.800 Y228.580 F1000
G1 X165.580 Y227.800 F1000
G1 X165.580 Y227.540 F1000
G1 X166.360 Y226.760 F1000
G1 X166.360 Y226.500 F1000
G1 X167.140 Y225.720 F1000
G1 X167.140 Y225.460 F1000
G1 X167.920 Y224.680 F1000
G1 X167.920 Y224.420 F1000
G1 X168.700 Y223.640 F1000
G1 X168.700 Y223.380 F1000
G1 X169.480 Y222.600 F1000
G1 X169.480 Y222.340 F1000
G1 X170.260 Y221.560 F1000
G1 X170.260 Y221.300 F1000
G1 X171.040 Y220.520 F1000
G1 X171.040 Y220.260 F1000
G1 X171.820 Y219.480 F1000
G1 X171.820 Y219.220 F1000
G1 X172.600 Y218.440 F1000
G1 X172.600 Y218.180 F1000
G1 X173.380 Y217.400 F1000
G1 X173.380 Y217.140 F1000
G1 X174.160 Y216.360 F1000
G1 X174.160 Y216.100 F1000
G1 X174.940 Y215.320 F1000
G1 X174.940 Y215.060 F1000
G1 X175.720 Y214.280 F1000
G1 X175.720 Y214.020 F1000
G1 X176.500 Y213.240 F1000
G1 X176.500 Y212.980 F1000
G1 X177.280 Y212.200 F1000
G1 X177.280 Y211.940 F1000
G1 X178.060 Y211.160 F1000
G1 X178.060 Y210.900 F1000
G1 X178.840 Y210.120 F1000
G1 X178.840 Y209.860 F1000
G1 X179.620 Y209.080 F1000
G1 X179.620 Y208.820 F1000
G1 X180.400 Y208.040 F1000
G1 X180.400 Y207.780 F1000
G1 X181.180 Y207.000 F1000
G1 X181.180 Y206.740 F1000
G1 X181.960 Y205.960 F1000
G1 X181.960 Y205.700 F1000
G1 X182.740 Y204.920 F1000
G1 X182.740 Y204.660 F1000
G1 X183.520 Y203.880 F1000
G1 X183.520 Y203.620 F1000
G1 X184.300 Y202.840 F1000
G1 X184.300 Y202.580 F1000
G1 X185.080 Y201.800 F1000
G1 X185.080 Y201.540 F1000
G1 X185.860 Y200.760 F1000
G1 X185.860 Y200.500 F1000
G1 X186.640 Y199.720 F1000
G1 X186.640 Y199.460 F1000
G1 X187.420 Y198.680 F1000
G1 X187.420 Y198.420 F1000
G1 X188.200 Y197.640 F1000
G1 X188.200 Y197.380 F1000
G1 X188.980 Y196.600 F1000
G1 X188.980 Y196.340 F1000
G1 X189.760 Y195.560 F1000
G1 X189.760 Y195.300 F1000
G1 X190.540 Y194.520 F1000
G1 X190.540 Y194.260 F1000
G1 X191.320 Y193.480 F1000
G1 X191.320 Y193.220 F1000
G1 X192.100 Y192.440 F1000
G1 X192.100 Y192.180 F1000
G1 X192.880 Y191.400 F1000
G1 X192.880 Y191.140 F1000
G1 X193.660 Y190.360 F1000
G1 X193.660 Y190.100 F1000
G1 X194.440 Y189.320 F1000
G1 X194.440 Y189.060 F1000
G1 X194.700 Y188.800 F1000
G1 X194.700 Y188.540 F1000
G1 X194.960 Y188.280 F1000
G1 X194.960 Y188.020 F1000
G1 X195.220 Y187.760 F1000
G1 X195.480 Y187.760 F1000
G1 X195.740 Y187.500 F1000
G1 X195.480 Y187.760 F1000
G1 X195.220 Y187.760 F1000
G1 X194.960 Y188.020 F1000
G1 X194.700 Y187.760 F1000
G1 X119.300 Y187.760 F1000
G1 X119.040 Y188.020 F1000
G1 X118.780 Y187.760 F1000
G1 X118.520 Y187.760 F1000
G1 X118.260 Y187.500 F1000
G1 X118.520 Y187.760 F1000
G1 X118.780 Y187.760 F1000
G1 X119.300 Y188.280 F1000
G1 X119.300 Y189.060 F1000
G1 X120.080 Y189.840 F1000
G1 X120.080 Y190.100 F1000
G1 X120.860 Y190.880 F1000
G1 X120.860 Y191.140 F1000
G1 X121.640 Y191.920 F1000
G1 X121.640 Y192.180 F1000
G1 X122.420 Y192.960 F1000
G1 X122.420 Y193.220 F1000
G1 X123.200 Y194.000 F1000
G1 X123.200 Y194.260 F1000
G1 X123.980 Y195.040 F1000
G1 X123.980 Y195.300 F1000
G1 X124.760 Y196.080 F1000
G1 X124.760 Y196.340 F1000
G1 X125.540 Y197.120 F1000
G1 X125.540 Y197.380 F1000
G1 X126.320 Y198.160 F1000
G1 X126.320 Y198.420 F1000
G1 X127.100 Y199.200 F1000
G1 X127.100 Y199.460 F1000
G1 X127.880 Y200.240 F1000
G1 X127.880 Y200.500 F1000
G1 X128.660 Y201.280 F1000
G1 X128.660 Y201.540 F1000
G1 X129.440 Y202.320 F1000
G1 X129.440 Y202.580 F1000
G1 X130.220 Y203.360 F1000
G1 X130.220 Y203.620 F1000
G1 X131.000 Y204.400 F1000
G1 X131.000 Y204.660 F1000
G1 X131.780 Y205.440 F1000
G1 X131.780 Y205.700 F1000
G1 X132.560 Y206.480 F1000
G1 X132.560 Y206.740 F1000
G1 X133.340 Y207.520 F1000
G1 X133.340 Y207.780 F1000
G1 X134.120 Y208.560 F1000
G1 X134.120 Y208.820 F1000
G1 X134.900 Y209.600 F1000
G1 X134.900 Y209.860 F1000
G1 X135.680 Y210.640 F1000
G1 X135.680 Y210.900 F1000
G1 X136.460 Y211.680 F1000
G1 X136.460 Y211.940 F1000
G1 X137.240 Y212.720 F1000
G1 X137.240 Y212.980 F1000
G1 X138.020 Y213.760 F1000
G1 X138.020 Y214.020 F1000
G1 X138.800 Y214.800 F1000
G1 X138.800 Y215.060 F1000
G1 X139.580 Y215.840 F1000
G1 X139.580 Y216.100 F1000
G1 X140.360 Y216.880 F1000
G1 X140.360 Y217.140 F1000
G1 X141.140 Y217.920 F1000
G1 X141.140 Y218.180 F1000
G1 X141.920 Y218.960 F1000
G1 X141.920 Y219.220 F1000
G1 X142.700 Y220.000 F1000
G1 X142.700 Y220.260 F1000
G1 X143.480 Y221.040 F1000
G1 X143.480 Y221.300 F1000
G1 X144.260 Y222.080 F1000
G1 X144.260 Y222.340 F1000
G1 X145.040 Y223.120 F1000
G1 X145.040 Y223.380 F1000
G1 X145.820 Y224.160 F1000
G1 X145.820 Y224.420 F1000
G1 X146.600 Y225.200 F1000
G1 X146.600 Y225.460 F1000
G1 X147.380 Y226.240 F1000
G1 X147.380 Y226.500 F1000
G1 X148.160 Y227.280 F1000
G1 X148.160 Y227.540 F1000
G1 X148.940 Y228.320 F1000
G1 X148.940 Y228.580 F1000
G1 X149.720 Y229.360 F1000
G1 X149.720 Y229.620 F1000
G1 X150.500 Y230.400 F1000
G1 X150.500 Y230.660 F1000
G1 X151.280 Y231.440 F1000
G1 X151.280 Y231.700 F1000
G1 X152.060 Y232.480 F1000
G1 X152.060 Y232.740 F1000
G1 X152.840 Y233.520 F1000
G1 X152.840 Y233.780 F1000
G1 X153.620 Y234.560 F1000
G1 X153.620 Y234.820 F1000
G1 X154.400 Y235.600 F1000
G1 X154.400 Y235.860 F1000
G1 X155.180 Y236.640 F1000
G1 X155.180 Y236.900 F1000
G1 X155.960 Y237.680 F1000
G1 X155.960 Y237.940 F1000
G1 X156.480 Y238.460 F1000
G1 X156.740 Y238.460 F1000
G1 X157.000 Y238.720 F1000
G1 X157.000 Y238.980 F1000
G0 Z3.0 ; Pen up

G0 X42.600 Y239.240 F3000 ; Travel to line 7
G0 Z0.0 ; Pen down
G1 X42.860 Y238.980 F1000
G1 X44.680 Y238.980 F1000
G1 X44.940 Y238.720 F1000
G1 X45.720 Y238.720 F1000
G1 X45.980 Y238.460 F1000
G1 X46.760 Y238.460 F1000
G1 X47.020 Y238.200 F1000
G1 X47.800 Y238.200 F1000
G1 X48.060 Y237.940 F1000
G1 X48.580 Y237.940 F1000
G1 X48.840 Y237.680 F1000
G1 X49.360 Y237.680 F1000
G1 X49.620 Y237.420 F1000
G1 X49.880 Y237.420 F1000
G1 X50.140 Y237.160 F1000
G1 X50.400 Y237.160 F1000
G1 X50.660 Y236.900 F1000
G1 X51.180 Y236.900 F1000
G1 X51.440 Y236.640 F1000
G1 X51.700 Y236.640 F1000
G1 X51.960 Y236.380 F1000
G1 X52.220 Y236.380 F1000
G1 X52.740 Y235.860 F1000
G1 X53.000 Y235.860 F1000
G1 X53.260 Y235.600 F1000
G1 X53.520 Y235.600 F1000
G1 X54.040 Y235.080 F1000
G1 X54.300 Y235.080 F1000
G1 X54.820 Y234.560 F1000
G1 X55.080 Y234.560 F1000
G1 X55.860 Y233.780 F1000
G1 X56.120 Y233.780 F1000
G1 X60.020 Y229.880 F1000
G1 X60.020 Y229.620 F1000
G1 X60.800 Y228.840 F1000
G1 X60.800 Y228.580 F1000
G1 X61.320 Y228.060 F1000
G1 X61.320 Y227.800 F1000
G1 X61.840 Y227.280 F1000
G1 X61.840 Y227.020 F1000
G1 X62.100 Y226.760 F1000
G1 X62.100 Y226.500 F1000
G1 X62.620 Y225.980 F1000
G1 X62.620 Y225.720 F1000
G1 X62.880 Y225.460 F1000
G1 X62.880 Y225.200 F1000
G1 X63.140 Y224.940 F1000
G1 X63.140 Y224.420 F1000
G1 X63.400 Y224.160 F1000
G1 X63.400 Y223.900 F1000
G1 X63.660 Y223.640 F1000
G1 X63.660 Y223.380 F1000
G1 X63.920 Y223.120 F1000
G1 X63.920 Y222.600 F1000
G1 X64.180 Y222.340 F1000
G1 X64.180 Y221.820 F1000
G1 X64.440 Y221.560 F1000
G1 X64.440 Y221.040 F1000
G1 X64.700 Y220.780 F1000
G1 X64.700 Y220.260 F1000
G1 X64.960 Y220.000 F1000
G1 X64.960 Y219.220 F1000
G1 X65.220 Y218.960 F1000
G1 X65.220 Y217.920 F1000
G1 X65.480 Y217.660 F1000
G1 X65.480 Y215.840 F1000
G1 X65.740 Y215.580 F1000
G1 X65.740 Y211.420 F1000
G1 X65.480 Y211.160 F1000
G1 X65.480 Y209.340 F1000
G1 X65.220 Y209.080 F1000
G1 X65.220 Y208.040 F1000
G1 X64.960 Y207.780 F1000
G1 X64.960 Y207.000 F1000
G1 X64.700 Y206.740 F1000
G1 X64.700 Y206.220 F1000
G1 X64.440 Y205.960 F1000
G1 X64.440 Y205.440 F1000
G1 X64.180 Y205.180 F1000
G1 X64.180 Y204.660 F1000
G1 X63.920 Y204.400 F1000
G1 X63.920 Y203.880 F1000
G1 X63.660 Y203.620 F1000
G1 X63.660 Y203.360 F1000
G1 X63.400 Y203.100 F1000
G1 X63.400 Y202.840 F1000
G1 X63.140 Y202.580 F1000
G1 X63.140 Y202.060 F1000
G1 X62.880 Y201.800 F1000
G1 X62.880 Y201.540 F1000
G1 X62.620 Y201.280 F1000
G1 X62.620 Y201.020 F1000
G1 X62.100 Y200.500 F1000
G1 X62.100 Y200.240 F1000
G1 X61.840 Y199.980 F1000
G1 X61.840 Y199.720 F1000
G1 X61.320 Y199.200 F1000
G1 X61.320 Y198.940 F1000
G1 X60.800 Y198.420 F1000
G1 X60.800 Y198.160 F1000
G1 X60.020 Y197.380 F1000
G1 X60.020 Y197.120 F1000
G1 X56.380 Y193.480 F1000
G1 X56.120 Y193.480 F1000
G1 X55.340 Y192.700 F1000
G1 X55.080 Y192.700 F1000
G1 X54.560 Y192.180 F1000
G1 X54.300 Y192.180 F1000
G1 X53.780 Y191.660 F1000
G1 X53.520 Y191.660 F1000
G1 X53.260 Y191.400 F1000
G1 X53.000 Y191.400 F1000
G1 X52.480 Y190.880 F1000
G1 X52.220 Y190.880 F1000
G1 X51.960 Y190.620 F1000
G1 X51.700 Y190.620 F1000
G1 X51.440 Y190.360 F1000
G1 X50.920 Y190.360 F1000
G1 X50.660 Y190.100 F1000
G1 X50.400 Y190.100 F1000
G1 X50.140 Y189.840 F1000
G1 X49.880 Y189.840 F1000
G1 X49.620 Y189.580 F1000
G1 X49.100 Y189.580 F1000
G1 X48.840 Y189.320 F1000
G1 X48.320 Y189.320 F1000
G1 X48.060 Y189.060 F1000
G1 X47.540 Y189.060 F1000
G1 X47.280 Y188.800 F1000
G1 X46.760 Y188.800 F1000
G1 X46.500 Y188.540 F1000
G1 X45.720 Y188.540 F1000
G1 X45.460 Y188.280 F1000
G1 X44.420 Y188.280 F1000
G1 X44.160 Y188.020 F1000
G1 X42.340 Y188.020 F1000
G1 X42.080 Y187.760 F1000
G1 X37.920 Y187.760 F1000
G1 X37.660 Y188.020 F1000
G1 X35.840 Y188.020 F1000
G1 X35.580 Y188.280 F1000
G1 X34.540 Y188.280 F1000
G1 X34.280 Y188.540 F1000
G1 X33.500 Y188.540 F1000
G1 X33.240 Y188.800 F1000
G1 X32.720 Y188.800 F1000
G1 X32.460 Y189.060 F1000
G1 X31.940 Y189.060 F1000
G1 X31.680 Y189.320 F1000
G1 X31.160 Y189.320 F1000
G1 X30.900 Y189.580 F1000
G1 X30.380 Y189.580 F1000
G1 X30.120 Y189.840 F1000
G1 X29.860 Y189.840 F1000
G1 X29.600 Y190.100 F1000
G1 X29.340 Y190.100 F1000
G1 X29.080 Y190.360 F1000
G1 X28.560 Y190.360 F1000
G1 X28.300 Y190.620 F1000
G1 X28.040 Y190.620 F1000
G1 X27.780 Y190.880 F1000
G1 X27.520 Y190.880 F1000
G1 X27.000 Y191.400 F1000
G1 X26.740 Y191.400 F1000
G1 X26.480 Y191.660 F1000
G1 X26.220 Y191.660 F1000
G1 X25.700 Y192.180 F1000
G1 X25.440 Y192.180 F1000
G1 X24.920 Y192.700 F1000
G1 X24.660 Y192.700 F1000
G1 X23.880 Y193.480 F1000
G1 X23.620 Y193.480 F1000
G1 X19.720 Y197.380 F1000
G1 X19.720 Y197.640 F1000
G1 X18.940 Y198.420 F1000
G1 X18.940 Y198.680 F1000
G1 X18.420 Y199.200 F1000
G1 X18.420 Y199.460 F1000
G1 X17.900 Y199.980 F1000
G1 X17.900 Y200.240 F1000
G1 X17.640 Y200.500 F1000
G1 X17.640 Y200.760 F1000
G1 X17.120 Y201.280 F1000
G1 X17.120 Y201.540 F1000
G1 X16.860 Y201.800 F1000
G1 X16.860 Y202.060 F1000
G1 X16.600 Y202.320 F1000
G1 X16.600 Y202.840 F1000
G1 X16.340 Y203.100 F1000
G1 X16.340 Y203.360 F1000
G1 X16.080 Y203.620 F1000
G1 X16.080 Y203.880 F1000
G1 X15.820 Y204.140 F1000
G1 X15.820 Y204.660 F1000
G1 X15.560 Y204.920 F1000
G1 X15.560 Y205.440 F1000
G1 X15.300 Y205.700 F1000
G1 X15.300 Y206.480 F1000
G1 X15.040 Y206.740 F1000
G1 X15.040 Y207.520 F1000
G1 X14.780 Y207.780 F1000
G1 X14.780 Y208.560 F1000
G1 X14.520 Y208.820 F1000
G1 X14.520 Y210.640 F1000
G1 X14.260 Y210.900 F1000
G1 X14.260 Y216.100 F1000
G1 X14.520 Y216.360 F1000
G1 X14.520 Y218.180 F1000
G1 X14.780 Y218.440 F1000
G1 X14.780 Y219.220 F1000
G1 X15.040 Y219.480 F1000
G1 X15.040 Y220.260 F1000
G1 X15.300 Y220.520 F1000
G1 X15.300 Y221.300 F1000
G1 X15.560 Y221.560 F1000
G1 X15.560 Y222.080 F1000
G1 X15.820 Y222.340 F1000
G1 X15.820 Y222.860 F1000
G1 X16.080 Y223.120 F1000
G1 X16.080 Y223.380 F1000
G1 X16.340 Y223.640 F1000
G1 X16.340 Y223.900 F1000
G1 X16.600 Y224.160 F1000
G1 X16.600 Y224.680 F1000
G1 X16.860 Y224.940 F1000
G1 X16.860 Y225.200 F1000
G1 X17.120 Y225.460 F1000
G1 X17.120 Y225.720 F1000
G1 X17.640 Y226.240 F1000
G1 X17.640 Y226.500 F1000
G1 X17.900 Y226.760 F1000
G1 X17.900 Y227.020 F1000
G1 X18.420 Y227.540 F1000
G1 X18.420 Y227.800 F1000
G1 X18.940 Y228.320 F1000
G1 X18.940 Y228.580 F1000
G1 X19.720 Y229.360 F1000
G1 X19.720 Y229.620 F1000
G1 X23.880 Y233.780 F1000
G1 X24.140 Y233.780 F1000
G1 X24.920 Y234.560 F1000
G1 X25.180 Y234.560 F1000
G1 X25.700 Y235.080 F1000
G1 X25.960 Y235.080 F1000
G1 X26.480 Y235.600 F1000
G1 X26.740 Y235.600 F1000
G1 X27.000 Y235.860 F1000
G1 X27.260 Y235.860 F1000
G1 X27.780 Y236.380 F1000
G1 X28.040 Y236.380 F1000
G1 X28.300 Y236.640 F1000
G1 X28.560 Y236.640 F1000
G1 X28.820 Y236.900 F1000
G1 X29.340 Y236.900 F1000
G1 X29.600 Y237.160 F1000
G1 X29.860 Y237.160 F1000
G1 X30.120 Y237.420 F1000
G1 X30.380 Y237.420 F1000
G1 X30.640 Y237.680 F1000
G1 X31.160 Y237.680 F1000
G1 X31.420 Y237.940 F1000
G1 X31.940 Y237.940 F1000
G1 X32.200 Y238.200 F1000
G1 X32.980 Y238.200 F1000
G1 X33.240 Y238.460 F1000
G1 X34.020 Y238.460 F1000
G1 X34.280 Y238.720 F1000
G1 X35.060 Y238.720 F1000
G1 X35.320 Y238.980 F1000
G1 X37.140 Y238.980 F1000
G1 X37.400 Y239.240 F1000
G0 Z3.0 ; Pen up

G0 X37.140 Y238.980 F3000 ; Travel to line 8
G0 Z0.0 ; Pen down
G1 X37.400 Y239.240 F1000
G1 X42.600 Y239.240 F1000
G1 X42.860 Y238.980 F1000
G1 X44.680 Y238.980 F1000
G1 X44.940 Y238.720 F1000
G1 X45.720 Y238.720 F1000
G1 X45.980 Y238.460 F1000
G1 X46.760 Y238.460 F1000
G1 X47.020 Y238.200 F1000
G1 X47.800 Y238.200 F1000
G1 X48.060 Y237.940 F1000
G1 X48.580 Y237.940 F1000
G1 X48.840 Y237.680 F1000
G1 X49.100 Y237.680 F1000
G1 X49.360 Y237.420 F1000
G1 X49.880 Y237.420 F1000
G1 X50.140 Y237.160 F1000
G1 X50.400 Y237.160 F1000
G1 X50.660 Y236.900 F1000
G1 X50.920 Y236.900 F1000
G1 X51.180 Y236.640 F1000
G1 X51.440 Y236.640 F1000
G1 X51.700 Y236.380 F1000
G1 X51.960 Y236.380 F1000
G1 X52.220 Y236.120 F1000
G1 X52.480 Y236.120 F1000
G1 X53.000 Y235.600 F1000
G1 X53.260 Y235.600 F1000
G1 X53.520 Y235.340 F1000
G1 X53.780 Y235.340 F1000
G1 X54.560 Y234.560 F1000
G1 X54.820 Y234.560 F1000
G1 X55.600 Y233.780 F1000
G1 X55.860 Y233.780 F1000
G1 X57.160 Y232.480 F1000
G1 X57.420 Y232.480 F1000
G1 X58.720 Y231.180 F1000
G1 X58.720 Y230.920 F1000
G1 X60.020 Y229.620 F1000
G1 X60.020 Y229.360 F1000
G1 X60.800 Y228.580 F1000
G1 X60.800 Y228.320 F1000
G1 X61.580 Y227.540 F1000
G1 X61.580 Y227.280 F1000
G1 X61.840 Y227.020 F1000
G1 X61.840 Y226.760 F1000
G1 X62.360 Y226.240 F1000
G1 X62.360 Y225.980 F1000
G1 X62.620 Y225.720 F1000
G1 X62.620 Y225.460 F1000
G1 X62.880 Y225.200 F1000
G1 X62.880 Y224.940 F1000
G1 X63.140 Y224.680 F1000
G1 X63.140 Y224.420 F1000
G1 X63.400 Y224.160 F1000
G1 X63.400 Y223.900 F1000
G1 X63.660 Y223.640 F1000
G1 X63.660 Y223.120 F1000
G1 X63.920 Y222.860 F1000
G1 X63.920 Y222.600 F1000
G1 X64.180 Y222.340 F1000
G1 X64.180 Y221.820 F1000
G1 X64.440 Y221.560 F1000
G1 X64.440 Y221.040 F1000
G1 X64.700 Y220.780 F1000
G1 X64.700 Y220.260 F1000
G1 X64.960 Y220.000 F1000
G1 X64.960 Y219.220 F1000
G1 X65.220 Y218.960 F1000
G1 X65.220 Y217.920 F1000
G1 X65.480 Y217.660 F1000
G1 X65.480 Y215.840 F1000
G1 X65.740 Y215.580 F1000
G1 X65.740 Y211.420 F1000
G1 X65.480 Y211.160 F1000
G1 X65.480 Y209.340 F1000
G1 X65.220 Y209.080 F1000
G1 X65.220 Y208.040 F1000
G1 X64.960 Y207.780 F1000
G1 X64.960 Y207.000 F1000
G1 X64.700 Y206.740 F1000
G1 X64.700 Y206.220 F1000
G1 X64.440 Y205.960 F1000
G1 X64.440 Y205.440 F1000
G1 X64.180 Y205.180 F1000
G1 X64.180 Y204.660 F1000
G1 X63.920 Y204.400 F1000
G1 X63.920 Y204.140 F1000
G1 X63.660 Y203.880 F1000
G1 X63.660 Y203.360 F1000
G1 X63.400 Y203.100 F1000
G1 X63.400 Y202.840 F1000
G1 X63.140 Y202.580 F1000
G1 X63.140 Y202.320 F1000
G1 X62.880 Y202.060 F1000
G1 X62.880 Y201.800 F1000
G1 X62.620 Y201.540 F1000
G1 X62.620 Y201.280 F1000
G1 X62.360 Y201.020 F1000
G1 X62.360 Y200.760 F1000
G1 X61.840 Y200.240 F1000
G1 X61.840 Y199.980 F1000
G1 X61.580 Y199.720 F1000
G1 X61.580 Y199.460 F1000
G1 X60.800 Y198.680 F1000
G1 X60.800 Y198.420 F1000
G1 X60.020 Y197.640 F1000
G1 X60.020 Y197.380 F1000
G1 X58.720 Y196.080 F1000
G1 X58.720 Y195.820 F1000
G1 X57.680 Y194.780 F1000
G1 X57.420 Y194.780 F1000
G1 X56.120 Y193.480 F1000
G1 X55.860 Y193.480 F1000
G1 X55.080 Y192.700 F1000
G1 X54.820 Y192.700 F1000
G1 X54.040 Y191.920 F1000
G1 X53.780 Y191.920 F1000
G1 X53.520 Y191.660 F1000
G1 X53.260 Y191.660 F1000
G1 X52.740 Y191.140 F1000
G1 X52.480 Y191.140 F1000
G1 X52.220 Y190.880 F1000
G1 X51.960 Y190.880 F1000
G1 X51.700 Y190.620 F1000
G1 X51.440 Y190.620 F1000
G1 X51.180 Y190.360 F1000
G1 X50.920 Y190.360 F1000
G1 X50.660 Y190.100 F1000
G1 X50.400 Y190.100 F1000
G1 X50.140 Y189.840 F1000
G1 X49.620 Y189.840 F1000
G1 X49.360 Y189.580 F1000
G1 X49.100 Y189.580 F1000
G1 X48.840 Y189.320 F1000
G1 X48.320 Y189.320 F1000
G1 X48.060 Y189.060 F1000
G1 X47.540 Y189.060 F1000
G1 X47.280 Y188.800 F1000
G1 X46.760 Y188.800 F1000
G1 X46.500 Y188.540 F1000
G1 X45.720 Y188.540 F1000
G1 X45.460 Y188.280 F1000
G1 X44.420 Y188.280 F1000
G1 X44.160 Y188.020 F1000
G1 X42.340 Y188.020 F1000
G1 X42.080 Y187.760 F1000
G1 X37.920 Y187.760 F1000
G1 X37.660 Y188.020 F1000
G1 X35.840 Y188.020 F1000
G1 X35.580 Y188.280 F1000
G1 X34.540 Y188.280 F1000
G1 X34.280 Y188.540 F1000
G1 X33.500 Y188.540 F1000
G1 X33.240 Y188.800 F1000
G1 X32.720 Y188.800 F1000
G1 X32.460 Y189.060 F1000
G1 X31.940 Y189.060 F1000
G1 X31.680 Y189.320 F1000
G1 X31.160 Y189.320 F1000
G1 X30.900 Y189.580 F1000
G1 X30.640 Y189.580 F1000
G1 X30.380 Y189.840 F1000
G1 X29.860 Y189.840 F1000
G1 X29.600 Y190.100 F1000
G1 X29.340 Y190.100 F1000
G1 X29.080 Y190.360 F1000
G1 X28.820 Y190.360 F1000
G1 X28.560 Y190.620 F1000
G1 X28.300 Y190.620 F1000
G1 X28.040 Y190.880 F1000
G1 X27.780 Y190.880 F1000
G1 X27.520 Y191.140 F1000
G1 X27.260 Y191.140 F1000
G1 X26.740 Y191.660 F1000
G1 X26.480 Y191.660 F1000
G1 X26.220 Y191.920 F1000
G1 X25.960 Y191.920 F1000
G1 X25.180 Y192.700 F1000
G1 X24.920 Y192.700 F1000
G1 X24.140 Y193.480 F1000
G1 X23.880 Y193.480 F1000
G1 X22.580 Y194.780 F1000
G1 X22.320 Y194.780 F1000
G1 X21.020 Y196.080 F1000
G1 X21.020 Y196.340 F1000
G1 X19.720 Y197.640 F1000
G1 X19.720 Y197.900 F1000
G1 X18.940 Y198.680 F1000
G1 X18.940 Y198.940 F1000
G1 X18.160 Y199.720 F1000
G1 X18.160 Y199.980 F1000
G1 X17.900 Y200.240 F1000
G1 X17.900 Y200.500 F1000
G1 X17.380 Y201.020 F1000
G1 X17.380 Y201.280 F1000
G1 X17.120 Y201.540 F1000
G1 X17.120 Y201.800 F1000
G1 X16.860 Y202.060 F1000
G1 X16.860 Y202.320 F1000
G1 X16.600 Y202.580 F1000
G1 X16.600 Y202.840 F1000
G1 X16.340 Y203.100 F1000
G1 X16.340 Y203.360 F1000
G1 X16.080 Y203.620 F1000
G1 X16.080 Y204.140 F1000
G1 X15.820 Y204.400 F1000
G1 X15.820 Y204.660 F1000
G1 X15.560 Y204.920 F1000
G1 X15.560 Y205.440 F1000
G1 X15.300 Y205.700 F1000
G1 X15.300 Y206.480 F1000
G1 X15.040 Y206.740 F1000
G1 X15.040 Y207.520 F1000
G1 X14.780 Y207.780 F1000
G1 X14.780 Y208.560 F1000
G1 X14.520 Y208.820 F1000
G1 X14.520 Y210.640 F1000
G1 X14.260 Y210.900 F1000
G1 X14.260 Y216.100 F1000
G1 X14.520 Y216.360 F1000
G1 X14.520 Y218.180 F1000
G1 X14.780 Y218.440 F1000
G1 X14.780 Y219.220 F1000
G1 X15.040 Y219.480 F1000
G1 X15.040 Y220.260 F1000
G1 X15.300 Y220.520 F1000
G1 X15.300 Y221.300 F1000
G1 X15.560 Y221.560 F1000
G1 X15.560 Y222.080 F1000
G1 X15.820 Y222.340 F1000
G1 X15.820 Y222.600 F1000
G1 X16.080 Y222.860 F1000
G1 X16.080 Y223.380 F1000
G1 X16.340 Y223.640 F1000
G1 X16.340 Y223.900 F1000
G1 X16.600 Y224.160 F1000
G1 X16.600 Y224.420 F1000
G1 X16.860 Y224.680 F1000
G1 X16.860 Y224.940 F1000
G1 X17.120 Y225.200 F1000
G1 X17.120 Y225.460 F1000
G1 X17.380 Y225.720 F1000
G1 X17.380 Y225.980 F1000
G1 X17.900 Y226.500 F1000
G1 X17.900 Y226.760 F1000
G1 X18.160 Y227.020 F1000
G1 X18.160 Y227.280 F1000
G1 X18.940 Y228.060 F1000
G1 X18.940 Y228.320 F1000
G1 X19.720 Y229.100 F1000
G1 X19.720 Y229.360 F1000
G1 X21.020 Y230.660 F1000
G1 X21.020 Y230.920 F1000
G1 X22.580 Y232.480 F1000
G1 X22.840 Y232.480 F1000
G1 X24.140 Y233.780 F1000
G1 X24.400 Y233.780 F1000
G1 X25.180 Y234.560 F1000
G1 X25.440 Y234.560 F1000
G1 X26.220 Y235.340 F1000
G1 X26.480 Y235.340 F1000
G1 X26.740 Y235.600 F1000
G1 X27.000 Y235.600 F1000
G1 X27.520 Y236.120 F1000
G1 X27.780 Y236.120 F1000
G1 X28.040 Y236.380 F1000
G1 X28.300 Y236.380 F1000
G1 X28.560 Y236.640 F1000
G1 X28.820 Y236.640 F1000
G1 X29.080 Y236.900 F1000
G1 X29.340 Y236.900 F1000
G1 X29.600 Y237.160 F1000
G1 X29.860 Y237.160 F1000
G1 X30.120 Y237.420 F1000
G1 X30.640 Y237.420 F1000
G1 X30.900 Y237.680 F1000
G1 X31.160 Y237.680 F1000
G1 X31.420 Y237.940 F1000
G1 X31.940 Y237.940 F1000
G1 X32.200 Y238.200 F1000
G1 X32.980 Y238.200 F1000
G1 X33.240 Y238.460 F1000
G1 X34.020 Y238.460 F1000
G1 X34.280 Y238.720 F1000
G1 X35.060 Y238.720 F1000
G1 X35.320 Y238.980 F1000
G0 Z3.0 ; Pen up

; Return to origin
G0 X0 Y0
G0 Z3.0

; Total drawing distance: 2656.79 mm
; Total travel distance: 457.85 mm
; Total lines: 8
; Estimated time: 168.6 seconds (2.8 minutes)
M2 ; End program