; Blueprint to G-code
; Input: test_images/test8_interlocking_gears.png
; Generated with blueprint2gcode.py

G21 ; Set units to millimeters
G90 ; Absolute positioning
G0 Z3.0 ; Pen up
G0 X0 Y0 ; Move to origin

G0 X53.650 Y104.545 F3000 ; Travel to line 1
G0 Z0.0 ; Pen down
G1 X53.945 Y104.250 F1000
G1 X159.555 Y104.250 F1000
G1 X159.850 Y104.545 F1000
G1 X159.850 Y107.200 F1000
G1 X159.850 Y103.955 F1000
G1 X159.555 Y104.250 F1000
G1 X53.945 Y104.250 F1000
G1 X53.650 Y103.955 F1000
G1 X53.650 Y101.300 F1000
G1 X53.650 Y107.200 F1000
G0 Z3.0 ; Pen up

G0 X92.295 Y107.200 F3000 ; Travel to line 2
G0 Z0.0 ; Pen down
G1 X92.295 Y106.315 F1000
G1 X92.590 Y106.020 F1000
G1 X93.770 Y107.200 F1000
G1 X93.770 Y107.495 F1000
G1 X93.475 Y107.790 F1000
G1 X92.885 Y107.790 F1000
G1 X92.885 Y107.790 F1000
G1 X92.295 Y107.200 F1000
G1 X92.295 Y106.020 F1000
G1 X92.885 Y105.430 F1000
G1 X93.770 Y105.430 F1000
G1 X94.065 Y105.725 F1000
G1 X94.065 Y107.495 F1000
G1 X94.360 Y107.790 F1000
G1 X94.065 Y107.495 F1000
G1 X93.770 Y107.790 F1000
G0 Z3.0 ; Pen up

G0 X93.770 Y107.200 F3000 ; Travel to line 3
G0 Z0.0 ; Pen down
G1 X94.065 Y106.905 F1000
G1 X94.065 Y106.020 F1000
G1 X93.475 Y105.430 F1000
G1 X92.885 Y105.430 F1000
G1 X92.590 Y105.725 F1000
G1 X92.885 Y106.020 F1000
G1 X92.885 Y106.315 F1000
G0 Z3.0 ; Pen up

G0 X95.245 Y107.790 F3000 ; Travel to line 4
G0 Z0.0 ; Pen down
G1 X94.950 Y107.495 F1000
G1 X95.245 Y107.790 F1000
G1 X95.835 Y107.790 F1000
G1 X96.130 Y107.495 F1000
G1 X96.130 Y106.905 F1000
G1 X95.835 Y106.610 F1000
G1 X95.245 Y106.610 F1000
G1 X95.835 Y106.610 F1000
G1 X96.130 Y106.315 F1000
G1 X96.130 Y105.725 F1000
G1 X95.835 Y105.430 F1000
G1 X95.245 Y105.430 F1000
G1 X94.950 Y105.725 F1000
G1 X95.245 Y105.430 F1000
G1 X95.835 Y105.430 F1000
G1 X96.130 Y105.725 F1000
G1 X96.130 Y106.315 F1000
G1 X95.835 Y106.610 F1000
G1 X96.130 Y106.905 F1000
G1 X96.130 Y107.495 F1000
G1 X95.835 Y107.790 F1000
G0 Z3.0 ; Pen up

G0 X97.900 Y107.790 F3000 ; Travel to line 5
G0 Z0.0 ; Pen down
G1 X97.310 Y107.200 F1000
G1 X97.310 Y105.725 F1000
G1 X97.605 Y105.430 F1000
G1 X98.490 Y105.430 F1000
G1 X98.785 Y105.725 F1000
G1 X98.785 Y106.610 F1000
G1 X98.490 Y106.905 F1000
G1 X97.900 Y106.905 F1000
G1 X97.605 Y106.610 F1000
G1 X97.310 Y106.905 F1000
G1 X97.310 Y107.200 F1000
G1 X97.900 Y107.790 F1000
G1 X98.490 Y107.790 F1000
G0 Z3.0 ; Pen up

G0 X97.900 Y106.905 F3000 ; Travel to line 6
G0 Z0.0 ; Pen down
G1 X98.195 Y106.905 F1000
G1 X98.785 Y106.315 F1000
G1 X98.785 Y106.020 F1000
G1 X98.195 Y105.430 F1000
G1 X97.900 Y105.430 F1000
G1 X97.310 Y106.020 F1000
G1 X97.310 Y106.315 F1000
G0 Z3.0 ; Pen up

G0 X99.670 Y107.200 F3000 ; Travel to line 7
G0 Z0.0 ; Pen down
G1 X99.670 Y106.020 F1000
G1 X100.260 Y105.430 F1000
G1 X100.555 Y105.430 F1000
G1 X100.850 Y105.725 F1000
G1 X100.850 Y106.020 F1000
G1 X101.145 Y106.315 F1000
G1 X101.145 Y106.905 F1000
G1 X100.850 Y107.200 F1000
G1 X100.850 Y107.495 F1000
G1 X100.555 Y107.790 F1000
G1 X100.260 Y107.790 F1000
G0 Z3.0 ; Pen up

G0 X99.965 Y107.790 F3000 ; Travel to line 8
G0 Z0.0 ; Pen down
G1 X99.670 Y107.495 F1000
G1 X99.670 Y105.725 F1000
G1 X99.965 Y105.430 F1000
G1 X100.555 Y105.430 F1000
G1 X101.145 Y106.020 F1000
G1 X101.145 Y107.200 F1000
G1 X100.555 Y107.790 F1000
G0 Z3.0 ; Pen up

G0 X102.030 Y107.200 F3000 ; Travel to line 9
G0 Z0.0 ; Pen down
G1 X101.735 Y106.905 F1000
G1 X101.735 Y105.430 F1000
G1 X101.735 Y106.905 F1000
G1 X102.030 Y107.200 F1000
G1 X102.620 Y107.200 F1000
G1 X102.915 Y106.905 F1000
G1 X102.915 Y105.430 F1000
G1 X102.915 Y106.610 F1000
G1 X103.505 Y107.200 F1000
G1 X103.800 Y107.200 F1000
G1 X104.390 Y106.610 F1000
G1 X104.390 Y105.430 F1000
G1 X104.390 Y106.610 F1000
G1 X104.095 Y106.905 F1000
G1 X104.095 Y107.200 F1000
G1 X103.505 Y107.200 F1000
G1 X103.210 Y106.905 F1000
G1 X102.915 Y107.200 F1000
G0 Z3.0 ; Pen up

G0 X105.570 Y107.200 F3000 ; Travel to line 10
G0 Z0.0 ; Pen down
G1 X105.275 Y106.905 F1000
G1 X105.275 Y105.430 F1000
G1 X105.275 Y106.905 F1000
G1 X105.570 Y107.200 F1000
G1 X106.160 Y107.200 F1000
G1 X106.455 Y106.905 F1000
G1 X106.455 Y105.430 F1000
G1 X106.455 Y106.610 F1000
G1 X107.045 Y107.200 F1000
G1 X107.340 Y107.200 F1000
G1 X107.930 Y106.610 F1000
G1 X107.930 Y105.430 F1000
G1 X107.930 Y106.610 F1000
G1 X107.635 Y106.905 F1000
G1 X107.635 Y107.200 F1000
G1 X107.045 Y107.200 F1000
G1 X106.750 Y106.905 F1000
G1 X106.455 Y107.200 F1000
G0 Z3.0 ; Pen up

G0 X100.260 Y111.035 F3000 ; Travel to line 11
G0 Z0.0 ; Pen down
G1 X100.555 Y111.035 F1000
G1 X101.145 Y110.445 F1000
G1 X100.555 Y109.855 F1000
G1 X100.260 Y109.855 F1000
G1 X99.670 Y110.445 F1000
G0 Z3.0 ; Pen up

G0 X99.670 Y111.625 F3000 ; Travel to line 12
G0 Z0.0 ; Pen down
G1 X100.260 Y111.035 F1000
G1 X100.555 Y111.035 F1000
G1 X100.850 Y111.330 F1000
G1 X100.850 Y111.920 F1000
G1 X100.555 Y112.215 F1000
G1 X100.260 Y112.215 F1000
G0 Z3.0 ; Pen up

G0 X99.965 Y112.215 F3000 ; Travel to line 13
G0 Z0.0 ; Pen down
G1 X99.670 Y111.920 F1000
G1 X99.670 Y111.330 F1000
G1 X99.965 Y111.035 F1000
G1 X99.670 Y110.740 F1000
G1 X99.670 Y110.150 F1000
G1 X99.965 Y109.855 F1000
G1 X100.850 Y109.855 F1000
G1 X101.145 Y110.150 F1000
G1 X101.145 Y110.740 F1000
G1 X100.850 Y111.035 F1000
G1 X100.850 Y112.215 F1000
G0 Z3.0 ; Pen up

G0 X98.490 Y111.920 F3000 ; Travel to line 14
G0 Z0.0 ; Pen down
G1 X98.490 Y109.855 F1000
G1 X98.490 Y110.150 F1000
G1 X98.195 Y110.445 F1000
G1 X97.310 Y110.445 F1000
G1 X97.310 Y111.035 F1000
G1 X97.900 Y111.625 F1000
G1 X97.900 Y111.920 F1000
G0 Z3.0 ; Pen up

G0 X98.195 Y111.920 F3000 ; Travel to line 15
G0 Z0.0 ; Pen down
G1 X98.490 Y111.625 F1000
G1 X98.490 Y110.740 F1000
G1 X98.195 Y110.445 F1000
G1 X97.605 Y110.445 F1000
G1 X97.310 Y110.740 F1000
G1 X97.310 Y111.035 F1000
G0 Z3.0 ; Pen up

G0 X96.425 Y111.035 F3000 ; Travel to line 16
G0 Z0.0 ; Pen down
G1 X94.360 Y111.035 F1000
G0 Z3.0 ; Pen up

G0 X94.360 Y110.445 F3000 ; Travel to line 17
G0 Z0.0 ; Pen down
G1 X96.425 Y110.445 F1000
G0 Z3.0 ; Pen up

G0 X93.770 Y112.215 F3000 ; Travel to line 18
G0 Z0.0 ; Pen down
G1 X93.180 Y112.215 F1000
G1 X92.885 Y111.920 F1000
G1 X92.885 Y109.855 F1000
G1 X92.885 Y111.920 F1000
G1 X92.590 Y112.215 F1000
G1 X92.000 Y112.215 F1000
G0 Z3.0 ; Pen up

G0 X92.885 Y118.115 F3000 ; Travel to line 19
G0 Z0.0 ; Pen down
G1 X92.295 Y117.525 F1000
G1 X92.295 Y116.050 F1000
G1 X92.885 Y115.460 F1000
G1 X94.360 Y115.460 F1000
G1 X94.360 Y116.640 F1000
G1 X93.770 Y116.640 F1000
G1 X94.065 Y116.640 F1000
G1 X94.360 Y116.345 F1000
G1 X94.360 Y115.755 F1000
G1 X94.065 Y115.460 F1000
G1 X93.180 Y115.460 F1000
G1 X92.295 Y116.345 F1000
G1 X92.295 Y117.230 F1000
G1 X93.180 Y118.115 F1000
G1 X94.065 Y118.115 F1000
G1 X94.360 Y117.820 F1000
G1 X94.065 Y118.115 F1000
G0 Z3.0 ; Pen up

G0 X95.835 Y118.115 F3000 ; Travel to line 20
G0 Z0.0 ; Pen down
G1 X95.540 Y117.820 F1000
G1 X95.540 Y115.755 F1000
G1 X95.835 Y115.460 F1000
G1 X97.310 Y115.460 F1000
G1 X95.835 Y115.460 F1000
G1 X95.540 Y115.755 F1000
G1 X95.540 Y116.640 F1000
G1 X95.835 Y116.935 F1000
G1 X97.310 Y116.935 F1000
G1 X95.835 Y116.935 F1000
G1 X95.540 Y117.230 F1000
G1 X95.540 Y117.820 F1000
G1 X95.835 Y118.115 F1000
G1 X97.310 Y118.115 F1000
G0 Z3.0 ; Pen up

G0 X98.785 Y117.820 F3000 ; Travel to line 21
G0 Z0.0 ; Pen down
G1 X98.785 Y117.230 F1000
G1 X98.490 Y116.935 F1000
G1 X98.490 Y116.640 F1000
G1 X98.195 Y116.345 F1000
G1 X98.195 Y115.460 F1000
G1 X98.195 Y116.050 F1000
G1 X98.490 Y116.345 F1000
G1 X99.670 Y116.345 F1000
G1 X100.260 Y115.755 F1000
G1 X100.260 Y115.460 F1000
G1 X100.260 Y116.050 F1000
G1 X99.670 Y116.640 F1000
G1 X99.670 Y117.525 F1000
G1 X99.375 Y117.820 F1000
G0 Z3.0 ; Pen up

G0 X98.785 Y117.525 F3000 ; Travel to line 22
G0 Z0.0 ; Pen down
G1 X99.080 Y117.820 F1000
G1 X99.670 Y117.230 F1000
G1 X99.670 Y116.640 F1000
G1 X99.375 Y116.345 F1000
G1 X98.785 Y116.345 F1000
G1 X98.490 Y116.640 F1000
G1 X98.785 Y116.935 F1000
G0 Z3.0 ; Pen up

G0 X100.850 Y116.935 F3000 ; Travel to line 23
G0 Z0.0 ; Pen down
G1 X101.145 Y116.640 F1000
G1 X102.030 Y116.640 F1000
G1 X102.325 Y116.935 F1000
G1 X102.325 Y117.820 F1000
G1 X102.030 Y118.115 F1000
G1 X101.145 Y118.115 F1000
G1 X100.850 Y117.820 F1000
G0 Z3.0 ; Pen up

G0 X101.145 Y118.115 F3000 ; Travel to line 24
G0 Z0.0 ; Pen down
G1 X100.850 Y117.820 F1000
G1 X100.850 Y115.755 F1000
G1 X100.850 Y116.345 F1000
G1 X101.145 Y116.640 F1000
G1 X102.030 Y116.640 F1000
G1 X102.325 Y116.345 F1000
G1 X102.325 Y116.050 F1000
G1 X102.325 Y118.115 F1000
G0 Z3.0 ; Pen up

G0 X105.570 Y117.820 F3000 ; Travel to line 25
G0 Z0.0 ; Pen down
G1 X105.570 Y117.230 F1000
G1 X105.275 Y116.935 F1000
G1 X105.275 Y116.640 F1000
G1 X104.980 Y116.345 F1000
G1 X104.980 Y115.460 F1000
G1 X104.980 Y116.050 F1000
G1 X105.275 Y116.345 F1000
G1 X106.455 Y116.345 F1000
G1 X107.045 Y115.755 F1000
G1 X107.045 Y115.460 F1000
G1 X107.045 Y116.050 F1000
G1 X106.455 Y116.640 F1000
G1 X106.455 Y117.525 F1000
G1 X106.160 Y117.820 F1000
G0 Z3.0 ; Pen up

G0 X105.570 Y117.525 F3000 ; Travel to line 26
G0 Z0.0 ; Pen down
G1 X105.865 Y117.820 F1000
G1 X106.455 Y117.230 F1000
G1 X106.455 Y116.640 F1000
G1 X106.160 Y116.345 F1000
G1 X105.570 Y116.345 F1000
G1 X105.275 Y116.640 F1000
G1 X105.570 Y116.935 F1000
G0 Z3.0 ; Pen up

G0 X104.980 Y125.490 F3000 ; Travel to line 27
G0 Z0.0 ; Pen down
G1 X105.275 Y125.195 F1000
G1 X107.930 Y125.195 F1000
G1 X108.225 Y125.490 F1000
G1 X108.225 Y130.800 F1000
G1 X107.930 Y131.095 F1000
G1 X105.275 Y131.095 F1000
G1 X104.980 Y130.800 F1000
G0 Z3.0 ; Pen up

G0 X102.030 Y131.095 F3000 ; Travel to line 28
G0 Z0.0 ; Pen down
G1 X102.325 Y131.390 F1000
G1 X102.620 Y131.390 F1000
G1 X102.915 Y131.095 F1000
G1 X104.685 Y131.095 F1000
G1 X104.980 Y130.800 F1000
G1 X104.980 Y125.490 F1000
G1 X104.685 Y125.195 F1000
G1 X102.620 Y125.195 F1000
G1 X102.325 Y125.490 F1000
G1 X101.735 Y125.490 F1000
G1 X101.440 Y125.785 F1000
G1 X101.440 Y126.080 F1000
G1 X101.735 Y126.375 F1000
G1 X101.735 Y129.030 F1000
G1 X102.030 Y129.325 F1000
G0 Z3.0 ; Pen up

G0 X98.785 Y130.505 F3000 ; Travel to line 29
G0 Z0.0 ; Pen down
G1 X98.490 Y130.210 F1000
G1 X98.490 Y128.440 F1000
G1 X98.195 Y128.145 F1000
G1 X98.195 Y126.670 F1000
G1 X97.900 Y126.375 F1000
G1 X97.900 Y126.080 F1000
G1 X98.195 Y125.785 F1000
G1 X99.375 Y125.785 F1000
G1 X99.670 Y125.490 F1000
G1 X101.145 Y125.490 F1000
G1 X101.440 Y125.785 F1000
G1 X101.440 Y126.080 F1000
G1 X101.735 Y126.375 F1000
G1 X101.735 Y129.030 F1000
G1 X102.030 Y129.325 F1000
G1 X102.030 Y131.095 F1000
G1 X101.735 Y131.390 F1000
G1 X100.260 Y131.390 F1000
G1 X99.965 Y131.685 F1000
G1 X99.080 Y131.685 F1000
G1 X98.785 Y131.390 F1000
G0 Z3.0 ; Pen up

G0 X95.835 Y131.390 F3000 ; Travel to line 30
G0 Z0.0 ; Pen down
G1 X95.540 Y131.095 F1000
G1 X95.540 Y129.915 F1000
G1 X95.245 Y129.620 F1000
G1 X95.245 Y128.440 F1000
G1 X94.950 Y128.145 F1000
G1 X94.950 Y126.965 F1000
G1 X94.655 Y126.670 F1000
G1 X94.950 Y126.375 F1000
G1 X95.835 Y126.375 F1000
G1 X96.130 Y126.080 F1000
G1 X97.605 Y126.080 F1000
G1 X98.195 Y126.670 F1000
G1 X98.195 Y128.145 F1000
G1 X98.490 Y128.440 F1000
G1 X98.490 Y130.210 F1000
G1 X98.785 Y130.505 F1000
G1 X98.785 Y131.390 F1000
G1 X98.490 Y131.685 F1000
G1 X98.195 Y131.685 F1000
G1 X97.900 Y131.980 F1000
G1 X96.720 Y131.980 F1000
G1 X96.425 Y132.275 F1000
G1 X96.130 Y132.275 F1000
G1 X95.835 Y131.980 F1000
G0 Z3.0 ; Pen up

G0 X92.885 Y132.275 F3000 ; Travel to line 31
G0 Z0.0 ; Pen down
G1 X92.590 Y131.980 F1000
G1 X92.590 Y131.390 F1000
G1 X92.295 Y131.095 F1000
G1 X92.295 Y130.505 F1000
G1 X92.000 Y130.210 F1000
G1 X92.000 Y129.325 F1000
G1 X91.705 Y129.030 F1000
G1 X91.705 Y128.440 F1000
G1 X91.410 Y128.145 F1000
G1 X91.410 Y127.555 F1000
G1 X91.705 Y127.260 F1000
G1 X92.295 Y127.260 F1000
G1 X92.590 Y126.965 F1000
G1 X93.180 Y126.965 F1000
G1 X93.475 Y126.670 F1000
G1 X94.655 Y126.670 F1000
G1 X94.950 Y126.965 F1000
G1 X94.950 Y128.145 F1000
G1 X95.245 Y128.440 F1000
G1 X95.245 Y129.620 F1000
G1 X95.540 Y129.915 F1000
G1 X95.540 Y131.095 F1000
G1 X95.835 Y131.390 F1000
G1 X95.835 Y131.980 F1000
G1 X95.245 Y132.570 F1000
G1 X94.360 Y132.570 F1000
G1 X94.065 Y132.865 F1000
G1 X93.180 Y132.865 F1000
G1 X92.885 Y132.570 F1000
G0 Z3.0 ; Pen up

G0 X89.935 Y133.455 F3000 ; Travel to line 32
G0 Z0.0 ; Pen down
G1 X89.640 Y133.160 F1000
G1 X89.640 Y132.570 F1000
G1 X89.345 Y132.275 F1000
G1 X89.345 Y131.980 F1000
G1 X89.050 Y131.685 F1000
G1 X89.050 Y131.095 F1000
G1 X88.755 Y130.800 F1000
G1 X88.755 Y130.210 F1000
G1 X88.460 Y129.915 F1000
G1 X88.460 Y129.620 F1000
G1 X88.165 Y129.325 F1000
G1 X88.165 Y128.735 F1000
G1 X88.755 Y128.145 F1000
G1 X89.345 Y128.145 F1000
G1 X89.640 Y127.850 F1000
G1 X90.230 Y127.850 F1000
G1 X90.525 Y127.555 F1000
G1 X91.115 Y127.555 F1000
G1 X91.410 Y127.850 F1000
G1 X91.410 Y128.145 F1000
G1 X91.705 Y128.440 F1000
G1 X91.705 Y129.030 F1000
G1 X92.000 Y129.325 F1000
G1 X92.000 Y130.210 F1000
G1 X92.295 Y130.505 F1000
G1 X92.295 Y131.095 F1000
G1 X92.590 Y131.390 F1000
G1 X92.590 Y131.980 F1000
G1 X92.885 Y132.275 F1000
G1 X92.885 Y132.865 F1000
G1 X92.590 Y133.160 F1000
G1 X92.295 Y133.160 F1000
G1 X92.000 Y133.455 F1000
G1 X91.410 Y133.455 F1000
G1 X91.115 Y133.750 F1000
G1 X90.525 Y133.750 F1000
G1 X90.230 Y134.045 F1000
G1 X89.935 Y133.750 F1000
G0 Z3.0 ; Pen up

G0 X86.985 Y134.635 F3000 ; Travel to line 33
G0 Z0.0 ; Pen down
G1 X86.690 Y134.340 F1000
G1 X86.690 Y134.045 F1000
G1 X86.395 Y133.750 F1000
G1 X86.395 Y133.455 F1000
G1 X86.100 Y133.160 F1000
G1 X86.100 Y132.865 F1000
G1 X85.805 Y132.570 F1000
G1 X85.805 Y131.980 F1000
G1 X85.510 Y131.685 F1000
G1 X85.510 Y131.390 F1000
G1 X85.215 Y131.095 F1000
G1 X85.215 Y130.800 F1000
G1 X84.920 Y130.505 F1000
G1 X84.920 Y129.915 F1000
G1 X85.215 Y129.620 F1000
G1 X85.510 Y129.620 F1000
G1 X85.805 Y129.325 F1000
G1 X86.395 Y129.325 F1000
G1 X86.690 Y129.030 F1000
G1 X86.985 Y129.030 F1000
G1 X87.280 Y128.735 F1000
G1 X87.870 Y128.735 F1000
G1 X88.165 Y129.030 F1000
G1 X88.165 Y129.325 F1000
G1 X88.460 Y129.620 F1000
G1 X88.460 Y129.915 F1000
G1 X88.755 Y130.210 F1000
G1 X88.755 Y130.800 F1000
G1 X89.050 Y131.095 F1000
G1 X89.050 Y131.685 F1000
G1 X89.345 Y131.980 F1000
G1 X89.345 Y132.275 F1000
G1 X89.640 Y132.570 F1000
G1 X89.640 Y133.160 F1000
G1 X89.935 Y133.455 F1000
G1 X89.935 Y134.045 F1000
G1 X89.640 Y134.340 F1000
G1 X89.050 Y134.340 F1000
G1 X88.755 Y134.635 F1000
G1 X88.460 Y134.635 F1000
G1 X88.165 Y134.930 F1000
G1 X87.575 Y134.930 F1000
G1 X87.280 Y135.225 F1000
G1 X86.985 Y134.930 F1000
G0 Z3.0 ; Pen up

G0 X84.625 Y136.405 F3000 ; Travel to line 34
G0 Z0.0 ; Pen down
G1 X84.920 Y136.405 F1000
G1 X85.215 Y136.110 F1000
G1 X85.510 Y136.110 F1000
G1 X85.805 Y135.815 F1000
G1 X86.100 Y135.815 F1000
G1 X86.395 Y135.520 F1000
G1 X86.690 Y135.520 F1000
G1 X86.985 Y135.225 F1000
G1 X86.985 Y134.635 F1000
G1 X86.690 Y134.340 F1000
G1 X86.690 Y134.045 F1000
G1 X86.395 Y133.750 F1000
G1 X86.395 Y133.455 F1000
G1 X86.100 Y133.160 F1000
G1 X86.100 Y132.865 F1000
G1 X85.805 Y132.570 F1000
G1 X85.805 Y131.980 F1000
G1 X85.510 Y131.685 F1000
G1 X85.510 Y131.390 F1000
G1 X85.215 Y131.095 F1000
G1 X85.215 Y130.800 F1000
G1 X84.625 Y130.210 F1000
G1 X83.740 Y130.210 F1000
G1 X83.445 Y130.505 F1000
G1 X83.150 Y130.505 F1000
G1 X82.855 Y130.800 F1000
G1 X82.560 Y130.800 F1000
G1 X81.970 Y131.390 F1000
G1 X81.970 Y131.685 F1000
G1 X82.265 Y131.980 F1000
G1 X82.265 Y132.275 F1000
G1 X82.560 Y132.570 F1000
G1 X82.560 Y132.865 F1000
G1 X82.855 Y133.160 F1000
G1 X82.855 Y133.455 F1000
G1 X83.150 Y133.750 F1000
G1 X83.150 Y134.045 F1000
G1 X83.445 Y134.340 F1000
G1 X83.445 Y134.635 F1000
G1 X83.740 Y134.930 F1000
G1 X83.740 Y135.225 F1000
G1 X84.035 Y135.520 F1000
G1 X84.035 Y135.815 F1000
G0 Z3.0 ; Pen up

G0 X81.675 Y137.880 F3000 ; Travel to line 35
G0 Z0.0 ; Pen down
G1 X82.265 Y137.880 F1000
G1 X82.560 Y137.585 F1000
G1 X82.855 Y137.585 F1000
G1 X83.445 Y136.995 F1000
G1 X83.740 Y136.995 F1000
G1 X84.330 Y136.405 F1000
G1 X84.330 Y136.110 F1000
G1 X84.035 Y135.815 F1000
G1 X84.035 Y135.520 F1000
G1 X83.740 Y135.225 F1000
G1 X83.740 Y134.930 F1000
G1 X83.445 Y134.635 F1000
G1 X83.445 Y134.340 F1000
G1 X83.150 Y134.045 F1000
G1 X83.150 Y133.750 F1000
G1 X82.855 Y133.455 F1000
G1 X82.855 Y133.160 F1000
G1 X82.560 Y132.865 F1000
G1 X82.560 Y132.570 F1000
G1 X82.265 Y132.275 F1000
G1 X82.265 Y131.980 F1000
G1 X81.970 Y131.685 F1000
G1 X81.085 Y131.685 F1000
G1 X80.790 Y131.980 F1000
G1 X80.495 Y131.980 F1000
G1 X80.200 Y132.275 F1000
G1 X79.905 Y132.275 F1000
G1 X79.315 Y132.865 F1000
G1 X79.020 Y132.865 F1000
G1 X78.725 Y133.160 F1000
G1 X78.725 Y133.750 F1000
G1 X79.315 Y134.340 F1000
G1 X79.315 Y134.635 F1000
G1 X79.905 Y135.225 F1000
G1 X79.905 Y135.520 F1000
G1 X80.200 Y135.815 F1000
G1 X80.200 Y136.110 F1000
G1 X80.790 Y136.700 F1000
G1 X80.790 Y136.995 F1000
G0 Z3.0 ; Pen up

G0 X78.725 Y139.060 F3000 ; Travel to line 36
G0 Z0.0 ; Pen down
G1 X78.135 Y138.470 F1000
G1 X78.135 Y138.175 F1000
G1 X77.545 Y137.585 F1000
G1 X77.545 Y137.290 F1000
G1 X76.660 Y136.405 F1000
G1 X76.660 Y136.110 F1000
G1 X76.070 Y135.520 F1000
G1 X76.070 Y134.930 F1000
G1 X76.660 Y134.340 F1000
G1 X76.955 Y134.340 F1000
G1 X77.545 Y133.750 F1000
G1 X77.840 Y133.750 F1000
G1 X78.135 Y133.455 F1000
G1 X78.430 Y133.455 F1000
G1 X79.315 Y134.340 F1000
G1 X79.315 Y134.635 F1000
G1 X79.905 Y135.225 F1000
G1 X79.905 Y135.520 F1000
G1 X80.200 Y135.815 F1000
G1 X80.200 Y136.110 F1000
G1 X80.790 Y136.700 F1000
G1 X80.790 Y136.995 F1000
G1 X81.380 Y137.585 F1000
G1 X81.380 Y138.175 F1000
G1 X80.495 Y139.060 F1000
G1 X80.200 Y139.060 F1000
G1 X79.610 Y139.650 F1000
G1 X79.020 Y139.650 F1000
G1 X78.725 Y139.355 F1000
G0 Z3.0 ; Pen up

G0 X76.660 Y141.715 F3000 ; Travel to line 37
G0 Z0.0 ; Pen down
G1 X76.955 Y141.420 F1000
G1 X77.250 Y141.420 F1000
G1 X78.135 Y140.535 F1000
G1 X78.430 Y140.535 F1000
G1 X78.725 Y140.240 F1000
G1 X78.725 Y139.060 F1000
G1 X78.135 Y138.470 F1000
G1 X78.135 Y138.175 F1000
G1 X77.545 Y137.585 F1000
G1 X77.545 Y137.290 F1000
G1 X76.660 Y136.405 F1000
G1 X76.660 Y136.110 F1000
G1 X75.775 Y135.225 F1000
G1 X75.480 Y135.225 F1000
G1 X74.890 Y135.815 F1000
G1 X74.595 Y135.815 F1000
G1 X73.710 Y136.700 F1000
G1 X73.415 Y136.700 F1000
G1 X73.120 Y136.995 F1000
G1 X73.120 Y137.290 F1000
G1 X73.415 Y137.585 F1000
G1 X73.415 Y137.880 F1000
G1 X74.890 Y139.355 F1000
G1 X74.890 Y139.650 F1000
G1 X76.070 Y140.830 F1000
G1 X76.070 Y141.125 F1000
G0 Z3.0 ; Pen up

G0 X74.300 Y143.780 F3000 ; Travel to line 38
G0 Z0.0 ; Pen down
G1 X75.185 Y142.895 F1000
G1 X75.480 Y142.895 F1000
G1 X76.365 Y142.010 F1000
G1 X76.365 Y141.420 F1000
G1 X76.070 Y141.125 F1000
G1 X76.070 Y140.830 F1000
G1 X74.890 Y139.650 F1000
G1 X74.890 Y139.355 F1000
G1 X72.825 Y137.290 F1000
G1 X70.465 Y139.650 F1000
G1 X72.235 Y141.420 F1000
G1 X72.235 Y141.715 F1000
G0 Z3.0 ; Pen up

G0 X70.170 Y143.780 F3000 ; Travel to line 39
G0 Z0.0 ; Pen down
G1 X69.875 Y143.780 F1000
G1 X68.105 Y142.010 F1000
G1 X68.105 Y141.715 F1000
G1 X70.170 Y139.650 F1000
G1 X70.465 Y139.945 F1000
G1 X70.760 Y139.945 F1000
G1 X72.235 Y141.420 F1000
G1 X72.235 Y141.715 F1000
G1 X74.005 Y143.485 F1000
G1 X74.005 Y144.075 F1000
G1 X72.235 Y145.845 F1000
G0 Z3.0 ; Pen up

G0 X70.170 Y148.205 F3000 ; Travel to line 40
G0 Z0.0 ; Pen down
G1 X71.645 Y146.730 F1000
G1 X71.645 Y146.435 F1000
G1 X71.940 Y146.140 F1000
G1 X71.940 Y145.550 F1000
G1 X70.465 Y144.075 F1000
G1 X70.170 Y144.075 F1000
G1 X68.400 Y142.305 F1000
G1 X67.810 Y142.305 F1000
G1 X66.040 Y144.075 F1000
G1 X66.040 Y144.370 F1000
G1 X65.745 Y144.665 F1000
G1 X66.335 Y145.255 F1000
G1 X66.630 Y145.255 F1000
G1 X67.810 Y146.435 F1000
G1 X68.105 Y146.435 F1000
G1 X69.285 Y147.615 F1000
G1 X69.580 Y147.615 F1000
G0 Z3.0 ; Pen up

G0 X67.810 Y150.270 F3000 ; Travel to line 41
G0 Z0.0 ; Pen down
G1 X68.105 Y150.565 F1000
G1 X68.400 Y150.565 F1000
G1 X69.285 Y149.680 F1000
G1 X69.285 Y149.385 F1000
G1 X69.875 Y148.795 F1000
G1 X69.875 Y147.910 F1000
G1 X69.580 Y147.615 F1000
G1 X69.285 Y147.615 F1000
G1 X68.105 Y146.435 F1000
G1 X67.810 Y146.435 F1000
G1 X66.630 Y145.255 F1000
G1 X66.335 Y145.255 F1000
G1 X66.040 Y144.960 F1000
G1 X65.745 Y144.960 F1000
G1 X65.450 Y144.665 F1000
G1 X64.860 Y145.255 F1000
G1 X64.860 Y145.550 F1000
G1 X64.270 Y146.140 F1000
G1 X64.270 Y146.435 F1000
G1 X63.680 Y147.025 F1000
G1 X63.680 Y147.615 F1000
G1 X63.975 Y147.910 F1000
G1 X64.270 Y147.910 F1000
G1 X64.860 Y148.500 F1000
G1 X65.155 Y148.500 F1000
G1 X65.745 Y149.090 F1000
G1 X66.040 Y149.090 F1000
G1 X66.630 Y149.680 F1000
G1 X66.925 Y149.680 F1000
G1 X67.515 Y150.270 F1000
G0 Z3.0 ; Pen up

G0 X65.745 Y152.630 F3000 ; Travel to line 42
G0 Z0.0 ; Pen down
G1 X65.450 Y152.630 F1000
G1 X64.860 Y152.040 F1000
G1 X64.565 Y152.040 F1000
G1 X63.975 Y151.450 F1000
G1 X63.680 Y151.450 F1000
G1 X63.090 Y150.860 F1000
G1 X62.795 Y150.860 F1000
G1 X61.910 Y149.975 F1000
G1 X61.910 Y149.680 F1000
G1 X62.500 Y149.090 F1000
G1 X62.500 Y148.795 F1000
G1 X63.090 Y148.205 F1000
G1 X63.090 Y147.910 F1000
G1 X63.385 Y147.615 F1000
G1 X63.680 Y147.910 F1000
G1 X64.270 Y147.910 F1000
G1 X64.860 Y148.500 F1000
G1 X65.155 Y148.500 F1000
G1 X65.745 Y149.090 F1000
G1 X66.040 Y149.090 F1000
G1 X66.630 Y149.680 F1000
G1 X66.925 Y149.680 F1000
G1 X67.515 Y150.270 F1000
G1 X67.810 Y150.270 F1000
G1 X68.105 Y150.565 F1000
G1 X68.105 Y151.155 F1000
G1 X67.810 Y151.450 F1000
G1 X67.810 Y151.745 F1000
G1 X67.220 Y152.335 F1000
G1 X67.220 Y152.630 F1000
G1 X66.630 Y153.220 F1000
G1 X66.335 Y153.220 F1000
G0 Z3.0 ; Pen up

G0 X64.270 Y155.580 F3000 ; Travel to line 43
G0 Z0.0 ; Pen down
G1 X64.565 Y155.875 F1000
G1 X65.155 Y155.875 F1000
G1 X65.450 Y155.580 F1000
G1 X65.450 Y155.285 F1000
G1 X65.745 Y154.990 F1000
G1 X65.745 Y154.695 F1000
G1 X66.335 Y154.105 F1000
G1 X66.335 Y153.220 F1000
G1 X65.745 Y152.630 F1000
G1 X65.450 Y152.630 F1000
G1 X64.860 Y152.040 F1000
G1 X64.565 Y152.040 F1000
G1 X63.975 Y151.450 F1000
G1 X63.680 Y151.450 F1000
G1 X63.090 Y150.860 F1000
G1 X62.795 Y150.860 F1000
G1 X62.205 Y150.270 F1000
G1 X61.615 Y150.270 F1000
G1 X61.025 Y150.860 F1000
G1 X61.025 Y151.155 F1000
G1 X60.730 Y151.450 F1000
G1 X60.730 Y151.745 F1000
G1 X60.435 Y152.040 F1000
G1 X60.435 Y152.335 F1000
G1 X59.845 Y152.925 F1000
G1 X59.845 Y153.220 F1000
G1 X60.140 Y153.515 F1000
G1 X60.435 Y153.515 F1000
G1 X60.730 Y153.810 F1000
G1 X61.025 Y153.810 F1000
G1 X61.320 Y154.105 F1000
G1 X61.615 Y154.105 F1000
G1 X61.910 Y154.400 F1000
G1 X62.205 Y154.400 F1000
G1 X62.795 Y154.990 F1000
G1 X63.090 Y154.990 F1000
G1 X63.385 Y155.285 F1000
G1 X63.680 Y155.285 F1000
G1 X63.975 Y155.580 F1000
G0 Z3.0 ; Pen up

G0 X63.090 Y158.235 F3000 ; Travel to line 44
G0 Z0.0 ; Pen down
G1 X63.385 Y158.530 F1000
G1 X63.680 Y158.530 F1000
G1 X64.270 Y157.940 F1000
G1 X64.270 Y157.645 F1000
G1 X64.565 Y157.350 F1000
G1 X64.565 Y157.055 F1000
G1 X64.860 Y156.760 F1000
G1 X64.860 Y156.170 F1000
G1 X64.565 Y155.875 F1000
G1 X64.270 Y155.875 F1000
G1 X63.975 Y155.580 F1000
G1 X63.680 Y155.580 F1000
G1 X63.385 Y155.285 F1000
G1 X63.090 Y155.285 F1000
G1 X62.795 Y154.990 F1000
G1 X62.500 Y154.990 F1000
G1 X61.910 Y154.400 F1000
G1 X61.615 Y154.400 F1000
G1 X61.320 Y154.105 F1000
G1 X61.025 Y154.105 F1000
G1 X60.730 Y153.810 F1000
G1 X60.435 Y153.810 F1000
G1 X60.140 Y153.515 F1000
G1 X59.845 Y153.515 F1000
G1 X59.550 Y153.810 F1000
G1 X59.550 Y154.105 F1000
G1 X59.255 Y154.400 F1000
G1 X59.255 Y154.695 F1000
G1 X58.960 Y154.990 F1000
G1 X58.960 Y155.285 F1000
G1 X58.665 Y155.580 F1000
G1 X58.665 Y155.875 F1000
G1 X58.370 Y156.170 F1000
G1 X58.665 Y156.465 F1000
G1 X58.960 Y156.465 F1000
G1 X59.255 Y156.760 F1000
G1 X59.550 Y156.760 F1000
G1 X59.845 Y157.055 F1000
G1 X60.435 Y157.055 F1000
G1 X60.730 Y157.350 F1000
G1 X61.025 Y157.350 F1000
G1 X61.320 Y157.645 F1000
G1 X61.615 Y157.645 F1000
G1 X61.910 Y157.940 F1000
G1 X62.205 Y157.940 F1000
G1 X62.500 Y158.235 F1000
G0 Z3.0 ; Pen up

G0 X61.615 Y161.185 F3000 ; Travel to line 45
G0 Z0.0 ; Pen down
G1 X61.910 Y161.480 F1000
G1 X62.500 Y161.480 F1000
G1 X62.795 Y161.185 F1000
G1 X62.795 Y160.890 F1000
G1 X63.090 Y160.595 F1000
G1 X63.090 Y160.300 F1000
G1 X63.385 Y160.005 F1000
G1 X63.385 Y159.415 F1000
G1 X63.680 Y159.120 F1000
G1 X63.680 Y158.825 F1000
G1 X63.385 Y158.530 F1000
G1 X63.090 Y158.530 F1000
G1 X62.795 Y158.235 F1000
G1 X62.500 Y158.235 F1000
G1 X62.205 Y157.940 F1000
G1 X61.615 Y157.940 F1000
G1 X61.320 Y157.645 F1000
G1 X61.025 Y157.645 F1000
G1 X60.730 Y157.350 F1000
G1 X60.435 Y157.350 F1000
G1 X60.140 Y157.055 F1000
G1 X59.845 Y157.055 F1000
G1 X59.550 Y156.760 F1000
G1 X58.960 Y156.760 F1000
G1 X58.665 Y156.465 F1000
G1 X58.370 Y156.465 F1000
G1 X58.075 Y156.760 F1000
G1 X58.075 Y157.055 F1000
G1 X57.780 Y157.350 F1000
G1 X57.780 Y157.645 F1000
G1 X57.485 Y157.940 F1000
G1 X57.485 Y158.235 F1000
G1 X57.190 Y158.530 F1000
G1 X57.190 Y159.415 F1000
G1 X57.485 Y159.710 F1000
G1 X57.780 Y159.710 F1000
G1 X58.075 Y160.005 F1000
G1 X58.370 Y160.005 F1000
G1 X58.665 Y160.300 F1000
G1 X59.255 Y160.300 F1000
G1 X59.550 Y160.595 F1000
G1 X60.140 Y160.595 F1000
G1 X60.435 Y160.890 F1000
G1 X61.025 Y160.890 F1000
G1 X61.320 Y161.185 F1000
G0 Z3.0 ; Pen up

G0 X60.435 Y164.135 F3000 ; Travel to line 46
G0 Z0.0 ; Pen down
G1 X60.730 Y164.430 F1000
G1 X61.320 Y164.430 F1000
G1 X61.910 Y163.840 F1000
G1 X61.910 Y163.250 F1000
G1 X62.205 Y162.955 F1000
G1 X62.205 Y162.365 F1000
G1 X62.500 Y162.070 F1000
G1 X62.500 Y161.775 F1000
G1 X62.205 Y161.480 F1000
G1 X61.615 Y161.480 F1000
G1 X61.320 Y161.185 F1000
G1 X61.025 Y161.185 F1000
G1 X60.730 Y160.890 F1000
G1 X60.140 Y160.890 F1000
G1 X59.845 Y160.595 F1000
G1 X59.255 Y160.595 F1000
G1 X58.960 Y160.300 F1000
G1 X58.370 Y160.300 F1000
G1 X58.075 Y160.005 F1000
G1 X57.780 Y160.005 F1000
G1 X57.485 Y159.710 F1000
G1 X57.190 Y159.710 F1000
G1 X56.895 Y160.005 F1000
G1 X56.895 Y160.300 F1000
G1 X56.600 Y160.595 F1000
G1 X56.600 Y161.185 F1000
G1 X56.305 Y161.480 F1000
G1 X56.305 Y162.070 F1000
G1 X56.010 Y162.365 F1000
G1 X56.010 Y162.660 F1000
G1 X56.305 Y162.955 F1000
G1 X56.600 Y162.955 F1000
G1 X56.895 Y163.250 F1000
G1 X57.485 Y163.250 F1000
G1 X57.780 Y163.545 F1000
G1 X58.370 Y163.545 F1000
G1 X58.665 Y163.840 F1000
G1 X59.550 Y163.840 F1000
G1 X59.845 Y164.135 F1000
G0 Z3.0 ; Pen up

G0 X59.255 Y167.085 F3000 ; Travel to line 47
G0 Z0.0 ; Pen down
G1 X59.550 Y167.380 F1000
G1 X60.730 Y167.380 F1000
G1 X61.025 Y167.085 F1000
G1 X61.025 Y166.200 F1000
G1 X61.320 Y165.905 F1000
G1 X61.320 Y164.725 F1000
G1 X61.025 Y164.430 F1000
G1 X60.435 Y164.430 F1000
G1 X60.140 Y164.135 F1000
G1 X59.550 Y164.135 F1000
G1 X59.255 Y163.840 F1000
G1 X58.665 Y163.840 F1000
G1 X58.370 Y163.545 F1000
G1 X57.485 Y163.545 F1000
G1 X57.190 Y163.250 F1000
G1 X56.600 Y163.250 F1000
G1 X56.305 Y162.955 F1000
G1 X56.010 Y162.955 F1000
G1 X55.715 Y163.250 F1000
G1 X55.715 Y163.545 F1000
G1 X55.420 Y163.840 F1000
G1 X55.420 Y164.430 F1000
G1 X55.125 Y164.725 F1000
G1 X55.125 Y166.200 F1000
G1 X55.420 Y166.495 F1000
G1 X56.305 Y166.495 F1000
G1 X56.600 Y166.790 F1000
G1 X57.780 Y166.790 F1000
G1 X58.075 Y167.085 F1000
G0 Z3.0 ; Pen up

G0 X58.075 Y170.035 F3000 ; Travel to line 48
G0 Z0.0 ; Pen down
G1 X58.370 Y170.330 F1000
G1 X59.845 Y170.330 F1000
G1 X60.435 Y169.740 F1000
G1 X60.435 Y168.560 F1000
G1 X60.730 Y168.265 F1000
G1 X60.730 Y167.675 F1000
G1 X60.435 Y167.380 F1000
G1 X59.255 Y167.380 F1000
G1 X58.960 Y167.085 F1000
G1 X57.780 Y167.085 F1000
G1 X57.485 Y166.790 F1000
G1 X56.305 Y166.790 F1000
G1 X56.010 Y166.495 F1000
G1 X55.125 Y166.495 F1000
G1 X54.830 Y166.790 F1000
G1 X54.830 Y167.675 F1000
G1 X54.535 Y167.970 F1000
G1 X54.535 Y169.445 F1000
G1 X54.830 Y169.740 F1000
G1 X56.305 Y169.740 F1000
G1 X56.600 Y170.035 F1000
G0 Z3.0 ; Pen up

G0 X56.600 Y173.280 F3000 ; Travel to line 49
G0 Z0.0 ; Pen down
G1 X56.895 Y173.575 F1000
G1 X59.550 Y173.575 F1000
G1 X59.845 Y173.280 F1000
G1 X59.845 Y172.100 F1000
G1 X60.140 Y171.805 F1000
G1 X60.140 Y170.625 F1000
G1 X59.845 Y170.330 F1000
G1 X58.075 Y170.330 F1000
G1 X57.780 Y170.035 F1000
G1 X56.305 Y170.035 F1000
G1 X56.010 Y169.740 F1000
G1 X54.535 Y169.740 F1000
G1 X54.240 Y170.035 F1000
G1 X54.240 Y170.625 F1000
G1 X53.945 Y170.920 F1000
G1 X53.945 Y172.985 F1000
G1 X54.240 Y173.280 F1000
G0 Z3.0 ; Pen up

G0 X53.650 Y174.460 F3000 ; Travel to line 50
G0 Z0.0 ; Pen down
G1 X53.945 Y174.165 F1000
G1 X53.945 Y173.575 F1000
G1 X54.240 Y173.280 F1000
G1 X56.305 Y173.280 F1000
G1 X56.600 Y173.575 F1000
G1 X59.550 Y173.575 F1000
G1 X59.845 Y173.870 F1000
G1 X59.845 Y174.460 F1000
G1 X59.550 Y174.755 F1000
G1 X59.550 Y176.525 F1000
G1 X59.255 Y176.820 F1000
G1 X53.945 Y176.820 F1000
G1 X53.650 Y176.525 F1000
G0 Z3.0 ; Pen up

G0 X53.650 Y177.115 F3000 ; Travel to line 51
G0 Z0.0 ; Pen down
G1 X53.945 Y176.820 F1000
G1 X59.255 Y176.820 F1000
G1 X59.550 Y177.115 F1000
G1 X59.550 Y179.770 F1000
G1 X59.255 Y180.065 F1000
G1 X53.945 Y180.065 F1000
G1 X53.650 Y179.770 F1000
G0 Z3.0 ; Pen up

G0 X53.945 Y181.835 F3000 ; Travel to line 52
G0 Z0.0 ; Pen down
G1 X53.650 Y181.540 F1000
G1 X53.650 Y180.360 F1000
G1 X53.945 Y180.065 F1000
G1 X59.255 Y180.065 F1000
G1 X59.550 Y180.360 F1000
G1 X59.550 Y181.245 F1000
G1 X59.845 Y181.540 F1000
G1 X59.845 Y182.720 F1000
G1 X59.550 Y183.015 F1000
G1 X56.600 Y183.015 F1000
G1 X56.305 Y183.310 F1000
G1 X54.240 Y183.310 F1000
G1 X53.945 Y183.015 F1000
G0 Z3.0 ; Pen up

G0 X54.240 Y185.375 F3000 ; Travel to line 53
G0 Z0.0 ; Pen down
G1 X53.945 Y185.080 F1000
G1 X53.945 Y183.605 F1000
G1 X54.240 Y183.310 F1000
G1 X56.600 Y183.310 F1000
G1 X56.895 Y183.015 F1000
G1 X59.550 Y183.015 F1000
G1 X59.845 Y183.310 F1000
G1 X59.845 Y183.900 F1000
G1 X60.140 Y184.195 F1000
G1 X60.140 Y185.965 F1000
G1 X59.845 Y186.260 F1000
G1 X58.075 Y186.260 F1000
G1 X57.780 Y186.555 F1000
G1 X56.305 Y186.555 F1000
G1 X56.010 Y186.850 F1000
G1 X54.535 Y186.850 F1000
G1 X54.240 Y186.555 F1000
G0 Z3.0 ; Pen up

G0 X55.125 Y189.505 F3000 ; Travel to line 54
G0 Z0.0 ; Pen down
G1 X54.830 Y189.210 F1000
G1 X54.830 Y188.325 F1000
G1 X54.535 Y188.030 F1000
G1 X54.535 Y187.145 F1000
G1 X54.830 Y186.850 F1000
G1 X56.305 Y186.850 F1000
G1 X56.600 Y186.555 F1000
G1 X58.075 Y186.555 F1000
G1 X58.370 Y186.260 F1000
G1 X60.140 Y186.260 F1000
G1 X60.435 Y186.555 F1000
G1 X60.435 Y187.440 F1000
G1 X60.730 Y187.735 F1000
G1 X60.730 Y188.915 F1000
G1 X60.435 Y189.210 F1000
G1 X59.255 Y189.210 F1000
G1 X58.960 Y189.505 F1000
G1 X57.780 Y189.505 F1000
G1 X57.485 Y189.800 F1000
G1 X56.305 Y189.800 F1000
G1 X56.010 Y190.095 F1000
G1 X55.420 Y190.095 F1000
G1 X55.125 Y189.800 F1000
G0 Z3.0 ; Pen up

G0 X55.715 Y192.455 F3000 ; Travel to line 55
G0 Z0.0 ; Pen down
G1 X55.420 Y192.160 F1000
G1 X55.420 Y191.570 F1000
G1 X55.125 Y191.275 F1000
G1 X55.125 Y190.390 F1000
G1 X55.420 Y190.095 F1000
G1 X56.305 Y190.095 F1000
G1 X56.600 Y189.800 F1000
G1 X57.780 Y189.800 F1000
G1 X58.075 Y189.505 F1000
G1 X59.255 Y189.505 F1000
G1 X59.550 Y189.210 F1000
G1 X60.730 Y189.210 F1000
G1 X61.025 Y189.505 F1000
G1 X61.025 Y189.800 F1000
G1 X61.320 Y190.095 F1000
G1 X61.320 Y190.980 F1000
G1 X61.615 Y191.275 F1000
G1 X61.615 Y191.865 F1000
G1 X61.320 Y192.160 F1000
G1 X60.435 Y192.160 F1000
G1 X60.140 Y192.455 F1000
G1 X59.550 Y192.455 F1000
G1 X59.255 Y192.750 F1000
G1 X58.665 Y192.750 F1000
G1 X58.370 Y193.045 F1000
G1 X57.485 Y193.045 F1000
G1 X57.190 Y193.340 F1000
G1 X56.600 Y193.340 F1000
G1 X56.305 Y193.635 F1000
G1 X56.010 Y193.635 F1000
G1 X55.715 Y193.340 F1000
G0 Z3.0 ; Pen up

G0 X56.895 Y195.700 F3000 ; Travel to line 56
G0 Z0.0 ; Pen down
G1 X56.600 Y195.405 F1000
G1 X56.600 Y194.815 F1000
G1 X56.305 Y194.520 F1000
G1 X56.305 Y193.635 F1000
G1 X56.600 Y193.340 F1000
G1 X57.485 Y193.340 F1000
G1 X57.780 Y193.045 F1000
G1 X58.370 Y193.045 F1000
G1 X58.665 Y192.750 F1000
G1 X59.550 Y192.750 F1000
G1 X59.845 Y192.455 F1000
G1 X60.435 Y192.455 F1000
G1 X60.730 Y192.160 F1000
G1 X61.615 Y192.160 F1000
G1 X61.910 Y192.455 F1000
G1 X61.910 Y192.750 F1000
G1 X62.205 Y193.045 F1000
G1 X62.205 Y193.635 F1000
G1 X62.500 Y193.930 F1000
G1 X62.500 Y194.815 F1000
G1 X62.205 Y195.110 F1000
G1 X61.615 Y195.110 F1000
G1 X61.320 Y195.405 F1000
G1 X61.025 Y195.405 F1000
G1 X60.730 Y195.700 F1000
G1 X60.140 Y195.700 F1000
G1 X59.845 Y195.995 F1000
G1 X59.255 Y195.995 F1000
G1 X58.960 Y196.290 F1000
G1 X58.370 Y196.290 F1000
G1 X58.075 Y196.585 F1000
G1 X57.780 Y196.585 F1000
G1 X57.485 Y196.880 F1000
G1 X57.190 Y196.880 F1000
G1 X56.895 Y196.585 F1000
G0 Z3.0 ; Pen up

G0 X58.075 Y199.240 F3000 ; Travel to line 57
G0 Z0.0 ; Pen down
G1 X57.780 Y198.945 F1000
G1 X57.780 Y198.650 F1000
G1 X57.485 Y198.355 F1000
G1 X57.485 Y197.470 F1000
G1 X57.190 Y197.175 F1000
G1 X57.485 Y196.880 F1000
G1 X57.780 Y196.880 F1000
G1 X58.075 Y196.585 F1000
G1 X58.370 Y196.585 F1000
G1 X58.665 Y196.290 F1000
G1 X59.255 Y196.290 F1000
G1 X59.550 Y195.995 F1000
G1 X60.140 Y195.995 F1000
G1 X60.435 Y195.700 F1000
G1 X61.025 Y195.700 F1000
G1 X61.320 Y195.405 F1000
G1 X61.615 Y195.405 F1000
G1 X61.910 Y195.110 F1000
G1 X62.795 Y195.110 F1000
G1 X63.090 Y195.405 F1000
G1 X63.090 Y195.700 F1000
G1 X63.385 Y195.995 F1000
G1 X63.385 Y196.585 F1000
G1 X63.680 Y196.880 F1000
G1 X63.680 Y197.765 F1000
G1 X63.385 Y198.060 F1000
G1 X63.090 Y198.060 F1000
G1 X62.795 Y198.355 F1000
G1 X62.500 Y198.355 F1000
G1 X62.205 Y198.650 F1000
G1 X61.615 Y198.650 F1000
G1 X61.320 Y198.945 F1000
G1 X61.025 Y198.945 F1000
G1 X60.730 Y199.240 F1000
G1 X60.435 Y199.240 F1000
G1 X60.140 Y199.535 F1000
G1 X59.845 Y199.535 F1000
G1 X59.550 Y199.830 F1000
G1 X58.370 Y199.830 F1000
G1 X58.075 Y199.535 F1000
G0 Z3.0 ; Pen up

G0 X59.845 Y202.485 F3000 ; Travel to line 58
G0 Z0.0 ; Pen down
G1 X59.550 Y202.190 F1000
G1 X59.550 Y201.895 F1000
G1 X59.255 Y201.600 F1000
G1 X59.255 Y201.305 F1000
G1 X58.960 Y201.010 F1000
G1 X58.960 Y200.715 F1000
G1 X58.665 Y200.420 F1000
G1 X58.665 Y200.125 F1000
G1 X58.960 Y199.830 F1000
G1 X59.550 Y199.830 F1000
G1 X59.845 Y199.535 F1000
G1 X60.435 Y199.535 F1000
G1 X60.730 Y199.240 F1000
G1 X61.025 Y199.240 F1000
G1 X61.320 Y198.945 F1000
G1 X61.615 Y198.945 F1000
G1 X61.910 Y198.650 F1000
G1 X62.205 Y198.650 F1000
G1 X62.500 Y198.355 F1000
G1 X63.090 Y198.355 F1000
G1 X63.385 Y198.060 F1000
G1 X63.975 Y198.060 F1000
G1 X64.565 Y198.650 F1000
G1 X64.565 Y198.945 F1000
G1 X64.860 Y199.240 F1000
G1 X64.860 Y199.535 F1000
G1 X65.155 Y199.830 F1000
G1 X65.155 Y200.125 F1000
G1 X64.565 Y200.715 F1000
G1 X64.270 Y200.715 F1000
G1 X63.975 Y201.010 F1000
G1 X63.680 Y201.010 F1000
G1 X63.385 Y201.305 F1000
G1 X63.090 Y201.305 F1000
G1 X62.795 Y201.600 F1000
G1 X62.500 Y201.600 F1000
G1 X61.910 Y202.190 F1000
G1 X61.615 Y202.190 F1000
G1 X61.320 Y202.485 F1000
G1 X61.025 Y202.485 F1000
G1 X60.730 Y202.780 F1000
G1 X60.435 Y202.780 F1000
G1 X60.140 Y203.075 F1000
G1 X59.845 Y202.780 F1000
G0 Z3.0 ; Pen up

G0 X61.025 Y205.435 F3000 ; Travel to line 59
G0 Z0.0 ; Pen down
G1 X61.025 Y205.140 F1000
G1 X60.730 Y204.845 F1000
G1 X60.730 Y204.550 F1000
G1 X60.435 Y204.255 F1000
G1 X60.435 Y203.960 F1000
G1 X60.140 Y203.665 F1000
G1 X60.140 Y203.075 F1000
G1 X60.435 Y202.780 F1000
G1 X61.025 Y202.780 F1000
G1 X61.320 Y202.485 F1000
G1 X61.615 Y202.485 F1000
G1 X61.910 Y202.190 F1000
G1 X62.205 Y202.190 F1000
G1 X62.795 Y201.600 F1000
G1 X63.090 Y201.600 F1000
G1 X63.385 Y201.305 F1000
G1 X63.680 Y201.305 F1000
G1 X63.975 Y201.010 F1000
G1 X64.270 Y201.010 F1000
G1 X64.565 Y200.715 F1000
G1 X64.860 Y200.715 F1000
G1 X65.155 Y200.420 F1000
G1 X65.745 Y201.010 F1000
G1 X65.745 Y201.305 F1000
G1 X66.335 Y201.895 F1000
G1 X66.335 Y202.190 F1000
G1 X66.630 Y202.485 F1000
G1 X66.630 Y203.075 F1000
G1 X66.335 Y203.370 F1000
G1 X66.040 Y203.370 F1000
G1 X65.450 Y203.960 F1000
G1 X65.155 Y203.960 F1000
G1 X64.565 Y204.550 F1000
G1 X64.270 Y204.550 F1000
G1 X63.680 Y205.140 F1000
G1 X63.385 Y205.140 F1000
G1 X62.795 Y205.730 F1000
G1 X62.500 Y205.730 F1000
G1 X62.205 Y206.025 F1000
G1 X61.615 Y206.025 F1000
G0 Z3.0 ; Pen up

G0 X65.155 Y211.040 F3000 ; Travel to line 60
G0 Z0.0 ; Pen down
G1 X64.270 Y210.155 F1000
G1 X64.270 Y209.860 F1000
G1 X63.975 Y209.565 F1000
G1 X63.975 Y209.270 F1000
G1 X63.680 Y208.975 F1000
G1 X64.565 Y208.090 F1000
G1 X64.860 Y208.090 F1000
G1 X65.450 Y207.500 F1000
G1 X65.745 Y207.500 F1000
G1 X66.335 Y206.910 F1000
G1 X66.630 Y206.910 F1000
G1 X67.220 Y206.320 F1000
G1 X67.515 Y206.320 F1000
G1 X67.810 Y206.025 F1000
G1 X67.515 Y206.320 F1000
G1 X67.220 Y206.320 F1000
G1 X66.630 Y206.910 F1000
G1 X66.335 Y206.910 F1000
G1 X65.745 Y207.500 F1000
G1 X65.450 Y207.500 F1000
G1 X64.860 Y208.090 F1000
G1 X64.565 Y208.090 F1000
G1 X63.975 Y208.680 F1000
G1 X63.680 Y208.680 F1000
G1 X63.090 Y208.090 F1000
G1 X63.090 Y207.795 F1000
G1 X62.500 Y207.205 F1000
G1 X62.500 Y206.910 F1000
G1 X62.205 Y206.615 F1000
G1 X62.205 Y206.025 F1000
G1 X62.500 Y205.730 F1000
G1 X62.795 Y205.730 F1000
G1 X63.385 Y205.140 F1000
G1 X63.680 Y205.140 F1000
G1 X64.270 Y204.550 F1000
G1 X64.565 Y204.550 F1000
G1 X65.155 Y203.960 F1000
G1 X65.450 Y203.960 F1000
G1 X66.040 Y203.370 F1000
G1 X66.925 Y203.370 F1000
G1 X67.810 Y204.255 F1000
G1 X67.810 Y204.550 F1000
G1 X68.400 Y205.140 F1000
G1 X68.400 Y205.435 F1000
G1 X69.285 Y206.320 F1000
G1 X69.285 Y206.615 F1000
G1 X70.170 Y207.500 F1000
G1 X70.170 Y207.795 F1000
G1 X69.875 Y208.090 F1000
G1 X69.875 Y208.385 F1000
G1 X69.285 Y208.975 F1000
G1 X68.990 Y208.975 F1000
G1 X67.810 Y210.155 F1000
G1 X67.515 Y210.155 F1000
G1 X66.335 Y211.335 F1000
G1 X66.040 Y211.335 F1000
G1 X65.745 Y211.630 F1000
G1 X65.450 Y211.630 F1000
G1 X65.155 Y211.335 F1000
G0 Z3.0 ; Pen up

G0 X66.040 Y211.925 F3000 ; Travel to line 61
G0 Z0.0 ; Pen down
G1 X66.040 Y211.630 F1000
G1 X67.515 Y210.155 F1000
G1 X67.810 Y210.155 F1000
G1 X68.990 Y208.975 F1000
G1 X69.285 Y208.975 F1000
G1 X69.875 Y208.385 F1000
G1 X70.170 Y208.385 F1000
G1 X70.465 Y208.090 F1000
G1 X71.645 Y209.270 F1000
G1 X71.645 Y209.565 F1000
G1 X72.235 Y210.155 F1000
G1 X71.940 Y210.450 F1000
G1 X71.940 Y210.745 F1000
G1 X70.170 Y212.515 F1000
G1 X69.875 Y212.515 F1000
G1 X68.400 Y213.990 F1000
G1 X68.105 Y213.990 F1000
G0 Z3.0 ; Pen up

G0 X69.875 Y216.350 F3000 ; Travel to line 62
G0 Z0.0 ; Pen down
G1 X68.400 Y214.875 F1000
G1 X68.400 Y214.580 F1000
G1 X68.105 Y214.285 F1000
G1 X69.580 Y212.810 F1000
G1 X69.875 Y212.810 F1000
G1 X71.940 Y210.745 F1000
G1 X72.235 Y210.745 F1000
G1 X72.530 Y210.450 F1000
G1 X74.300 Y212.220 F1000
G1 X74.005 Y212.515 F1000
G1 X74.005 Y212.810 F1000
G1 X71.940 Y214.875 F1000
G1 X71.940 Y215.170 F1000
G1 X70.465 Y216.645 F1000
G1 X70.170 Y216.350 F1000
G0 Z3.0 ; Pen up

G0 X70.465 Y217.530 F3000 ; Travel to line 63
G0 Z0.0 ; Pen down
G1 X70.170 Y217.235 F1000
G1 X70.170 Y216.940 F1000
G1 X70.465 Y216.645 F1000
G1 X71.350 Y217.530 F1000
G1 X71.350 Y217.825 F1000
G1 X70.760 Y218.415 F1000
G1 X70.465 Y218.120 F1000
G0 Z3.0 ; Pen up

G0 X71.645 Y217.825 F3000 ; Travel to line 64
G0 Z0.0 ; Pen down
G1 X71.350 Y217.530 F1000
G1 X71.350 Y217.235 F1000
G1 X70.760 Y216.645 F1000
G1 X70.760 Y216.350 F1000
G1 X71.940 Y215.170 F1000
G1 X71.940 Y214.875 F1000
G1 X74.005 Y212.810 F1000
G1 X74.300 Y212.810 F1000
G1 X74.595 Y212.515 F1000
G1 X75.185 Y213.105 F1000
G1 X75.480 Y213.105 F1000
G1 X76.660 Y214.285 F1000
G1 X76.365 Y214.580 F1000
G1 X76.365 Y214.875 F1000
G1 X75.775 Y215.465 F1000
G1 X75.775 Y215.760 F1000
G1 X74.595 Y216.940 F1000
G1 X74.595 Y217.235 F1000
G1 X74.005 Y217.825 F1000
G1 X73.710 Y217.530 F1000
G1 X72.825 Y217.530 F1000
G1 X72.235 Y218.120 F1000
G1 X71.940 Y217.825 F1000
G0 Z3.0 ; Pen up

G0 X72.530 Y218.415 F3000 ; Travel to line 65
G0 Z0.0 ; Pen down
G1 X72.530 Y218.120 F1000
G1 X73.120 Y217.530 F1000
G1 X73.415 Y217.530 F1000
G1 X73.710 Y217.825 F1000
G1 X73.710 Y218.710 F1000
G1 X73.415 Y219.005 F1000
G1 X73.120 Y219.005 F1000
G0 Z3.0 ; Pen up

G0 X76.070 Y219.005 F3000 ; Travel to line 66
G0 Z0.0 ; Pen down
G1 X76.365 Y218.710 F1000
G1 X76.955 Y218.710 F1000
G1 X77.250 Y219.005 F1000
G1 X77.250 Y219.300 F1000
G1 X76.660 Y219.890 F1000
G1 X76.365 Y219.890 F1000
G1 X76.070 Y219.595 F1000
G0 Z3.0 ; Pen up

G0 X77.545 Y222.250 F3000 ; Travel to line 67
G0 Z0.0 ; Pen down
G1 X76.955 Y221.660 F1000
G1 X76.660 Y221.660 F1000
G1 X76.070 Y221.070 F1000
G1 X76.070 Y220.775 F1000
G1 X76.365 Y220.480 F1000
G1 X76.365 Y220.185 F1000
G1 X76.660 Y219.890 F1000
G1 X76.955 Y219.890 F1000
G1 X76.955 Y219.595 F1000
G1 X77.250 Y219.300 F1000
G1 X77.250 Y219.005 F1000
G1 X77.545 Y218.710 F1000
G1 X77.840 Y218.710 F1000
G1 X78.135 Y219.005 F1000
G1 X78.135 Y219.890 F1000
G1 X78.135 Y218.710 F1000
G1 X77.840 Y218.415 F1000
G1 X77.840 Y218.120 F1000
G1 X78.430 Y217.530 F1000
G1 X78.430 Y217.235 F1000
G1 X78.725 Y216.940 F1000
G1 X78.430 Y217.235 F1000
G1 X78.430 Y217.530 F1000
G1 X77.840 Y218.120 F1000
G1 X77.840 Y218.415 F1000
G1 X77.545 Y218.710 F1000
G1 X76.365 Y218.710 F1000
G1 X76.070 Y218.415 F1000
G1 X76.070 Y217.530 F1000
G1 X76.070 Y219.890 F1000
G1 X76.365 Y220.185 F1000
G1 X76.365 Y220.480 F1000
G1 X76.070 Y220.775 F1000
G1 X75.185 Y220.775 F1000
G1 X74.595 Y220.185 F1000
G1 X74.300 Y220.185 F1000
G1 X73.415 Y219.300 F1000
G1 X73.415 Y219.005 F1000
G1 X73.710 Y218.710 F1000
G1 X73.710 Y218.120 F1000
G1 X74.595 Y217.235 F1000
G1 X74.595 Y216.940 F1000
G1 X75.775 Y215.760 F1000
G1 X75.775 Y215.465 F1000
G1 X76.365 Y214.875 F1000
G1 X76.660 Y214.875 F1000
G1 X76.955 Y214.580 F1000
G1 X77.250 Y214.580 F1000
G1 X78.135 Y215.465 F1000
G1 X78.430 Y215.465 F1000
G1 X79.315 Y216.350 F1000
G1 X79.610 Y216.350 F1000
G1 X80.200 Y216.940 F1000
G1 X80.495 Y216.940 F1000
G1 X81.380 Y217.825 F1000
G1 X81.380 Y218.415 F1000
G1 X81.085 Y218.710 F1000
G1 X81.085 Y219.005 F1000
G1 X80.495 Y219.595 F1000
G1 X80.495 Y219.890 F1000
G1 X80.200 Y220.185 F1000
G1 X79.610 Y219.595 F1000
G1 X79.610 Y217.530 F1000
G1 X79.610 Y219.595 F1000
G1 X79.315 Y219.890 F1000
G1 X78.725 Y219.890 F1000
G1 X79.610 Y219.890 F1000
G1 X79.905 Y220.185 F1000
G1 X79.905 Y220.775 F1000
G1 X79.610 Y221.070 F1000
G1 X79.610 Y221.365 F1000
G1 X79.020 Y221.955 F1000
G1 X79.020 Y222.250 F1000
G1 X78.725 Y222.545 F1000
G1 X78.135 Y222.545 F1000
G1 X77.840 Y222.250 F1000
G0 Z3.0 ; Pen up

G0 X80.495 Y223.725 F3000 ; Travel to line 68
G0 Z0.0 ; Pen down
G1 X79.610 Y223.725 F1000
G1 X78.725 Y222.840 F1000
G1 X78.725 Y222.545 F1000
G1 X79.020 Y222.250 F1000
G1 X79.020 Y221.955 F1000
G1 X79.610 Y221.365 F1000
G1 X79.610 Y221.070 F1000
G1 X79.905 Y220.775 F1000
G1 X79.905 Y220.480 F1000
G1 X80.495 Y219.890 F1000
G1 X80.495 Y219.595 F1000
G1 X81.085 Y219.005 F1000
G1 X81.085 Y218.710 F1000
G1 X81.675 Y218.120 F1000
G1 X82.265 Y218.120 F1000
G1 X82.560 Y218.415 F1000
G1 X82.855 Y218.415 F1000
G1 X83.445 Y219.005 F1000
G1 X83.740 Y219.005 F1000
G1 X84.330 Y219.595 F1000
G1 X84.035 Y219.890 F1000
G1 X84.035 Y220.185 F1000
G1 X83.740 Y220.480 F1000
G1 X83.740 Y220.775 F1000
G1 X83.445 Y221.070 F1000
G1 X83.445 Y221.365 F1000
G1 X83.150 Y221.660 F1000
G1 X83.150 Y221.955 F1000
G1 X82.855 Y222.250 F1000
G1 X82.855 Y222.545 F1000
G1 X82.560 Y222.840 F1000
G1 X82.560 Y223.135 F1000
G1 X81.970 Y223.725 F1000
G1 X81.675 Y223.725 F1000
G1 X81.675 Y224.020 F1000
G1 X81.380 Y224.315 F1000
G1 X81.085 Y224.315 F1000
G0 Z3.0 ; Pen up

G0 X81.675 Y224.610 F3000 ; Travel to line 69
G0 Z0.0 ; Pen down
G1 X81.675 Y224.020 F1000
G1 X81.970 Y223.725 F1000
G1 X82.265 Y224.020 F1000
G1 X82.855 Y224.020 F1000
G1 X83.150 Y224.315 F1000
G1 X82.855 Y224.610 F1000
G1 X82.855 Y224.905 F1000
G1 X82.560 Y225.200 F1000
G1 X82.265 Y225.200 F1000
G0 Z3.0 ; Pen up

G0 X83.150 Y225.495 F3000 ; Travel to line 70
G0 Z0.0 ; Pen down
G1 X82.855 Y225.200 F1000
G1 X82.855 Y224.610 F1000
G1 X83.150 Y224.315 F1000
G1 X83.150 Y224.020 F1000
G1 X82.560 Y224.020 F1000
G1 X82.265 Y223.725 F1000
G1 X82.265 Y223.430 F1000
G1 X82.560 Y223.135 F1000
G1 X82.560 Y222.840 F1000
G1 X82.855 Y222.545 F1000
G1 X82.855 Y222.250 F1000
G1 X83.150 Y221.955 F1000
G1 X83.150 Y221.660 F1000
G1 X83.445 Y221.365 F1000
G1 X83.445 Y221.070 F1000
G1 X83.740 Y220.775 F1000
G1 X83.740 Y220.480 F1000
G1 X84.625 Y219.595 F1000
G1 X84.920 Y219.595 F1000
G1 X85.215 Y219.890 F1000
G1 X85.510 Y219.890 F1000
G1 X85.805 Y220.185 F1000
G1 X86.100 Y220.185 F1000
G1 X86.690 Y220.775 F1000
G1 X86.690 Y221.660 F1000
G1 X86.395 Y221.955 F1000
G1 X86.395 Y222.250 F1000
G1 X86.100 Y222.545 F1000
G1 X86.100 Y222.840 F1000
G1 X85.805 Y223.135 F1000
G1 X85.805 Y223.430 F1000
G1 X85.510 Y223.725 F1000
G1 X85.510 Y224.315 F1000
G1 X85.215 Y224.610 F1000
G1 X84.330 Y224.610 F1000
G1 X84.035 Y224.315 F1000
G1 X84.035 Y223.430 F1000
G1 X84.035 Y225.495 F1000
G1 X83.740 Y225.790 F1000
G1 X83.445 Y225.495 F1000
G0 Z3.0 ; Pen up

G0 X84.035 Y225.495 F3000 ; Travel to line 71
G0 Z0.0 ; Pen down
G1 X84.330 Y225.790 F1000
G1 X84.625 Y225.790 F1000
G1 X85.215 Y225.200 F1000
G1 X85.215 Y224.905 F1000
G1 X84.920 Y224.610 F1000
G1 X84.330 Y224.610 F1000
G1 X84.035 Y224.905 F1000
G0 Z3.0 ; Pen up

G0 X86.395 Y224.905 F3000 ; Travel to line 72
G0 Z0.0 ; Pen down
G1 X86.690 Y224.610 F1000
G1 X87.280 Y224.610 F1000
G1 X87.870 Y225.200 F1000
G1 X87.280 Y225.790 F1000
G1 X86.690 Y225.790 F1000
G1 X86.395 Y225.495 F1000
G0 Z3.0 ; Pen up

G0 X86.395 Y224.315 F3000 ; Travel to line 73
G0 Z0.0 ; Pen down
G1 X86.690 Y224.610 F1000
G1 X87.575 Y224.610 F1000
G1 X87.870 Y224.315 F1000
G1 X87.870 Y223.725 F1000
G1 X87.575 Y223.430 F1000
G1 X86.690 Y223.430 F1000
G1 X86.395 Y223.725 F1000
G0 Z3.0 ; Pen up

G0 X86.690 Y226.970 F3000 ; Travel to line 74
G0 Z0.0 ; Pen down
G1 X86.985 Y227.265 F1000
G1 X87.575 Y227.265 F1000
G1 X88.165 Y226.675 F1000
G1 X88.165 Y226.380 F1000
G1 X88.460 Y226.085 F1000
G1 X88.460 Y225.495 F1000
G1 X88.755 Y225.200 F1000
G1 X88.755 Y224.315 F1000
G1 X89.050 Y224.020 F1000
G1 X89.050 Y223.725 F1000
G1 X89.345 Y223.430 F1000
G1 X89.345 Y223.135 F1000
G1 X89.640 Y222.840 F1000
G1 X89.640 Y221.955 F1000
G1 X89.345 Y221.660 F1000
G1 X89.050 Y221.660 F1000
G1 X88.755 Y221.365 F1000
G1 X88.165 Y221.365 F1000
G1 X87.870 Y221.070 F1000
G1 X86.985 Y221.070 F1000
G1 X86.690 Y221.365 F1000
G1 X86.690 Y221.660 F1000
G1 X86.395 Y221.955 F1000
G1 X86.395 Y222.250 F1000
G1 X86.100 Y222.545 F1000
G1 X86.100 Y223.135 F1000
G1 X86.395 Y223.430 F1000
G1 X87.575 Y223.430 F1000
G1 X87.870 Y223.725 F1000
G1 X87.870 Y224.315 F1000
G1 X87.575 Y224.610 F1000
G1 X87.870 Y224.905 F1000
G1 X87.870 Y225.495 F1000
G1 X87.575 Y225.790 F1000
G1 X86.395 Y225.790 F1000
G1 X86.395 Y223.430 F1000
G1 X86.100 Y223.135 F1000
G1 X85.510 Y223.725 F1000
G1 X85.510 Y224.315 F1000
G1 X85.215 Y224.610 F1000
G1 X85.215 Y225.200 F1000
G1 X84.920 Y225.495 F1000
G1 X84.920 Y226.085 F1000
G1 X85.510 Y226.675 F1000
G1 X85.805 Y226.675 F1000
G1 X86.100 Y226.970 F1000
G0 Z3.0 ; Pen up

G0 X89.345 Y228.150 F3000 ; Travel to line 75
G0 Z0.0 ; Pen down
G1 X89.050 Y227.855 F1000
G1 X88.165 Y227.855 F1000
G1 X87.870 Y227.560 F1000
G1 X87.870 Y226.970 F1000
G1 X88.165 Y226.675 F1000
G1 X88.165 Y226.380 F1000
G1 X88.460 Y226.085 F1000
G1 X88.460 Y225.495 F1000
G1 X88.755 Y225.200 F1000
G1 X88.755 Y224.315 F1000
G1 X89.050 Y224.020 F1000
G1 X89.050 Y223.725 F1000
G1 X89.345 Y223.430 F1000
G1 X89.935 Y223.430 F1000
G1 X90.230 Y223.725 F1000
G1 X90.230 Y224.020 F1000
G1 X90.525 Y224.315 F1000
G1 X90.525 Y225.790 F1000
G1 X90.525 Y224.020 F1000
G1 X89.935 Y223.430 F1000
G1 X89.640 Y223.430 F1000
G1 X89.345 Y223.135 F1000
G1 X89.640 Y222.840 F1000
G1 X89.640 Y222.545 F1000
G1 X89.935 Y222.250 F1000
G1 X90.820 Y222.250 F1000
G1 X91.115 Y222.545 F1000
G1 X91.705 Y222.545 F1000
G1 X92.000 Y222.840 F1000
G1 X92.295 Y222.840 F1000
G1 X92.590 Y223.135 F1000
G1 X92.590 Y224.020 F1000
G1 X92.000 Y224.610 F1000
G1 X91.705 Y224.610 F1000
G1 X91.410 Y224.315 F1000
G1 X91.410 Y223.430 F1000
G1 X91.410 Y225.790 F1000
G1 X91.705 Y226.085 F1000
G1 X91.705 Y226.970 F1000
G1 X91.410 Y227.265 F1000
G1 X91.410 Y227.855 F1000
G1 X90.820 Y228.445 F1000
G1 X90.230 Y228.445 F1000
G1 X89.935 Y228.150 F1000
G0 Z3.0 ; Pen up

G0 X92.590 Y229.330 F3000 ; Travel to line 76
G0 Z0.0 ; Pen down
G1 X92.295 Y229.035 F1000
G1 X91.410 Y229.035 F1000
G1 X91.115 Y228.740 F1000
G1 X91.115 Y228.150 F1000
G1 X91.410 Y227.855 F1000
G1 X91.410 Y227.265 F1000
G1 X91.705 Y226.970 F1000
G1 X91.705 Y226.085 F1000
G1 X92.295 Y225.495 F1000
G1 X92.885 Y225.495 F1000
G1 X92.885 Y224.905 F1000
G1 X92.590 Y224.905 F1000
G1 X92.295 Y224.610 F1000
G1 X92.295 Y224.315 F1000
G1 X92.590 Y224.020 F1000
G1 X92.590 Y223.430 F1000
G1 X92.885 Y223.135 F1000
G1 X93.180 Y223.135 F1000
G1 X93.770 Y223.725 F1000
G1 X93.770 Y225.790 F1000
G1 X93.770 Y223.725 F1000
G1 X94.065 Y223.430 F1000
G1 X94.655 Y223.430 F1000
G1 X94.950 Y223.725 F1000
G1 X95.245 Y223.725 F1000
G1 X95.540 Y224.020 F1000
G1 X95.540 Y224.905 F1000
G1 X95.245 Y225.200 F1000
G1 X95.245 Y226.380 F1000
G1 X94.950 Y226.675 F1000
G1 X94.950 Y227.855 F1000
G1 X94.655 Y228.150 F1000
G1 X94.655 Y229.330 F1000
G1 X94.360 Y229.625 F1000
G1 X93.770 Y229.625 F1000
G1 X93.475 Y229.330 F1000
G0 Z3.0 ; Pen up

G0 X93.770 Y229.920 F3000 ; Travel to line 77
G0 Z0.0 ; Pen down
G1 X94.065 Y229.625 F1000
G1 X94.950 Y229.625 F1000
G1 X95.245 Y229.920 F1000
G1 X95.245 Y230.215 F1000
G1 X94.950 Y230.510 F1000
G1 X94.065 Y230.510 F1000
G1 X93.770 Y230.215 F1000
G0 Z3.0 ; Pen up

G0 X93.770 Y230.805 F3000 ; Travel to line 78
G0 Z0.0 ; Pen down
G1 X94.065 Y230.510 F1000
G1 X94.655 Y230.510 F1000
G1 X95.245 Y231.100 F1000
G1 X94.655 Y231.690 F1000
G1 X94.065 Y231.690 F1000
G1 X93.770 Y231.395 F1000
G0 Z3.0 ; Pen up

G0 X91.705 Y231.690 F3000 ; Travel to line 79
G0 Z0.0 ; Pen down
G1 X92.295 Y231.690 F1000
G1 X92.885 Y231.100 F1000
G1 X92.885 Y229.625 F1000
G1 X92.295 Y229.035 F1000
G1 X92.000 Y229.035 F1000
G1 X91.115 Y229.920 F1000
G1 X91.115 Y231.100 F1000
G0 Z3.0 ; Pen up

G0 X88.460 Y230.805 F3000 ; Travel to line 80
G0 Z0.0 ; Pen down
G1 X88.755 Y230.510 F1000
G1 X89.935 Y230.510 F1000
G1 X90.230 Y230.805 F1000
G1 X90.230 Y231.690 F1000
G1 X90.230 Y230.215 F1000
G1 X89.935 Y230.510 F1000
G1 X88.755 Y230.510 F1000
G1 X88.460 Y230.215 F1000
G1 X88.460 Y229.330 F1000
G1 X88.460 Y231.690 F1000
G0 Z3.0 ; Pen up

G0 X86.100 Y231.690 F3000 ; Travel to line 81
G0 Z0.0 ; Pen down
G1 X86.395 Y231.395 F1000
G1 X86.395 Y230.805 F1000
G1 X86.100 Y230.510 F1000
G1 X86.100 Y230.215 F1000
G1 X86.395 Y229.920 F1000
G1 X86.395 Y229.330 F1000
G1 X86.395 Y229.920 F1000
G1 X85.805 Y230.510 F1000
G1 X85.215 Y230.510 F1000
G1 X84.920 Y230.215 F1000
G1 X84.920 Y229.330 F1000
G1 X84.920 Y231.690 F1000
G0 Z3.0 ; Pen up

G0 X84.920 Y231.395 F3000 ; Travel to line 82
G0 Z0.0 ; Pen down
G1 X85.215 Y231.690 F1000
G1 X85.805 Y231.690 F1000
G1 X86.395 Y231.100 F1000
G1 X85.805 Y230.510 F1000
G1 X85.215 Y230.510 F1000
G1 X84.920 Y230.805 F1000
G0 Z3.0 ; Pen up

G0 X83.150 Y231.395 F3000 ; Travel to line 83
G0 Z0.0 ; Pen down
G1 X83.445 Y231.100 F1000
G1 X83.445 Y230.510 F1000
G1 X83.740 Y230.215 F1000
G1 X83.445 Y229.920 F1000
G1 X82.855 Y229.920 F1000
G1 X82.560 Y230.215 F1000
G1 X82.560 Y230.805 F1000
G0 Z3.0 ; Pen up

G0 X81.675 Y231.690 F3000 ; Travel to line 84
G0 Z0.0 ; Pen down
G1 X80.495 Y231.690 F1000
G1 X80.200 Y231.395 F1000
G1 X80.200 Y230.805 F1000
G1 X80.495 Y230.510 F1000
G1 X81.675 Y230.510 F1000
G1 X80.495 Y230.510 F1000
G1 X80.200 Y230.215 F1000
G1 X80.200 Y229.625 F1000
G1 X80.495 Y229.330 F1000
G1 X81.970 Y229.330 F1000
G1 X82.265 Y229.625 F1000
G1 X82.265 Y229.920 F1000
G1 X82.560 Y230.215 F1000
G1 X82.560 Y231.100 F1000
G1 X82.855 Y231.395 F1000
G1 X83.150 Y231.395 F1000
G1 X83.445 Y231.100 F1000
G1 X83.445 Y230.510 F1000
G1 X83.740 Y230.215 F1000
G1 X83.740 Y229.920 F1000
G1 X82.560 Y229.920 F1000
G1 X82.265 Y229.625 F1000
G1 X82.265 Y229.330 F1000
G1 X80.200 Y229.330 F1000
G1 X80.200 Y231.690 F1000
G0 Z3.0 ; Pen up

G0 X79.020 Y231.690 F3000 ; Travel to line 85
G0 Z0.0 ; Pen down
G1 X79.315 Y231.395 F1000
G1 X79.020 Y231.690 F1000
G1 X78.135 Y231.690 F1000
G1 X77.545 Y231.100 F1000
G1 X77.545 Y229.920 F1000
G1 X78.135 Y229.330 F1000
G1 X79.020 Y229.330 F1000
G1 X79.315 Y229.625 F1000
G1 X79.315 Y230.215 F1000
G1 X79.020 Y230.510 F1000
G1 X78.725 Y230.510 F1000
G1 X79.315 Y230.510 F1000
G1 X79.315 Y229.625 F1000
G1 X79.020 Y229.330 F1000
G1 X78.135 Y229.330 F1000
G1 X77.545 Y229.920 F1000
G1 X77.545 Y231.100 F1000
G1 X78.135 Y231.690 F1000
G0 Z3.0 ; Pen up

G0 X73.710 Y231.690 F3000 ; Travel to line 86
G0 Z0.0 ; Pen down
G1 X73.710 Y229.330 F1000
G1 X73.710 Y230.215 F1000
G1 X74.005 Y230.510 F1000
G1 X75.185 Y230.510 F1000
G1 X75.480 Y230.215 F1000
G1 X75.480 Y231.690 F1000
G1 X75.480 Y230.805 F1000
G1 X75.185 Y230.510 F1000
G1 X74.005 Y230.510 F1000
G1 X73.710 Y230.805 F1000
G0 Z3.0 ; Pen up

G0 X72.825 Y231.690 F3000 ; Travel to line 87
G0 Z0.0 ; Pen down
G1 X72.235 Y231.690 F1000
G1 X71.940 Y231.395 F1000
G1 X71.940 Y229.330 F1000
G1 X71.940 Y231.395 F1000
G1 X71.645 Y231.690 F1000
G1 X71.055 Y231.690 F1000
G0 Z3.0 ; Pen up

G0 X70.465 Y231.690 F3000 ; Travel to line 88
G0 Z0.0 ; Pen down
G1 X70.465 Y229.330 F1000
G0 Z3.0 ; Pen up

G0 X70.170 Y225.790 F3000 ; Travel to line 89
G0 Z0.0 ; Pen down
G1 X70.170 Y223.430 F1000
G0 Z3.0 ; Pen up

G0 X69.580 Y225.790 F3000 ; Travel to line 90
G0 Z0.0 ; Pen down
G1 X68.990 Y225.790 F1000
G1 X68.695 Y225.495 F1000
G1 X68.695 Y223.430 F1000
G1 X68.695 Y225.495 F1000
G1 X68.400 Y225.790 F1000
G1 X66.925 Y225.790 F1000
G1 X66.630 Y225.495 F1000
G1 X66.630 Y223.430 F1000
G1 X66.630 Y225.495 F1000
G1 X66.335 Y225.790 F1000
G1 X65.745 Y225.790 F1000
G0 Z3.0 ; Pen up

G0 X63.385 Y225.790 F3000 ; Travel to line 91
G0 Z0.0 ; Pen down
G1 X63.385 Y224.020 F1000
G1 X63.680 Y223.725 F1000
G1 X63.680 Y223.430 F1000
G1 X64.565 Y223.430 F1000
G1 X65.155 Y224.020 F1000
G1 X65.155 Y225.790 F1000
G1 X65.155 Y224.315 F1000
G1 X64.860 Y224.020 F1000
G1 X64.860 Y223.725 F1000
G1 X64.565 Y223.430 F1000
G1 X63.975 Y223.430 F1000
G1 X63.385 Y224.020 F1000
G0 Z3.0 ; Pen up

G0 X62.500 Y225.790 F3000 ; Travel to line 92
G0 Z0.0 ; Pen down
G1 X62.795 Y225.495 F1000
G1 X62.500 Y225.790 F1000
G1 X61.615 Y225.790 F1000
G1 X61.025 Y225.200 F1000
G1 X61.025 Y224.020 F1000
G1 X61.615 Y223.430 F1000
G1 X62.500 Y223.430 F1000
G1 X62.795 Y223.725 F1000
G1 X62.500 Y223.430 F1000
G1 X61.615 Y223.430 F1000
G1 X61.025 Y224.020 F1000
G1 X61.025 Y225.200 F1000
G1 X61.615 Y225.790 F1000
G0 Z3.0 ; Pen up

G0 X58.665 Y225.790 F3000 ; Travel to line 93
G0 Z0.0 ; Pen down
G1 X58.960 Y225.495 F1000
G1 X58.960 Y224.905 F1000
G1 X58.665 Y224.610 F1000
G1 X58.665 Y224.315 F1000
G1 X58.960 Y224.020 F1000
G1 X58.960 Y223.430 F1000
G1 X58.960 Y224.020 F1000
G1 X58.370 Y224.610 F1000
G1 X57.780 Y224.610 F1000
G1 X57.485 Y224.315 F1000
G1 X57.485 Y223.430 F1000
G1 X57.485 Y225.790 F1000
G0 Z3.0 ; Pen up

G0 X57.485 Y225.495 F3000 ; Travel to line 94
G0 Z0.0 ; Pen down
G1 X57.780 Y225.790 F1000
G1 X58.370 Y225.790 F1000
G1 X58.960 Y225.200 F1000
G1 X58.370 Y224.610 F1000
G1 X57.780 Y224.610 F1000
G1 X57.485 Y224.905 F1000
G0 Z3.0 ; Pen up

G0 X56.600 Y225.790 F3000 ; Travel to line 95
G0 Z0.0 ; Pen down
G1 X55.420 Y225.790 F1000
G1 X55.125 Y225.495 F1000
G1 X55.125 Y224.905 F1000
G1 X55.420 Y224.610 F1000
G1 X56.600 Y224.610 F1000
G1 X55.420 Y224.610 F1000
G1 X55.125 Y224.315 F1000
G1 X55.125 Y223.725 F1000
G1 X55.420 Y223.430 F1000
G1 X56.600 Y223.430 F1000
G1 X55.125 Y223.430 F1000
G1 X55.125 Y225.790 F1000
G0 Z3.0 ; Pen up

G0 X54.535 Y225.790 F3000 ; Travel to line 96
G0 Z0.0 ; Pen down
G1 X53.945 Y225.790 F1000
G1 X53.650 Y225.495 F1000
G1 X53.650 Y223.430 F1000
G1 X53.650 Y225.495 F1000
G1 X53.355 Y225.790 F1000
G1 X52.765 Y225.790 F1000
G0 Z3.0 ; Pen up

G0 X52.175 Y225.790 F3000 ; Travel to line 97
G0 Z0.0 ; Pen down
G1 X51.290 Y225.790 F1000
G1 X50.995 Y225.495 F1000
G1 X50.995 Y224.905 F1000
G1 X51.290 Y224.610 F1000
G1 X52.175 Y224.610 F1000
G1 X51.290 Y224.610 F1000
G1 X50.995 Y224.315 F1000
G1 X50.995 Y223.430 F1000
G1 X50.995 Y225.790 F1000
G0 Z3.0 ; Pen up

G0 X49.225 Y225.495 F3000 ; Travel to line 98
G0 Z0.0 ; Pen down
G1 X48.930 Y225.200 F1000
G1 X48.930 Y224.315 F1000
G1 X48.635 Y224.020 F1000
G1 X48.635 Y223.430 F1000
G1 X48.635 Y223.725 F1000
G1 X48.930 Y224.020 F1000
G1 X50.110 Y224.020 F1000
G1 X50.110 Y224.315 F1000
G1 X49.815 Y224.610 F1000
G1 X49.815 Y225.200 F1000
G1 X49.520 Y225.495 F1000
G1 X49.520 Y225.495 F1000
G1 X49.815 Y225.200 F1000
G1 X49.815 Y224.610 F1000
G1 X50.110 Y224.315 F1000
G1 X49.815 Y224.020 F1000
G1 X49.225 Y224.020 F1000
G1 X48.930 Y224.315 F1000
G1 X48.930 Y224.905 F1000
G0 Z3.0 ; Pen up

G0 X46.865 Y225.790 F3000 ; Travel to line 99
G0 Z0.0 ; Pen down
G1 X46.275 Y225.790 F1000
G1 X45.980 Y225.495 F1000
G1 X45.980 Y223.430 F1000
G1 X45.980 Y225.495 F1000
G1 X45.685 Y225.790 F1000
G1 X45.095 Y225.790 F1000
G0 Z3.0 ; Pen up

G0 X43.915 Y225.495 F3000 ; Travel to line 100
G0 Z0.0 ; Pen down
G1 X43.620 Y225.200 F1000
G1 X43.620 Y224.315 F1000
G1 X43.325 Y224.020 F1000
G1 X43.325 Y223.430 F1000
G1 X43.325 Y223.725 F1000
G1 X43.620 Y224.020 F1000
G1 X44.800 Y224.020 F1000
G1 X44.800 Y224.315 F1000
G1 X44.505 Y224.610 F1000
G1 X44.505 Y225.200 F1000
G1 X44.210 Y225.495 F1000
G1 X44.210 Y225.495 F1000
G1 X44.505 Y225.200 F1000
G1 X44.505 Y224.610 F1000
G1 X44.800 Y224.315 F1000
G1 X44.505 Y224.020 F1000
G1 X43.915 Y224.020 F1000
G1 X43.620 Y224.315 F1000
G1 X43.620 Y224.905 F1000
G0 Z3.0 ; Pen up

G0 X42.440 Y225.790 F3000 ; Travel to line 101
G0 Z0.0 ; Pen down
G1 X41.260 Y225.790 F1000
G1 X40.965 Y225.495 F1000
G1 X40.965 Y224.905 F1000
G1 X41.260 Y224.610 F1000
G1 X42.440 Y224.610 F1000
G1 X41.260 Y224.610 F1000
G1 X40.965 Y224.315 F1000
G1 X40.965 Y223.725 F1000
G1 X41.260 Y223.430 F1000
G1 X42.440 Y223.430 F1000
G1 X40.965 Y223.430 F1000
G1 X40.965 Y225.790 F1000
G0 Z3.0 ; Pen up

G0 X39.785 Y225.790 F3000 ; Travel to line 102
G0 Z0.0 ; Pen down
G1 X40.080 Y225.495 F1000
G1 X40.080 Y224.905 F1000
G1 X39.785 Y224.610 F1000
G1 X39.785 Y224.315 F1000
G1 X40.080 Y224.020 F1000
G1 X40.080 Y223.430 F1000
G1 X40.080 Y224.020 F1000
G1 X39.490 Y224.610 F1000
G1 X38.900 Y224.610 F1000
G1 X38.605 Y224.315 F1000
G1 X38.605 Y223.430 F1000
G1 X38.605 Y225.790 F1000
G0 Z3.0 ; Pen up

G0 X38.605 Y225.495 F3000 ; Travel to line 103
G0 Z0.0 ; Pen down
G1 X38.900 Y225.790 F1000
G1 X39.490 Y225.790 F1000
G1 X40.080 Y225.200 F1000
G1 X39.490 Y224.610 F1000
G1 X38.900 Y224.610 F1000
G1 X38.605 Y224.905 F1000
G0 Z3.0 ; Pen up

G0 X37.720 Y225.790 F3000 ; Travel to line 104
G0 Z0.0 ; Pen down
G1 X37.130 Y225.790 F1000
G1 X36.835 Y225.495 F1000
G1 X36.835 Y223.430 F1000
G1 X36.835 Y225.495 F1000
G1 X36.540 Y225.790 F1000
G1 X35.950 Y225.790 F1000
G0 Z3.0 ; Pen up

G0 X34.475 Y225.790 F3000 ; Travel to line 105
G0 Z0.0 ; Pen down
G1 X33.885 Y225.790 F1000
G1 X33.590 Y225.495 F1000
G1 X33.590 Y223.430 F1000
G1 X33.590 Y225.495 F1000
G1 X33.295 Y225.790 F1000
G1 X32.705 Y225.790 F1000
G0 Z3.0 ; Pen up

G0 X31.525 Y225.495 F3000 ; Travel to line 106
G0 Z0.0 ; Pen down
G1 X31.230 Y225.200 F1000
G1 X31.230 Y224.315 F1000
G1 X30.935 Y224.020 F1000
G1 X30.935 Y223.430 F1000
G1 X30.935 Y223.725 F1000
G1 X31.230 Y224.020 F1000
G1 X32.410 Y224.020 F1000
G1 X32.410 Y224.315 F1000
G1 X32.115 Y224.610 F1000
G1 X32.115 Y225.200 F1000
G1 X31.820 Y225.495 F1000
G1 X31.820 Y225.495 F1000
G1 X32.115 Y225.200 F1000
G1 X32.115 Y224.610 F1000
G1 X32.410 Y224.315 F1000
G1 X32.115 Y224.020 F1000
G1 X31.525 Y224.020 F1000
G1 X31.230 Y224.315 F1000
G1 X31.230 Y224.905 F1000
G0 Z3.0 ; Pen up

G0 X30.050 Y225.790 F3000 ; Travel to line 107
G0 Z0.0 ; Pen down
G1 X28.870 Y225.790 F1000
G1 X28.575 Y225.495 F1000
G1 X28.575 Y224.905 F1000
G1 X28.870 Y224.610 F1000
G1 X30.050 Y224.610 F1000
G1 X28.870 Y224.610 F1000
G1 X28.575 Y224.315 F1000
G1 X28.575 Y223.725 F1000
G1 X28.870 Y223.430 F1000
G1 X30.050 Y223.430 F1000
G1 X28.575 Y223.430 F1000
G1 X28.575 Y225.790 F1000
G0 Z3.0 ; Pen up

G0 X25.920 Y225.790 F3000 ; Travel to line 108
G0 Z0.0 ; Pen down
G1 X25.920 Y223.430 F1000
G1 X25.920 Y224.315 F1000
G1 X26.215 Y224.610 F1000
G1 X27.395 Y224.610 F1000
G1 X27.690 Y224.315 F1000
G1 X27.690 Y225.790 F1000
G1 X27.690 Y224.905 F1000
G1 X27.395 Y224.610 F1000
G1 X26.215 Y224.610 F1000
G1 X25.920 Y224.905 F1000
G0 Z3.0 ; Pen up

G0 X22.380 Y225.790 F3000 ; Travel to line 109
G0 Z0.0 ; Pen down
G1 X22.675 Y225.495 F1000
G1 X22.675 Y224.610 F1000
G1 X21.790 Y223.725 F1000
G1 X22.085 Y223.430 F1000
G1 X22.675 Y223.430 F1000
G1 X21.790 Y223.430 F1000
G1 X21.790 Y224.020 F1000
G1 X22.675 Y224.905 F1000
G1 X22.675 Y225.495 F1000
G1 X22.380 Y225.790 F1000
G1 X21.790 Y225.790 F1000
G1 X21.495 Y225.495 F1000
G1 X21.790 Y225.790 F1000
G0 Z3.0 ; Pen up

G0 X21.790 Y219.890 F3000 ; Travel to line 110
G0 Z0.0 ; Pen down
G1 X21.495 Y219.595 F1000
G1 X21.790 Y219.890 F1000
G1 X22.380 Y219.890 F1000
G1 X22.675 Y219.595 F1000
G1 X22.675 Y219.005 F1000
G1 X22.380 Y218.710 F1000
G1 X21.790 Y218.710 F1000
G1 X22.380 Y218.710 F1000
G1 X22.675 Y218.415 F1000
G1 X22.675 Y217.825 F1000
G1 X22.380 Y217.530 F1000
G1 X21.790 Y217.530 F1000
G1 X21.495 Y217.825 F1000
G1 X21.790 Y217.530 F1000
G1 X22.380 Y217.530 F1000
G1 X22.675 Y217.825 F1000
G1 X22.675 Y218.415 F1000
G1 X22.380 Y218.710 F1000
G1 X22.675 Y219.005 F1000
G1 X22.675 Y219.595 F1000
G1 X22.380 Y219.890 F1000
G0 Z3.0 ; Pen up

G0 X26.215 Y219.890 F3000 ; Travel to line 111
G0 Z0.0 ; Pen down
G1 X25.920 Y219.595 F1000
G1 X25.920 Y219.005 F1000
G1 X26.215 Y218.710 F1000
G1 X26.805 Y218.710 F1000
G1 X27.395 Y218.120 F1000
G1 X26.805 Y217.530 F1000
G1 X26.215 Y217.530 F1000
G1 X25.920 Y217.825 F1000
G1 X26.215 Y217.530 F1000
G1 X27.100 Y217.530 F1000
G1 X27.395 Y217.825 F1000
G1 X27.395 Y218.415 F1000
G1 X27.100 Y218.710 F1000
G1 X26.510 Y218.710 F1000
G1 X25.920 Y219.300 F1000
G1 X26.510 Y219.890 F1000
G1 X27.100 Y219.890 F1000
G0 Z3.0 ; Pen up

G0 X28.280 Y219.890 F3000 ; Travel to line 112
G0 Z0.0 ; Pen down
G1 X28.280 Y217.530 F1000
G1 X28.280 Y218.415 F1000
G1 X28.575 Y218.710 F1000
G1 X29.755 Y218.710 F1000
G1 X30.050 Y218.415 F1000
G1 X30.050 Y219.890 F1000
G1 X30.050 Y219.005 F1000
G1 X29.755 Y218.710 F1000
G1 X28.575 Y218.710 F1000
G1 X28.280 Y219.005 F1000
G0 Z3.0 ; Pen up

G0 X31.230 Y219.005 F3000 ; Travel to line 113
G0 Z0.0 ; Pen down
G1 X31.230 Y218.415 F1000
G1 X31.525 Y218.120 F1000
G1 X32.115 Y218.120 F1000
G1 X32.410 Y218.415 F1000
G1 X32.115 Y218.710 F1000
G1 X32.115 Y219.300 F1000
G1 X31.820 Y219.595 F1000
G1 X31.820 Y219.595 F1000
G1 X32.115 Y219.300 F1000
G1 X32.115 Y218.710 F1000
G1 X32.410 Y218.415 F1000
G1 X32.410 Y218.120 F1000
G1 X31.230 Y218.120 F1000
G1 X30.935 Y217.825 F1000
G1 X30.935 Y217.530 F1000
G1 X30.935 Y218.120 F1000
G1 X31.230 Y218.415 F1000
G1 X31.230 Y219.300 F1000
G1 X31.525 Y219.595 F1000
G0 Z3.0 ; Pen up

G0 X33.295 Y219.890 F3000 ; Travel to line 114
G0 Z0.0 ; Pen down
G1 X33.295 Y217.530 F1000
G1 X33.295 Y218.415 F1000
G1 X33.590 Y218.710 F1000
G1 X34.475 Y218.710 F1000
G1 X33.590 Y218.710 F1000
G1 X33.295 Y219.005 F1000
G1 X33.295 Y219.595 F1000
G1 X33.590 Y219.890 F1000
G1 X34.475 Y219.890 F1000
G0 Z3.0 ; Pen up

G0 X35.065 Y219.890 F3000 ; Travel to line 115
G0 Z0.0 ; Pen down
G1 X35.655 Y219.890 F1000
G1 X35.950 Y219.595 F1000
G1 X35.950 Y217.530 F1000
G1 X35.950 Y219.595 F1000
G1 X36.245 Y219.890 F1000
G1 X36.835 Y219.890 F1000
G0 Z3.0 ; Pen up

G0 X38.310 Y219.890 F3000 ; Travel to line 116
G0 Z0.0 ; Pen down
G1 X38.900 Y219.890 F1000
G1 X39.195 Y219.595 F1000
G1 X39.195 Y217.530 F1000
G1 X39.195 Y219.595 F1000
G1 X39.490 Y219.890 F1000
G1 X40.080 Y219.890 F1000
G0 Z3.0 ; Pen up

G0 X40.670 Y219.300 F3000 ; Travel to line 117
G0 Z0.0 ; Pen down
G1 X40.670 Y218.120 F1000
G1 X41.260 Y217.530 F1000
G1 X41.850 Y217.530 F1000
G1 X42.440 Y218.120 F1000
G1 X42.440 Y219.300 F1000
G1 X41.850 Y219.890 F1000
G1 X41.260 Y219.890 F1000
G1 X41.260 Y219.890 F1000
G1 X40.670 Y219.300 F1000
G1 X40.670 Y218.120 F1000
G1 X41.260 Y217.530 F1000
G1 X42.145 Y217.530 F1000
G1 X42.440 Y217.825 F1000
G1 X42.440 Y219.595 F1000
G1 X42.145 Y219.890 F1000
G0 Z3.0 ; Pen up

G0 X43.620 Y219.890 F3000 ; Travel to line 118
G0 Z0.0 ; Pen down
G1 X43.620 Y217.530 F1000
G1 X46.865 Y217.530 F1000
G1 X45.685 Y217.530 F1000
G1 X45.390 Y217.825 F1000
G1 X45.390 Y218.415 F1000
G1 X45.685 Y218.710 F1000
G1 X46.865 Y218.710 F1000
G1 X45.685 Y218.710 F1000
G1 X45.390 Y219.005 F1000
G1 X45.390 Y219.595 F1000
G1 X45.685 Y219.890 F1000
G1 X46.865 Y219.890 F1000
G1 X45.390 Y219.890 F1000
G1 X45.390 Y217.825 F1000
G1 X45.095 Y217.530 F1000
G1 X43.915 Y217.530 F1000
G1 X43.620 Y217.825 F1000
G0 Z3.0 ; Pen up

G0 X47.750 Y219.005 F3000 ; Travel to line 119
G0 Z0.0 ; Pen down
G1 X48.045 Y218.710 F1000
G1 X48.635 Y218.710 F1000
G1 X49.225 Y219.300 F1000
G1 X48.635 Y219.890 F1000
G1 X48.045 Y219.890 F1000
G1 X47.750 Y219.595 F1000
G0 Z3.0 ; Pen up

G0 X47.750 Y219.890 F3000 ; Travel to line 120
G0 Z0.0 ; Pen down
G1 X47.750 Y217.530 F1000
G1 X47.750 Y218.415 F1000
G1 X48.045 Y218.710 F1000
G1 X48.635 Y218.710 F1000
G1 X49.225 Y218.120 F1000
G1 X49.225 Y217.530 F1000
G1 X50.110 Y217.530 F1000
G1 X50.110 Y217.825 F1000
G1 X50.405 Y218.120 F1000
G1 X51.585 Y218.120 F1000
G1 X51.585 Y218.415 F1000
G1 X51.290 Y218.710 F1000
G1 X51.290 Y219.300 F1000
G1 X50.995 Y219.595 F1000
G1 X50.700 Y219.595 F1000
G1 X50.405 Y219.300 F1000
G1 X50.405 Y218.415 F1000
G1 X50.110 Y218.120 F1000
G1 X50.110 Y217.825 F1000
G1 X49.815 Y217.530 F1000
G1 X49.520 Y217.530 F1000
G1 X49.225 Y217.825 F1000
G1 X49.225 Y218.120 F1000
G1 X48.930 Y218.415 F1000
G1 X48.930 Y218.710 F1000
G1 X49.225 Y219.005 F1000
G1 X49.225 Y219.595 F1000
G1 X48.930 Y219.890 F1000
G0 Z3.0 ; Pen up

G0 X50.405 Y219.005 F3000 ; Travel to line 121
G0 Z0.0 ; Pen down
G1 X50.405 Y218.415 F1000
G1 X50.700 Y218.120 F1000
G1 X51.290 Y218.120 F1000
G1 X51.585 Y218.415 F1000
G1 X51.290 Y218.710 F1000
G1 X51.290 Y219.300 F1000
G1 X50.995 Y219.595 F1000
G0 Z3.0 ; Pen up

G0 X54.240 Y219.890 F3000 ; Travel to line 122
G0 Z0.0 ; Pen down
G1 X54.240 Y218.415 F1000
G1 X53.945 Y218.120 F1000
G1 X53.355 Y218.710 F1000
G1 X53.355 Y219.005 F1000
G1 X53.060 Y219.300 F1000
G1 X52.470 Y219.300 F1000
G1 X52.470 Y217.530 F1000
G1 X52.470 Y219.005 F1000
G1 X52.765 Y219.300 F1000
G1 X53.355 Y218.710 F1000
G1 X53.355 Y218.415 F1000
G1 X53.650 Y218.120 F1000
G1 X54.240 Y218.120 F1000
G0 Z3.0 ; Pen up

G0 X55.715 Y219.890 F3000 ; Travel to line 123
G0 Z0.0 ; Pen down
G1 X55.125 Y219.300 F1000
G1 X55.125 Y218.120 F1000
G1 X55.715 Y217.530 F1000
G1 X56.600 Y217.530 F1000
G1 X56.895 Y217.825 F1000
G1 X56.600 Y217.530 F1000
G1 X55.715 Y217.530 F1000
G1 X55.125 Y218.120 F1000
G1 X55.125 Y219.300 F1000
G1 X55.715 Y219.890 F1000
G1 X56.600 Y219.890 F1000
G1 X56.895 Y219.595 F1000
G1 X56.600 Y219.890 F1000
G0 Z3.0 ; Pen up

G0 X57.485 Y219.890 F3000 ; Travel to line 124
G0 Z0.0 ; Pen down
G1 X57.485 Y217.530 F1000
G1 X58.960 Y217.530 F1000
G1 X57.780 Y217.530 F1000
G1 X57.485 Y217.825 F1000
G1 X57.485 Y218.415 F1000
G1 X57.780 Y218.710 F1000
G1 X58.960 Y218.710 F1000
G1 X57.780 Y218.710 F1000
G1 X57.485 Y219.005 F1000
G1 X57.485 Y219.595 F1000
G1 X57.780 Y219.890 F1000
G1 X58.960 Y219.890 F1000
G0 Z3.0 ; Pen up

G0 X60.140 Y219.890 F3000 ; Travel to line 125
G0 Z0.0 ; Pen down
G1 X59.845 Y219.595 F1000
G1 X59.845 Y219.005 F1000
G1 X60.140 Y218.710 F1000
G1 X60.730 Y218.710 F1000
G1 X61.320 Y218.120 F1000
G1 X60.730 Y217.530 F1000
G1 X60.140 Y217.530 F1000
G1 X59.845 Y217.825 F1000
G1 X60.140 Y217.530 F1000
G1 X61.025 Y217.530 F1000
G1 X61.320 Y217.825 F1000
G1 X61.320 Y218.415 F1000
G1 X61.025 Y218.710 F1000
G1 X60.435 Y218.710 F1000
G1 X59.845 Y219.300 F1000
G1 X60.435 Y219.890 F1000
G1 X61.025 Y219.890 F1000
G0 Z3.0 ; Pen up

G0 X64.270 Y219.890 F3000 ; Travel to line 126
G0 Z0.0 ; Pen down
G1 X64.270 Y217.530 F1000
G1 X64.270 Y218.415 F1000
G1 X64.565 Y218.710 F1000
G1 X65.745 Y218.710 F1000
G1 X66.040 Y218.415 F1000
G1 X66.040 Y219.890 F1000
G1 X66.040 Y219.005 F1000
G1 X65.745 Y218.710 F1000
G1 X64.565 Y218.710 F1000
G1 X64.270 Y219.005 F1000
G0 Z3.0 ; Pen up

G0 X67.220 Y219.890 F3000 ; Travel to line 127
G0 Z0.0 ; Pen down
G1 X68.105 Y219.890 F1000
G1 X68.400 Y219.595 F1000
G1 X68.400 Y219.300 F1000
G1 X68.105 Y219.005 F1000
G1 X68.105 Y218.710 F1000
G1 X67.810 Y218.415 F1000
G1 X67.810 Y217.530 F1000
G1 X67.810 Y218.120 F1000
G1 X68.105 Y218.415 F1000
G1 X68.105 Y218.710 F1000
G1 X68.400 Y219.005 F1000
G1 X68.400 Y219.890 F1000
G0 Z3.0 ; Pen up

G0 X69.875 Y219.890 F3000 ; Travel to line 128
G0 Z0.0 ; Pen down
G1 X69.875 Y219.595 F1000
G1 X69.580 Y219.300 F1000
G1 X69.580 Y218.710 F1000
G1 X69.285 Y218.415 F1000
G1 X69.285 Y217.825 F1000
G1 X68.990 Y217.530 F1000
G1 X68.990 Y217.235 F1000
G1 X68.990 Y217.530 F1000
G1 X69.285 Y217.825 F1000
G1 X69.285 Y218.415 F1000
G1 X69.580 Y218.710 F1000
G1 X69.580 Y219.300 F1000
G1 X69.875 Y219.595 F1000
G0 Z3.0 ; Pen up

G0 X73.120 Y224.020 F3000 ; Travel to line 129
G0 Z0.0 ; Pen down
G1 X72.530 Y224.020 F1000
G1 X72.235 Y224.315 F1000
G1 X72.235 Y224.610 F1000
G1 X71.645 Y225.200 F1000
G1 X71.350 Y224.905 F1000
G1 X71.350 Y223.430 F1000
G1 X71.350 Y225.200 F1000
G1 X71.940 Y225.200 F1000
G1 X72.235 Y224.905 F1000
G1 X72.235 Y224.610 F1000
G1 X72.825 Y224.020 F1000
G1 X73.120 Y224.315 F1000
G1 X73.120 Y225.790 F1000
G0 Z3.0 ; Pen up

G0 X74.595 Y225.790 F3000 ; Travel to line 130
G0 Z0.0 ; Pen down
G1 X74.005 Y225.200 F1000
G1 X74.005 Y224.020 F1000
G1 X74.595 Y223.430 F1000
G1 X75.480 Y223.430 F1000
G1 X75.775 Y223.725 F1000
G1 X75.775 Y224.610 F1000
G1 X75.185 Y224.610 F1000
G1 X75.480 Y224.610 F1000
G1 X75.775 Y224.315 F1000
G1 X75.775 Y223.725 F1000
G1 X75.480 Y223.430 F1000
G1 X74.595 Y223.430 F1000
G1 X74.005 Y224.020 F1000
G1 X74.005 Y225.200 F1000
G1 X74.595 Y225.790 F1000
G1 X75.480 Y225.790 F1000
G1 X75.775 Y225.495 F1000
G1 X75.480 Y225.790 F1000
G0 Z3.0 ; Pen up

G0 X66.925 Y230.805 F3000 ; Travel to line 131
G0 Z0.0 ; Pen down
G1 X67.220 Y230.510 F1000
G1 X67.220 Y229.920 F1000
G1 X67.515 Y229.625 F1000
G1 X67.810 Y229.920 F1000
G1 X67.810 Y230.805 F1000
G1 X68.105 Y231.100 F1000
G1 X68.400 Y231.100 F1000
G1 X68.400 Y230.805 F1000
G1 X68.695 Y230.510 F1000
G1 X68.695 Y229.920 F1000
G1 X68.990 Y229.625 F1000
G1 X69.285 Y229.920 F1000
G1 X69.285 Y230.805 F1000
G1 X69.580 Y231.100 F1000
G1 X69.580 Y231.690 F1000
G1 X69.580 Y230.805 F1000
G1 X69.285 Y230.510 F1000
G1 X69.285 Y229.625 F1000
G1 X68.695 Y229.625 F1000
G1 X68.695 Y230.510 F1000
G1 X68.105 Y231.100 F1000
G1 X67.810 Y230.805 F1000
G1 X67.810 Y229.920 F1000
G1 X67.515 Y229.625 F1000
G1 X67.220 Y229.625 F1000
G1 X67.220 Y230.215 F1000
G1 X66.925 Y230.510 F1000
G1 X66.925 Y231.690 F1000
G0 Z3.0 ; Pen up

G0 X65.155 Y231.690 F3000 ; Travel to line 132
G0 Z0.0 ; Pen down
G1 X64.565 Y231.690 F1000
G1 X64.270 Y231.395 F1000
G1 X64.270 Y229.330 F1000
G1 X64.270 Y231.395 F1000
G1 X63.975 Y231.690 F1000
G1 X63.385 Y231.690 F1000
G0 Z3.0 ; Pen up

G0 X61.025 Y231.690 F3000 ; Travel to line 133
G0 Z0.0 ; Pen down
G1 X61.025 Y229.920 F1000
G1 X61.320 Y229.625 F1000
G1 X61.320 Y229.330 F1000
G1 X62.205 Y229.330 F1000
G1 X62.795 Y229.920 F1000
G1 X62.795 Y231.690 F1000
G1 X62.795 Y230.215 F1000
G1 X62.500 Y229.920 F1000
G1 X62.500 Y229.625 F1000
G1 X62.205 Y229.330 F1000
G1 X61.615 Y229.330 F1000
G1 X61.025 Y229.920 F1000
G0 Z3.0 ; Pen up

G0 X60.140 Y231.690 F3000 ; Travel to line 134
G0 Z0.0 ; Pen down
G1 X60.435 Y231.395 F1000
G1 X60.140 Y231.690 F1000
G1 X59.255 Y231.690 F1000
G1 X58.665 Y231.100 F1000
G1 X58.665 Y229.920 F1000
G1 X59.255 Y229.330 F1000
G1 X60.140 Y229.330 F1000
G1 X60.435 Y229.625 F1000
G1 X60.140 Y229.330 F1000
G1 X59.255 Y229.330 F1000
G1 X58.665 Y229.920 F1000
G1 X58.665 Y231.100 F1000
G1 X59.255 Y231.690 F1000
G0 Z3.0 ; Pen up

G0 X56.600 Y231.690 F3000 ; Travel to line 135
G0 Z0.0 ; Pen down
G1 X55.420 Y231.690 F1000
G1 X55.125 Y231.395 F1000
G1 X55.125 Y230.805 F1000
G1 X55.420 Y230.510 F1000
G1 X56.600 Y230.510 F1000
G1 X55.420 Y230.510 F1000
G1 X55.125 Y230.215 F1000
G1 X55.125 Y229.625 F1000
G1 X55.420 Y229.330 F1000
G1 X56.600 Y229.330 F1000
G1 X55.125 Y229.330 F1000
G1 X55.125 Y231.690 F1000
G0 Z3.0 ; Pen up

G0 X53.945 Y231.690 F3000 ; Travel to line 136
G0 Z0.0 ; Pen down
G1 X54.240 Y231.395 F1000
G1 X54.240 Y230.805 F1000
G1 X53.945 Y230.510 F1000
G1 X54.240 Y230.215 F1000
G1 X54.240 Y229.625 F1000
G1 X53.945 Y229.330 F1000
G1 X52.765 Y229.330 F1000
G1 X52.765 Y231.690 F1000
G0 Z3.0 ; Pen up

G0 X52.765 Y231.395 F3000 ; Travel to line 137
G0 Z0.0 ; Pen down
G1 X53.060 Y231.690 F1000
G1 X53.650 Y231.690 F1000
G1 X54.240 Y231.100 F1000
G1 X53.650 Y230.510 F1000
G1 X53.060 Y230.510 F1000
G1 X52.765 Y230.805 F1000
G0 Z3.0 ; Pen up

G0 X52.765 Y230.215 F3000 ; Travel to line 138
G0 Z0.0 ; Pen down
G1 X53.060 Y230.510 F1000
G1 X53.945 Y230.510 F1000
G1 X54.240 Y230.215 F1000
G1 X54.240 Y229.625 F1000
G1 X53.945 Y229.330 F1000
G1 X53.060 Y229.330 F1000
G1 X52.765 Y229.625 F1000
G0 Z3.0 ; Pen up

G0 X50.405 Y231.690 F3000 ; Travel to line 139
G0 Z0.0 ; Pen down
G1 X50.700 Y231.395 F1000
G1 X50.700 Y229.625 F1000
G1 X50.405 Y229.330 F1000
G1 X49.520 Y229.330 F1000
G1 X48.930 Y229.920 F1000
G1 X48.930 Y231.100 F1000
G1 X49.520 Y231.690 F1000
G1 X49.520 Y231.690 F1000
G1 X50.110 Y231.690 F1000
G1 X50.700 Y231.100 F1000
G1 X50.700 Y229.920 F1000
G1 X50.110 Y229.330 F1000
G1 X49.520 Y229.330 F1000
G1 X48.930 Y229.920 F1000
G1 X48.930 Y231.100 F1000
G0 Z3.0 ; Pen up

G0 X48.340 Y231.690 F3000 ; Travel to line 140
G0 Z0.0 ; Pen down
G1 X47.750 Y231.690 F1000
G1 X47.455 Y231.395 F1000
G1 X47.455 Y229.330 F1000
G1 X47.455 Y231.395 F1000
G1 X47.160 Y231.690 F1000
G1 X46.570 Y231.690 F1000
G0 Z3.0 ; Pen up

G0 X44.505 Y231.690 F3000 ; Travel to line 141
G0 Z0.0 ; Pen down
G1 X43.915 Y231.690 F1000
G1 X43.325 Y231.100 F1000
G1 X43.915 Y230.510 F1000
G1 X44.505 Y230.510 F1000
G1 X44.800 Y230.215 F1000
G1 X44.800 Y229.625 F1000
G1 X44.505 Y229.330 F1000
G1 X43.620 Y229.330 F1000
G1 X43.325 Y229.625 F1000
G1 X43.620 Y229.330 F1000
G1 X44.210 Y229.330 F1000
G1 X44.800 Y229.920 F1000
G1 X44.210 Y230.510 F1000
G1 X43.620 Y230.510 F1000
G1 X43.325 Y230.805 F1000
G1 X43.325 Y231.395 F1000
G1 X43.620 Y231.690 F1000
G0 Z3.0 ; Pen up

G0 X42.145 Y231.690 F3000 ; Travel to line 142
G0 Z0.0 ; Pen down
G1 X42.440 Y231.395 F1000
G1 X42.440 Y230.805 F1000
G1 X42.145 Y230.510 F1000
G1 X42.145 Y230.215 F1000
G1 X42.440 Y229.920 F1000
G1 X42.440 Y229.330 F1000
G1 X42.440 Y229.920 F1000
G1 X41.850 Y230.510 F1000
G1 X41.260 Y230.510 F1000
G1 X40.965 Y230.215 F1000
G1 X40.965 Y229.330 F1000
G1 X40.965 Y231.690 F1000
G0 Z3.0 ; Pen up

G0 X40.965 Y231.395 F3000 ; Travel to line 143
G0 Z0.0 ; Pen down
G1 X41.260 Y231.690 F1000
G1 X41.850 Y231.690 F1000
G1 X42.440 Y231.100 F1000
G1 X41.850 Y230.510 F1000
G1 X41.260 Y230.510 F1000
G1 X40.965 Y230.805 F1000
G0 Z3.0 ; Pen up

G0 X39.195 Y231.395 F3000 ; Travel to line 144
G0 Z0.0 ; Pen down
G1 X38.900 Y231.100 F1000
G1 X38.900 Y230.215 F1000
G1 X38.605 Y229.920 F1000
G1 X38.605 Y229.330 F1000
G1 X38.605 Y229.625 F1000
G1 X38.900 Y229.920 F1000
G1 X40.080 Y229.920 F1000
G1 X40.080 Y230.215 F1000
G1 X39.785 Y230.510 F1000
G1 X39.785 Y231.100 F1000
G1 X39.490 Y231.395 F1000
G1 X39.490 Y231.395 F1000
G1 X39.785 Y231.100 F1000
G1 X39.785 Y230.510 F1000
G1 X40.080 Y230.215 F1000
G1 X39.785 Y229.920 F1000
G1 X39.195 Y229.920 F1000
G1 X38.900 Y230.215 F1000
G1 X38.900 Y230.805 F1000
G0 Z3.0 ; Pen up

G0 X37.720 Y231.690 F3000 ; Travel to line 145
G0 Z0.0 ; Pen down
G1 X36.540 Y231.690 F1000
G1 X36.245 Y231.395 F1000
G1 X36.245 Y230.805 F1000
G1 X36.540 Y230.510 F1000
G1 X37.720 Y230.510 F1000
G1 X36.540 Y230.510 F1000
G1 X36.245 Y230.215 F1000
G1 X36.245 Y229.625 F1000
G1 X36.540 Y229.330 F1000
G1 X37.720 Y229.330 F1000
G1 X36.245 Y229.330 F1000
G1 X36.245 Y231.690 F1000
G0 Z3.0 ; Pen up

G0 X35.065 Y231.690 F3000 ; Travel to line 146
G0 Z0.0 ; Pen down
G1 X35.360 Y231.395 F1000
G1 X35.065 Y231.690 F1000
G1 X34.180 Y231.690 F1000
G1 X33.590 Y231.100 F1000
G1 X33.590 Y229.920 F1000
G1 X34.180 Y229.330 F1000
G1 X35.065 Y229.330 F1000
G1 X35.360 Y229.625 F1000
G1 X35.360 Y230.215 F1000
G1 X35.065 Y230.510 F1000
G1 X34.770 Y230.510 F1000
G1 X35.360 Y230.510 F1000
G1 X35.360 Y229.625 F1000
G1 X35.065 Y229.330 F1000
G1 X34.180 Y229.330 F1000
G1 X33.590 Y229.920 F1000
G1 X33.590 Y231.100 F1000
G1 X34.180 Y231.690 F1000
G0 Z3.0 ; Pen up

G0 X30.345 Y231.690 F3000 ; Travel to line 147
G0 Z0.0 ; Pen down
G1 X30.345 Y229.330 F1000
G1 X31.820 Y229.330 F1000
G1 X30.640 Y229.330 F1000
G1 X30.345 Y229.625 F1000
G0 Z3.0 ; Pen up

G0 X28.280 Y229.625 F3000 ; Travel to line 148
G0 Z0.0 ; Pen down
G1 X28.575 Y229.330 F1000
G1 X29.755 Y229.330 F1000
G1 X28.280 Y229.330 F1000
G1 X28.280 Y231.690 F1000
G0 Z3.0 ; Pen up

G0 X26.510 Y231.395 F3000 ; Travel to line 149
G0 Z0.0 ; Pen down
G1 X26.215 Y231.100 F1000
G1 X26.215 Y230.215 F1000
G1 X25.920 Y229.920 F1000
G1 X25.920 Y229.330 F1000
G1 X25.920 Y229.625 F1000
G1 X26.215 Y229.920 F1000
G1 X27.395 Y229.920 F1000
G1 X27.395 Y230.215 F1000
G1 X27.100 Y230.510 F1000
G1 X27.100 Y231.100 F1000
G1 X26.805 Y231.395 F1000
G1 X26.805 Y231.395 F1000
G1 X27.100 Y231.100 F1000
G1 X27.100 Y230.510 F1000
G1 X27.395 Y230.215 F1000
G1 X27.100 Y229.920 F1000
G1 X26.510 Y229.920 F1000
G1 X26.215 Y230.215 F1000
G1 X26.215 Y230.805 F1000
G0 Z3.0 ; Pen up

G0 X22.085 Y231.690 F3000 ; Travel to line 150
G0 Z0.0 ; Pen down
G1 X22.085 Y229.625 F1000
G1 X22.380 Y229.330 F1000
G1 X22.970 Y229.330 F1000
G1 X21.790 Y229.330 F1000
G1 X22.085 Y229.625 F1000
G1 X22.085 Y231.395 F1000
G1 X21.790 Y231.690 F1000
G1 X21.495 Y231.690 F1000
G0 Z3.0 ; Pen up

G0 X23.560 Y237.000 F3000 ; Travel to line 151
G0 Z0.0 ; Pen down
G1 X22.970 Y237.000 F1000
G1 X22.675 Y237.295 F1000
G1 X22.675 Y237.590 F1000
G1 X22.380 Y237.885 F1000
G1 X22.380 Y238.180 F1000
G1 X22.085 Y238.475 F1000
G1 X21.790 Y238.475 F1000
G1 X21.495 Y238.180 F1000
G1 X21.495 Y236.705 F1000
G1 X21.495 Y238.475 F1000
G1 X22.380 Y238.475 F1000
G1 X22.380 Y238.180 F1000
G1 X22.675 Y237.885 F1000
G1 X22.675 Y237.590 F1000
G1 X23.265 Y237.000 F1000
G1 X23.560 Y237.295 F1000
G1 X23.560 Y239.065 F1000
G0 Z3.0 ; Pen up

G0 X24.445 Y238.180 F3000 ; Travel to line 152
G0 Z0.0 ; Pen down
G1 X24.445 Y237.295 F1000
G1 X25.330 Y236.410 F1000
G1 X25.920 Y236.410 F1000
G1 X26.805 Y237.295 F1000
G1 X26.805 Y238.180 F1000
G1 X25.920 Y239.065 F1000
G1 X25.330 Y239.065 F1000
G0 Z3.0 ; Pen up

G0 X25.035 Y239.065 F3000 ; Travel to line 153
G0 Z0.0 ; Pen down
G1 X24.445 Y238.475 F1000
G1 X24.445 Y237.000 F1000
G1 X25.035 Y236.410 F1000
G1 X26.215 Y236.410 F1000
G1 X26.805 Y237.000 F1000
G1 X26.805 Y238.475 F1000
G1 X26.215 Y239.065 F1000
G0 Z3.0 ; Pen up

G0 X27.395 Y239.065 F3000 ; Travel to line 154
G0 Z0.0 ; Pen down
G1 X28.280 Y239.065 F1000
G1 X28.575 Y238.770 F1000
G1 X28.575 Y236.410 F1000
G1 X28.575 Y238.770 F1000
G1 X28.870 Y239.065 F1000
G1 X29.755 Y239.065 F1000
G0 Z3.0 ; Pen up

G0 X30.640 Y239.065 F3000 ; Travel to line 155
G0 Z0.0 ; Pen down
G1 X30.345 Y238.770 F1000
G1 X30.345 Y236.705 F1000
G1 X30.640 Y236.410 F1000
G1 X32.115 Y236.410 F1000
G1 X30.640 Y236.410 F1000
G1 X30.345 Y236.705 F1000
G1 X30.345 Y237.590 F1000
G1 X30.640 Y237.885 F1000
G1 X32.115 Y237.885 F1000
G1 X30.640 Y237.885 F1000
G1 X30.345 Y238.180 F1000
G1 X30.345 Y238.770 F1000
G1 X30.640 Y239.065 F1000
G1 X32.115 Y239.065 F1000
G0 Z3.0 ; Pen up

G0 X33.295 Y239.065 F3000 ; Travel to line 156
G0 Z0.0 ; Pen down
G1 X33.000 Y238.770 F1000
G1 X33.000 Y238.180 F1000
G1 X33.295 Y237.885 F1000
G1 X33.590 Y237.885 F1000
G1 X33.885 Y237.590 F1000
G1 X34.180 Y237.590 F1000
G1 X34.770 Y237.000 F1000
G1 X34.180 Y236.410 F1000
G1 X33.295 Y236.410 F1000
G1 X33.000 Y236.705 F1000
G1 X33.295 Y236.410 F1000
G1 X34.475 Y236.410 F1000
G1 X34.770 Y236.705 F1000
G1 X34.770 Y237.295 F1000
G1 X34.475 Y237.590 F1000
G1 X34.180 Y237.590 F1000
G1 X33.885 Y237.885 F1000
G1 X33.590 Y237.885 F1000
G1 X33.000 Y238.475 F1000
G1 X33.590 Y239.065 F1000
G1 X34.475 Y239.065 F1000
G0 Z3.0 ; Pen up

G0 X35.950 Y238.180 F3000 ; Travel to line 157
G0 Z0.0 ; Pen down
G1 X35.950 Y237.885 F1000
G0 Z3.0 ; Pen up

G0 X35.950 Y236.705 F3000 ; Travel to line 158
G0 Z0.0 ; Pen down
G1 X35.950 Y236.410 F1000
G0 Z3.0 ; Pen up

G0 X43.325 Y263.845 F3000 ; Travel to line 159
G0 Z0.0 ; Pen down
G1 X43.325 Y267.090 F1000
G0 Z3.0 ; Pen up

G0 X46.570 Y266.795 F3000 ; Travel to line 160
G0 Z0.0 ; Pen down
G1 X46.570 Y264.730 F1000
G1 X46.570 Y266.500 F1000
G1 X46.865 Y266.795 F1000
G1 X47.160 Y266.500 F1000
G1 X47.160 Y266.205 F1000
G1 X47.455 Y265.910 F1000
G1 X47.455 Y265.615 F1000
G1 X47.750 Y265.615 F1000
G1 X48.045 Y265.910 F1000
G1 X48.045 Y266.205 F1000
G1 X48.340 Y266.500 F1000
G1 X48.635 Y266.205 F1000
G1 X48.635 Y264.730 F1000
G1 X48.635 Y266.500 F1000
G1 X48.045 Y266.500 F1000
G1 X48.045 Y265.910 F1000
G1 X47.750 Y265.615 F1000
G1 X47.160 Y266.205 F1000
G1 X47.160 Y266.795 F1000
G0 Z3.0 ; Pen up

G0 X49.815 Y266.205 F3000 ; Travel to line 161
G0 Z0.0 ; Pen down
G1 X49.815 Y265.615 F1000
G1 X50.110 Y265.320 F1000
G1 X50.700 Y265.320 F1000
G1 X50.995 Y265.615 F1000
G1 X50.700 Y265.910 F1000
G1 X50.700 Y266.500 F1000
G1 X50.405 Y266.795 F1000
G1 X50.405 Y266.795 F1000
G1 X50.700 Y266.500 F1000
G1 X50.700 Y265.910 F1000
G1 X50.995 Y265.615 F1000
G1 X50.995 Y265.320 F1000
G1 X49.815 Y265.320 F1000
G1 X49.520 Y265.025 F1000
G1 X49.520 Y264.730 F1000
G1 X49.520 Y265.320 F1000
G1 X49.815 Y265.615 F1000
G1 X49.815 Y266.500 F1000
G1 X50.110 Y266.795 F1000
G0 Z3.0 ; Pen up

G0 X51.585 Y267.090 F3000 ; Travel to line 162
G0 Z0.0 ; Pen down
G1 X52.175 Y267.090 F1000
G1 X52.470 Y266.795 F1000
G1 X52.470 Y264.730 F1000
G1 X52.470 Y266.795 F1000
G1 X52.765 Y267.090 F1000
G1 X53.355 Y267.090 F1000
G0 Z3.0 ; Pen up

G0 X53.945 Y267.090 F3000 ; Travel to line 163
G0 Z0.0 ; Pen down
G1 X53.945 Y264.730 F1000
G1 X55.420 Y264.730 F1000
G1 X54.240 Y264.730 F1000
G1 X53.945 Y265.025 F1000
G1 X53.945 Y265.615 F1000
G1 X54.240 Y265.910 F1000
G1 X55.420 Y265.910 F1000
G1 X54.240 Y265.910 F1000
G1 X53.945 Y266.205 F1000
G1 X53.945 Y266.795 F1000
G1 X54.240 Y267.090 F1000
G1 X55.420 Y267.090 F1000
G0 Z3.0 ; Pen up

G0 X56.010 Y267.090 F3000 ; Travel to line 164
G0 Z0.0 ; Pen down
G1 X56.010 Y264.730 F1000
G1 X56.010 Y265.615 F1000
G1 X56.305 Y265.910 F1000
G1 X56.895 Y265.910 F1000
G1 X57.485 Y265.320 F1000
G1 X57.485 Y264.730 F1000
G1 X57.485 Y265.320 F1000
G1 X57.190 Y265.615 F1000
G1 X57.190 Y265.910 F1000
G1 X57.485 Y266.205 F1000
G1 X57.485 Y266.795 F1000
G1 X57.190 Y267.090 F1000
G0 Z3.0 ; Pen up

G0 X56.010 Y266.795 F3000 ; Travel to line 165
G0 Z0.0 ; Pen down
G1 X56.305 Y267.090 F1000
G1 X56.895 Y267.090 F1000
G1 X57.485 Y266.500 F1000
G1 X56.895 Y265.910 F1000
G1 X56.305 Y265.910 F1000
G1 X56.010 Y266.205 F1000
G0 Z3.0 ; Pen up

G0 X58.665 Y267.090 F3000 ; Travel to line 166
G0 Z0.0 ; Pen down
G1 X58.665 Y264.730 F1000
G0 Z3.0 ; Pen up

G0 X59.845 Y266.205 F3000 ; Travel to line 167
G0 Z0.0 ; Pen down
G1 X59.845 Y265.615 F1000
G1 X60.140 Y265.320 F1000
G1 X60.730 Y265.320 F1000
G1 X61.025 Y265.615 F1000
G1 X60.730 Y265.910 F1000
G1 X60.730 Y266.500 F1000
G1 X60.435 Y266.795 F1000
G1 X60.435 Y266.795 F1000
G1 X60.730 Y266.500 F1000
G1 X60.730 Y265.910 F1000
G1 X61.025 Y265.615 F1000
G1 X61.025 Y265.320 F1000
G1 X59.845 Y265.320 F1000
G1 X59.550 Y265.025 F1000
G1 X59.550 Y264.730 F1000
G1 X59.550 Y265.320 F1000
G1 X59.845 Y265.615 F1000
G1 X59.845 Y266.500 F1000
G1 X60.140 Y266.795 F1000
G0 Z3.0 ; Pen up

G0 X62.205 Y267.090 F3000 ; Travel to line 168
G0 Z0.0 ; Pen down
G1 X62.205 Y264.730 F1000
G1 X63.975 Y264.730 F1000
G1 X62.500 Y264.730 F1000
G1 X62.205 Y265.025 F1000
G0 Z3.0 ; Pen up

G0 X66.630 Y267.090 F3000 ; Travel to line 169
G0 Z0.0 ; Pen down
G1 X66.335 Y266.795 F1000
G1 X66.335 Y266.205 F1000
G1 X66.630 Y265.910 F1000
G1 X67.220 Y265.910 F1000
G1 X67.810 Y265.320 F1000
G1 X67.220 Y264.730 F1000
G1 X66.630 Y264.730 F1000
G1 X66.335 Y265.025 F1000
G1 X66.630 Y264.730 F1000
G1 X67.515 Y264.730 F1000
G1 X67.810 Y265.025 F1000
G1 X67.810 Y265.615 F1000
G1 X67.515 Y265.910 F1000
G1 X66.925 Y265.910 F1000
G1 X66.335 Y266.500 F1000
G1 X66.925 Y267.090 F1000
G1 X67.515 Y267.090 F1000
G0 Z3.0 ; Pen up

G0 X68.400 Y267.090 F3000 ; Travel to line 170
G0 Z0.0 ; Pen down
G1 X68.990 Y267.090 F1000
G1 X69.285 Y266.795 F1000
G1 X69.285 Y264.730 F1000
G1 X69.285 Y266.795 F1000
G1 X69.580 Y267.090 F1000
G1 X70.170 Y267.090 F1000
G0 Z3.0 ; Pen up

G0 X70.760 Y267.090 F3000 ; Travel to line 171
G0 Z0.0 ; Pen down
G1 X70.760 Y264.730 F1000
G1 X72.235 Y264.730 F1000
G1 X71.055 Y264.730 F1000
G1 X70.760 Y265.025 F1000
G1 X70.760 Y265.615 F1000
G1 X71.055 Y265.910 F1000
G1 X72.235 Y265.910 F1000
G1 X71.055 Y265.910 F1000
G1 X70.760 Y266.205 F1000
G1 X70.760 Y266.795 F1000
G1 X71.055 Y267.090 F1000
G1 X72.235 Y267.090 F1000
G0 Z3.0 ; Pen up

G0 X73.120 Y267.090 F3000 ; Travel to line 172
G0 Z0.0 ; Pen down
G1 X73.120 Y264.730 F1000
G1 X74.595 Y264.730 F1000
G1 X73.415 Y264.730 F1000
G1 X73.120 Y265.025 F1000
G1 X73.120 Y265.615 F1000
G1 X73.415 Y265.910 F1000
G1 X74.595 Y265.910 F1000
G1 X73.415 Y265.910 F1000
G1 X73.120 Y266.205 F1000
G1 X73.120 Y266.795 F1000
G1 X73.415 Y267.090 F1000
G1 X74.595 Y267.090 F1000
G0 Z3.0 ; Pen up

G0 X75.185 Y267.090 F3000 ; Travel to line 173
G0 Z0.0 ; Pen down
G1 X75.185 Y264.730 F1000
G1 X76.660 Y264.730 F1000
G1 X75.480 Y264.730 F1000
G1 X75.185 Y265.025 F1000
G0 Z3.0 ; Pen up

G0 X79.905 Y263.845 F3000 ; Travel to line 174
G0 Z0.0 ; Pen down
G1 X79.905 Y267.090 F1000
G0 Z3.0 ; Pen up

G0 X82.855 Y267.090 F3000 ; Travel to line 175
G0 Z0.0 ; Pen down
G1 X82.855 Y264.730 F1000
G1 X84.035 Y264.730 F1000
G1 X84.330 Y265.025 F1000
G1 X84.625 Y265.025 F1000
G1 X84.625 Y266.795 F1000
G1 X84.330 Y266.795 F1000
G1 X84.035 Y267.090 F1000
G0 Z3.0 ; Pen up

G0 X82.855 Y266.795 F3000 ; Travel to line 176
G0 Z0.0 ; Pen down
G1 X83.150 Y267.090 F1000
G1 X84.035 Y267.090 F1000
G1 X84.625 Y266.500 F1000
G1 X84.625 Y265.320 F1000
G1 X84.035 Y264.730 F1000
G1 X83.150 Y264.730 F1000
G1 X82.855 Y265.025 F1000
G0 Z3.0 ; Pen up

G0 X85.510 Y266.205 F3000 ; Travel to line 177
G0 Z0.0 ; Pen down
G1 X85.805 Y265.910 F1000
G1 X85.805 Y265.320 F1000
G1 X86.100 Y265.025 F1000
G1 X86.395 Y265.320 F1000
G1 X86.395 Y266.205 F1000
G1 X86.690 Y266.500 F1000
G1 X86.985 Y266.500 F1000
G1 X86.985 Y266.205 F1000
G1 X87.280 Y265.910 F1000
G1 X87.280 Y265.320 F1000
G1 X87.575 Y265.025 F1000
G1 X87.870 Y265.320 F1000
G1 X87.870 Y266.205 F1000
G1 X88.165 Y266.500 F1000
G1 X88.165 Y267.090 F1000
G1 X88.165 Y266.205 F1000
G1 X87.870 Y265.910 F1000
G1 X87.870 Y265.025 F1000
G1 X87.280 Y265.025 F1000
G1 X87.280 Y265.910 F1000
G1 X86.690 Y266.500 F1000
G1 X86.395 Y266.205 F1000
G1 X86.395 Y265.320 F1000
G1 X86.100 Y265.025 F1000
G1 X85.805 Y265.025 F1000
G1 X85.805 Y265.615 F1000
G1 X85.510 Y265.910 F1000
G1 X85.510 Y267.090 F1000
G0 Z3.0 ; Pen up

G0 X89.640 Y267.090 F3000 ; Travel to line 178
G0 Z0.0 ; Pen down
G1 X89.050 Y266.500 F1000
G1 X89.050 Y265.320 F1000
G1 X89.640 Y264.730 F1000
G1 X90.525 Y264.730 F1000
G1 X90.820 Y265.025 F1000
G1 X90.820 Y265.910 F1000
G1 X90.230 Y265.910 F1000
G1 X90.525 Y265.910 F1000
G1 X90.820 Y265.615 F1000
G1 X90.820 Y265.025 F1000
G1 X90.525 Y264.730 F1000
G1 X89.640 Y264.730 F1000
G1 X89.050 Y265.320 F1000
G1 X89.050 Y266.500 F1000
G1 X89.640 Y267.090 F1000
G1 X90.525 Y267.090 F1000
G1 X90.820 Y266.795 F1000
G1 X90.525 Y267.090 F1000
G0 Z3.0 ; Pen up

G0 X94.655 Y267.090 F3000 ; Travel to line 179
G0 Z0.0 ; Pen down
G1 X94.655 Y265.615 F1000
G1 X94.360 Y265.320 F1000
G1 X93.770 Y265.910 F1000
G1 X93.770 Y266.205 F1000
G1 X93.475 Y266.500 F1000
G1 X92.885 Y266.500 F1000
G1 X92.885 Y264.730 F1000
G1 X92.885 Y266.205 F1000
G1 X93.180 Y266.500 F1000
G1 X93.770 Y265.910 F1000
G1 X93.770 Y265.615 F1000
G1 X94.065 Y265.320 F1000
G1 X94.655 Y265.320 F1000
G0 Z3.0 ; Pen up

G0 X95.540 Y266.500 F3000 ; Travel to line 180
G0 Z0.0 ; Pen down
G1 X95.540 Y265.320 F1000
G1 X96.130 Y264.730 F1000
G1 X96.720 Y264.730 F1000
G1 X97.310 Y265.320 F1000
G1 X97.310 Y266.500 F1000
G1 X96.720 Y267.090 F1000
G1 X96.130 Y267.090 F1000
G1 X96.130 Y267.090 F1000
G1 X95.540 Y266.500 F1000
G1 X95.540 Y265.320 F1000
G1 X96.130 Y264.730 F1000
G1 X97.015 Y264.730 F1000
G1 X97.310 Y265.025 F1000
G1 X97.310 Y266.795 F1000
G1 X97.015 Y267.090 F1000
G0 Z3.0 ; Pen up

G0 X101.440 Y267.090 F3000 ; Travel to line 181
G0 Z0.0 ; Pen down
G1 X100.850 Y266.500 F1000
G1 X100.850 Y265.320 F1000
G1 X101.440 Y264.730 F1000
G1 X102.325 Y264.730 F1000
G1 X102.620 Y265.025 F1000
G1 X102.620 Y265.910 F1000
G1 X102.030 Y265.910 F1000
G1 X102.325 Y265.910 F1000
G1 X102.620 Y265.615 F1000
G1 X102.620 Y265.025 F1000
G1 X102.325 Y264.730 F1000
G1 X101.440 Y264.730 F1000
G1 X100.850 Y265.320 F1000
G1 X100.850 Y266.500 F1000
G1 X101.440 Y267.090 F1000
G1 X102.325 Y267.090 F1000
G1 X102.620 Y266.795 F1000
G1 X102.915 Y267.090 F1000
G1 X103.505 Y267.090 F1000
G1 X103.800 Y266.795 F1000
G1 X103.800 Y264.730 F1000
G1 X103.800 Y266.795 F1000
G1 X104.095 Y267.090 F1000
G1 X104.685 Y267.090 F1000
G1 X102.915 Y267.090 F1000
G1 X102.620 Y266.795 F1000
G1 X102.325 Y267.090 F1000
G0 Z3.0 ; Pen up

G0 X105.275 Y265.615 F3000 ; Travel to line 182
G0 Z0.0 ; Pen down
G1 X105.865 Y265.615 F1000
G0 Z3.0 ; Pen up

G0 X106.750 Y267.090 F3000 ; Travel to line 183
G0 Z0.0 ; Pen down
G1 X106.455 Y266.795 F1000
G1 X106.750 Y267.090 F1000
G1 X107.340 Y267.090 F1000
G1 X107.635 Y266.795 F1000
G1 X107.635 Y266.205 F1000
G1 X106.750 Y265.320 F1000
G1 X106.750 Y264.730 F1000
G1 X107.635 Y264.730 F1000
G1 X107.045 Y264.730 F1000
G1 X106.750 Y265.025 F1000
G1 X107.635 Y265.910 F1000
G1 X107.635 Y266.795 F1000
G1 X107.340 Y267.090 F1000
G0 Z3.0 ; Pen up

G0 X108.815 Y266.500 F3000 ; Travel to line 184
G0 Z0.0 ; Pen down
G1 X108.815 Y265.320 F1000
G1 X109.405 Y264.730 F1000
G1 X109.700 Y264.730 F1000
G1 X109.995 Y265.025 F1000
G1 X109.995 Y265.320 F1000
G1 X110.290 Y265.615 F1000
G1 X110.290 Y266.205 F1000
G1 X109.995 Y266.500 F1000
G1 X109.995 Y266.795 F1000
G1 X109.700 Y267.090 F1000
G1 X109.405 Y267.090 F1000
G0 Z3.0 ; Pen up

G0 X109.700 Y267.090 F3000 ; Travel to line 185
G0 Z0.0 ; Pen down
G1 X110.290 Y266.500 F1000
G1 X110.290 Y265.320 F1000
G1 X109.700 Y264.730 F1000
G1 X109.110 Y264.730 F1000
G1 X108.815 Y265.025 F1000
G1 X108.815 Y266.795 F1000
G1 X109.110 Y267.090 F1000
G0 Z3.0 ; Pen up

G0 X111.175 Y267.090 F3000 ; Travel to line 186
G0 Z0.0 ; Pen down
G1 X110.880 Y266.795 F1000
G1 X111.175 Y267.090 F1000
G1 X111.765 Y267.090 F1000
G1 X112.060 Y266.795 F1000
G1 X112.060 Y266.205 F1000
G1 X111.175 Y265.320 F1000
G1 X111.175 Y264.730 F1000
G1 X112.060 Y264.730 F1000
G1 X111.470 Y264.730 F1000
G1 X111.175 Y265.025 F1000
G1 X112.060 Y265.910 F1000
G1 X112.060 Y266.795 F1000
G1 X111.765 Y267.090 F1000
G0 Z3.0 ; Pen up

G0 X113.240 Y267.090 F3000 ; Travel to line 187
G0 Z0.0 ; Pen down
G1 X113.240 Y266.205 F1000
G1 X114.125 Y266.205 F1000
G1 X114.420 Y265.910 F1000
G1 X114.420 Y265.025 F1000
G1 X114.125 Y264.730 F1000
G1 X113.535 Y264.730 F1000
G1 X113.240 Y265.025 F1000
G1 X113.535 Y264.730 F1000
G1 X114.125 Y264.730 F1000
G1 X114.420 Y265.025 F1000
G1 X114.420 Y265.910 F1000
G1 X114.125 Y266.205 F1000
G1 X113.535 Y266.205 F1000
G1 X113.240 Y266.500 F1000
G1 X113.240 Y266.795 F1000
G1 X113.535 Y267.090 F1000
G1 X114.420 Y267.090 F1000
G0 Z3.0 ; Pen up

G0 X115.305 Y265.615 F3000 ; Travel to line 188
G0 Z0.0 ; Pen down
G1 X115.895 Y265.615 F1000
G0 Z3.0 ; Pen up

G0 X116.780 Y266.500 F3000 ; Travel to line 189
G0 Z0.0 ; Pen down
G1 X116.780 Y265.320 F1000
G1 X117.370 Y264.730 F1000
G1 X117.665 Y264.730 F1000
G1 X117.960 Y265.025 F1000
G1 X117.960 Y265.320 F1000
G1 X118.255 Y265.615 F1000
G1 X118.255 Y266.205 F1000
G1 X117.960 Y266.500 F1000
G1 X117.960 Y266.795 F1000
G1 X117.665 Y267.090 F1000
G1 X117.370 Y267.090 F1000
G0 Z3.0 ; Pen up

G0 X117.075 Y267.090 F3000 ; Travel to line 190
G0 Z0.0 ; Pen down
G1 X116.780 Y266.795 F1000
G1 X116.780 Y265.025 F1000
G1 X117.075 Y264.730 F1000
G1 X117.665 Y264.730 F1000
G1 X118.255 Y265.320 F1000
G1 X118.255 Y266.500 F1000
G1 X117.665 Y267.090 F1000
G0 Z3.0 ; Pen up

G0 X118.845 Y266.500 F3000 ; Travel to line 191
G0 Z0.0 ; Pen down
G1 X118.845 Y265.320 F1000
G1 X119.435 Y264.730 F1000
G1 X119.730 Y264.730 F1000
G1 X120.025 Y265.025 F1000
G1 X120.025 Y265.320 F1000
G1 X120.320 Y265.615 F1000
G1 X120.320 Y266.205 F1000
G1 X120.025 Y266.500 F1000
G1 X120.025 Y266.795 F1000
G1 X119.730 Y267.090 F1000
G1 X119.435 Y267.090 F1000
G0 Z3.0 ; Pen up

G0 X119.140 Y267.090 F3000 ; Travel to line 192
G0 Z0.0 ; Pen down
G1 X118.845 Y266.795 F1000
G1 X118.845 Y265.025 F1000
G1 X119.140 Y264.730 F1000
G1 X119.730 Y264.730 F1000
G1 X120.320 Y265.320 F1000
G1 X120.320 Y266.500 F1000
G1 X119.730 Y267.090 F1000
G0 Z3.0 ; Pen up

G0 X121.205 Y267.090 F3000 ; Travel to line 193
G0 Z0.0 ; Pen down
G1 X121.500 Y267.090 F1000
G1 X121.795 Y266.795 F1000
G1 X121.795 Y265.025 F1000
G1 X121.500 Y264.730 F1000
G1 X122.680 Y264.730 F1000
G1 X122.090 Y264.730 F1000
G1 X121.795 Y265.025 F1000
G1 X121.795 Y267.090 F1000
G0 Z3.0 ; Pen up

G0 X122.385 Y278.005 F3000 ; Travel to line 194
G0 Z0.0 ; Pen down
G1 X122.090 Y277.710 F1000
G1 X121.795 Y277.710 F1000
G1 X121.205 Y277.120 F1000
G1 X121.205 Y276.825 F1000
G1 X120.910 Y276.530 F1000
G1 X120.910 Y275.055 F1000
G1 X121.205 Y274.760 F1000
G1 X121.205 Y274.465 F1000
G1 X121.795 Y273.875 F1000
G1 X122.090 Y273.875 F1000
G1 X122.385 Y273.580 F1000
G1 X123.860 Y273.580 F1000
G1 X124.155 Y273.875 F1000
G1 X124.450 Y273.875 F1000
G1 X124.450 Y275.645 F1000
G1 X123.565 Y275.645 F1000
G1 X124.155 Y275.645 F1000
G1 X124.450 Y275.350 F1000
G1 X124.450 Y274.170 F1000
G1 X123.860 Y273.580 F1000
G1 X122.385 Y273.580 F1000
G1 X122.090 Y273.875 F1000
G1 X121.795 Y273.875 F1000
G1 X121.500 Y274.170 F1000
G1 X121.500 Y274.465 F1000
G1 X120.910 Y275.055 F1000
G1 X120.910 Y276.530 F1000
G1 X121.500 Y277.120 F1000
G1 X121.500 Y277.415 F1000
G1 X121.795 Y277.710 F1000
G1 X122.090 Y277.710 F1000
G1 X122.385 Y278.005 F1000
G1 X124.155 Y278.005 F1000
G1 X124.745 Y277.415 F1000
G1 X124.155 Y278.005 F1000
G0 Z3.0 ; Pen up

G0 X126.810 Y278.005 F3000 ; Travel to line 195
G0 Z0.0 ; Pen down
G1 X126.810 Y273.875 F1000
G1 X127.105 Y273.580 F1000
G1 X129.170 Y273.580 F1000
G1 X127.105 Y273.580 F1000
G1 X126.810 Y273.875 F1000
G1 X126.810 Y275.645 F1000
G1 X127.105 Y275.940 F1000
G1 X128.875 Y275.940 F1000
G1 X127.105 Y275.940 F1000
G1 X126.810 Y276.235 F1000
G1 X126.810 Y277.710 F1000
G1 X127.105 Y278.005 F1000
G1 X128.875 Y278.005 F1000
G0 Z3.0 ; Pen up

G0 X132.415 Y276.825 F3000 ; Travel to line 196
G0 Z0.0 ; Pen down
G1 X132.415 Y276.235 F1000
G1 X132.120 Y275.940 F1000
G1 X132.120 Y275.350 F1000
G1 X131.825 Y275.055 F1000
G1 X131.825 Y274.760 F1000
G1 X132.120 Y274.465 F1000
G1 X134.185 Y274.465 F1000
G1 X134.480 Y274.760 F1000
G1 X134.480 Y275.645 F1000
G1 X134.185 Y275.940 F1000
G1 X134.185 Y276.530 F1000
G1 X133.890 Y276.825 F1000
G1 X133.890 Y277.120 F1000
G1 X133.595 Y277.415 F1000
G1 X133.005 Y277.415 F1000
G0 Z3.0 ; Pen up

G0 X132.710 Y277.415 F3000 ; Travel to line 197
G0 Z0.0 ; Pen down
G1 X132.710 Y277.120 F1000
G1 X132.415 Y276.825 F1000
G1 X132.415 Y276.235 F1000
G1 X132.120 Y275.940 F1000
G1 X132.120 Y275.350 F1000
G1 X131.825 Y275.055 F1000
G1 X131.825 Y274.760 F1000
G1 X131.530 Y274.465 F1000
G1 X131.530 Y273.875 F1000
G1 X131.530 Y274.170 F1000
G1 X131.825 Y274.465 F1000
G1 X134.185 Y274.465 F1000
G1 X134.480 Y274.760 F1000
G1 X134.775 Y274.465 F1000
G1 X134.775 Y274.170 F1000
G1 X135.070 Y273.875 F1000
G1 X134.775 Y274.170 F1000
G1 X134.775 Y274.465 F1000
G1 X134.480 Y274.760 F1000
G1 X134.480 Y275.645 F1000
G1 X134.185 Y275.940 F1000
G1 X134.185 Y276.530 F1000
G1 X133.890 Y276.825 F1000
G1 X133.890 Y277.120 F1000
G1 X133.595 Y277.415 F1000
G0 Z3.0 ; Pen up

G0 X137.135 Y277.710 F3000 ; Travel to line 198
G0 Z0.0 ; Pen down
G1 X137.430 Y278.005 F1000
G1 X138.905 Y278.005 F1000
G1 X139.495 Y277.415 F1000
G1 X139.495 Y275.940 F1000
G1 X139.200 Y275.645 F1000
G1 X137.430 Y275.645 F1000
G1 X137.135 Y275.940 F1000
G0 Z3.0 ; Pen up

G0 X137.135 Y278.005 F3000 ; Travel to line 199
G0 Z0.0 ; Pen down
G1 X137.135 Y274.170 F1000
G1 X137.135 Y275.350 F1000
G1 X137.430 Y275.645 F1000
G1 X139.200 Y275.645 F1000
G1 X139.495 Y275.350 F1000
G1 X139.495 Y274.760 F1000
G1 X139.790 Y274.465 F1000
G1 X139.790 Y274.170 F1000
G1 X140.085 Y273.875 F1000
G1 X140.085 Y273.580 F1000
G1 X140.380 Y273.580 F1000
G1 X140.675 Y273.285 F1000
G1 X139.790 Y274.170 F1000
G1 X139.790 Y274.760 F1000
G1 X139.495 Y275.055 F1000
G1 X139.495 Y275.350 F1000
G1 X139.200 Y275.645 F1000
G1 X139.495 Y275.940 F1000
G1 X139.495 Y277.710 F1000
G1 X139.200 Y278.005 F1000
G0 Z3.0 ; Pen up

G0 X144.215 Y278.005 F3000 ; Travel to line 200
G0 Z0.0 ; Pen down
G1 X145.690 Y278.005 F1000
G1 X145.985 Y277.710 F1000
G1 X145.985 Y273.875 F1000
G1 X145.985 Y277.710 F1000
G1 X146.280 Y278.005 F1000
G1 X147.755 Y278.005 F1000
G0 Z3.0 ; Pen up

G0 X149.820 Y278.005 F3000 ; Travel to line 201
G0 Z0.0 ; Pen down
G1 X149.820 Y274.170 F1000
G1 X149.820 Y275.350 F1000
G1 X150.115 Y275.645 F1000
G1 X151.885 Y275.645 F1000
G1 X152.180 Y275.350 F1000
G1 X152.180 Y274.760 F1000
G1 X152.475 Y274.465 F1000
G1 X152.475 Y274.170 F1000
G1 X152.770 Y273.875 F1000
G1 X152.770 Y273.580 F1000
G1 X153.065 Y273.580 F1000
G1 X153.360 Y273.285 F1000
G1 X152.475 Y274.170 F1000
G1 X152.475 Y274.760 F1000
G1 X152.180 Y275.055 F1000
G1 X152.180 Y275.350 F1000
G1 X151.885 Y275.645 F1000
G1 X152.180 Y275.940 F1000
G1 X152.180 Y277.710 F1000
G1 X151.885 Y278.005 F1000
G0 Z3.0 ; Pen up

G0 X149.820 Y277.710 F3000 ; Travel to line 202
G0 Z0.0 ; Pen down
G1 X150.115 Y278.005 F1000
G1 X151.590 Y278.005 F1000
G1 X152.180 Y277.415 F1000
G1 X152.180 Y275.940 F1000
G1 X151.885 Y275.645 F1000
G1 X150.115 Y275.645 F1000
G1 X149.820 Y275.940 F1000
G0 Z3.0 ; Pen up

G0 X156.015 Y276.825 F3000 ; Travel to line 203
G0 Z0.0 ; Pen down
G1 X156.015 Y276.235 F1000
G1 X155.720 Y275.940 F1000
G1 X155.720 Y275.350 F1000
G1 X155.425 Y275.055 F1000
G1 X155.425 Y274.760 F1000
G1 X155.720 Y274.465 F1000
G1 X157.785 Y274.465 F1000
G1 X158.080 Y274.760 F1000
G1 X158.080 Y275.645 F1000
G1 X157.785 Y275.940 F1000
G1 X157.785 Y276.530 F1000
G1 X157.490 Y276.825 F1000
G1 X157.490 Y277.120 F1000
G1 X157.195 Y277.415 F1000
G1 X156.605 Y277.415 F1000
G0 Z3.0 ; Pen up

G0 X156.310 Y277.415 F3000 ; Travel to line 204
G0 Z0.0 ; Pen down
G1 X156.310 Y277.120 F1000
G1 X156.015 Y276.825 F1000
G1 X156.015 Y276.235 F1000
G1 X155.720 Y275.940 F1000
G1 X155.720 Y275.350 F1000
G1 X155.425 Y275.055 F1000
G1 X155.425 Y274.760 F1000
G1 X155.130 Y274.465 F1000
G1 X155.130 Y273.875 F1000
G1 X155.130 Y274.170 F1000
G1 X155.425 Y274.465 F1000
G1 X157.785 Y274.465 F1000
G1 X158.080 Y274.760 F1000
G1 X158.375 Y274.465 F1000
G1 X158.375 Y274.170 F1000
G1 X158.670 Y273.875 F1000
G1 X158.375 Y274.170 F1000
G1 X158.375 Y274.465 F1000
G1 X158.080 Y274.760 F1000
G1 X158.080 Y275.645 F1000
G1 X157.785 Y275.940 F1000
G1 X157.785 Y276.530 F1000
G1 X157.490 Y276.825 F1000
G1 X157.490 Y277.120 F1000
G1 X157.195 Y277.415 F1000
G0 Z3.0 ; Pen up

G0 X160.735 Y277.710 F3000 ; Travel to line 205
G0 Z0.0 ; Pen down
G1 X160.735 Y274.170 F1000
G0 Z3.0 ; Pen up

G0 X166.635 Y274.465 F3000 ; Travel to line 206
G0 Z0.0 ; Pen down
G1 X166.340 Y274.465 F1000
G1 X166.045 Y274.760 F1000
G1 X165.750 Y274.760 F1000
G1 X165.160 Y275.350 F1000
G1 X165.160 Y275.645 F1000
G1 X164.275 Y276.530 F1000
G1 X163.980 Y276.530 F1000
G1 X163.685 Y276.825 F1000
G1 X163.390 Y276.530 F1000
G1 X163.390 Y274.170 F1000
G1 X163.390 Y276.825 F1000
G1 X163.685 Y276.825 F1000
G1 X163.980 Y276.530 F1000
G1 X164.275 Y276.530 F1000
G1 X164.570 Y276.235 F1000
G1 X164.865 Y276.235 F1000
G1 X164.865 Y275.940 F1000
G1 X165.160 Y275.645 F1000
G1 X165.160 Y275.350 F1000
G1 X165.750 Y274.760 F1000
G1 X166.045 Y274.760 F1000
G1 X166.340 Y274.465 F1000
G1 X166.635 Y274.760 F1000
G1 X166.635 Y277.710 F1000
G0 Z3.0 ; Pen up

G0 X172.535 Y276.825 F3000 ; Travel to line 207
G0 Z0.0 ; Pen down
G1 X172.535 Y276.235 F1000
G1 X172.240 Y275.940 F1000
G1 X172.240 Y275.350 F1000
G1 X171.945 Y275.055 F1000
G1 X171.945 Y274.760 F1000
G1 X172.240 Y274.465 F1000
G1 X174.305 Y274.465 F1000
G1 X174.600 Y274.760 F1000
G1 X174.600 Y275.645 F1000
G1 X174.305 Y275.940 F1000
G1 X174.305 Y276.530 F1000
G1 X174.010 Y276.825 F1000
G1 X174.010 Y277.120 F1000
G1 X173.715 Y277.415 F1000
G1 X173.125 Y277.415 F1000
G0 Z3.0 ; Pen up

G0 X172.830 Y277.415 F3000 ; Travel to line 208
G0 Z0.0 ; Pen down
G1 X172.830 Y277.120 F1000
G1 X172.535 Y276.825 F1000
G1 X172.535 Y276.235 F1000
G1 X172.240 Y275.940 F1000
G1 X172.240 Y275.350 F1000
