; Blueprint to G-code
; Input: test_images/test1_simple_box.png
; Generated with blueprint2gcode.py

G21 ; Set units to millimeters
G90 ; Absolute positioning
G0 Z3.0 ; Pen up
G0 X0 Y0 ; Move to origin

G0 X62.992 Y51.150 F3000 ; Travel to line 1
G0 Z0.0 ; Pen down
G1 X63.483 Y50.658 F1000
G1 X354.058 Y50.658 F1000
G1 X354.550 Y51.150 F1000
G1 X354.550 Y52.133 F1000
G1 X354.058 Y52.625 F1000
G1 X353.567 Y52.625 F1000
G1 X352.583 Y53.608 F1000
G1 X352.092 Y53.608 F1000
G1 X351.108 Y54.592 F1000
G1 X350.617 Y54.592 F1000
G1 X349.633 Y55.575 F1000
G1 X349.142 Y55.575 F1000
G1 X348.158 Y56.558 F1000
G1 X347.667 Y56.558 F1000
G1 X346.683 Y57.542 F1000
G1 X346.192 Y57.542 F1000
G1 X345.208 Y58.525 F1000
G1 X344.717 Y58.525 F1000
G1 X343.733 Y59.508 F1000
G1 X343.242 Y59.508 F1000
G1 X342.258 Y60.492 F1000
G1 X341.767 Y60.492 F1000
G1 X340.783 Y61.475 F1000
G1 X340.292 Y61.475 F1000
G1 X339.308 Y62.458 F1000
G1 X338.817 Y62.458 F1000
G1 X337.833 Y63.442 F1000
G1 X337.342 Y63.442 F1000
G1 X336.358 Y64.425 F1000
G1 X335.867 Y64.425 F1000
G1 X334.883 Y65.408 F1000
G1 X334.392 Y65.408 F1000
G1 X333.408 Y66.392 F1000
G1 X332.917 Y66.392 F1000
G1 X331.933 Y67.375 F1000
G1 X331.442 Y67.375 F1000
G1 X330.458 Y68.358 F1000
G1 X329.967 Y68.358 F1000
G1 X328.983 Y69.342 F1000
G1 X328.492 Y69.342 F1000
G1 X327.508 Y70.325 F1000
G1 X327.017 Y70.325 F1000
G1 X326.033 Y71.308 F1000
G1 X325.542 Y71.308 F1000
G1 X324.558 Y72.292 F1000
G1 X324.067 Y72.292 F1000
G1 X323.083 Y73.275 F1000
G1 X322.592 Y73.275 F1000
G1 X321.608 Y74.258 F1000
G1 X321.117 Y74.258 F1000
G1 X320.133 Y75.242 F1000
G1 X319.642 Y75.242 F1000
G1 X318.658 Y76.225 F1000
G1 X318.167 Y76.225 F1000
G1 X317.183 Y77.208 F1000
G1 X316.692 Y77.208 F1000
G1 X315.708 Y78.192 F1000
G1 X315.217 Y78.192 F1000
G1 X314.233 Y79.175 F1000
G1 X313.742 Y79.175 F1000
G1 X312.758 Y80.158 F1000
G1 X312.267 Y80.158 F1000
G1 X311.283 Y81.142 F1000
G1 X310.792 Y81.142 F1000
G1 X309.808 Y82.125 F1000
G1 X309.317 Y82.125 F1000
G1 X308.333 Y83.108 F1000
G1 X307.842 Y83.108 F1000
G1 X306.858 Y84.092 F1000
G1 X306.367 Y84.092 F1000
G1 X305.383 Y85.075 F1000
G1 X304.892 Y85.075 F1000
G1 X303.908 Y86.058 F1000
G1 X303.417 Y86.058 F1000
G1 X302.433 Y87.042 F1000
G1 X301.942 Y87.042 F1000
G1 X300.958 Y88.025 F1000
G1 X300.467 Y88.025 F1000
G1 X299.483 Y89.008 F1000
G1 X298.992 Y89.008 F1000
G1 X298.008 Y89.992 F1000
G1 X297.517 Y89.992 F1000
G1 X296.533 Y90.975 F1000
G1 X296.042 Y90.975 F1000
G1 X295.058 Y91.958 F1000
G1 X294.567 Y91.958 F1000
G1 X293.583 Y92.942 F1000
G1 X293.092 Y92.942 F1000
G1 X292.108 Y93.925 F1000
G1 X291.617 Y93.925 F1000
G1 X290.633 Y94.908 F1000
G1 X290.142 Y94.908 F1000
G1 X289.158 Y95.892 F1000
G1 X288.667 Y95.892 F1000
G1 X287.683 Y96.875 F1000
G1 X287.192 Y96.875 F1000
G1 X286.208 Y97.858 F1000
G1 X285.717 Y97.858 F1000
G1 X284.733 Y98.842 F1000
G1 X284.242 Y98.842 F1000
G1 X283.258 Y99.825 F1000
G1 X282.767 Y99.825 F1000
G1 X281.783 Y100.808 F1000
G1 X281.292 Y100.808 F1000
G1 X280.308 Y101.792 F1000
G1 X279.817 Y101.792 F1000
G1 X278.833 Y102.775 F1000
G1 X278.342 Y102.775 F1000
G1 X277.358 Y103.758 F1000
G1 X276.867 Y103.758 F1000
G1 X275.883 Y104.742 F1000
G1 X275.392 Y104.742 F1000
G1 X274.408 Y105.725 F1000
G1 X273.917 Y105.725 F1000
G1 X272.933 Y106.708 F1000
G1 X272.442 Y106.708 F1000
G1 X271.458 Y107.692 F1000
G1 X270.967 Y107.692 F1000
G1 X269.983 Y108.675 F1000
G1 X269.492 Y108.675 F1000
G1 X268.508 Y109.658 F1000
G1 X268.017 Y109.658 F1000
G1 X267.033 Y110.642 F1000
G1 X266.542 Y110.642 F1000
G1 X265.558 Y111.625 F1000
G1 X265.067 Y111.625 F1000
G1 X264.083 Y112.608 F1000
G1 X263.592 Y112.608 F1000
G1 X262.608 Y113.592 F1000
G1 X262.117 Y113.592 F1000
G1 X261.133 Y114.575 F1000
G1 X260.642 Y114.575 F1000
G1 X259.658 Y115.558 F1000
G1 X259.167 Y115.558 F1000
G1 X258.183 Y116.542 F1000
G1 X257.692 Y116.542 F1000
G1 X256.708 Y117.525 F1000
G1 X256.217 Y117.525 F1000
G1 X255.233 Y118.508 F1000
G1 X254.742 Y118.508 F1000
G1 X253.758 Y119.492 F1000
G1 X253.267 Y119.492 F1000
G1 X252.283 Y120.475 F1000
G1 X251.792 Y120.475 F1000
G1 X250.808 Y121.458 F1000
G1 X250.317 Y121.458 F1000
G1 X249.333 Y122.442 F1000
G1 X248.842 Y122.442 F1000
G1 X247.858 Y123.425 F1000
G1 X247.367 Y123.425 F1000
G1 X246.383 Y124.408 F1000
G1 X245.892 Y124.408 F1000
G1 X244.908 Y125.392 F1000
G1 X244.417 Y125.392 F1000
G1 X243.433 Y126.375 F1000
G1 X242.942 Y126.375 F1000
G1 X241.958 Y127.358 F1000
G1 X241.467 Y127.358 F1000
G1 X240.483 Y128.342 F1000
G1 X239.992 Y128.342 F1000
G1 X239.008 Y129.325 F1000
G1 X238.517 Y129.325 F1000
G1 X237.533 Y130.308 F1000
G1 X237.042 Y130.308 F1000
G1 X236.058 Y131.292 F1000
G1 X235.567 Y131.292 F1000
G1 X234.583 Y132.275 F1000
G1 X234.092 Y132.275 F1000
G1 X233.108 Y133.258 F1000
G1 X232.617 Y133.258 F1000
G1 X231.633 Y134.242 F1000
G1 X231.142 Y134.242 F1000
G1 X230.158 Y135.225 F1000
G1 X229.667 Y135.225 F1000
G1 X228.683 Y136.208 F1000
G1 X228.192 Y136.208 F1000
G1 X227.208 Y137.192 F1000
G1 X226.717 Y137.192 F1000
G1 X225.733 Y138.175 F1000
G1 X225.242 Y138.175 F1000
G1 X224.258 Y139.158 F1000
G1 X223.767 Y139.158 F1000
G1 X222.783 Y140.142 F1000
G1 X222.292 Y140.142 F1000
G1 X221.308 Y141.125 F1000
G1 X220.817 Y141.125 F1000
G1 X219.833 Y142.108 F1000
G1 X219.342 Y142.108 F1000
G1 X218.358 Y143.092 F1000
G1 X217.867 Y143.092 F1000
G1 X216.883 Y144.075 F1000
G1 X216.392 Y144.075 F1000
G1 X215.408 Y145.058 F1000
G1 X214.917 Y145.058 F1000
G1 X213.933 Y146.042 F1000
G1 X213.442 Y146.042 F1000
G1 X212.458 Y147.025 F1000
G1 X212.458 Y147.517 F1000
G1 X211.967 Y148.008 F1000
G1 X210.983 Y148.008 F1000
G1 X210.000 Y147.025 F1000
G1 X210.000 Y99.825 F1000
G1 X210.000 Y147.025 F1000
G1 X210.492 Y147.517 F1000
G1 X210.492 Y148.008 F1000
G1 X209.508 Y148.992 F1000
G1 X209.017 Y148.992 F1000
G1 X208.525 Y148.500 F1000
G1 X161.325 Y148.500 F1000
G1 X208.033 Y148.500 F1000
G1 X208.525 Y148.992 F1000
G1 X208.525 Y149.483 F1000
G1 X208.033 Y149.975 F1000
G1 X207.542 Y149.975 F1000
G1 X206.558 Y150.958 F1000
G1 X206.067 Y150.958 F1000
G1 X205.083 Y151.942 F1000
G1 X204.592 Y151.942 F1000
G1 X203.608 Y152.925 F1000
G1 X203.117 Y152.925 F1000
G1 X202.133 Y153.908 F1000
G1 X201.642 Y153.908 F1000
G1 X200.658 Y154.892 F1000
G1 X200.167 Y154.892 F1000
G1 X199.183 Y155.875 F1000
G1 X198.692 Y155.875 F1000
G1 X197.708 Y156.858 F1000
G1 X197.217 Y156.858 F1000
G1 X196.233 Y157.842 F1000
G1 X195.742 Y157.842 F1000
G1 X194.758 Y158.825 F1000
G1 X194.267 Y158.825 F1000
G1 X193.283 Y159.808 F1000
G1 X192.792 Y159.808 F1000
G1 X191.808 Y160.792 F1000
G1 X191.317 Y160.792 F1000
G1 X190.333 Y161.775 F1000
G1 X189.842 Y161.775 F1000
G1 X188.858 Y162.758 F1000
G1 X188.367 Y162.758 F1000
G1 X187.383 Y163.742 F1000
G1 X186.892 Y163.742 F1000
G1 X185.908 Y164.725 F1000
G1 X185.417 Y164.725 F1000
G1 X184.433 Y165.708 F1000
G1 X183.942 Y165.708 F1000
G1 X182.958 Y166.692 F1000
G1 X182.467 Y166.692 F1000
G1 X181.483 Y167.675 F1000
G1 X180.992 Y167.675 F1000
G1 X180.008 Y168.658 F1000
G1 X179.517 Y168.658 F1000
G1 X178.533 Y169.642 F1000
G1 X178.042 Y169.642 F1000
G1 X177.058 Y170.625 F1000
G1 X176.567 Y170.625 F1000
G1 X175.583 Y171.608 F1000
G1 X175.092 Y171.608 F1000
G1 X174.108 Y172.592 F1000
G1 X173.617 Y172.592 F1000
G1 X172.633 Y173.575 F1000
G1 X172.142 Y173.575 F1000
G1 X171.158 Y174.558 F1000
G1 X170.667 Y174.558 F1000
G1 X169.683 Y175.542 F1000
G1 X169.192 Y175.542 F1000
G1 X168.208 Y176.525 F1000
G1 X167.717 Y176.525 F1000
G1 X166.733 Y177.508 F1000
G1 X166.242 Y177.508 F1000
G1 X165.258 Y178.492 F1000
G1 X164.767 Y178.492 F1000
G1 X163.783 Y179.475 F1000
G1 X163.292 Y179.475 F1000
G1 X162.308 Y180.458 F1000
G1 X161.817 Y180.458 F1000
G1 X160.833 Y181.442 F1000
G1 X160.342 Y181.442 F1000
G1 X159.358 Y182.425 F1000
G1 X158.867 Y182.425 F1000
G1 X157.883 Y183.408 F1000
G1 X157.392 Y183.408 F1000
G1 X156.408 Y184.392 F1000
G1 X155.917 Y184.392 F1000
G1 X154.933 Y185.375 F1000
G1 X154.442 Y185.375 F1000
G1 X153.458 Y186.358 F1000
G1 X152.967 Y186.358 F1000
G1 X151.983 Y187.342 F1000
G1 X151.492 Y187.342 F1000
G1 X150.508 Y188.325 F1000
G1 X150.017 Y188.325 F1000
G1 X149.033 Y189.308 F1000
G1 X148.542 Y189.308 F1000
G1 X147.558 Y190.292 F1000
G1 X147.067 Y190.292 F1000
G1 X146.083 Y191.275 F1000
G1 X145.592 Y191.275 F1000
G1 X144.608 Y192.258 F1000
G1 X144.117 Y192.258 F1000
G1 X143.133 Y193.242 F1000
G1 X142.642 Y193.242 F1000
G1 X141.658 Y194.225 F1000
G1 X141.167 Y194.225 F1000
G1 X140.183 Y195.208 F1000
G1 X139.692 Y195.208 F1000
G1 X138.708 Y196.192 F1000
G1 X138.217 Y196.192 F1000
G1 X137.233 Y197.175 F1000
G1 X136.742 Y197.175 F1000
G1 X135.758 Y198.158 F1000
G1 X135.267 Y198.158 F1000
G1 X134.283 Y199.142 F1000
G1 X133.792 Y199.142 F1000
G1 X132.808 Y200.125 F1000
G1 X132.317 Y200.125 F1000
G1 X131.333 Y201.108 F1000
G1 X130.842 Y201.108 F1000
G1 X129.858 Y202.092 F1000
G1 X129.367 Y202.092 F1000
G1 X128.383 Y203.075 F1000
G1 X127.892 Y203.075 F1000
G1 X126.908 Y204.058 F1000
G1 X126.417 Y204.058 F1000
G1 X125.433 Y205.042 F1000
G1 X124.942 Y205.042 F1000
G1 X123.958 Y206.025 F1000
G1 X123.467 Y206.025 F1000
G1 X122.483 Y207.008 F1000
G1 X121.992 Y207.008 F1000
G1 X121.008 Y207.992 F1000
G1 X120.517 Y207.992 F1000
G1 X119.533 Y208.975 F1000
G1 X119.042 Y208.975 F1000
G1 X118.058 Y209.958 F1000
G1 X117.567 Y209.958 F1000
G1 X116.583 Y210.942 F1000
G1 X116.092 Y210.942 F1000
G1 X115.108 Y211.925 F1000
G1 X114.617 Y211.925 F1000
G1 X113.633 Y212.908 F1000
G1 X113.142 Y212.908 F1000
G1 X112.158 Y213.892 F1000
G1 X111.667 Y213.892 F1000
G1 X110.683 Y214.875 F1000
G1 X110.192 Y214.875 F1000
G1 X109.208 Y215.858 F1000
G1 X108.717 Y215.858 F1000
G1 X107.733 Y216.842 F1000
G1 X107.242 Y216.842 F1000
G1 X106.258 Y217.825 F1000
G1 X105.767 Y217.825 F1000
G1 X104.783 Y218.808 F1000
G1 X104.292 Y218.808 F1000
G1 X103.308 Y219.792 F1000
G1 X102.817 Y219.792 F1000
G1 X101.833 Y220.775 F1000
G1 X101.342 Y220.775 F1000
G1 X100.358 Y221.758 F1000
G1 X99.867 Y221.758 F1000
G1 X98.883 Y222.742 F1000
G1 X98.392 Y222.742 F1000
G1 X97.408 Y223.725 F1000
G1 X96.917 Y223.725 F1000
G1 X95.933 Y224.708 F1000
G1 X95.442 Y224.708 F1000
G1 X94.458 Y225.692 F1000
G1 X93.967 Y225.692 F1000
G1 X92.983 Y226.675 F1000
G1 X92.492 Y226.675 F1000
G1 X91.508 Y227.658 F1000
G1 X91.017 Y227.658 F1000
G1 X90.033 Y228.642 F1000
G1 X89.542 Y228.642 F1000
G1 X88.558 Y229.625 F1000
G1 X88.067 Y229.625 F1000
G1 X87.083 Y230.608 F1000
G1 X86.592 Y230.608 F1000
G1 X85.608 Y231.592 F1000
G1 X85.117 Y231.592 F1000
G1 X84.133 Y232.575 F1000
G1 X83.642 Y232.575 F1000
G1 X82.658 Y233.558 F1000
G1 X82.167 Y233.558 F1000
G1 X81.183 Y234.542 F1000
G1 X80.692 Y234.542 F1000
G1 X79.708 Y235.525 F1000
G1 X79.217 Y235.525 F1000
G1 X78.233 Y236.508 F1000
G1 X77.742 Y236.508 F1000
G1 X76.758 Y237.492 F1000
G1 X76.267 Y237.492 F1000
G1 X75.283 Y238.475 F1000
G1 X74.792 Y238.475 F1000
G1 X73.808 Y239.458 F1000
G1 X73.317 Y239.458 F1000
G1 X72.333 Y240.442 F1000
G1 X71.842 Y240.442 F1000
G1 X70.858 Y241.425 F1000
G1 X70.367 Y241.425 F1000
G1 X69.383 Y242.408 F1000
G1 X68.892 Y242.408 F1000
G1 X67.908 Y243.392 F1000
G1 X67.417 Y243.392 F1000
G1 X66.433 Y244.375 F1000
G1 X65.942 Y244.375 F1000
G1 X65.942 Y244.867 F1000
G1 X64.958 Y245.850 F1000
G1 X63.483 Y245.850 F1000
G1 X62.992 Y245.358 F1000
G0 Z3.0 ; Pen up

G0 X65.450 Y245.358 F3000 ; Travel to line 2
G0 Z0.0 ; Pen down
G1 X66.925 Y243.883 F1000
G1 X67.417 Y243.883 F1000
G1 X68.400 Y242.900 F1000
G1 X68.892 Y242.900 F1000
G1 X69.875 Y241.917 F1000
G1 X70.367 Y241.917 F1000
G1 X71.350 Y240.933 F1000
G1 X71.842 Y240.933 F1000
G1 X72.825 Y239.950 F1000
G1 X73.317 Y239.950 F1000
G1 X74.300 Y238.967 F1000
G1 X74.792 Y238.967 F1000
G1 X75.775 Y237.983 F1000
G1 X76.267 Y237.983 F1000
G1 X77.250 Y237.000 F1000
G1 X77.742 Y237.000 F1000
G1 X78.725 Y236.017 F1000
G1 X79.217 Y236.017 F1000
G1 X80.200 Y235.033 F1000
G1 X80.692 Y235.033 F1000
G1 X81.675 Y234.050 F1000
G1 X82.167 Y234.050 F1000
G1 X83.150 Y233.067 F1000
G1 X83.642 Y233.067 F1000
G1 X84.625 Y232.083 F1000
G1 X85.117 Y232.083 F1000
G1 X86.100 Y231.100 F1000
G1 X86.592 Y231.100 F1000
G1 X87.575 Y230.117 F1000
G1 X88.067 Y230.117 F1000
G1 X89.050 Y229.133 F1000
G1 X89.542 Y229.133 F1000
G1 X90.525 Y228.150 F1000
G1 X91.017 Y228.150 F1000
G1 X92.000 Y227.167 F1000
G1 X92.492 Y227.167 F1000
G1 X93.475 Y226.183 F1000
G1 X93.967 Y226.183 F1000
G1 X94.950 Y225.200 F1000
G1 X95.442 Y225.200 F1000
G1 X96.425 Y224.217 F1000
G1 X96.917 Y224.217 F1000
G1 X97.900 Y223.233 F1000
G1 X98.392 Y223.233 F1000
G1 X99.375 Y222.250 F1000
G1 X99.867 Y222.250 F1000
G1 X100.850 Y221.267 F1000
G1 X101.342 Y221.267 F1000
G1 X102.325 Y220.283 F1000
G1 X102.817 Y220.283 F1000
G1 X103.800 Y219.300 F1000
G1 X104.292 Y219.300 F1000
G1 X105.275 Y218.317 F1000
G1 X105.767 Y218.317 F1000
G1 X106.750 Y217.333 F1000
G1 X107.242 Y217.333 F1000
G1 X108.225 Y216.350 F1000
G1 X108.717 Y216.350 F1000
G1 X109.700 Y215.367 F1000
G1 X110.192 Y215.367 F1000
G1 X111.175 Y214.383 F1000
G1 X111.667 Y214.383 F1000
G1 X112.650 Y213.400 F1000
G1 X113.142 Y213.400 F1000
G1 X114.125 Y212.417 F1000
G1 X114.617 Y212.417 F1000
G1 X115.600 Y211.433 F1000
G1 X116.092 Y211.433 F1000
G1 X117.075 Y210.450 F1000
G1 X117.567 Y210.450 F1000
G1 X118.550 Y209.467 F1000
G1 X119.042 Y209.467 F1000
G1 X120.025 Y208.483 F1000
G1 X120.517 Y208.483 F1000
G1 X121.500 Y207.500 F1000
G1 X121.992 Y207.500 F1000
G1 X122.975 Y206.517 F1000
G1 X123.467 Y206.517 F1000
G1 X124.450 Y205.533 F1000
G1 X124.942 Y205.533 F1000
G1 X125.925 Y204.550 F1000
G1 X126.417 Y204.550 F1000
G1 X127.400 Y203.567 F1000
G1 X127.892 Y203.567 F1000
G1 X128.875 Y202.583 F1000
G1 X129.367 Y202.583 F1000
G1 X130.350 Y201.600 F1000
G1 X130.842 Y201.600 F1000
G1 X131.825 Y200.617 F1000
G1 X132.317 Y200.617 F1000
G1 X133.300 Y199.633 F1000
G1 X133.792 Y199.633 F1000
G1 X134.775 Y198.650 F1000
G1 X135.267 Y198.650 F1000
G1 X136.250 Y197.667 F1000
G1 X136.742 Y197.667 F1000
G1 X137.725 Y196.683 F1000
G1 X138.217 Y196.683 F1000
G1 X139.200 Y195.700 F1000
G1 X139.692 Y195.700 F1000
G1 X140.675 Y194.717 F1000
G1 X141.167 Y194.717 F1000
G1 X142.150 Y193.733 F1000
G1 X142.642 Y193.733 F1000
G1 X143.625 Y192.750 F1000
G1 X144.117 Y192.750 F1000
G1 X145.100 Y191.767 F1000
G1 X145.592 Y191.767 F1000
G1 X146.575 Y190.783 F1000
G1 X147.067 Y190.783 F1000
G1 X148.050 Y189.800 F1000
G1 X148.542 Y189.800 F1000
G1 X149.525 Y188.817 F1000
G1 X150.017 Y188.817 F1000
G1 X151.000 Y187.833 F1000
G1 X151.492 Y187.833 F1000
G1 X152.475 Y186.850 F1000
G1 X152.967 Y186.850 F1000
G1 X153.950 Y185.867 F1000
G1 X154.442 Y185.867 F1000
G1 X155.425 Y184.883 F1000
G1 X155.917 Y184.883 F1000
G1 X156.900 Y183.900 F1000
G1 X157.392 Y183.900 F1000
G1 X158.375 Y182.917 F1000
G1 X158.867 Y182.917 F1000
G1 X159.850 Y181.933 F1000
G1 X160.342 Y181.933 F1000
G1 X161.325 Y180.950 F1000
G1 X161.817 Y180.950 F1000
G1 X162.800 Y179.967 F1000
G1 X163.292 Y179.967 F1000
G1 X164.275 Y178.983 F1000
G1 X164.767 Y178.983 F1000
G1 X165.750 Y178.000 F1000
G1 X166.242 Y178.000 F1000
G1 X167.225 Y177.017 F1000
G1 X167.717 Y177.017 F1000
G1 X168.700 Y176.033 F1000
G1 X169.192 Y176.033 F1000
G1 X170.175 Y175.050 F1000
G1 X170.667 Y175.050 F1000
G1 X171.650 Y174.067 F1000
G1 X172.142 Y174.067 F1000
G1 X173.125 Y173.083 F1000
G1 X173.617 Y173.083 F1000
G1 X174.600 Y172.100 F1000
G1 X175.092 Y172.100 F1000
G1 X176.075 Y171.117 F1000
G1 X176.567 Y171.117 F1000
G1 X177.550 Y170.133 F1000
G1 X178.042 Y170.133 F1000
G1 X179.025 Y169.150 F1000
G1 X179.517 Y169.150 F1000
G1 X180.500 Y168.167 F1000
G1 X180.992 Y168.167 F1000
G1 X181.975 Y167.183 F1000
G1 X182.467 Y167.183 F1000
G1 X183.450 Y166.200 F1000
G1 X183.942 Y166.200 F1000
G1 X184.925 Y165.217 F1000
G1 X185.417 Y165.217 F1000
G1 X186.400 Y164.233 F1000
G1 X186.892 Y164.233 F1000
G1 X187.875 Y163.250 F1000
G1 X188.367 Y163.250 F1000
G1 X189.350 Y162.267 F1000
G1 X189.842 Y162.267 F1000
G1 X190.825 Y161.283 F1000
G1 X191.317 Y161.283 F1000
G1 X192.300 Y160.300 F1000
G1 X192.792 Y160.300 F1000
G1 X193.775 Y159.317 F1000
G1 X194.267 Y159.317 F1000
G1 X195.250 Y158.333 F1000
G1 X195.742 Y158.333 F1000
G1 X196.725 Y157.350 F1000
G1 X197.217 Y157.350 F1000
G1 X198.200 Y156.367 F1000
G1 X198.692 Y156.367 F1000
G1 X199.675 Y155.383 F1000
G1 X200.167 Y155.383 F1000
G1 X201.150 Y154.400 F1000
G1 X201.642 Y154.400 F1000
G1 X202.625 Y153.417 F1000
G1 X203.117 Y153.417 F1000
G1 X204.100 Y152.433 F1000
G1 X204.592 Y152.433 F1000
G1 X205.575 Y151.450 F1000
G1 X206.067 Y151.450 F1000
G1 X207.050 Y150.467 F1000
G1 X207.542 Y150.467 F1000
G1 X209.017 Y148.992 F1000
G1 X209.508 Y148.992 F1000
G1 X210.000 Y149.483 F1000
G1 X210.000 Y197.175 F1000
G1 X210.000 Y148.500 F1000
G1 X210.492 Y148.008 F1000
G1 X211.967 Y148.008 F1000
G1 X212.458 Y148.500 F1000
G1 X258.675 Y148.500 F1000
G1 X212.950 Y148.500 F1000
G1 X212.458 Y148.008 F1000
G1 X212.458 Y147.025 F1000
G1 X212.950 Y146.533 F1000
G1 X213.442 Y146.533 F1000
G1 X214.425 Y145.550 F1000
G1 X214.917 Y145.550 F1000
G1 X215.900 Y144.567 F1000
G1 X216.392 Y144.567 F1000
G1 X217.375 Y143.583 F1000
G1 X217.867 Y143.583 F1000
G1 X218.850 Y142.600 F1000
G1 X219.342 Y142.600 F1000
G1 X220.325 Y141.617 F1000
G1 X220.817 Y141.617 F1000
G1 X221.800 Y140.633 F1000
G1 X222.292 Y140.633 F1000
G1 X223.275 Y139.650 F1000
G1 X223.767 Y139.650 F1000
G1 X224.750 Y138.667 F1000
G1 X225.242 Y138.667 F1000
G1 X226.225 Y137.683 F1000
G1 X226.717 Y137.683 F1000
G1 X227.700 Y136.700 F1000
G1 X228.192 Y136.700 F1000
G1 X229.175 Y135.717 F1000
G1 X229.667 Y135.717 F1000
G1 X230.650 Y134.733 F1000
G1 X231.142 Y134.733 F1000
G1 X232.125 Y133.750 F1000
G1 X232.617 Y133.750 F1000
G1 X233.600 Y132.767 F1000
G1 X234.092 Y132.767 F1000
G1 X235.075 Y131.783 F1000
G1 X235.567 Y131.783 F1000
G1 X236.550 Y130.800 F1000
G1 X237.042 Y130.800 F1000
G1 X238.025 Y129.817 F1000
G1 X238.517 Y129.817 F1000
G1 X239.500 Y128.833 F1000
G1 X239.992 Y128.833 F1000
G1 X240.975 Y127.850 F1000
G1 X241.467 Y127.850 F1000
G1 X242.450 Y126.867 F1000
G1 X242.942 Y126.867 F1000
G1 X243.925 Y125.883 F1000
G1 X244.417 Y125.883 F1000
G1 X245.400 Y124.900 F1000
G1 X245.892 Y124.900 F1000
G1 X246.875 Y123.917 F1000
G1 X247.367 Y123.917 F1000
G1 X248.350 Y122.933 F1000
G1 X248.842 Y122.933 F1000
G1 X249.825 Y121.950 F1000
G1 X250.317 Y121.950 F1000
G1 X251.300 Y120.967 F1000
G1 X251.792 Y120.967 F1000
G1 X252.775 Y119.983 F1000
G1 X253.267 Y119.983 F1000
G1 X254.250 Y119.000 F1000
G1 X254.742 Y119.000 F1000
G1 X255.725 Y118.017 F1000
G1 X256.217 Y118.017 F1000
G1 X257.200 Y117.033 F1000
G1 X257.692 Y117.033 F1000
G1 X258.675 Y116.050 F1000
G1 X259.167 Y116.050 F1000
G1 X260.150 Y115.067 F1000
G1 X260.642 Y115.067 F1000
G1 X261.625 Y114.083 F1000
G1 X262.117 Y114.083 F1000
G1 X263.100 Y113.100 F1000
G1 X263.592 Y113.100 F1000
G1 X264.575 Y112.117 F1000
G1 X265.067 Y112.117 F1000
G1 X266.050 Y111.133 F1000
G1 X266.542 Y111.133 F1000
G1 X267.525 Y110.150 F1000
G1 X268.017 Y110.150 F1000
G1 X269.000 Y109.167 F1000
G1 X269.492 Y109.167 F1000
G1 X270.475 Y108.183 F1000
G1 X270.967 Y108.183 F1000
G1 X271.950 Y107.200 F1000
G1 X272.442 Y107.200 F1000
G1 X273.425 Y106.217 F1000
G1 X273.917 Y106.217 F1000
G1 X274.900 Y105.233 F1000
G1 X275.392 Y105.233 F1000
G1 X276.375 Y104.250 F1000
G1 X276.867 Y104.250 F1000
G1 X277.850 Y103.267 F1000
G1 X278.342 Y103.267 F1000
G1 X279.325 Y102.283 F1000
G1 X279.817 Y102.283 F1000
G1 X280.800 Y101.300 F1000
G1 X281.292 Y101.300 F1000
G1 X282.275 Y100.317 F1000
G1 X282.767 Y100.317 F1000
G1 X283.750 Y99.333 F1000
G1 X284.242 Y99.333 F1000
G1 X285.225 Y98.350 F1000
G1 X285.717 Y98.350 F1000
G1 X286.700 Y97.367 F1000
G1 X287.192 Y97.367 F1000
G1 X288.175 Y96.383 F1000
G1 X288.667 Y96.383 F1000
G1 X289.650 Y95.400 F1000
G1 X290.142 Y95.400 F1000
G1 X291.125 Y94.417 F1000
G1 X291.617 Y94.417 F1000
G1 X292.600 Y93.433 F1000
G1 X293.092 Y93.433 F1000
G1 X294.075 Y92.450 F1000
G1 X294.567 Y92.450 F1000
G1 X295.550 Y91.467 F1000
G1 X296.042 Y91.467 F1000
G1 X297.025 Y90.483 F1000
G1 X297.517 Y90.483 F1000
G1 X298.500 Y89.500 F1000
G1 X298.992 Y89.500 F1000
G1 X299.975 Y88.517 F1000
G1 X300.467 Y88.517 F1000
G1 X301.450 Y87.533 F1000
G1 X301.942 Y87.533 F1000
G1 X302.925 Y86.550 F1000
G1 X303.417 Y86.550 F1000
G1 X304.400 Y85.567 F1000
G1 X304.892 Y85.567 F1000
G1 X305.875 Y84.583 F1000
G1 X306.367 Y84.583 F1000
G1 X307.350 Y83.600 F1000
G1 X307.842 Y83.600 F1000
G1 X308.825 Y82.617 F1000
G1 X309.317 Y82.617 F1000
G1 X310.300 Y81.633 F1000
G1 X310.792 Y81.633 F1000
G1 X311.775 Y80.650 F1000
G1 X312.267 Y80.650 F1000
G1 X313.250 Y79.667 F1000
G1 X313.742 Y79.667 F1000
G1 X314.725 Y78.683 F1000
G1 X315.217 Y78.683 F1000
G1 X316.200 Y77.700 F1000
G1 X316.692 Y77.700 F1000
G1 X317.675 Y76.717 F1000
G1 X318.167 Y76.717 F1000
G1 X319.150 Y75.733 F1000
G1 X319.642 Y75.733 F1000
G1 X320.625 Y74.750 F1000
G1 X321.117 Y74.750 F1000
G1 X322.100 Y73.767 F1000
G1 X322.592 Y73.767 F1000
G1 X323.575 Y72.783 F1000
G1 X324.067 Y72.783 F1000
G1 X325.050 Y71.800 F1000
G1 X325.542 Y71.800 F1000
G1 X326.525 Y70.817 F1000
G1 X327.017 Y70.817 F1000
G1 X328.000 Y69.833 F1000
G1 X328.492 Y69.833 F1000
G1 X329.475 Y68.850 F1000
G1 X329.967 Y68.850 F1000
G1 X330.950 Y67.867 F1000
G1 X331.442 Y67.867 F1000
G1 X332.425 Y66.883 F1000
G1 X332.917 Y66.883 F1000
G1 X333.900 Y65.900 F1000
G1 X334.392 Y65.900 F1000
G1 X335.375 Y64.917 F1000
G1 X335.867 Y64.917 F1000
G1 X336.850 Y63.933 F1000
G1 X337.342 Y63.933 F1000
G1 X338.325 Y62.950 F1000
G1 X338.817 Y62.950 F1000
G1 X339.800 Y61.967 F1000
G1 X340.292 Y61.967 F1000
G1 X341.275 Y60.983 F1000
G1 X341.767 Y60.983 F1000
G1 X342.750 Y60.000 F1000
G1 X343.242 Y60.000 F1000
G1 X344.225 Y59.017 F1000
G1 X344.717 Y59.017 F1000
G1 X345.700 Y58.033 F1000
G1 X346.192 Y58.033 F1000
G1 X347.175 Y57.050 F1000
G1 X347.667 Y57.050 F1000
G1 X348.650 Y56.067 F1000
G1 X349.142 Y56.067 F1000
G1 X350.125 Y55.083 F1000
G1 X350.617 Y55.083 F1000
G1 X351.600 Y54.100 F1000
G1 X352.092 Y54.100 F1000
G1 X353.075 Y53.117 F1000
G1 X353.567 Y53.117 F1000
G1 X354.550 Y52.133 F1000
G1 X354.550 Y51.642 F1000
G1 X355.042 Y51.150 F1000
G1 X356.517 Y51.150 F1000
G1 X357.008 Y51.642 F1000
G1 X357.008 Y245.850 F1000
G1 X356.517 Y246.342 F1000
G1 X65.942 Y246.342 F1000
G1 X65.450 Y245.850 F1000
G0 Z3.0 ; Pen up

G0 X65.450 Y246.342 F3000 ; Travel to line 3
G0 Z0.0 ; Pen down
G1 X64.958 Y245.850 F1000
G1 X62.992 Y245.850 F1000
G1 X62.992 Y50.658 F1000
G1 X354.058 Y50.658 F1000
G1 X354.550 Y51.150 F1000
G1 X356.517 Y51.150 F1000
G1 X357.008 Y51.642 F1000
G1 X357.008 Y246.342 F1000
G0 Z3.0 ; Pen up

; Return to origin
G0 X0 Y0
G0 Z3.0

; Total drawing distance: 2674.97 mm
; Total travel distance: 84.09 mm
; Total lines: 3
; Estimated time: 162.2 seconds (2.7 minutes)
M2 ; End program