; Blueprint to G-code
; Input: test_images/test2_floor_plan.png
; Generated with blueprint2gcode.py

G21 ; Set units to millimeters
G90 ; Absolute positioning
G0 Z3.0 ; Pen up
G0 X0 Y0 ; Move to origin

G0 X7.824 Y16.191 F3000 ; Travel to line 1
G0 Z0.0 ; Pen down
G1 X52.371 Y16.191 F1000
G1 X52.500 Y16.320 F1000
G1 X52.500 Y35.246 F1000
G1 X52.371 Y35.375 F1000
G1 X20.441 Y35.375 F1000
G1 X52.371 Y35.375 F1000
G1 X52.500 Y35.504 F1000
G1 X52.500 Y73.871 F1000
G1 X52.371 Y74.000 F1000
G1 X7.695 Y74.000 F1000
G1 X7.566 Y73.871 F1000
G1 X7.566 Y41.684 F1000
G1 X7.695 Y41.555 F1000
G1 X7.695 Y35.504 F1000
G1 X7.824 Y35.375 F1000
G1 X13.746 Y35.375 F1000
G1 X7.824 Y35.375 F1000
G1 X7.695 Y35.246 F1000
G1 X7.695 Y29.195 F1000
G1 X7.566 Y29.066 F1000
G1 X7.566 Y16.449 F1000
G0 Z3.0 ; Pen up

G0 X7.051 Y28.938 F3000 ; Travel to line 2
G0 Z0.0 ; Pen down
G1 X7.438 Y28.938 F1000
G1 X7.695 Y29.195 F1000
G1 X7.695 Y41.555 F1000
G1 X7.566 Y41.684 F1000
G1 X6.923 Y41.684 F1000
G1 X6.794 Y41.555 F1000
G1 X6.794 Y29.195 F1000
G0 Z3.0 ; Pen up

G0 X6.794 Y29.066 F3000 ; Travel to line 3
G0 Z0.0 ; Pen down
G1 X6.923 Y28.938 F1000
G1 X7.438 Y28.938 F1000
G1 X7.566 Y28.809 F1000
G1 X7.566 Y16.320 F1000
G1 X7.695 Y16.191 F1000
G1 X97.305 Y16.191 F1000
G1 X97.305 Y131.680 F1000
G1 X7.566 Y131.680 F1000
G1 X7.566 Y106.188 F1000
G1 X7.438 Y106.059 F1000
G1 X6.794 Y106.059 F1000
G1 X6.794 Y93.441 F1000
G1 X6.923 Y93.312 F1000
G1 X7.438 Y93.312 F1000
G1 X7.566 Y93.184 F1000
G1 X7.566 Y41.812 F1000
G1 X7.438 Y41.684 F1000
G1 X6.794 Y41.684 F1000
G0 Z3.0 ; Pen up

G0 X7.695 Y74.000 F3000 ; Travel to line 4
G0 Z0.0 ; Pen down
G1 X7.566 Y74.129 F1000
G1 X7.566 Y93.441 F1000
G1 X7.695 Y93.570 F1000
G1 X7.695 Y99.621 F1000
G1 X7.824 Y99.750 F1000
G1 X13.746 Y99.750 F1000
G1 X7.824 Y99.750 F1000
G1 X7.695 Y99.879 F1000
G1 X7.695 Y105.930 F1000
G1 X7.566 Y106.059 F1000
G1 X7.566 Y131.551 F1000
G1 X7.695 Y131.680 F1000
G1 X52.371 Y131.680 F1000
G1 X52.500 Y131.551 F1000
G1 X52.500 Y99.879 F1000
G1 X52.371 Y99.750 F1000
G1 X20.441 Y99.750 F1000
G1 X52.371 Y99.750 F1000
G1 X52.500 Y99.621 F1000
G1 X52.500 Y74.129 F1000
G1 X52.371 Y74.000 F1000
G0 Z3.0 ; Pen up

G0 X52.629 Y74.000 F3000 ; Travel to line 5
G0 Z0.0 ; Pen down
G1 X52.500 Y74.129 F1000
G1 X52.500 Y131.551 F1000
G1 X52.629 Y131.680 F1000
G1 X97.176 Y131.680 F1000
G1 X97.305 Y131.551 F1000
G1 X97.305 Y74.129 F1000
G1 X97.176 Y74.000 F1000
G0 Z3.0 ; Pen up

G0 X87.906 Y35.246 F3000 ; Travel to line 6
G0 Z0.0 ; Pen down
G1 X87.906 Y22.629 F1000
G0 Z3.0 ; Pen up

G0 X84.688 Y22.629 F3000 ; Travel to line 7
G0 Z0.0 ; Pen down
G1 X84.688 Y35.246 F1000
G0 Z3.0 ; Pen up

G0 X81.469 Y35.246 F3000 ; Travel to line 8
G0 Z0.0 ; Pen down
G1 X81.469 Y22.629 F1000
G0 Z3.0 ; Pen up

G0 X78.250 Y22.629 F3000 ; Travel to line 9
G0 Z0.0 ; Pen down
G1 X78.250 Y35.246 F1000
G0 Z3.0 ; Pen up

G0 X75.031 Y35.246 F3000 ; Travel to line 10
G0 Z0.0 ; Pen down
G1 X75.031 Y22.629 F1000
G0 Z3.0 ; Pen up

G0 X71.812 Y22.629 F3000 ; Travel to line 11
G0 Z0.0 ; Pen down
G1 X71.812 Y35.246 F1000
G0 Z3.0 ; Pen up

G0 X68.594 Y35.246 F3000 ; Travel to line 12
G0 Z0.0 ; Pen down
G1 X68.594 Y22.629 F1000
G0 Z3.0 ; Pen up

G0 X65.375 Y22.629 F3000 ; Travel to line 13
G0 Z0.0 ; Pen down
G1 X65.375 Y35.246 F1000
G0 Z3.0 ; Pen up

G0 X62.156 Y35.246 F3000 ; Travel to line 14
G0 Z0.0 ; Pen down
G1 X62.156 Y22.629 F1000
G0 Z3.0 ; Pen up

G0 X58.938 Y22.629 F3000 ; Travel to line 15
G0 Z0.0 ; Pen down
G1 X58.938 Y35.246 F1000
G0 Z3.0 ; Pen up

G0 X52.629 Y16.191 F3000 ; Travel to line 16
G0 Z0.0 ; Pen down
G1 X52.500 Y16.320 F1000
G1 X52.500 Y73.871 F1000
G1 X52.629 Y74.000 F1000
G1 X97.176 Y74.000 F1000
G1 X97.305 Y73.871 F1000
G1 X97.305 Y16.320 F1000
G1 X97.176 Y16.191 F1000
G0 Z3.0 ; Pen up

G0 X7.051 Y93.312 F3000 ; Travel to line 17
G0 Z0.0 ; Pen down
G1 X7.438 Y93.312 F1000
G1 X7.695 Y93.570 F1000
G1 X7.695 Y105.930 F1000
G1 X7.566 Y106.059 F1000
G1 X6.923 Y106.059 F1000
G1 X6.794 Y105.930 F1000
G1 X6.794 Y93.570 F1000
G0 Z3.0 ; Pen up

; Return to origin
G0 X0 Y0
G0 Z3.0

; Total drawing distance: 1652.79 mm
; Total travel distance: 270.70 mm
; Total lines: 17
; Estimated time: 104.6 seconds (1.7 minutes)
M2 ; End program