; Blueprint to G-code
; Input: test_underscores.png
; Generated with blueprint2gcode.py

G21 ; Set units to millimeters
G90 ; Absolute positioning
G0 Z3.0 ; Pen up
G0 X0 Y0 ; Move to origin

G0 X24.393 Y30.813 F3000 ; Travel to line 1
G0 Z0.0 ; Pen down
G1 X25.780 Y31.507 F1000
G1 X25.780 Y31.507 F1000
G1 X24.393 Y30.120 F1000
G1 X24.393 Y30.120 F1000
G1 X25.780 Y31.507 F1000
G1 X25.780 Y31.507 F1000
G1 X27.860 Y28.733 F1000
G1 X27.860 Y28.733 F1000
G1 X29.940 Y30.813 F1000
G1 X29.940 Y30.813 F1000
G1 X31.327 Y28.733 F1000
G0 Z3.0 ; Pen up

G0 X30.633 Y28.733 F3000 ; Travel to line 2
G0 Z0.0 ; Pen down
G1 X28.553 Y30.813 F1000
G1 X28.553 Y30.813 F1000
G1 X26.473 Y29.427 F1000
G0 Z3.0 ; Pen up

G0 X25.087 Y30.813 F3000 ; Travel to line 3
G0 Z0.0 ; Pen down
G1 X25.780 Y29.427 F1000
G1 X25.780 Y29.427 F1000
G1 X27.167 Y30.813 F1000
G1 X27.167 Y30.813 F1000
G1 X28.553 Y28.733 F1000
G1 X28.553 Y28.733 F1000
G1 X27.167 Y30.813 F1000
G1 X27.167 Y30.813 F1000
G1 X29.247 Y28.733 F1000
G1 X29.247 Y28.733 F1000
G1 X27.860 Y30.813 F1000
G1 X27.860 Y30.813 F1000
G1 X26.473 Y29.427 F1000
G1 X26.473 Y29.427 F1000
G1 X27.860 Y30.813 F1000
G0 Z3.0 ; Pen up

G0 X29.247 Y30.813 F3000 ; Travel to line 4
G0 Z0.0 ; Pen down
G1 X27.167 Y28.733 F1000
G1 X27.167 Y28.733 F1000
G1 X29.247 Y30.813 F1000
G0 Z3.0 ; Pen up

G0 X29.247 Y28.733 F3000 ; Travel to line 5
G0 Z0.0 ; Pen down
G1 X27.860 Y30.813 F1000
G1 X27.860 Y30.813 F1000
G1 X29.940 Y28.733 F1000
G1 X29.940 Y28.733 F1000
G1 X35.487 Y34.280 F1000
G1 X35.487 Y34.280 F1000
G1 X36.180 Y34.280 F1000
G1 X36.180 Y34.280 F1000
G1 X35.487 Y34.280 F1000
G0 Z3.0 ; Pen up

G0 X35.487 Y34.973 F3000 ; Travel to line 6
G0 Z0.0 ; Pen down
G1 X30.633 Y39.133 F1000
G1 X30.633 Y39.133 F1000
G1 X28.553 Y37.053 F1000
G1 X28.553 Y37.053 F1000
G1 X25.780 Y41.213 F1000
G1 X25.780 Y41.213 F1000
G1 X29.247 Y37.053 F1000
G1 X29.247 Y37.053 F1000
G1 X25.780 Y41.907 F1000
G1 X25.780 Y41.907 F1000
G1 X27.860 Y39.827 F1000
G1 X27.860 Y39.827 F1000
G1 X25.780 Y41.907 F1000
G0 Z3.0 ; Pen up

G0 X25.087 Y41.213 F3000 ; Travel to line 7
G0 Z0.0 ; Pen down
G1 X27.860 Y44.680 F1000
G1 X27.860 Y44.680 F1000
G1 X29.940 Y42.600 F1000
G0 Z3.0 ; Pen up

G0 X30.633 Y42.600 F3000 ; Travel to line 8
G0 Z0.0 ; Pen down
G1 X32.020 Y44.680 F1000
G1 X32.020 Y44.680 F1000
G1 X34.100 Y42.600 F1000
G0 Z3.0 ; Pen up

G0 X33.407 Y42.600 F3000 ; Travel to line 9
G0 Z0.0 ; Pen down
G1 X34.100 Y43.987 F1000
G0 Z3.0 ; Pen up

G0 X34.793 Y43.987 F3000 ; Travel to line 10
G0 Z0.0 ; Pen down
G1 X34.100 Y44.680 F1000
G1 X34.100 Y44.680 F1000
G1 X32.020 Y42.600 F1000
G1 X32.020 Y42.600 F1000
G1 X29.940 Y44.680 F1000
G1 X29.940 Y44.680 F1000
G1 X28.553 Y42.600 F1000
G0 Z3.0 ; Pen up

G0 X29.247 Y42.600 F3000 ; Travel to line 11
G0 Z0.0 ; Pen down
G1 X30.633 Y44.680 F1000
G1 X30.633 Y44.680 F1000
G1 X28.553 Y42.600 F1000
G1 X28.553 Y42.600 F1000
G1 X29.940 Y44.680 F1000
G1 X29.940 Y44.680 F1000
G1 X27.860 Y42.600 F1000
G1 X27.860 Y42.600 F1000
G1 X25.780 Y44.680 F1000
G1 X25.780 Y44.680 F1000
G1 X27.860 Y42.600 F1000
G1 X27.860 Y42.600 F1000
G1 X25.780 Y44.680 F1000
G0 Z3.0 ; Pen up

G0 X26.473 Y44.680 F3000 ; Travel to line 12
G0 Z0.0 ; Pen down
G1 X28.553 Y42.600 F1000
G1 X28.553 Y42.600 F1000
G1 X26.473 Y44.680 F1000
G1 X26.473 Y44.680 F1000
G1 X25.087 Y43.293 F1000
G0 Z3.0 ; Pen up

G0 X25.780 Y43.987 F3000 ; Travel to line 13
G0 Z0.0 ; Pen down
G1 X27.860 Y41.907 F1000
G0 Z3.0 ; Pen up

G0 X27.167 Y41.907 F3000 ; Travel to line 14
G0 Z0.0 ; Pen down
G1 X25.087 Y39.133 F1000
G1 X25.087 Y39.133 F1000
G1 X27.167 Y41.907 F1000
G1 X27.167 Y41.907 F1000
G1 X25.087 Y39.133 F1000
G0 Z3.0 ; Pen up

G0 X25.087 Y38.440 F3000 ; Travel to line 15
G0 Z0.0 ; Pen down
G1 X27.167 Y41.213 F1000
G0 Z3.0 ; Pen up

G0 X27.860 Y40.520 F3000 ; Travel to line 16
G0 Z0.0 ; Pen down
G1 X25.780 Y42.600 F1000
G1 X25.780 Y42.600 F1000
G1 X27.860 Y39.827 F1000
G0 Z3.0 ; Pen up

G0 X28.553 Y39.133 F3000 ; Travel to line 17
G0 Z0.0 ; Pen down
G1 X30.633 Y37.053 F1000
G1 X30.633 Y37.053 F1000
G1 X32.713 Y38.440 F1000
G1 X32.713 Y38.440 F1000
G1 X30.633 Y36.360 F1000
G0 Z3.0 ; Pen up

G0 X32.020 Y36.360 F3000 ; Travel to line 18
G0 Z0.0 ; Pen down
G1 X34.100 Y37.747 F1000
G1 X34.100 Y37.747 F1000
G1 X32.713 Y35.667 F1000
G0 Z3.0 ; Pen up

G0 X33.407 Y34.280 F3000 ; Travel to line 19
G0 Z0.0 ; Pen down
G1 X35.487 Y32.200 F1000
G1 X35.487 Y32.200 F1000
G1 X33.407 Y34.280 F1000
G0 Z3.0 ; Pen up

G0 X33.407 Y33.587 F3000 ; Travel to line 20
G0 Z0.0 ; Pen down
G1 X35.487 Y31.507 F1000
G1 X35.487 Y31.507 F1000
G1 X33.407 Y33.587 F1000
G1 X33.407 Y33.587 F1000
G1 X35.487 Y30.813 F1000
G0 Z3.0 ; Pen up

G0 X34.793 Y31.507 F3000 ; Travel to line 21
G0 Z0.0 ; Pen down
G1 X32.713 Y29.427 F1000
G1 X32.713 Y29.427 F1000
G1 X31.327 Y31.507 F1000
G0 Z3.0 ; Pen up

G0 X32.713 Y32.200 F3000 ; Travel to line 22
G0 Z0.0 ; Pen down
G1 X34.100 Y30.120 F1000
G0 Z3.0 ; Pen up

G0 X33.407 Y32.893 F3000 ; Travel to line 23
G0 Z0.0 ; Pen down
G1 X34.793 Y30.813 F1000
G1 X34.793 Y30.813 F1000
G1 X33.407 Y32.893 F1000
G0 Z3.0 ; Pen up

G0 X32.713 Y33.587 F3000 ; Travel to line 24
G0 Z0.0 ; Pen down
G1 X34.793 Y35.667 F1000
G0 Z3.0 ; Pen up

G0 X34.100 Y37.053 F3000 ; Travel to line 25
G0 Z0.0 ; Pen down
G1 X32.713 Y34.973 F1000
G1 X32.713 Y34.973 F1000
G1 X34.100 Y37.053 F1000
G0 Z3.0 ; Pen up

G0 X34.100 Y37.747 F3000 ; Travel to line 26
G0 Z0.0 ; Pen down
G1 X32.713 Y35.667 F1000
G1 X32.713 Y35.667 F1000
G1 X34.100 Y37.747 F1000
G0 Z3.0 ; Pen up

G0 X32.020 Y39.133 F3000 ; Travel to line 27
G0 Z0.0 ; Pen down
G1 X30.633 Y37.053 F1000
G1 X30.633 Y37.053 F1000
G1 X32.020 Y39.133 F1000
G1 X32.020 Y39.133 F1000
G1 X30.633 Y37.053 F1000
G1 X30.633 Y37.053 F1000
G1 X32.020 Y39.133 F1000
G1 X32.020 Y39.133 F1000
G1 X35.487 Y35.667 F1000
G1 X35.487 Y35.667 F1000
G1 X32.020 Y39.133 F1000
G1 X32.020 Y39.133 F1000
G1 X29.940 Y37.053 F1000
G1 X29.940 Y37.053 F1000
G1 X27.860 Y39.133 F1000
G1 X27.860 Y39.133 F1000
G1 X29.940 Y37.053 F1000
G1 X29.940 Y37.053 F1000
G1 X27.860 Y39.133 F1000
G1 X27.860 Y39.133 F1000
G1 X25.087 Y37.053 F1000
G0 Z3.0 ; Pen up

G0 X25.780 Y38.440 F3000 ; Travel to line 28
G0 Z0.0 ; Pen down
G1 X26.473 Y36.360 F1000
G0 Z3.0 ; Pen up

G0 X27.167 Y37.053 F3000 ; Travel to line 29
G0 Z0.0 ; Pen down
G1 X29.247 Y39.133 F1000
G0 Z3.0 ; Pen up

G0 X29.940 Y39.133 F3000 ; Travel to line 30
G0 Z0.0 ; Pen down
G1 X35.487 Y33.587 F1000
G0 Z3.0 ; Pen up

G0 X31.327 Y39.133 F3000 ; Travel to line 31
G0 Z0.0 ; Pen down
G1 X35.487 Y34.973 F1000
G1 X35.487 Y34.973 F1000
G1 X30.633 Y39.133 F1000
G0 Z3.0 ; Pen up

G0 X27.860 Y37.053 F3000 ; Travel to line 32
G0 Z0.0 ; Pen down
G1 X25.780 Y39.827 F1000
G0 Z3.0 ; Pen up

G0 X25.087 Y39.827 F3000 ; Travel to line 33
G0 Z0.0 ; Pen down
G1 X27.167 Y42.600 F1000
G1 X27.167 Y42.600 F1000
G1 X25.087 Y39.827 F1000
G1 X25.087 Y39.827 F1000
G1 X27.167 Y42.600 F1000
G0 Z3.0 ; Pen up

G0 X29.247 Y44.680 F3000 ; Travel to line 34
G0 Z0.0 ; Pen down
G1 X27.860 Y42.600 F1000
G1 X27.860 Y42.600 F1000
G1 X29.247 Y44.680 F1000
G0 Z3.0 ; Pen up

G0 X25.780 Y31.507 F3000 ; Travel to line 35
G0 Z0.0 ; Pen down
G1 X24.393 Y30.813 F1000
G1 X24.393 Y30.813 F1000
G1 X25.780 Y31.507 F1000
G0 Z3.0 ; Pen up

G0 X25.087 Y31.507 F3000 ; Travel to line 36
G0 Z0.0 ; Pen down
G1 X24.393 Y31.507 F1000
G1 X24.393 Y31.507 F1000
G1 X25.087 Y31.507 F1000
G0 Z3.0 ; Pen up

G0 X50.740 Y31.507 F3000 ; Travel to line 37
G0 Z0.0 ; Pen down
G1 X52.127 Y32.200 F1000
G0 Z3.0 ; Pen up

G0 X53.513 Y32.200 F3000 ; Travel to line 38
G0 Z0.0 ; Pen down
G1 X50.740 Y30.813 F1000
G0 Z3.0 ; Pen up

G0 X51.433 Y29.427 F3000 ; Travel to line 39
G0 Z0.0 ; Pen down
G1 X54.900 Y32.200 F1000
G0 Z3.0 ; Pen up

G0 X56.287 Y32.200 F3000 ; Travel to line 40
G0 Z0.0 ; Pen down
G1 X52.820 Y29.427 F1000
G0 Z3.0 ; Pen up

G0 X54.207 Y29.427 F3000 ; Travel to line 41
G0 Z0.0 ; Pen down
G1 X57.673 Y32.200 F1000
G0 Z3.0 ; Pen up

G0 X59.060 Y32.200 F3000 ; Travel to line 42
G0 Z0.0 ; Pen down
G1 X55.593 Y29.427 F1000
G0 Z3.0 ; Pen up

G0 X56.980 Y29.427 F3000 ; Travel to line 43
G0 Z0.0 ; Pen down
G1 X60.447 Y32.200 F1000
G0 Z3.0 ; Pen up

G0 X62.527 Y32.200 F3000 ; Travel to line 44
G0 Z0.0 ; Pen down
G1 X58.367 Y29.427 F1000
G0 Z3.0 ; Pen up

G0 X59.753 Y29.427 F3000 ; Travel to line 45
G0 Z0.0 ; Pen down
G1 X63.913 Y32.200 F1000
G0 Z3.0 ; Pen up

G0 X65.300 Y32.200 F3000 ; Travel to line 46
G0 Z0.0 ; Pen down
G1 X61.140 Y29.427 F1000
G0 Z3.0 ; Pen up

G0 X62.527 Y29.427 F3000 ; Travel to line 47
G0 Z0.0 ; Pen down
G1 X66.687 Y32.200 F1000
G0 Z3.0 ; Pen up

G0 X68.073 Y32.200 F3000 ; Travel to line 48
G0 Z0.0 ; Pen down
G1 X63.913 Y29.427 F1000
G0 Z3.0 ; Pen up

G0 X65.993 Y29.427 F3000 ; Travel to line 49
G0 Z0.0 ; Pen down
G1 X69.460 Y32.200 F1000
G0 Z3.0 ; Pen up

G0 X71.540 Y32.200 F3000 ; Travel to line 50
G0 Z0.0 ; Pen down
G1 X67.380 Y29.427 F1000
G0 Z3.0 ; Pen up

G0 X68.767 Y29.427 F3000 ; Travel to line 51
G0 Z0.0 ; Pen down
G1 X72.927 Y32.200 F1000
G0 Z3.0 ; Pen up

G0 X75.007 Y32.200 F3000 ; Travel to line 52
G0 Z0.0 ; Pen down
G1 X70.847 Y29.427 F1000
G0 Z3.0 ; Pen up

G0 X72.233 Y29.427 F3000 ; Travel to line 53
G0 Z0.0 ; Pen down
G1 X76.393 Y32.200 F1000
G0 Z3.0 ; Pen up

G0 X77.780 Y32.200 F3000 ; Travel to line 54
G0 Z0.0 ; Pen down
G1 X73.620 Y29.427 F1000
G0 Z3.0 ; Pen up

G0 X75.007 Y29.427 F3000 ; Travel to line 55
G0 Z0.0 ; Pen down
G1 X79.167 Y32.200 F1000
G0 Z3.0 ; Pen up

G0 X81.247 Y32.200 F3000 ; Travel to line 56
G0 Z0.0 ; Pen down
G1 X76.393 Y29.427 F1000
G0 Z3.0 ; Pen up

G0 X78.473 Y29.427 F3000 ; Travel to line 57
G0 Z0.0 ; Pen down
G1 X82.633 Y32.200 F1000
G0 Z3.0 ; Pen up

G0 X82.633 Y29.427 F3000 ; Travel to line 58
G0 Z0.0 ; Pen down
G1 X87.487 Y32.200 F1000
G1 X87.487 Y32.200 F1000
G1 X92.340 Y29.427 F1000
G1 X92.340 Y29.427 F1000
G1 X88.180 Y32.200 F1000
G0 Z3.0 ; Pen up

G0 X88.873 Y32.200 F3000 ; Travel to line 59
G0 Z0.0 ; Pen down
G1 X93.727 Y29.427 F1000
G1 X93.727 Y29.427 F1000
G1 X98.580 Y32.200 F1000
G0 Z3.0 ; Pen up

G0 X97.887 Y32.200 F3000 ; Travel to line 60
G0 Z0.0 ; Pen down
G1 X93.033 Y29.427 F1000
G1 X93.033 Y29.427 F1000
G1 X88.180 Y32.200 F1000
G1 X88.180 Y32.200 F1000
G1 X92.340 Y29.427 F1000
G0 Z3.0 ; Pen up

G0 X91.647 Y29.427 F3000 ; Travel to line 61
G0 Z0.0 ; Pen down
G1 X86.793 Y32.200 F1000
G0 Z3.0 ; Pen up

G0 X86.100 Y32.200 F3000 ; Travel to line 62
G0 Z0.0 ; Pen down
G1 X81.247 Y29.427 F1000
G0 Z3.0 ; Pen up

G0 X79.860 Y29.427 F3000 ; Travel to line 63
G0 Z0.0 ; Pen down
G1 X84.020 Y32.200 F1000
G1 X84.020 Y32.200 F1000
G1 X88.873 Y29.427 F1000
G0 Z3.0 ; Pen up

G0 X89.567 Y29.427 F3000 ; Travel to line 64
G0 Z0.0 ; Pen down
G1 X94.420 Y32.200 F1000
G1 X94.420 Y32.200 F1000
G1 X99.273 Y29.427 F1000
G0 Z3.0 ; Pen up

G0 X98.580 Y29.427 F3000 ; Travel to line 65
G0 Z0.0 ; Pen down
G1 X103.433 Y32.200 F1000
G0 Z3.0 ; Pen up

G0 X104.127 Y32.200 F3000 ; Travel to line 66
G0 Z0.0 ; Pen down
G1 X108.287 Y29.427 F1000
G0 Z3.0 ; Pen up

G0 X106.900 Y29.427 F3000 ; Travel to line 67
G0 Z0.0 ; Pen down
G1 X102.740 Y32.200 F1000
G0 Z3.0 ; Pen up

G0 X102.047 Y32.200 F3000 ; Travel to line 68
G0 Z0.0 ; Pen down
G1 X97.193 Y29.427 F1000
G1 X97.193 Y29.427 F1000
G1 X102.047 Y32.200 F1000
G0 Z3.0 ; Pen up

G0 X99.273 Y32.200 F3000 ; Travel to line 69
G0 Z0.0 ; Pen down
G1 X94.420 Y29.427 F1000
G1 X94.420 Y29.427 F1000
G1 X99.273 Y32.200 F1000
G0 Z3.0 ; Pen up

G0 X97.193 Y32.200 F3000 ; Travel to line 70
G0 Z0.0 ; Pen down
G1 X101.353 Y29.427 F1000
G0 Z3.0 ; Pen up

G0 X103.433 Y29.427 F3000 ; Travel to line 71
G0 Z0.0 ; Pen down
G1 X98.580 Y32.200 F1000
G1 X98.580 Y32.200 F1000
G1 X93.727 Y29.427 F1000
G0 Z3.0 ; Pen up

G0 X95.113 Y29.427 F3000 ; Travel to line 72
G0 Z0.0 ; Pen down
G1 X99.967 Y32.200 F1000
G1 X99.967 Y32.200 F1000
G1 X95.113 Y29.427 F1000
G1 X95.113 Y29.427 F1000
G1 X90.260 Y32.200 F1000
G1 X90.260 Y32.200 F1000
G1 X95.113 Y29.427 F1000
G1 X95.113 Y29.427 F1000
G1 X90.260 Y32.200 F1000
G0 Z3.0 ; Pen up

G0 X90.953 Y32.200 F3000 ; Travel to line 73
G0 Z0.0 ; Pen down
G1 X86.100 Y29.427 F1000
G0 Z3.0 ; Pen up

G0 X84.713 Y29.427 F3000 ; Travel to line 74
G0 Z0.0 ; Pen down
G1 X89.567 Y32.200 F1000
G1 X89.567 Y32.200 F1000
G1 X93.727 Y29.427 F1000
G1 X93.727 Y29.427 F1000
G1 X89.567 Y32.200 F1000
G1 X89.567 Y32.200 F1000
G1 X94.420 Y29.427 F1000
G1 X94.420 Y29.427 F1000
G1 X89.567 Y32.200 F1000
G0 Z3.0 ; Pen up

G0 X91.647 Y32.200 F3000 ; Travel to line 75
G0 Z0.0 ; Pen down
G1 X96.500 Y29.427 F1000
G1 X96.500 Y29.427 F1000
G1 X101.353 Y32.200 F1000
G1 X101.353 Y32.200 F1000
G1 X96.500 Y29.427 F1000
G0 Z3.0 ; Pen up

G0 X95.807 Y29.427 F3000 ; Travel to line 76
G0 Z0.0 ; Pen down
G1 X100.660 Y32.200 F1000
G1 X100.660 Y32.200 F1000
G1 X104.820 Y29.427 F1000
G0 Z3.0 ; Pen up

G0 X107.593 Y32.200 F3000 ; Travel to line 77
G0 Z0.0 ; Pen down
G1 X111.753 Y29.427 F1000
G0 Z3.0 ; Pen up

G0 X113.140 Y29.427 F3000 ; Travel to line 78
G0 Z0.0 ; Pen down
G1 X108.980 Y32.200 F1000
G0 Z3.0 ; Pen up

G0 X110.367 Y32.200 F3000 ; Travel to line 79
G0 Z0.0 ; Pen down
G1 X114.527 Y29.427 F1000
G0 Z3.0 ; Pen up

G0 X115.913 Y29.427 F3000 ; Travel to line 80
G0 Z0.0 ; Pen down
G1 X111.753 Y32.200 F1000
G0 Z3.0 ; Pen up

G0 X113.833 Y32.200 F3000 ; Travel to line 81
G0 Z0.0 ; Pen down
G1 X117.993 Y29.427 F1000
G0 Z3.0 ; Pen up

G0 X119.380 Y29.427 F3000 ; Travel to line 82
G0 Z0.0 ; Pen down
G1 X115.220 Y32.200 F1000
G0 Z3.0 ; Pen up

G0 X116.607 Y32.200 F3000 ; Travel to line 83
G0 Z0.0 ; Pen down
G1 X120.767 Y29.427 F1000
G0 Z3.0 ; Pen up

G0 X122.153 Y29.427 F3000 ; Travel to line 84
G0 Z0.0 ; Pen down
G1 X117.993 Y32.200 F1000
G0 Z3.0 ; Pen up

G0 X119.380 Y32.200 F3000 ; Travel to line 85
G0 Z0.0 ; Pen down
G1 X123.540 Y29.427 F1000
G0 Z3.0 ; Pen up

G0 X124.927 Y29.427 F3000 ; Travel to line 86
G0 Z0.0 ; Pen down
G1 X121.460 Y32.200 F1000
G0 Z3.0 ; Pen up

G0 X122.847 Y32.200 F3000 ; Travel to line 87
G0 Z0.0 ; Pen down
G1 X126.313 Y29.427 F1000
G0 Z3.0 ; Pen up

G0 X127.700 Y29.427 F3000 ; Travel to line 88
G0 Z0.0 ; Pen down
G1 X124.233 Y32.200 F1000
G0 Z3.0 ; Pen up

G0 X125.620 Y32.200 F3000 ; Travel to line 89
G0 Z0.0 ; Pen down
G1 X129.780 Y29.427 F1000
G0 Z3.0 ; Pen up

G0 X131.167 Y29.427 F3000 ; Travel to line 90
G0 Z0.0 ; Pen down
G1 X127.700 Y32.200 F1000
G0 Z3.0 ; Pen up

G0 X129.087 Y32.200 F3000 ; Travel to line 91
G0 Z0.0 ; Pen down
G1 X132.553 Y29.427 F1000
G0 Z3.0 ; Pen up

G0 X133.940 Y29.427 F3000 ; Travel to line 92
G0 Z0.0 ; Pen down
G1 X130.473 Y32.200 F1000
G0 Z3.0 ; Pen up

G0 X131.860 Y32.200 F3000 ; Travel to line 93
G0 Z0.0 ; Pen down
G1 X135.327 Y30.120 F1000
G0 Z3.0 ; Pen up

G0 X135.327 Y30.813 F3000 ; Travel to line 94
G0 Z0.0 ; Pen down
G1 X133.247 Y32.200 F1000
G0 Z3.0 ; Pen up

G0 X134.633 Y32.200 F3000 ; Travel to line 95
G0 Z0.0 ; Pen down
G1 X135.327 Y32.200 F1000
G0 Z3.0 ; Pen up

G0 X110.367 Y29.427 F3000 ; Travel to line 96
G0 Z0.0 ; Pen down
G1 X105.513 Y32.200 F1000
G1 X105.513 Y32.200 F1000
G1 X100.660 Y29.427 F1000
G1 X100.660 Y29.427 F1000
G1 X95.807 Y32.200 F1000
G1 X95.807 Y32.200 F1000
G1 X90.953 Y29.427 F1000
G0 Z3.0 ; Pen up

G0 X90.260 Y29.427 F3000 ; Travel to line 97
G0 Z0.0 ; Pen down
G1 X85.407 Y32.200 F1000
G0 Z3.0 ; Pen up

G0 X88.180 Y29.427 F3000 ; Travel to line 98
G0 Z0.0 ; Pen down
G1 X92.340 Y32.200 F1000
G0 Z3.0 ; Pen up

G0 X93.033 Y32.200 F3000 ; Travel to line 99
G0 Z0.0 ; Pen down
G1 X97.887 Y29.427 F1000
G0 Z3.0 ; Pen up

G0 X97.193 Y64.093 F3000 ; Travel to line 100
G0 Z0.0 ; Pen down
G1 X99.967 Y66.867 F1000
G1 X99.967 Y66.867 F1000
G1 X102.740 Y64.093 F1000
G0 Z3.0 ; Pen up

G0 X102.047 Y64.093 F3000 ; Travel to line 101
G0 Z0.0 ; Pen down
G1 X105.513 Y66.867 F1000
G0 Z3.0 ; Pen up

G0 X106.207 Y66.867 F3000 ; Travel to line 102
G0 Z0.0 ; Pen down
G1 X108.980 Y64.093 F1000
G0 Z3.0 ; Pen up

G0 X109.673 Y64.093 F3000 ; Travel to line 103
G0 Z0.0 ; Pen down
G1 X112.447 Y66.867 F1000
G0 Z3.0 ; Pen up

G0 X113.140 Y66.867 F3000 ; Travel to line 104
G0 Z0.0 ; Pen down
G1 X115.913 Y64.093 F1000
G1 X115.913 Y64.093 F1000
G1 X119.380 Y66.867 F1000
G1 X119.380 Y66.867 F1000
G1 X121.460 Y64.787 F1000
G1 X121.460 Y64.787 F1000
G1 X119.380 Y66.867 F1000
G0 Z3.0 ; Pen up

G0 X118.687 Y66.867 F3000 ; Travel to line 105
G0 Z0.0 ; Pen down
G1 X115.913 Y64.093 F1000
G1 X115.913 Y64.093 F1000
G1 X118.687 Y66.867 F1000
G0 Z3.0 ; Pen up

G0 X117.993 Y66.867 F3000 ; Travel to line 106
G0 Z0.0 ; Pen down
G1 X120.767 Y64.093 F1000
G1 X120.767 Y64.093 F1000
G1 X117.993 Y66.867 F1000
G1 X117.993 Y66.867 F1000
G1 X114.527 Y64.093 F1000
G1 X114.527 Y64.093 F1000
G1 X117.993 Y66.867 F1000
G0 Z3.0 ; Pen up

G0 X117.300 Y66.867 F3000 ; Travel to line 107
G0 Z0.0 ; Pen down
G1 X114.527 Y64.093 F1000
G0 Z3.0 ; Pen up

G0 X112.447 Y64.093 F3000 ; Travel to line 108
G0 Z0.0 ; Pen down
G1 X115.913 Y66.867 F1000
G0 Z3.0 ; Pen up

G0 X115.220 Y66.867 F3000 ; Travel to line 109
G0 Z0.0 ; Pen down
G1 X117.993 Y64.093 F1000
G1 X117.993 Y64.093 F1000
G1 X120.767 Y66.867 F1000
G0 Z3.0 ; Pen up

G0 X121.460 Y66.867 F3000 ; Travel to line 110
G0 Z0.0 ; Pen down
G1 X120.767 Y66.867 F1000
G1 X120.767 Y66.867 F1000
G1 X121.460 Y66.173 F1000
G0 Z3.0 ; Pen up

G0 X120.767 Y65.480 F3000 ; Travel to line 111
G0 Z0.0 ; Pen down
G1 X120.073 Y64.093 F1000
G1 X120.073 Y64.093 F1000
G1 X117.300 Y66.867 F1000
G1 X117.300 Y66.867 F1000
G1 X113.833 Y64.093 F1000
G1 X113.833 Y64.093 F1000
G1 X111.060 Y66.867 F1000
G1 X111.060 Y66.867 F1000
G1 X107.593 Y64.093 F1000
G0 Z3.0 ; Pen up

G0 X106.900 Y64.093 F3000 ; Travel to line 112
G0 Z0.0 ; Pen down
G1 X104.127 Y66.867 F1000
G0 Z3.0 ; Pen up

G0 X103.433 Y66.867 F3000 ; Travel to line 113
G0 Z0.0 ; Pen down
G1 X100.660 Y64.093 F1000
G1 X100.660 Y64.093 F1000
G1 X97.887 Y66.867 F1000
G0 Z3.0 ; Pen up

G0 X98.580 Y66.867 F3000 ; Travel to line 114
G0 Z0.0 ; Pen down
G1 X95.807 Y64.093 F1000
G0 Z3.0 ; Pen up

G0 X96.500 Y64.093 F3000 ; Travel to line 115
G0 Z0.0 ; Pen down
G1 X93.727 Y66.867 F1000
G0 Z3.0 ; Pen up

G0 X94.420 Y66.867 F3000 ; Travel to line 116
G0 Z0.0 ; Pen down
G1 X91.647 Y64.093 F1000
G0 Z3.0 ; Pen up

G0 X92.340 Y64.093 F3000 ; Travel to line 117
G0 Z0.0 ; Pen down
G1 X89.567 Y66.867 F1000
G0 Z3.0 ; Pen up

G0 X90.260 Y66.867 F3000 ; Travel to line 118
G0 Z0.0 ; Pen down
G1 X87.487 Y64.093 F1000
G0 Z3.0 ; Pen up

G0 X88.180 Y64.093 F3000 ; Travel to line 119
G0 Z0.0 ; Pen down
G1 X85.407 Y66.867 F1000
G0 Z3.0 ; Pen up

G0 X86.100 Y66.867 F3000 ; Travel to line 120
G0 Z0.0 ; Pen down
G1 X83.327 Y64.093 F1000
G0 Z3.0 ; Pen up

G0 X84.020 Y64.093 F3000 ; Travel to line 121
G0 Z0.0 ; Pen down
G1 X81.247 Y66.867 F1000
G0 Z3.0 ; Pen up

G0 X81.940 Y66.867 F3000 ; Travel to line 122
G0 Z0.0 ; Pen down
G1 X79.167 Y64.093 F1000
G0 Z3.0 ; Pen up

G0 X79.860 Y64.093 F3000 ; Travel to line 123
G0 Z0.0 ; Pen down
G1 X77.087 Y66.867 F1000
G0 Z3.0 ; Pen up

G0 X77.780 Y66.867 F3000 ; Travel to line 124
G0 Z0.0 ; Pen down
G1 X75.007 Y64.093 F1000
G0 Z3.0 ; Pen up

G0 X74.313 Y64.093 F3000 ; Travel to line 125
G0 Z0.0 ; Pen down
G1 X71.540 Y66.867 F1000
G1 X71.540 Y66.867 F1000
G1 X68.767 Y64.093 F1000
G0 Z3.0 ; Pen up

G0 X69.460 Y64.093 F3000 ; Travel to line 126
G0 Z0.0 ; Pen down
G1 X66.687 Y66.867 F1000
G0 Z3.0 ; Pen up

G0 X67.380 Y66.867 F3000 ; Travel to line 127
G0 Z0.0 ; Pen down
G1 X64.607 Y64.093 F1000
G0 Z3.0 ; Pen up

G0 X63.913 Y64.093 F3000 ; Travel to line 128
G0 Z0.0 ; Pen down
G1 X61.140 Y66.867 F1000
G0 Z3.0 ; Pen up

G0 X60.447 Y66.867 F3000 ; Travel to line 129
G0 Z0.0 ; Pen down
G1 X57.673 Y64.093 F1000
G1 X57.673 Y64.093 F1000
G1 X54.207 Y66.867 F1000
G1 X54.207 Y66.867 F1000
G1 X56.980 Y64.093 F1000
G0 Z3.0 ; Pen up

G0 X56.287 Y64.093 F3000 ; Travel to line 130
G0 Z0.0 ; Pen down
G1 X53.513 Y66.867 F1000
G1 X53.513 Y66.867 F1000
G1 X50.740 Y64.093 F1000
G0 Z3.0 ; Pen up

G0 X50.740 Y65.480 F3000 ; Travel to line 131
G0 Z0.0 ; Pen down
G1 X52.820 Y66.867 F1000
G1 X52.820 Y66.867 F1000
G1 X50.740 Y65.480 F1000
G1 X50.740 Y65.480 F1000
G1 X52.820 Y66.867 F1000
G0 Z3.0 ; Pen up

G0 X53.513 Y66.867 F3000 ; Travel to line 132
G0 Z0.0 ; Pen down
G1 X56.980 Y64.093 F1000
G1 X56.980 Y64.093 F1000
G1 X54.207 Y66.867 F1000
G1 X54.207 Y66.867 F1000
G1 X57.673 Y64.093 F1000
G1 X57.673 Y64.093 F1000
G1 X54.207 Y66.867 F1000
G1 X54.207 Y66.867 F1000
G1 X51.433 Y64.093 F1000
G1 X51.433 Y64.093 F1000
G1 X54.207 Y66.867 F1000
G0 Z3.0 ; Pen up

G0 X54.900 Y66.867 F3000 ; Travel to line 133
G0 Z0.0 ; Pen down
G1 X52.127 Y64.093 F1000
G1 X52.127 Y64.093 F1000
G1 X54.900 Y66.867 F1000
G1 X54.900 Y66.867 F1000
G1 X58.367 Y64.093 F1000
G1 X58.367 Y64.093 F1000
G1 X55.593 Y66.867 F1000
G1 X55.593 Y66.867 F1000
G1 X59.060 Y64.093 F1000
G0 Z3.0 ; Pen up

G0 X59.753 Y64.093 F3000 ; Travel to line 134
G0 Z0.0 ; Pen down
G1 X62.527 Y66.867 F1000
G1 X62.527 Y66.867 F1000
G1 X65.993 Y64.093 F1000
G0 Z3.0 ; Pen up

G0 X66.687 Y64.093 F3000 ; Travel to line 135
G0 Z0.0 ; Pen down
G1 X69.460 Y66.867 F1000
G0 Z3.0 ; Pen up

G0 X70.153 Y66.867 F3000 ; Travel to line 136
G0 Z0.0 ; Pen down
G1 X72.927 Y64.093 F1000
G1 X72.927 Y64.093 F1000
G1 X75.700 Y66.867 F1000
G0 Z3.0 ; Pen up

G0 X75.007 Y66.867 F3000 ; Travel to line 137
G0 Z0.0 ; Pen down
G1 X77.780 Y64.093 F1000
G0 Z3.0 ; Pen up

G0 X77.087 Y64.093 F3000 ; Travel to line 138
G0 Z0.0 ; Pen down
G1 X79.860 Y66.867 F1000
G0 Z3.0 ; Pen up

G0 X79.167 Y66.867 F3000 ; Travel to line 139
G0 Z0.0 ; Pen down
G1 X81.940 Y64.093 F1000
G0 Z3.0 ; Pen up

G0 X81.247 Y64.093 F3000 ; Travel to line 140
G0 Z0.0 ; Pen down
G1 X84.020 Y66.867 F1000
G0 Z3.0 ; Pen up

G0 X83.327 Y66.867 F3000 ; Travel to line 141
G0 Z0.0 ; Pen down
G1 X86.100 Y64.093 F1000
G0 Z3.0 ; Pen up

G0 X85.407 Y64.093 F3000 ; Travel to line 142
G0 Z0.0 ; Pen down
G1 X88.180 Y66.867 F1000
G0 Z3.0 ; Pen up

G0 X87.487 Y66.867 F3000 ; Travel to line 143
G0 Z0.0 ; Pen down
G1 X90.260 Y64.093 F1000
G0 Z3.0 ; Pen up

G0 X89.567 Y64.093 F3000 ; Travel to line 144
G0 Z0.0 ; Pen down
G1 X92.340 Y66.867 F1000
G0 Z3.0 ; Pen up

G0 X91.647 Y66.867 F3000 ; Travel to line 145
G0 Z0.0 ; Pen down
G1 X94.420 Y64.093 F1000
G0 Z3.0 ; Pen up

G0 X93.727 Y64.093 F3000 ; Travel to line 146
G0 Z0.0 ; Pen down
G1 X96.500 Y66.867 F1000
G0 Z3.0 ; Pen up

G0 X95.807 Y66.867 F3000 ; Travel to line 147
G0 Z0.0 ; Pen down
G1 X98.580 Y64.093 F1000
G0 Z3.0 ; Pen up

G0 X99.273 Y64.093 F3000 ; Travel to line 148
G0 Z0.0 ; Pen down
G1 X102.047 Y66.867 F1000
G1 X102.047 Y66.867 F1000
G1 X104.820 Y64.093 F1000
G0 Z3.0 ; Pen up

G0 X104.127 Y64.093 F3000 ; Travel to line 149
G0 Z0.0 ; Pen down
G1 X106.900 Y66.867 F1000
G0 Z3.0 ; Pen up

G0 X106.207 Y64.093 F3000 ; Travel to line 150
G0 Z0.0 ; Pen down
G1 X108.980 Y66.867 F1000
G1 X108.980 Y66.867 F1000
G1 X111.753 Y64.093 F1000
G0 Z3.0 ; Pen up

G0 X111.060 Y64.093 F3000 ; Travel to line 151
G0 Z0.0 ; Pen down
G1 X114.527 Y66.867 F1000
G0 Z3.0 ; Pen up

G0 X116.607 Y66.867 F3000 ; Travel to line 152
G0 Z0.0 ; Pen down
G1 X113.140 Y64.093 F1000
G1 X113.140 Y64.093 F1000
G1 X116.607 Y66.867 F1000
G0 Z3.0 ; Pen up

G0 X120.073 Y66.867 F3000 ; Travel to line 153
G0 Z0.0 ; Pen down
G1 X116.607 Y64.093 F1000
G1 X116.607 Y64.093 F1000
G1 X120.073 Y66.867 F1000
G0 Z3.0 ; Pen up

G0 X121.460 Y64.787 F3000 ; Travel to line 154
G0 Z0.0 ; Pen down
G1 X118.687 Y66.867 F1000
G1 X118.687 Y66.867 F1000
G1 X121.460 Y64.093 F1000
G0 Z3.0 ; Pen up

G0 X107.593 Y98.760 F3000 ; Travel to line 155
G0 Z0.0 ; Pen down
G1 X104.820 Y101.533 F1000
G1 X104.820 Y101.533 F1000
G1 X107.593 Y99.453 F1000
G0 Z3.0 ; Pen up

G0 X106.900 Y100.147 F3000 ; Travel to line 156
G0 Z0.0 ; Pen down
G1 X105.513 Y98.760 F1000
G1 X105.513 Y98.760 F1000
G1 X106.900 Y100.147 F1000
G0 Z3.0 ; Pen up

G0 X107.593 Y100.840 F3000 ; Travel to line 157
G0 Z0.0 ; Pen down
G1 X106.900 Y101.533 F1000
G1 X106.900 Y101.533 F1000
G1 X107.593 Y101.533 F1000
G0 Z3.0 ; Pen up

G0 X106.207 Y101.533 F3000 ; Travel to line 158
G0 Z0.0 ; Pen down
G1 X103.433 Y98.760 F1000
G0 Z3.0 ; Pen up

G0 X102.047 Y98.760 F3000 ; Travel to line 159
G0 Z0.0 ; Pen down
G1 X99.273 Y101.533 F1000
G0 Z3.0 ; Pen up

G0 X99.967 Y101.533 F3000 ; Travel to line 160
G0 Z0.0 ; Pen down
G1 X97.193 Y98.760 F1000
G1 X97.193 Y98.760 F1000
G1 X94.420 Y101.533 F1000
G0 Z3.0 ; Pen up

G0 X93.727 Y101.533 F3000 ; Travel to line 161
G0 Z0.0 ; Pen down
G1 X90.953 Y98.760 F1000
G1 X90.953 Y98.760 F1000
G1 X88.180 Y101.533 F1000
G0 Z3.0 ; Pen up

G0 X87.487 Y101.533 F3000 ; Travel to line 162
G0 Z0.0 ; Pen down
G1 X84.713 Y98.760 F1000
G1 X84.713 Y98.760 F1000
G1 X81.940 Y101.533 F1000
G0 Z3.0 ; Pen up

G0 X82.633 Y101.533 F3000 ; Travel to line 163
G0 Z0.0 ; Pen down
G1 X79.860 Y98.760 F1000
G0 Z3.0 ; Pen up

G0 X80.553 Y98.760 F3000 ; Travel to line 164
G0 Z0.0 ; Pen down
G1 X77.780 Y101.533 F1000
G0 Z3.0 ; Pen up

G0 X78.473 Y101.533 F3000 ; Travel to line 165
G0 Z0.0 ; Pen down
G1 X75.700 Y98.760 F1000
G0 Z3.0 ; Pen up

G0 X76.393 Y98.760 F3000 ; Travel to line 166
G0 Z0.0 ; Pen down
G1 X73.620 Y101.533 F1000
G0 Z3.0 ; Pen up

G0 X74.313 Y101.533 F3000 ; Travel to line 167
G0 Z0.0 ; Pen down
G1 X71.540 Y98.760 F1000
G0 Z3.0 ; Pen up

G0 X72.233 Y98.760 F3000 ; Travel to line 168
G0 Z0.0 ; Pen down
G1 X69.460 Y101.533 F1000
G0 Z3.0 ; Pen up

G0 X70.153 Y101.533 F3000 ; Travel to line 169
G0 Z0.0 ; Pen down
G1 X67.380 Y98.760 F1000
G0 Z3.0 ; Pen up

G0 X68.073 Y98.760 F3000 ; Travel to line 170
G0 Z0.0 ; Pen down
G1 X65.300 Y101.533 F1000
G0 Z3.0 ; Pen up

G0 X65.993 Y101.533 F3000 ; Travel to line 171
G0 Z0.0 ; Pen down
G1 X63.220 Y98.760 F1000
G0 Z3.0 ; Pen up

G0 X63.913 Y98.760 F3000 ; Travel to line 172
G0 Z0.0 ; Pen down
G1 X61.140 Y101.533 F1000
G0 Z3.0 ; Pen up

G0 X61.833 Y101.533 F3000 ; Travel to line 173
G0 Z0.0 ; Pen down
G1 X59.060 Y98.760 F1000
G1 X59.060 Y98.760 F1000
G1 X56.287 Y101.533 F1000
G0 Z3.0 ; Pen up

G0 X55.593 Y101.533 F3000 ; Travel to line 174
G0 Z0.0 ; Pen down
G1 X52.820 Y98.760 F1000
G1 X52.820 Y98.760 F1000
G1 X51.433 Y100.840 F1000
G1 X51.433 Y100.840 F1000
G1 X53.513 Y98.760 F1000
G1 X53.513 Y98.760 F1000
G1 X51.433 Y101.533 F1000
G1 X51.433 Y101.533 F1000
G1 X54.207 Y98.760 F1000
G1 X54.207 Y98.760 F1000
G1 X51.433 Y101.533 F1000
G1 X51.433 Y101.533 F1000
G1 X50.740 Y100.840 F1000
G1 X50.740 Y100.840 F1000
G1 X52.127 Y101.533 F1000
G1 X52.127 Y101.533 F1000
G1 X50.740 Y100.147 F1000
G0 Z3.0 ; Pen up

G0 X50.740 Y99.453 F3000 ; Travel to line 175
G0 Z0.0 ; Pen down
G1 X53.513 Y101.533 F1000
G1 X53.513 Y101.533 F1000
G1 X50.740 Y98.760 F1000
G0 Z3.0 ; Pen up

G0 X51.433 Y99.453 F3000 ; Travel to line 176
G0 Z0.0 ; Pen down
G1 X52.127 Y98.760 F1000
G1 X52.127 Y98.760 F1000
G1 X54.900 Y101.533 F1000
G1 X54.900 Y101.533 F1000
G1 X52.127 Y98.760 F1000
G0 Z3.0 ; Pen up

G0 X52.127 Y101.533 F3000 ; Travel to line 177
G0 Z0.0 ; Pen down
G1 X54.900 Y98.760 F1000
G1 X54.900 Y98.760 F1000
G1 X52.127 Y101.533 F1000
G0 Z3.0 ; Pen up

G0 X54.207 Y101.533 F3000 ; Travel to line 178
G0 Z0.0 ; Pen down
G1 X51.433 Y98.760 F1000
G1 X51.433 Y98.760 F1000
G1 X54.207 Y101.533 F1000
G1 X54.207 Y101.533 F1000
G1 X56.980 Y98.760 F1000
G1 X56.980 Y98.760 F1000
G1 X59.753 Y101.533 F1000
G0 Z3.0 ; Pen up

G0 X58.367 Y101.533 F3000 ; Travel to line 179
G0 Z0.0 ; Pen down
G1 X61.140 Y98.760 F1000
G1 X61.140 Y98.760 F1000
G1 X63.913 Y101.533 F1000
G0 Z3.0 ; Pen up

G0 X63.220 Y101.533 F3000 ; Travel to line 180
G0 Z0.0 ; Pen down
G1 X65.993 Y98.760 F1000
G0 Z3.0 ; Pen up

G0 X65.300 Y98.760 F3000 ; Travel to line 181
G0 Z0.0 ; Pen down
G1 X68.073 Y101.533 F1000
G0 Z3.0 ; Pen up

G0 X67.380 Y101.533 F3000 ; Travel to line 182
G0 Z0.0 ; Pen down
G1 X70.153 Y98.760 F1000
G0 Z3.0 ; Pen up

G0 X69.460 Y98.760 F3000 ; Travel to line 183
G0 Z0.0 ; Pen down
G1 X72.233 Y101.533 F1000
G0 Z3.0 ; Pen up

G0 X71.540 Y101.533 F3000 ; Travel to line 184
G0 Z0.0 ; Pen down
G1 X74.313 Y98.760 F1000
G0 Z3.0 ; Pen up

G0 X73.620 Y98.760 F3000 ; Travel to line 185
G0 Z0.0 ; Pen down
G1 X76.393 Y101.533 F1000
G0 Z3.0 ; Pen up

G0 X75.700 Y101.533 F3000 ; Travel to line 186
G0 Z0.0 ; Pen down
G1 X78.473 Y98.760 F1000
G0 Z3.0 ; Pen up

G0 X77.780 Y98.760 F3000 ; Travel to line 187
G0 Z0.0 ; Pen down
G1 X80.553 Y101.533 F1000
G0 Z3.0 ; Pen up

G0 X79.860 Y101.533 F3000 ; Travel to line 188
G0 Z0.0 ; Pen down
G1 X82.633 Y98.760 F1000
G0 Z3.0 ; Pen up

G0 X81.940 Y98.760 F3000 ; Travel to line 189
G0 Z0.0 ; Pen down
G1 X84.713 Y101.533 F1000
G0 Z3.0 ; Pen up

G0 X84.020 Y101.533 F3000 ; Travel to line 190
G0 Z0.0 ; Pen down
G1 X86.793 Y98.760 F1000
G1 X86.793 Y98.760 F1000
G1 X89.567 Y101.533 F1000
G0 Z3.0 ; Pen up

G0 X90.260 Y101.533 F3000 ; Travel to line 191
G0 Z0.0 ; Pen down
G1 X93.033 Y98.760 F1000
G1 X93.033 Y98.760 F1000
G1 X95.807 Y101.533 F1000
G0 Z3.0 ; Pen up

G0 X97.193 Y101.533 F3000 ; Travel to line 192
G0 Z0.0 ; Pen down
G1 X99.967 Y98.760 F1000
G0 Z3.0 ; Pen up

G0 X99.273 Y98.760 F3000 ; Travel to line 193
G0 Z0.0 ; Pen down
G1 X102.047 Y101.533 F1000
G0 Z3.0 ; Pen up

G0 X101.353 Y101.533 F3000 ; Travel to line 194
G0 Z0.0 ; Pen down
G1 X104.127 Y98.760 F1000
G1 X104.127 Y98.760 F1000
G1 X106.900 Y101.533 F1000
G1 X106.900 Y101.533 F1000
G1 X104.820 Y98.760 F1000
G1 X104.820 Y98.760 F1000
G1 X106.900 Y100.840 F1000
G1 X106.900 Y100.840 F1000
G1 X105.513 Y98.760 F1000
G0 Z3.0 ; Pen up

G0 X106.207 Y98.760 F3000 ; Travel to line 195
G0 Z0.0 ; Pen down
G1 X103.433 Y101.533 F1000
G0 Z3.0 ; Pen up

G0 X104.127 Y101.533 F3000 ; Travel to line 196
G0 Z0.0 ; Pen down
G1 X106.900 Y98.760 F1000
G1 X106.900 Y98.760 F1000
G1 X104.127 Y101.533 F1000
G1 X104.127 Y101.533 F1000
G1 X101.353 Y98.760 F1000
G0 Z3.0 ; Pen up

G0 X97.887 Y101.533 F3000 ; Travel to line 197
G0 Z0.0 ; Pen down
G1 X95.113 Y98.760 F1000
G1 X95.113 Y98.760 F1000
G1 X92.340 Y101.533 F1000
G0 Z3.0 ; Pen up

G0 X91.647 Y101.533 F3000 ; Travel to line 198
G0 Z0.0 ; Pen down
G1 X88.873 Y98.760 F1000
G1 X88.873 Y98.760 F1000
G1 X86.100 Y101.533 F1000
G0 Z3.0 ; Pen up

G0 X105.513 Y101.533 F3000 ; Travel to line 199
G0 Z0.0 ; Pen down
G1 X107.593 Y99.453 F1000
G1 X107.593 Y99.453 F1000
G1 X105.513 Y101.533 F1000
G0 Z3.0 ; Pen up

G0 X93.727 Y133.427 F3000 ; Travel to line 200
G0 Z0.0 ; Pen down
G1 X90.953 Y136.200 F1000
G1 X90.953 Y136.200 F1000
G1 X93.727 Y134.120 F1000
G1 X93.727 Y134.120 F1000
G1 X90.953 Y136.200 F1000
G0 Z3.0 ; Pen up

G0 X91.647 Y136.200 F3000 ; Travel to line 201
G0 Z0.0 ; Pen down
G1 X93.727 Y134.813 F1000
G0 Z3.0 ; Pen up

G0 X93.727 Y135.507 F3000 ; Travel to line 202
G0 Z0.0 ; Pen down
G1 X92.340 Y136.200 F1000
G1 X92.340 Y136.200 F1000
G1 X89.567 Y133.427 F1000
G1 X89.567 Y133.427 F1000
G1 X86.793 Y136.200 F1000
G0 Z3.0 ; Pen up

G0 X86.100 Y136.200 F3000 ; Travel to line 203
G0 Z0.0 ; Pen down
G1 X83.327 Y133.427 F1000
G1 X83.327 Y133.427 F1000
G1 X80.553 Y136.200 F1000
G0 Z3.0 ; Pen up

G0 X79.860 Y136.200 F3000 ; Travel to line 204
G0 Z0.0 ; Pen down
G1 X77.087 Y133.427 F1000
G1 X77.087 Y133.427 F1000
G1 X74.313 Y136.200 F1000
G0 Z3.0 ; Pen up

G0 X73.620 Y136.200 F3000 ; Travel to line 205
G0 Z0.0 ; Pen down
G1 X70.847 Y133.427 F1000
G1 X70.847 Y133.427 F1000
G1 X68.073 Y136.200 F1000
G0 Z3.0 ; Pen up

G0 X67.380 Y136.200 F3000 ; Travel to line 206
G0 Z0.0 ; Pen down
G1 X64.607 Y133.427 F1000
G1 X64.607 Y133.427 F1000
G1 X61.833 Y136.200 F1000
G0 Z3.0 ; Pen up

G0 X62.527 Y136.200 F3000 ; Travel to line 207
G0 Z0.0 ; Pen down
G1 X59.753 Y133.427 F1000
G0 Z3.0 ; Pen up

G0 X60.447 Y133.427 F3000 ; Travel to line 208
G0 Z0.0 ; Pen down
G1 X57.673 Y136.200 F1000
G0 Z3.0 ; Pen up

G0 X58.367 Y136.200 F3000 ; Travel to line 209
G0 Z0.0 ; Pen down
G1 X55.593 Y133.427 F1000
G1 X55.593 Y133.427 F1000
G1 X52.820 Y136.200 F1000
G1 X52.820 Y136.200 F1000
G1 X50.740 Y134.813 F1000
G0 Z3.0 ; Pen up

G0 X50.740 Y135.507 F3000 ; Travel to line 210
G0 Z0.0 ; Pen down
G1 X52.127 Y136.200 F1000
G1 X52.127 Y136.200 F1000
G1 X54.900 Y133.427 F1000
G0 Z3.0 ; Pen up

G0 X53.513 Y133.427 F3000 ; Travel to line 211
G0 Z0.0 ; Pen down
G1 X56.287 Y136.200 F1000
G0 Z3.0 ; Pen up

G0 X55.593 Y136.200 F3000 ; Travel to line 212
G0 Z0.0 ; Pen down
G1 X52.820 Y133.427 F1000
G1 X52.820 Y133.427 F1000
G1 X51.433 Y135.507 F1000
G0 Z3.0 ; Pen up

G0 X51.433 Y134.813 F3000 ; Travel to line 213
G0 Z0.0 ; Pen down
G1 X52.127 Y133.427 F1000
G1 X52.127 Y133.427 F1000
G1 X54.900 Y136.200 F1000
G1 X54.900 Y136.200 F1000
G1 X57.673 Y133.427 F1000
G1 X57.673 Y133.427 F1000
G1 X60.447 Y136.200 F1000
G0 Z3.0 ; Pen up

G0 X59.753 Y136.200 F3000 ; Travel to line 214
G0 Z0.0 ; Pen down
G1 X62.527 Y133.427 F1000
G1 X62.527 Y133.427 F1000
G1 X65.300 Y136.200 F1000
G0 Z3.0 ; Pen up

G0 X65.993 Y136.200 F3000 ; Travel to line 215
G0 Z0.0 ; Pen down
G1 X68.767 Y133.427 F1000
G1 X68.767 Y133.427 F1000
G1 X71.540 Y136.200 F1000
G0 Z3.0 ; Pen up

G0 X72.233 Y136.200 F3000 ; Travel to line 216
G0 Z0.0 ; Pen down
G1 X75.007 Y133.427 F1000
G1 X75.007 Y133.427 F1000
G1 X77.780 Y136.200 F1000
G0 Z3.0 ; Pen up

G0 X78.473 Y136.200 F3000 ; Travel to line 217
G0 Z0.0 ; Pen down
G1 X81.247 Y133.427 F1000
G1 X81.247 Y133.427 F1000
G1 X84.020 Y136.200 F1000
G0 Z3.0 ; Pen up

G0 X84.713 Y136.200 F3000 ; Travel to line 218
G0 Z0.0 ; Pen down
G1 X87.487 Y133.427 F1000
G1 X87.487 Y133.427 F1000
G1 X90.260 Y136.200 F1000
G1 X90.260 Y136.200 F1000
G1 X93.033 Y133.427 F1000
G1 X93.033 Y133.427 F1000
G1 X93.033 Y134.120 F1000
G0 Z3.0 ; Pen up

G0 X93.033 Y134.813 F3000 ; Travel to line 219
G0 Z0.0 ; Pen down
G1 X92.340 Y133.427 F1000
G1 X92.340 Y133.427 F1000
G1 X89.567 Y136.200 F1000
G0 Z3.0 ; Pen up

G0 X88.873 Y136.200 F3000 ; Travel to line 220
G0 Z0.0 ; Pen down
G1 X91.647 Y133.427 F1000
G1 X91.647 Y133.427 F1000
G1 X93.033 Y135.507 F1000
G0 Z3.0 ; Pen up

G0 X93.033 Y136.200 F3000 ; Travel to line 221
G0 Z0.0 ; Pen down
G1 X90.260 Y133.427 F1000
G0 Z3.0 ; Pen up

G0 X91.647 Y133.427 F3000 ; Travel to line 222
G0 Z0.0 ; Pen down
G1 X93.033 Y135.507 F1000
G1 X93.033 Y135.507 F1000
G1 X90.953 Y133.427 F1000
G1 X90.953 Y133.427 F1000
G1 X93.033 Y136.200 F1000
G1 X93.033 Y136.200 F1000
G1 X93.727 Y136.200 F1000
G0 Z3.0 ; Pen up

G0 X88.180 Y136.200 F3000 ; Travel to line 223
G0 Z0.0 ; Pen down
G1 X85.407 Y133.427 F1000
G1 X85.407 Y133.427 F1000
G1 X82.633 Y136.200 F1000
G0 Z3.0 ; Pen up

G0 X81.940 Y136.200 F3000 ; Travel to line 224
G0 Z0.0 ; Pen down
G1 X79.167 Y133.427 F1000
G1 X79.167 Y133.427 F1000
G1 X76.393 Y136.200 F1000
G0 Z3.0 ; Pen up

G0 X75.700 Y136.200 F3000 ; Travel to line 225
G0 Z0.0 ; Pen down
G1 X72.927 Y133.427 F1000
G1 X72.927 Y133.427 F1000
G1 X70.153 Y136.200 F1000
G0 Z3.0 ; Pen up

G0 X69.460 Y136.200 F3000 ; Travel to line 226
G0 Z0.0 ; Pen down
G1 X66.687 Y133.427 F1000
G1 X66.687 Y133.427 F1000
G1 X63.913 Y136.200 F1000
G0 Z3.0 ; Pen up

G0 X54.207 Y136.200 F3000 ; Travel to line 227
G0 Z0.0 ; Pen down
G1 X51.433 Y133.427 F1000
G1 X51.433 Y133.427 F1000
G1 X54.207 Y136.200 F1000
G1 X54.207 Y136.200 F1000
G1 X51.433 Y133.427 F1000
G0 Z3.0 ; Pen up

G0 X50.740 Y134.120 F3000 ; Travel to line 228
G0 Z0.0 ; Pen down
G1 X53.513 Y136.200 F1000
G0 Z3.0 ; Pen up

G0 X52.127 Y136.200 F3000 ; Travel to line 229
G0 Z0.0 ; Pen down
G1 X50.740 Y135.507 F1000
G1 X50.740 Y135.507 F1000
G1 X51.433 Y136.200 F1000
G1 X51.433 Y136.200 F1000
G1 X50.740 Y136.200 F1000
G0 Z3.0 ; Pen up

G0 X51.433 Y136.200 F3000 ; Travel to line 230
G0 Z0.0 ; Pen down
G1 X54.207 Y133.427 F1000
G1 X54.207 Y133.427 F1000
G1 X51.433 Y136.200 F1000
G1 X51.433 Y136.200 F1000
G1 X53.513 Y133.427 F1000
G1 X53.513 Y133.427 F1000
G1 X51.433 Y136.200 F1000
G0 Z3.0 ; Pen up

G0 X35.487 Y134.813 F3000 ; Travel to line 231
G0 Z0.0 ; Pen down
G1 X34.793 Y134.813 F1000
G0 Z3.0 ; Pen up

G0 X34.793 Y134.120 F3000 ; Travel to line 232
G0 Z0.0 ; Pen down
G1 X33.407 Y132.733 F1000
G0 Z3.0 ; Pen up

G0 X32.713 Y132.733 F3000 ; Travel to line 233
G0 Z0.0 ; Pen down
G1 X30.633 Y134.813 F1000
G0 Z3.0 ; Pen up

G0 X31.327 Y134.813 F3000 ; Travel to line 234
G0 Z0.0 ; Pen down
G1 X29.247 Y132.733 F1000
G1 X29.247 Y132.733 F1000
G1 X26.473 Y136.200 F1000
G1 X26.473 Y136.200 F1000
G1 X28.553 Y132.733 F1000
G1 X28.553 Y132.733 F1000
G1 X26.473 Y136.200 F1000
G0 Z3.0 ; Pen up

G0 X27.167 Y136.893 F3000 ; Travel to line 235
G0 Z0.0 ; Pen down
G1 X29.940 Y132.733 F1000
G1 X29.940 Y132.733 F1000
G1 X27.167 Y136.893 F1000
G0 Z3.0 ; Pen up

G0 X27.860 Y137.587 F3000 ; Travel to line 236
G0 Z0.0 ; Pen down
G1 X28.553 Y138.280 F1000
G1 X28.553 Y138.280 F1000
G1 X29.940 Y136.200 F1000
G0 Z3.0 ; Pen up

G0 X29.940 Y136.893 F3000 ; Travel to line 237
G0 Z0.0 ; Pen down
G1 X29.247 Y138.973 F1000
G1 X29.247 Y138.973 F1000
G1 X28.553 Y138.973 F1000
G0 Z3.0 ; Pen up

G0 X29.247 Y138.973 F3000 ; Travel to line 238
G0 Z0.0 ; Pen down
G1 X24.393 Y134.120 F1000
G0 Z3.0 ; Pen up

G0 X25.087 Y134.120 F3000 ; Travel to line 239
G0 Z0.0 ; Pen down
G1 X25.780 Y132.733 F1000
G1 X25.780 Y132.733 F1000
G1 X27.860 Y135.507 F1000
G1 X27.860 Y135.507 F1000
G1 X25.780 Y132.733 F1000
G0 Z3.0 ; Pen up

G0 X24.393 Y132.733 F3000 ; Travel to line 240
G0 Z0.0 ; Pen down
G1 X34.793 Y143.827 F1000
G0 Z3.0 ; Pen up

G0 X35.487 Y144.520 F3000 ; Travel to line 241
G0 Z0.0 ; Pen down
G1 X31.327 Y148.680 F1000
G1 X31.327 Y148.680 F1000
G1 X29.940 Y146.600 F1000
G0 Z3.0 ; Pen up

G0 X29.247 Y146.600 F3000 ; Travel to line 242
G0 Z0.0 ; Pen down
G1 X27.167 Y148.680 F1000
G1 X27.167 Y148.680 F1000
G1 X25.087 Y145.907 F1000
G0 Z3.0 ; Pen up

G0 X26.473 Y146.600 F3000 ; Travel to line 243
G0 Z0.0 ; Pen down
G1 X26.473 Y145.907 F1000
G1 X26.473 Y145.907 F1000
G1 X25.087 Y147.987 F1000
G0 Z3.0 ; Pen up

G0 X25.780 Y147.987 F3000 ; Travel to line 244
G0 Z0.0 ; Pen down
G1 X27.167 Y146.600 F1000
G1 X27.167 Y146.600 F1000
G1 X25.780 Y147.987 F1000
G1 X25.780 Y147.987 F1000
G1 X24.393 Y147.293 F1000
G0 Z3.0 ; Pen up

G0 X26.473 Y147.987 F3000 ; Travel to line 245
G0 Z0.0 ; Pen down
G1 X27.860 Y146.600 F1000
G1 X27.860 Y146.600 F1000
G1 X26.473 Y147.987 F1000
G1 X26.473 Y147.987 F1000
G1 X27.860 Y146.600 F1000
G1 X27.860 Y146.600 F1000
G1 X26.473 Y147.987 F1000
G0 Z3.0 ; Pen up

G0 X27.167 Y146.600 F3000 ; Travel to line 246
G0 Z0.0 ; Pen down
G1 X28.553 Y148.680 F1000
G0 Z3.0 ; Pen up

G0 X29.940 Y148.680 F3000 ; Travel to line 247
G0 Z0.0 ; Pen down
G1 X28.553 Y146.600 F1000
G1 X28.553 Y146.600 F1000
G1 X29.940 Y148.680 F1000
G1 X29.940 Y148.680 F1000
G1 X28.553 Y146.600 F1000
G0 Z3.0 ; Pen up

G0 X27.860 Y146.600 F3000 ; Travel to line 248
G0 Z0.0 ; Pen down
G1 X29.247 Y148.680 F1000
G1 X29.247 Y148.680 F1000
G1 X27.860 Y146.600 F1000
G1 X27.860 Y146.600 F1000
G1 X29.247 Y148.680 F1000
G1 X29.247 Y148.680 F1000
G1 X31.327 Y146.600 F1000
G1 X31.327 Y146.600 F1000
G1 X32.713 Y147.987 F1000
G0 Z3.0 ; Pen up

G0 X33.407 Y147.987 F3000 ; Travel to line 249
G0 Z0.0 ; Pen down
G1 X32.020 Y145.907 F1000
G0 Z3.0 ; Pen up

G0 X32.713 Y145.213 F3000 ; Travel to line 250
G0 Z0.0 ; Pen down
G1 X34.100 Y146.600 F1000
G1 X34.100 Y146.600 F1000
G1 X32.713 Y145.213 F1000
G1 X32.713 Y145.213 F1000
G1 X34.100 Y146.600 F1000
G0 Z3.0 ; Pen up

G0 X34.793 Y145.907 F3000 ; Travel to line 251
G0 Z0.0 ; Pen down
G1 X32.713 Y143.827 F1000
G1 X32.713 Y143.827 F1000
G1 X34.793 Y145.907 F1000
G1 X34.793 Y145.907 F1000
G1 X32.713 Y144.520 F1000
G0 Z3.0 ; Pen up

G0 X33.407 Y144.520 F3000 ; Travel to line 252
G0 Z0.0 ; Pen down
G1 X35.487 Y142.440 F1000
G0 Z3.0 ; Pen up

G0 X34.100 Y142.440 F3000 ; Travel to line 253
G0 Z0.0 ; Pen down
G1 X29.940 Y137.587 F1000
G1 X29.940 Y137.587 F1000
G1 X34.100 Y142.440 F1000
G0 Z3.0 ; Pen up

G0 X32.713 Y142.440 F3000 ; Travel to line 254
G0 Z0.0 ; Pen down
G1 X34.100 Y141.053 F1000
G1 X34.100 Y141.053 F1000
G1 X32.713 Y142.440 F1000
G0 Z3.0 ; Pen up

G0 X32.713 Y143.133 F3000 ; Travel to line 255
G0 Z0.0 ; Pen down
G1 X34.793 Y141.053 F1000
G0 Z3.0 ; Pen up

G0 X32.713 Y141.747 F3000 ; Travel to line 256
G0 Z0.0 ; Pen down
G1 X33.407 Y140.360 F1000
G1 X33.407 Y140.360 F1000
G1 X32.713 Y141.747 F1000
G0 Z3.0 ; Pen up

G0 X32.020 Y141.747 F3000 ; Travel to line 257
G0 Z0.0 ; Pen down
G1 X33.407 Y140.360 F1000
G1 X33.407 Y140.360 F1000
G1 X32.020 Y141.747 F1000
G1 X32.020 Y141.747 F1000
G1 X31.327 Y141.747 F1000
G0 Z3.0 ; Pen up

G0 X30.633 Y141.053 F3000 ; Travel to line 258
G0 Z0.0 ; Pen down
G1 X31.327 Y141.053 F1000
G1 X31.327 Y141.053 F1000
G1 X32.713 Y139.667 F1000
G0 Z3.0 ; Pen up

G0 X32.020 Y138.973 F3000 ; Travel to line 259
G0 Z0.0 ; Pen down
G1 X30.633 Y140.360 F1000
G1 X30.633 Y140.360 F1000
G1 X31.327 Y138.280 F1000
G1 X31.327 Y138.280 F1000
G1 X29.940 Y139.667 F1000
G1 X29.940 Y139.667 F1000
G1 X29.247 Y139.667 F1000
G0 Z3.0 ; Pen up

G0 X29.940 Y139.667 F3000 ; Travel to line 260
G0 Z0.0 ; Pen down
G1 X31.327 Y138.280 F1000
G1 X31.327 Y138.280 F1000
G1 X29.940 Y139.667 F1000
G0 Z3.0 ; Pen up

G0 X29.940 Y140.360 F3000 ; Travel to line 261
G0 Z0.0 ; Pen down
G1 X30.633 Y140.360 F1000
G1 X30.633 Y140.360 F1000
G1 X32.020 Y138.973 F1000
G1 X32.020 Y138.973 F1000
G1 X30.633 Y140.360 F1000
G0 Z3.0 ; Pen up

G0 X32.020 Y142.440 F3000 ; Travel to line 262
G0 Z0.0 ; Pen down
G1 X34.793 Y145.213 F1000
G0 Z3.0 ; Pen up

G0 X34.100 Y134.813 F3000 ; Travel to line 263
G0 Z0.0 ; Pen down
G1 X35.487 Y134.120 F1000
G1 X35.487 Y134.120 F1000
G1 X34.100 Y134.813 F1000
G1 X34.100 Y134.813 F1000
G1 X35.487 Y134.120 F1000
G0 Z3.0 ; Pen up

G0 X34.793 Y133.427 F3000 ; Travel to line 264
G0 Z0.0 ; Pen down
G1 X34.100 Y132.733 F1000
G1 X34.100 Y132.733 F1000
G1 X32.020 Y134.813 F1000
G0 Z3.0 ; Pen up

G0 X31.327 Y132.733 F3000 ; Travel to line 265
G0 Z0.0 ; Pen down
G1 X33.407 Y134.813 F1000
G1 X33.407 Y134.813 F1000
G1 X34.793 Y132.733 F1000
G0 Z3.0 ; Pen up

G0 X30.633 Y132.733 F3000 ; Travel to line 266
G0 Z0.0 ; Pen down
G1 X29.247 Y134.813 F1000
G1 X29.247 Y134.813 F1000
G1 X27.167 Y132.733 F1000
G1 X27.167 Y132.733 F1000
G1 X25.780 Y134.813 F1000
G0 Z3.0 ; Pen up

G0 X25.780 Y135.507 F3000 ; Travel to line 267
G0 Z0.0 ; Pen down
G1 X27.860 Y132.733 F1000
G0 Z3.0 ; Pen up

G0 X29.940 Y132.733 F3000 ; Travel to line 268
G0 Z0.0 ; Pen down
G1 X27.167 Y136.893 F1000
G1 X27.167 Y136.893 F1000
G1 X28.553 Y135.507 F1000
G0 Z3.0 ; Pen up

G0 X28.553 Y134.813 F3000 ; Travel to line 269
G0 Z0.0 ; Pen down
G1 X26.473 Y132.733 F1000
G1 X26.473 Y132.733 F1000
G1 X28.553 Y134.813 F1000
G1 X28.553 Y134.813 F1000
G1 X26.473 Y132.733 F1000
G1 X26.473 Y132.733 F1000
G1 X28.553 Y134.813 F1000
G0 Z3.0 ; Pen up

G0 X28.553 Y136.200 F3000 ; Travel to line 270
G0 Z0.0 ; Pen down
G1 X29.247 Y136.893 F1000
G1 X29.247 Y136.893 F1000
G1 X32.713 Y140.360 F1000
G1 X32.713 Y140.360 F1000
G1 X29.247 Y136.893 F1000
G1 X29.247 Y136.893 F1000
G1 X28.553 Y136.200 F1000
G1 X28.553 Y136.200 F1000
G1 X25.780 Y133.427 F1000
G1 X25.780 Y133.427 F1000
G1 X28.553 Y136.200 F1000
G0 Z3.0 ; Pen up

G0 X29.247 Y114.013 F3000 ; Travel to line 271
G0 Z0.0 ; Pen down
G1 X27.860 Y111.933 F1000
G1 X27.860 Y111.933 F1000
G1 X29.247 Y114.013 F1000
G0 Z3.0 ; Pen up

G0 X29.940 Y114.013 F3000 ; Travel to line 272
G0 Z0.0 ; Pen down
G1 X28.553 Y111.933 F1000
G1 X28.553 Y111.933 F1000
G1 X29.940 Y114.013 F1000
G0 Z3.0 ; Pen up

G0 X29.940 Y111.933 F3000 ; Travel to line 273
G0 Z0.0 ; Pen down
G1 X27.860 Y114.013 F1000
G1 X27.860 Y114.013 F1000
G1 X25.780 Y111.240 F1000
G1 X25.780 Y111.240 F1000
G1 X25.780 Y111.933 F1000
G0 Z3.0 ; Pen up

G0 X25.087 Y112.627 F3000 ; Travel to line 274
G0 Z0.0 ; Pen down
G1 X26.473 Y113.320 F1000
G1 X26.473 Y113.320 F1000
G1 X27.860 Y111.933 F1000
G1 X27.860 Y111.933 F1000
G1 X29.940 Y114.013 F1000
G1 X29.940 Y114.013 F1000
G1 X32.713 Y111.240 F1000
G1 X32.713 Y111.240 F1000
G1 X34.100 Y112.627 F1000
G0 Z3.0 ; Pen up

G0 X34.793 Y111.933 F3000 ; Travel to line 275
G0 Z0.0 ; Pen down
G1 X32.713 Y109.853 F1000
G1 X32.713 Y109.853 F1000
G1 X34.793 Y111.933 F1000
G0 Z3.0 ; Pen up

G0 X34.793 Y111.240 F3000 ; Travel to line 276
G0 Z0.0 ; Pen down
G1 X32.713 Y109.160 F1000
G1 X32.713 Y109.160 F1000
G1 X34.793 Y111.240 F1000
G1 X34.793 Y111.240 F1000
G1 X32.713 Y109.160 F1000
G0 Z3.0 ; Pen up

G0 X32.713 Y108.467 F3000 ; Travel to line 277
G0 Z0.0 ; Pen down
G1 X30.633 Y105.693 F1000
G1 X30.633 Y105.693 F1000
G1 X34.793 Y110.547 F1000
G1 X34.793 Y110.547 F1000
G1 X30.633 Y105.693 F1000
G1 X30.633 Y105.693 F1000
G1 X28.553 Y107.773 F1000
G1 X28.553 Y107.773 F1000
G1 X30.633 Y105.693 F1000
G1 X30.633 Y105.693 F1000
G1 X28.553 Y107.773 F1000
G1 X28.553 Y107.773 F1000
G1 X27.167 Y107.080 F1000
G0 Z3.0 ; Pen up

G0 X27.860 Y106.387 F3000 ; Travel to line 278
G0 Z0.0 ; Pen down
G1 X27.860 Y105.693 F1000
G1 X27.860 Y105.693 F1000
G1 X29.940 Y107.773 F1000
G0 Z3.0 ; Pen up

G0 X30.633 Y107.773 F3000 ; Travel to line 279
G0 Z0.0 ; Pen down
G1 X36.180 Y102.920 F1000
G0 Z3.0 ; Pen up

G0 X36.180 Y103.613 F3000 ; Travel to line 280
G0 Z0.0 ; Pen down
G1 X31.327 Y107.773 F1000
G1 X31.327 Y107.773 F1000
G1 X29.247 Y105.693 F1000
G1 X29.247 Y105.693 F1000
G1 X27.860 Y107.773 F1000
G1 X27.860 Y107.773 F1000
G1 X29.940 Y105.693 F1000
G1 X29.940 Y105.693 F1000
G1 X27.860 Y107.773 F1000
G0 Z3.0 ; Pen up

G0 X29.247 Y107.773 F3000 ; Travel to line 281
G0 Z0.0 ; Pen down
G1 X31.327 Y105.693 F1000
G0 Z3.0 ; Pen up

G0 X30.633 Y105.693 F3000 ; Travel to line 282
G0 Z0.0 ; Pen down
G1 X32.713 Y108.467 F1000
G1 X32.713 Y108.467 F1000
G1 X29.940 Y105.693 F1000
G1 X29.940 Y105.693 F1000
G1 X32.020 Y108.467 F1000
G1 X32.020 Y108.467 F1000
G1 X29.940 Y106.387 F1000
G0 Z3.0 ; Pen up

G0 X31.327 Y107.773 F3000 ; Travel to line 283
G0 Z0.0 ; Pen down
G1 X36.180 Y103.613 F1000
G1 X36.180 Y103.613 F1000
G1 X32.020 Y107.773 F1000
G0 Z3.0 ; Pen up

G0 X32.020 Y108.467 F3000 ; Travel to line 284
G0 Z0.0 ; Pen down
G1 X33.407 Y107.080 F1000
G1 X33.407 Y107.080 F1000
G1 X32.020 Y108.467 F1000
G0 Z3.0 ; Pen up

G0 X33.407 Y108.467 F3000 ; Travel to line 285
G0 Z0.0 ; Pen down
G1 X34.100 Y107.773 F1000
G0 Z3.0 ; Pen up

G0 X34.100 Y106.387 F3000 ; Travel to line 286
G0 Z0.0 ; Pen down
G1 X35.487 Y105.000 F1000
G1 X35.487 Y105.000 F1000
G1 X34.100 Y106.387 F1000
G1 X34.100 Y106.387 F1000
G1 X32.713 Y104.307 F1000
G1 X32.713 Y104.307 F1000
G1 X34.100 Y106.387 F1000
G1 X34.100 Y106.387 F1000
G1 X32.713 Y105.000 F1000
G1 X32.713 Y105.000 F1000
G1 X34.100 Y106.387 F1000
G1 X34.100 Y106.387 F1000
G1 X32.713 Y105.000 F1000
G0 Z3.0 ; Pen up

G0 X32.020 Y105.000 F3000 ; Travel to line 287
G0 Z0.0 ; Pen down
G1 X33.407 Y106.387 F1000
G0 Z3.0 ; Pen up

G0 X34.793 Y105.000 F3000 ; Travel to line 288
G0 Z0.0 ; Pen down
G1 X33.407 Y103.613 F1000
G0 Z3.0 ; Pen up

G0 X34.100 Y102.920 F3000 ; Travel to line 289
G0 Z0.0 ; Pen down
G1 X35.487 Y101.533 F1000
G1 X35.487 Y101.533 F1000
G1 X34.100 Y102.920 F1000
G0 Z3.0 ; Pen up

G0 X33.407 Y102.227 F3000 ; Travel to line 290
G0 Z0.0 ; Pen down
G1 X35.487 Y100.840 F1000
G1 X35.487 Y100.840 F1000
G1 X33.407 Y102.227 F1000
G1 X33.407 Y102.227 F1000
G1 X34.793 Y100.147 F1000
G1 X34.793 Y100.147 F1000
G1 X33.407 Y102.227 F1000
G1 X33.407 Y102.227 F1000
G1 X35.487 Y100.147 F1000
G0 Z3.0 ; Pen up

G0 X34.793 Y100.840 F3000 ; Travel to line 291
G0 Z0.0 ; Pen down
G1 X32.713 Y98.760 F1000
G1 X32.713 Y98.760 F1000
G1 X31.327 Y100.147 F1000
G0 Z3.0 ; Pen up

G0 X32.713 Y100.840 F3000 ; Travel to line 292
G0 Z0.0 ; Pen down
G1 X34.100 Y99.453 F1000
G0 Z3.0 ; Pen up

G0 X31.327 Y98.067 F3000 ; Travel to line 293
G0 Z0.0 ; Pen down
G1 X29.940 Y100.147 F1000
G1 X29.940 Y100.147 F1000
G1 X27.860 Y98.067 F1000
G1 X27.860 Y98.067 F1000
G1 X25.780 Y100.840 F1000
G1 X25.780 Y100.840 F1000
G1 X24.393 Y99.453 F1000
G1 X24.393 Y99.453 F1000
G1 X25.780 Y100.840 F1000
G1 X25.780 Y100.840 F1000
G1 X24.393 Y100.147 F1000
G0 Z3.0 ; Pen up

G0 X25.087 Y100.147 F3000 ; Travel to line 294
G0 Z0.0 ; Pen down
G1 X25.780 Y98.760 F1000
G1 X25.780 Y98.760 F1000
G1 X27.167 Y100.147 F1000
G1 X27.167 Y100.147 F1000
G1 X28.553 Y98.067 F1000
G1 X28.553 Y98.067 F1000
G1 X27.167 Y100.147 F1000
G1 X27.167 Y100.147 F1000
G1 X29.247 Y98.067 F1000
G1 X29.247 Y98.067 F1000
G1 X27.860 Y100.147 F1000
G1 X27.860 Y100.147 F1000
G1 X26.473 Y98.760 F1000
G1 X26.473 Y98.760 F1000
G1 X27.860 Y100.147 F1000
G0 Z3.0 ; Pen up

G0 X29.247 Y100.147 F3000 ; Travel to line 295
G0 Z0.0 ; Pen down
G1 X27.167 Y98.067 F1000
G1 X27.167 Y98.067 F1000
G1 X29.247 Y100.147 F1000
G0 Z3.0 ; Pen up

G0 X29.247 Y98.067 F3000 ; Travel to line 296
G0 Z0.0 ; Pen down
G1 X27.860 Y100.147 F1000
G1 X27.860 Y100.147 F1000
G1 X29.940 Y98.067 F1000
G1 X29.940 Y98.067 F1000
G1 X35.487 Y103.613 F1000
G0 Z3.0 ; Pen up

G0 X35.487 Y108.467 F3000 ; Travel to line 297
G0 Z0.0 ; Pen down
G1 X33.407 Y110.547 F1000
G0 Z3.0 ; Pen up

G0 X35.487 Y110.547 F3000 ; Travel to line 298
G0 Z0.0 ; Pen down
G1 X32.020 Y114.013 F1000
G1 X32.020 Y114.013 F1000
G1 X30.633 Y111.933 F1000
G0 Z3.0 ; Pen up

G0 X31.327 Y111.933 F3000 ; Travel to line 299
G0 Z0.0 ; Pen down
G1 X33.407 Y113.320 F1000
G0 Z3.0 ; Pen up

G0 X29.247 Y111.933 F3000 ; Travel to line 300
G0 Z0.0 ; Pen down
G1 X30.633 Y114.013 F1000
G1 X30.633 Y114.013 F1000
G1 X28.553 Y111.933 F1000
G0 Z3.0 ; Pen up

G0 X27.167 Y111.933 F3000 ; Travel to line 301
G0 Z0.0 ; Pen down
G1 X25.780 Y113.320 F1000
G1 X25.780 Y113.320 F1000
G1 X27.167 Y111.933 F1000
G1 X27.167 Y111.933 F1000
G1 X25.780 Y113.320 F1000
G0 Z3.0 ; Pen up

G0 X27.167 Y114.013 F3000 ; Travel to line 302
G0 Z0.0 ; Pen down
G1 X28.553 Y111.933 F1000
G1 X28.553 Y111.933 F1000
G1 X27.167 Y114.013 F1000
G0 Z3.0 ; Pen up

G0 X25.780 Y100.840 F3000 ; Travel to line 303
G0 Z0.0 ; Pen down
G1 X24.393 Y100.147 F1000
G1 X24.393 Y100.147 F1000
G1 X25.780 Y100.840 F1000
G0 Z3.0 ; Pen up

G0 X25.087 Y100.840 F3000 ; Travel to line 304
G0 Z0.0 ; Pen down
G1 X24.393 Y100.840 F1000
G1 X24.393 Y100.840 F1000
G1 X25.087 Y100.840 F1000
G0 Z3.0 ; Pen up

G0 X26.473 Y98.760 F3000 ; Travel to line 305
G0 Z0.0 ; Pen down
G1 X28.553 Y100.147 F1000
G1 X28.553 Y100.147 F1000
G1 X30.633 Y98.067 F1000
G0 Z3.0 ; Pen up

G0 X30.633 Y79.347 F3000 ; Travel to line 306
G0 Z0.0 ; Pen down
G1 X31.327 Y79.347 F1000
G0 Z3.0 ; Pen up

G0 X31.327 Y78.653 F3000 ; Travel to line 307
G0 Z0.0 ; Pen down
G1 X34.100 Y75.880 F1000
G0 Z3.0 ; Pen up

G0 X33.407 Y75.880 F3000 ; Travel to line 308
G0 Z0.0 ; Pen down
G1 X32.020 Y74.493 F1000
G1 X32.020 Y74.493 F1000
G1 X33.407 Y75.880 F1000
G0 Z3.0 ; Pen up

G0 X33.407 Y76.573 F3000 ; Travel to line 309
G0 Z0.0 ; Pen down
G1 X32.020 Y75.187 F1000
G0 Z3.0 ; Pen up

G0 X32.713 Y74.493 F3000 ; Travel to line 310
G0 Z0.0 ; Pen down
G1 X34.100 Y73.107 F1000
G0 Z3.0 ; Pen up

G0 X33.407 Y72.413 F3000 ; Travel to line 311
G0 Z0.0 ; Pen down
G1 X32.020 Y71.027 F1000
G1 X32.020 Y71.027 F1000
G1 X33.407 Y72.413 F1000
G0 Z3.0 ; Pen up

G0 X32.713 Y72.413 F3000 ; Travel to line 312
G0 Z0.0 ; Pen down
G1 X34.100 Y71.027 F1000
G1 X34.100 Y71.027 F1000
G1 X32.713 Y72.413 F1000
G1 X32.713 Y72.413 F1000
G1 X34.100 Y71.027 F1000
G0 Z3.0 ; Pen up

G0 X33.407 Y71.027 F3000 ; Travel to line 313
G0 Z0.0 ; Pen down
G1 X32.020 Y69.640 F1000
G1 X32.020 Y69.640 F1000
G1 X33.407 Y71.027 F1000
G1 X33.407 Y71.027 F1000
G1 X32.020 Y69.640 F1000
G0 Z3.0 ; Pen up

G0 X32.020 Y68.947 F3000 ; Travel to line 314
G0 Z0.0 ; Pen down
G1 X34.100 Y66.867 F1000
G1 X34.100 Y66.867 F1000
G1 X32.020 Y68.947 F1000
G0 Z3.0 ; Pen up

G0 X32.713 Y69.640 F3000 ; Travel to line 315
G0 Z0.0 ; Pen down
G1 X34.793 Y66.867 F1000
G1 X34.793 Y66.867 F1000
G1 X32.713 Y69.640 F1000
G1 X32.713 Y69.640 F1000
G1 X34.793 Y66.867 F1000
G0 Z3.0 ; Pen up

G0 X35.487 Y66.867 F3000 ; Travel to line 316
G0 Z0.0 ; Pen down
G1 X36.180 Y67.560 F1000
G0 Z3.0 ; Pen up

G0 X36.873 Y68.253 F3000 ; Travel to line 317
G0 Z0.0 ; Pen down
G1 X35.487 Y68.947 F1000
G1 X35.487 Y68.947 F1000
G1 X36.873 Y68.253 F1000
G1 X36.873 Y68.253 F1000
G1 X35.487 Y68.947 F1000
G0 Z3.0 ; Pen up

G0 X36.180 Y68.947 F3000 ; Travel to line 318
G0 Z0.0 ; Pen down
G1 X34.100 Y66.867 F1000
G0 Z3.0 ; Pen up

G0 X33.407 Y66.173 F3000 ; Travel to line 319
G0 Z0.0 ; Pen down
G1 X31.327 Y64.093 F1000
G0 Z3.0 ; Pen up

G0 X32.020 Y64.787 F3000 ; Travel to line 320
G0 Z0.0 ; Pen down
G1 X32.713 Y63.400 F1000
G0 Z3.0 ; Pen up

G0 X33.407 Y63.400 F3000 ; Travel to line 321
G0 Z0.0 ; Pen down
G1 X32.020 Y66.173 F1000
G0 Z3.0 ; Pen up

G0 X31.327 Y66.867 F3000 ; Travel to line 322
G0 Z0.0 ; Pen down
G1 X33.407 Y68.947 F1000
G0 Z3.0 ; Pen up

G0 X34.793 Y68.947 F3000 ; Travel to line 323
G0 Z0.0 ; Pen down
G1 X36.873 Y67.560 F1000
G1 X36.873 Y67.560 F1000
G1 X34.793 Y68.947 F1000
G0 Z3.0 ; Pen up

G0 X32.713 Y70.333 F3000 ; Travel to line 324
G0 Z0.0 ; Pen down
G1 X35.487 Y66.867 F1000
G1 X35.487 Y66.867 F1000
G1 X32.713 Y70.333 F1000
G0 Z3.0 ; Pen up

G0 X32.713 Y71.720 F3000 ; Travel to line 325
G0 Z0.0 ; Pen down
G1 X34.100 Y70.333 F1000
G1 X34.100 Y70.333 F1000
G1 X32.713 Y71.720 F1000
G0 Z3.0 ; Pen up

G0 X32.020 Y73.107 F3000 ; Travel to line 326
G0 Z0.0 ; Pen down
G1 X33.407 Y74.493 F1000
G1 X33.407 Y74.493 F1000
G1 X32.020 Y73.107 F1000
G1 X32.020 Y73.107 F1000
G1 X33.407 Y74.493 F1000
G0 Z3.0 ; Pen up

G0 X33.407 Y73.800 F3000 ; Travel to line 327
G0 Z0.0 ; Pen down
G1 X32.020 Y71.720 F1000
G1 X32.020 Y71.720 F1000
G1 X33.407 Y73.800 F1000
G0 Z3.0 ; Pen up

G0 X32.713 Y73.800 F3000 ; Travel to line 328
G0 Z0.0 ; Pen down
G1 X34.100 Y72.413 F1000
G1 X34.100 Y72.413 F1000
G1 X32.713 Y73.800 F1000
G0 Z3.0 ; Pen up

G0 X32.020 Y76.573 F3000 ; Travel to line 329
G0 Z0.0 ; Pen down
G1 X33.407 Y79.347 F1000
G1 X33.407 Y79.347 F1000
G1 X31.327 Y77.267 F1000
G0 Z3.0 ; Pen up

G0 X30.633 Y76.573 F3000 ; Travel to line 330
G0 Z0.0 ; Pen down
G1 X29.940 Y77.267 F1000
G0 Z3.0 ; Pen up

G0 X29.247 Y76.573 F3000 ; Travel to line 331
G0 Z0.0 ; Pen down
G1 X29.940 Y75.880 F1000
G1 X29.940 Y75.880 F1000
G1 X29.247 Y76.573 F1000
G1 X29.247 Y76.573 F1000
G1 X29.940 Y75.880 F1000
G1 X29.940 Y75.880 F1000
G1 X29.247 Y76.573 F1000
G1 X29.247 Y76.573 F1000
G1 X29.940 Y75.880 F1000
G0 Z3.0 ; Pen up

G0 X29.247 Y75.187 F3000 ; Travel to line 332
G0 Z0.0 ; Pen down
G1 X29.247 Y74.493 F1000
G0 Z3.0 ; Pen up

G0 X28.553 Y74.493 F3000 ; Travel to line 333
G0 Z0.0 ; Pen down
G1 X28.553 Y73.800 F1000
G1 X28.553 Y73.800 F1000
G1 X27.860 Y74.493 F1000
G1 X27.860 Y74.493 F1000
G1 X28.553 Y73.800 F1000
G1 X28.553 Y73.800 F1000
G1 X27.860 Y74.493 F1000
G0 Z3.0 ; Pen up

G0 X27.860 Y73.800 F3000 ; Travel to line 334
G0 Z0.0 ; Pen down
G1 X28.553 Y73.107 F1000
G1 X28.553 Y73.107 F1000
G1 X27.860 Y73.800 F1000
G1 X27.860 Y73.800 F1000
G1 X25.780 Y71.027 F1000
G1 X25.780 Y71.027 F1000
G1 X26.473 Y70.333 F1000
G1 X26.473 Y70.333 F1000
G1 X26.473 Y71.027 F1000
G0 Z3.0 ; Pen up

G0 X27.167 Y71.720 F3000 ; Travel to line 335
G0 Z0.0 ; Pen down
G1 X26.473 Y72.413 F1000
G0 Z3.0 ; Pen up

G0 X27.167 Y73.107 F3000 ; Travel to line 336
G0 Z0.0 ; Pen down
G1 X27.860 Y72.413 F1000
G0 Z3.0 ; Pen up

G0 X27.860 Y73.107 F3000 ; Travel to line 337
G0 Z0.0 ; Pen down
G1 X24.393 Y69.640 F1000
G0 Z3.0 ; Pen up

G0 X24.393 Y68.947 F3000 ; Travel to line 338
G0 Z0.0 ; Pen down
G1 X25.087 Y69.640 F1000
G1 X25.087 Y69.640 F1000
G1 X27.167 Y66.867 F1000
G1 X27.167 Y66.867 F1000
G1 X25.087 Y69.640 F1000
G1 X25.087 Y69.640 F1000
G1 X27.167 Y66.867 F1000
G1 X27.167 Y66.867 F1000
G1 X27.860 Y68.253 F1000
G1 X27.860 Y68.253 F1000
G1 X27.167 Y66.867 F1000
G1 X27.167 Y66.867 F1000
G1 X27.860 Y68.253 F1000
G0 Z3.0 ; Pen up

G0 X28.553 Y68.253 F3000 ; Travel to line 339
G0 Z0.0 ; Pen down
G1 X29.940 Y66.867 F1000
G1 X29.940 Y66.867 F1000
G1 X31.327 Y68.253 F1000
G1 X31.327 Y68.253 F1000
G1 X29.940 Y66.867 F1000
G1 X29.940 Y66.867 F1000
G1 X31.327 Y68.253 F1000
G1 X31.327 Y68.253 F1000
G1 X34.100 Y65.480 F1000
G0 Z3.0 ; Pen up

G0 X33.407 Y64.787 F3000 ; Travel to line 340
G0 Z0.0 ; Pen down
G1 X32.020 Y63.400 F1000
G0 Z3.0 ; Pen up

G0 X30.633 Y66.867 F3000 ; Travel to line 341
G0 Z0.0 ; Pen down
G1 X33.407 Y70.333 F1000
G1 X33.407 Y70.333 F1000
G1 X30.633 Y66.867 F1000
G1 X30.633 Y66.867 F1000
G1 X29.247 Y68.253 F1000
G1 X29.247 Y68.253 F1000
G1 X27.860 Y66.867 F1000
G1 X27.860 Y66.867 F1000
G1 X26.473 Y68.253 F1000
G1 X26.473 Y68.253 F1000
G1 X25.087 Y66.867 F1000
G1 X25.087 Y66.867 F1000
G1 X25.087 Y67.560 F1000
G0 Z3.0 ; Pen up

G0 X25.087 Y68.947 F3000 ; Travel to line 342
G0 Z0.0 ; Pen down
G1 X25.780 Y66.867 F1000
G1 X25.780 Y66.867 F1000
G1 X27.167 Y68.253 F1000
G1 X27.167 Y68.253 F1000
G1 X25.780 Y66.867 F1000
G1 X25.780 Y66.867 F1000
G1 X25.087 Y68.947 F1000
G1 X25.087 Y68.947 F1000
G1 X26.473 Y66.867 F1000
G0 Z3.0 ; Pen up

G0 X27.860 Y66.867 F3000 ; Travel to line 343
G0 Z0.0 ; Pen down
G1 X29.247 Y68.253 F1000
G0 Z3.0 ; Pen up

G0 X29.940 Y68.253 F3000 ; Travel to line 344
G0 Z0.0 ; Pen down
G1 X28.553 Y66.867 F1000
G1 X28.553 Y66.867 F1000
G1 X29.940 Y68.253 F1000
G0 Z3.0 ; Pen up

G0 X25.780 Y70.333 F3000 ; Travel to line 345
G0 Z0.0 ; Pen down
G1 X25.780 Y69.640 F1000
G1 X25.780 Y69.640 F1000
G1 X25.087 Y70.333 F1000
G0 Z3.0 ; Pen up

G0 X28.553 Y75.187 F3000 ; Travel to line 346
G0 Z0.0 ; Pen down
G1 X29.247 Y74.493 F1000
G1 X29.247 Y74.493 F1000
G1 X28.553 Y75.187 F1000
G1 X28.553 Y75.187 F1000
G1 X29.247 Y74.493 F1000
G1 X29.247 Y74.493 F1000
G1 X28.553 Y75.187 F1000
G0 Z3.0 ; Pen up

G0 X29.940 Y78.653 F3000 ; Travel to line 347
G0 Z0.0 ; Pen down
G1 X30.633 Y78.653 F1000
G0 Z3.0 ; Pen up

G0 X32.020 Y79.347 F3000 ; Travel to line 348
G0 Z0.0 ; Pen down
G1 X34.100 Y77.267 F1000
G0 Z3.0 ; Pen up

G0 X50.740 Y66.173 F3000 ; Travel to line 349
G0 Z0.0 ; Pen down
G1 X52.127 Y66.867 F1000
G1 X52.127 Y66.867 F1000
G1 X50.740 Y66.173 F1000
G1 X50.740 Y66.173 F1000
G1 X52.127 Y66.867 F1000
G1 X52.127 Y66.867 F1000
G1 X55.593 Y64.093 F1000
G1 X55.593 Y64.093 F1000
G1 X58.367 Y66.867 F1000
G0 Z3.0 ; Pen up

G0 X57.673 Y66.867 F3000 ; Travel to line 350
G0 Z0.0 ; Pen down
G1 X60.447 Y64.093 F1000
G0 Z3.0 ; Pen up

G0 X61.833 Y64.093 F3000 ; Travel to line 351
G0 Z0.0 ; Pen down
G1 X64.607 Y66.867 F1000
G1 X64.607 Y66.867 F1000
G1 X67.380 Y64.093 F1000
G0 Z3.0 ; Pen up

G0 X68.073 Y66.867 F3000 ; Travel to line 352
G0 Z0.0 ; Pen down
G1 X70.847 Y64.093 F1000
G1 X70.847 Y64.093 F1000
G1 X73.620 Y66.867 F1000
G0 Z3.0 ; Pen up

G0 X72.927 Y66.867 F3000 ; Travel to line 353
G0 Z0.0 ; Pen down
G1 X75.700 Y64.093 F1000
G0 Z3.0 ; Pen up

G0 X62.527 Y64.093 F3000 ; Travel to line 354
G0 Z0.0 ; Pen down
G1 X59.060 Y66.867 F1000
G0 Z3.0 ; Pen up

G0 X56.287 Y66.867 F3000 ; Travel to line 355
G0 Z0.0 ; Pen down
G1 X59.753 Y64.093 F1000
G1 X59.753 Y64.093 F1000
G1 X56.287 Y66.867 F1000
G1 X56.287 Y66.867 F1000
G1 X53.513 Y64.093 F1000
G0 Z3.0 ; Pen up

G0 X54.207 Y64.093 F3000 ; Travel to line 356
G0 Z0.0 ; Pen down
G1 X51.433 Y66.867 F1000
G0 Z3.0 ; Pen up

G0 X51.433 Y66.173 F3000 ; Travel to line 357
G0 Z0.0 ; Pen down
G1 X52.820 Y64.093 F1000
G0 Z3.0 ; Pen up

G0 X54.900 Y98.760 F3000 ; Travel to line 358
G0 Z0.0 ; Pen down
G1 X57.673 Y101.533 F1000
G0 Z3.0 ; Pen up

G0 X52.820 Y168.093 F3000 ; Travel to line 359
G0 Z0.0 ; Pen down
G1 X51.433 Y169.480 F1000
G0 Z3.0 ; Pen up

G0 X51.433 Y170.173 F3000 ; Travel to line 360
G0 Z0.0 ; Pen down
G1 X53.513 Y168.093 F1000
G1 X53.513 Y168.093 F1000
G1 X51.433 Y170.867 F1000
G1 X51.433 Y170.867 F1000
G1 X54.207 Y168.093 F1000
G1 X54.207 Y168.093 F1000
G1 X51.433 Y170.867 F1000
G0 Z3.0 ; Pen up

G0 X52.127 Y170.867 F3000 ; Travel to line 361
G0 Z0.0 ; Pen down
G1 X54.900 Y168.093 F1000
G1 X54.900 Y168.093 F1000
G1 X57.673 Y170.867 F1000
G0 Z3.0 ; Pen up

G0 X58.367 Y170.867 F3000 ; Travel to line 362
G0 Z0.0 ; Pen down
G1 X61.140 Y168.093 F1000
G1 X61.140 Y168.093 F1000
G1 X63.913 Y170.867 F1000
G0 Z3.0 ; Pen up

G0 X64.607 Y170.867 F3000 ; Travel to line 363
G0 Z0.0 ; Pen down
G1 X67.380 Y168.093 F1000
G1 X67.380 Y168.093 F1000
G1 X70.153 Y170.867 F1000
G0 Z3.0 ; Pen up

G0 X70.847 Y170.867 F3000 ; Travel to line 364
G0 Z0.0 ; Pen down
G1 X73.620 Y168.093 F1000
G1 X73.620 Y168.093 F1000
G1 X76.393 Y170.867 F1000
G1 X76.393 Y170.867 F1000
G1 X79.167 Y168.093 F1000
G1 X79.167 Y168.093 F1000
G1 X76.393 Y170.867 F1000
G0 Z3.0 ; Pen up

G0 X75.700 Y170.867 F3000 ; Travel to line 365
G0 Z0.0 ; Pen down
G1 X78.473 Y168.093 F1000
G0 Z3.0 ; Pen up

G0 X77.780 Y168.093 F3000 ; Travel to line 366
G0 Z0.0 ; Pen down
G1 X79.167 Y170.173 F1000
G1 X79.167 Y170.173 F1000
G1 X77.087 Y168.093 F1000
G1 X77.087 Y168.093 F1000
G1 X79.167 Y170.867 F1000
G1 X79.167 Y170.867 F1000
G1 X76.393 Y168.093 F1000
G1 X76.393 Y168.093 F1000
G1 X73.620 Y170.867 F1000
G0 Z3.0 ; Pen up

G0 X74.313 Y170.867 F3000 ; Travel to line 367
G0 Z0.0 ; Pen down
G1 X71.540 Y168.093 F1000
G1 X71.540 Y168.093 F1000
G1 X68.767 Y170.867 F1000
G0 Z3.0 ; Pen up

G0 X68.073 Y170.867 F3000 ; Travel to line 368
G0 Z0.0 ; Pen down
G1 X65.300 Y168.093 F1000
G1 X65.300 Y168.093 F1000
G1 X62.527 Y170.867 F1000
G0 Z3.0 ; Pen up

G0 X61.833 Y170.867 F3000 ; Travel to line 369
G0 Z0.0 ; Pen down
G1 X59.060 Y168.093 F1000
G1 X59.060 Y168.093 F1000
G1 X56.287 Y170.867 F1000
G0 Z3.0 ; Pen up

G0 X54.207 Y170.867 F3000 ; Travel to line 370
G0 Z0.0 ; Pen down
G1 X51.433 Y168.093 F1000
G1 X51.433 Y168.093 F1000
G1 X54.207 Y170.867 F1000
G1 X54.207 Y170.867 F1000
G1 X56.980 Y168.093 F1000
G1 X56.980 Y168.093 F1000
G1 X59.753 Y170.867 F1000
G0 Z3.0 ; Pen up

G0 X60.447 Y170.867 F3000 ; Travel to line 371
G0 Z0.0 ; Pen down
G1 X63.220 Y168.093 F1000
G1 X63.220 Y168.093 F1000
G1 X65.993 Y170.867 F1000
G0 Z3.0 ; Pen up

G0 X66.687 Y170.867 F3000 ; Travel to line 372
G0 Z0.0 ; Pen down
G1 X69.460 Y168.093 F1000
G1 X69.460 Y168.093 F1000
G1 X72.233 Y170.867 F1000
G0 Z3.0 ; Pen up

G0 X75.700 Y168.093 F3000 ; Travel to line 373
G0 Z0.0 ; Pen down
G1 X78.473 Y170.867 F1000
G0 Z3.0 ; Pen up

G0 X77.780 Y170.867 F3000 ; Travel to line 374
G0 Z0.0 ; Pen down
G1 X79.860 Y168.787 F1000
G1 X79.860 Y168.787 F1000
G1 X77.780 Y170.867 F1000
G0 Z3.0 ; Pen up

G0 X79.167 Y169.480 F3000 ; Travel to line 375
G0 Z0.0 ; Pen down
G1 X77.780 Y168.093 F1000
G1 X77.780 Y168.093 F1000
G1 X79.167 Y169.480 F1000
G0 Z3.0 ; Pen up

G0 X79.860 Y170.173 F3000 ; Travel to line 376
G0 Z0.0 ; Pen down
G1 X79.167 Y170.867 F1000
G1 X79.167 Y170.867 F1000
G1 X79.860 Y170.867 F1000
G0 Z3.0 ; Pen up

G0 X79.860 Y168.787 F3000 ; Travel to line 377
G0 Z0.0 ; Pen down
G1 X77.087 Y170.867 F1000
G1 X77.087 Y170.867 F1000
G1 X79.860 Y168.093 F1000
G0 Z3.0 ; Pen up

G0 X53.513 Y170.867 F3000 ; Travel to line 378
G0 Z0.0 ; Pen down
G1 X50.740 Y168.093 F1000
G0 Z3.0 ; Pen up

G0 X50.740 Y168.787 F3000 ; Travel to line 379
G0 Z0.0 ; Pen down
G1 X52.820 Y170.867 F1000
G0 Z3.0 ; Pen up

G0 X50.740 Y170.867 F3000 ; Travel to line 380
G0 Z0.0 ; Pen down
G1 X51.433 Y170.867 F1000
G1 X51.433 Y170.867 F1000
G1 X50.740 Y170.173 F1000
G1 X50.740 Y170.173 F1000
G1 X52.127 Y170.867 F1000
G1 X52.127 Y170.867 F1000
G1 X50.740 Y169.480 F1000
G0 Z3.0 ; Pen up

G0 X51.433 Y168.787 F3000 ; Travel to line 381
G0 Z0.0 ; Pen down
G1 X52.127 Y168.093 F1000
G1 X52.127 Y168.093 F1000
G1 X54.900 Y170.867 F1000
G1 X54.900 Y170.867 F1000
G1 X52.127 Y168.093 F1000
G0 Z3.0 ; Pen up

G0 X30.633 Y182.653 F3000 ; Travel to line 382
G0 Z0.0 ; Pen down
G1 X30.633 Y169.480 F1000
G1 X31.327 Y168.787 F1000
G1 X33.407 Y168.787 F1000
G1 X29.940 Y168.787 F1000
G1 X30.633 Y169.480 F1000
G1 X30.633 Y181.960 F1000
G1 X29.940 Y182.653 F1000
G1 X27.167 Y182.653 F1000
G0 Z3.0 ; Pen up

; Return to origin
G0 X0 Y0
G0 Z3.0

; Total drawing distance: 3145.66 mm
; Total travel distance: 945.48 mm
; Total lines: 382
; Estimated time: 207.6 seconds (3.5 minutes)
M2 ; End program