; Blueprint to G-code
; Input: test_images/test4_mechanical.png
; Generated with blueprint2gcode.py

G21 ; Set units to millimeters
G90 ; Absolute positioning
G0 Z3.0 ; Pen up
G0 X0 Y0 ; Move to origin

G0 X40.420 Y44.616 F3000 ; Travel to line 1
G0 Z0.0 ; Pen down
G1 X40.566 Y44.470 F1000
G1 X40.566 Y44.032 F1000
G1 X40.712 Y43.886 F1000
G1 X40.712 Y43.740 F1000
G1 X40.858 Y43.594 F1000
G1 X40.858 Y43.302 F1000
G1 X41.150 Y43.010 F1000
G1 X41.150 Y42.864 F1000
G1 X42.464 Y41.550 F1000
G1 X42.610 Y41.550 F1000
G1 X42.756 Y41.404 F1000
G1 X42.902 Y41.404 F1000
G1 X43.048 Y41.258 F1000
G1 X43.194 Y41.258 F1000
G1 X43.340 Y41.112 F1000
G1 X43.778 Y41.112 F1000
G1 X43.924 Y40.966 F1000
G1 X44.654 Y40.966 F1000
G1 X44.800 Y41.112 F1000
G1 X44.800 Y45.054 F1000
G1 X44.654 Y45.200 F1000
G1 X40.566 Y45.200 F1000
G1 X40.420 Y45.054 F1000
G0 Z3.0 ; Pen up

G0 X44.800 Y45.054 F3000 ; Travel to line 2
G0 Z0.0 ; Pen down
G1 X44.946 Y45.200 F1000
G1 X48.888 Y45.200 F1000
G1 X49.034 Y45.054 F1000
G1 X49.034 Y44.324 F1000
G1 X48.888 Y44.178 F1000
G1 X48.888 Y43.740 F1000
G1 X48.742 Y43.594 F1000
G1 X48.742 Y43.448 F1000
G1 X48.596 Y43.302 F1000
G1 X48.596 Y43.156 F1000
G1 X48.450 Y43.010 F1000
G1 X48.450 Y42.864 F1000
G1 X47.136 Y41.550 F1000
G1 X46.990 Y41.550 F1000
G1 X46.844 Y41.404 F1000
G1 X46.698 Y41.404 F1000
G1 X46.552 Y41.258 F1000
G1 X46.406 Y41.258 F1000
G1 X46.260 Y41.112 F1000
G1 X45.822 Y41.112 F1000
G1 X45.676 Y40.966 F1000
G1 X44.946 Y40.966 F1000
G1 X44.800 Y41.112 F1000
G0 Z3.0 ; Pen up

G0 X44.800 Y45.346 F3000 ; Travel to line 3
G0 Z0.0 ; Pen down
G1 X44.946 Y45.200 F1000
G1 X48.888 Y45.200 F1000
G1 X49.034 Y45.346 F1000
G1 X49.034 Y46.076 F1000
G1 X48.888 Y46.222 F1000
G1 X48.888 Y46.660 F1000
G1 X48.742 Y46.806 F1000
G1 X48.742 Y46.952 F1000
G1 X48.596 Y47.098 F1000
G1 X48.596 Y47.244 F1000
G1 X48.450 Y47.390 F1000
G1 X48.450 Y47.536 F1000
G1 X47.136 Y48.850 F1000
G1 X46.990 Y48.850 F1000
G1 X46.698 Y49.142 F1000
G1 X46.406 Y49.142 F1000
G1 X46.260 Y49.288 F1000
G1 X46.114 Y49.288 F1000
G1 X45.968 Y49.434 F1000
G1 X45.530 Y49.434 F1000
G1 X45.384 Y49.580 F1000
G1 X44.946 Y49.580 F1000
G1 X44.800 Y49.434 F1000
G0 Z3.0 ; Pen up

G0 X44.800 Y49.726 F3000 ; Travel to line 4
G0 Z0.0 ; Pen down
G1 X44.946 Y49.580 F1000
G1 X45.384 Y49.580 F1000
G1 X45.530 Y49.434 F1000
G1 X45.968 Y49.434 F1000
G1 X46.114 Y49.288 F1000
G1 X46.260 Y49.288 F1000
G1 X46.406 Y49.142 F1000
G1 X46.698 Y49.142 F1000
G1 X46.990 Y48.850 F1000
G1 X47.136 Y48.850 F1000
G1 X47.428 Y48.558 F1000
G1 X47.574 Y48.558 F1000
G1 X48.158 Y47.974 F1000
G1 X48.158 Y47.828 F1000
G1 X48.450 Y47.536 F1000
G1 X48.450 Y47.390 F1000
G1 X48.596 Y47.244 F1000
G1 X48.596 Y47.098 F1000
G1 X48.742 Y46.952 F1000
G1 X48.742 Y46.806 F1000
G1 X48.888 Y46.660 F1000
G1 X48.888 Y46.222 F1000
G1 X49.034 Y46.076 F1000
G1 X49.034 Y45.346 F1000
G1 X49.180 Y45.200 F1000
G1 X50.640 Y45.200 F1000
G1 X49.180 Y45.200 F1000
G1 X49.034 Y45.054 F1000
G1 X49.034 Y44.324 F1000
G1 X48.888 Y44.178 F1000
G1 X48.888 Y43.740 F1000
G1 X48.742 Y43.594 F1000
G1 X48.742 Y43.448 F1000
G1 X48.596 Y43.302 F1000
G1 X48.596 Y43.156 F1000
G1 X48.450 Y43.010 F1000
G1 X48.450 Y42.864 F1000
G1 X48.158 Y42.572 F1000
G1 X48.158 Y42.426 F1000
G1 X47.574 Y41.842 F1000
G1 X47.428 Y41.842 F1000
G1 X47.136 Y41.550 F1000
G1 X46.990 Y41.550 F1000
G1 X46.844 Y41.404 F1000
G1 X46.698 Y41.404 F1000
G1 X46.552 Y41.258 F1000
G1 X46.406 Y41.258 F1000
G1 X46.260 Y41.112 F1000
G1 X45.822 Y41.112 F1000
G1 X45.676 Y40.966 F1000
G1 X44.946 Y40.966 F1000
G1 X44.800 Y40.820 F1000
G1 X44.800 Y39.360 F1000
G1 X44.800 Y40.820 F1000
G1 X44.654 Y40.966 F1000
G1 X43.924 Y40.966 F1000
G1 X43.778 Y41.112 F1000
G1 X43.340 Y41.112 F1000
G1 X43.194 Y41.258 F1000
G1 X43.048 Y41.258 F1000
G1 X42.902 Y41.404 F1000
G1 X42.756 Y41.404 F1000
G1 X42.610 Y41.550 F1000
G1 X42.464 Y41.550 F1000
G1 X42.172 Y41.842 F1000
G1 X42.026 Y41.842 F1000
G1 X41.442 Y42.426 F1000
G1 X41.442 Y42.572 F1000
G1 X41.150 Y42.864 F1000
G1 X41.150 Y43.010 F1000
G1 X40.858 Y43.302 F1000
G1 X40.858 Y43.594 F1000
G1 X40.712 Y43.740 F1000
G1 X40.712 Y43.886 F1000
G1 X40.566 Y44.032 F1000
G1 X40.566 Y44.470 F1000
G1 X40.420 Y44.616 F1000
G1 X40.420 Y45.054 F1000
G1 X40.274 Y45.200 F1000
G1 X38.960 Y45.200 F1000
G1 X40.274 Y45.200 F1000
G1 X40.420 Y45.346 F1000
G1 X40.420 Y45.784 F1000
G1 X40.566 Y45.930 F1000
G1 X40.566 Y46.368 F1000
G1 X40.712 Y46.514 F1000
G1 X40.712 Y46.660 F1000
G1 X40.858 Y46.806 F1000
G1 X40.858 Y47.098 F1000
G1 X41.150 Y47.390 F1000
G1 X41.150 Y47.536 F1000
G1 X41.442 Y47.828 F1000
G1 X41.442 Y47.974 F1000
G1 X42.026 Y48.558 F1000
G1 X42.172 Y48.558 F1000
G1 X42.464 Y48.850 F1000
G1 X42.610 Y48.850 F1000
G1 X42.902 Y49.142 F1000
G1 X43.194 Y49.142 F1000
G1 X43.340 Y49.288 F1000
G1 X43.486 Y49.288 F1000
G1 X43.632 Y49.434 F1000
G1 X44.070 Y49.434 F1000
G1 X44.216 Y49.580 F1000
G1 X44.654 Y49.580 F1000
G1 X44.800 Y49.726 F1000
G1 X44.800 Y51.040 F1000
G0 Z3.0 ; Pen up

G0 X45.530 Y52.500 F3000 ; Travel to line 5
G0 Z0.0 ; Pen down
G1 X43.340 Y52.500 F1000
G0 Z3.0 ; Pen up

G0 X41.150 Y52.500 F3000 ; Travel to line 6
G0 Z0.0 ; Pen down
G1 X38.960 Y52.500 F1000
G0 Z3.0 ; Pen up

G0 X36.770 Y52.500 F3000 ; Travel to line 7
G0 Z0.0 ; Pen down
G1 X34.580 Y52.500 F1000
G0 Z3.0 ; Pen up

G0 X30.346 Y52.646 F3000 ; Travel to line 8
G0 Z0.0 ; Pen down
G1 X30.492 Y52.500 F1000
G1 X32.390 Y52.500 F1000
G1 X30.492 Y52.500 F1000
G1 X30.346 Y52.354 F1000
G1 X30.346 Y30.892 F1000
G1 X30.492 Y30.746 F1000
G1 X117.362 Y30.746 F1000
G1 X117.654 Y31.038 F1000
G1 X117.654 Y74.108 F1000
G1 X117.508 Y74.254 F1000
G1 X30.492 Y74.254 F1000
G1 X30.346 Y74.108 F1000
G0 Z3.0 ; Pen up

G0 X30.346 Y74.254 F3000 ; Travel to line 9
G0 Z0.0 ; Pen down
G1 X30.346 Y30.746 F1000
G1 X117.508 Y30.746 F1000
G1 X117.654 Y30.892 F1000
G1 X117.654 Y74.254 F1000
G0 Z3.0 ; Pen up

G0 X103.200 Y65.640 F3000 ; Travel to line 10
G0 Z0.0 ; Pen down
G1 X103.200 Y64.326 F1000
G1 X103.054 Y64.180 F1000
G1 X102.616 Y64.180 F1000
G1 X102.470 Y64.034 F1000
G1 X102.032 Y64.034 F1000
G1 X101.886 Y63.888 F1000
G1 X101.740 Y63.888 F1000
G1 X101.594 Y63.742 F1000
G1 X101.302 Y63.742 F1000
G1 X101.010 Y63.450 F1000
G1 X100.864 Y63.450 F1000
G1 X100.572 Y63.158 F1000
G1 X100.426 Y63.158 F1000
G1 X99.842 Y62.574 F1000
G1 X99.842 Y62.428 F1000
G1 X99.550 Y62.136 F1000
G1 X99.550 Y61.990 F1000
G1 X99.258 Y61.698 F1000
G1 X99.258 Y61.406 F1000
G1 X99.112 Y61.260 F1000
G1 X99.112 Y61.114 F1000
G1 X98.966 Y60.968 F1000
G1 X98.966 Y60.530 F1000
G1 X98.820 Y60.384 F1000
G1 X98.820 Y59.946 F1000
G1 X98.674 Y59.800 F1000
G1 X97.360 Y59.800 F1000
G1 X98.674 Y59.800 F1000
G1 X98.820 Y59.654 F1000
G1 X98.820 Y59.216 F1000
G1 X98.966 Y59.070 F1000
G1 X98.966 Y58.632 F1000
G1 X99.112 Y58.486 F1000
G1 X99.112 Y58.340 F1000
G1 X99.258 Y58.194 F1000
G1 X99.258 Y57.902 F1000
G1 X99.550 Y57.610 F1000
G1 X99.550 Y57.464 F1000
G1 X99.842 Y57.172 F1000
G1 X99.842 Y57.026 F1000
G1 X100.426 Y56.442 F1000
G1 X100.572 Y56.442 F1000
G1 X100.864 Y56.150 F1000
G1 X101.010 Y56.150 F1000
G1 X101.156 Y56.004 F1000
G1 X101.302 Y56.004 F1000
G1 X101.448 Y55.858 F1000
G1 X101.594 Y55.858 F1000
G1 X101.740 Y55.712 F1000
G1 X102.178 Y55.712 F1000
G1 X102.324 Y55.566 F1000
G1 X103.054 Y55.566 F1000
G1 X103.200 Y55.420 F1000
G1 X103.200 Y53.960 F1000
G1 X103.200 Y55.420 F1000
G1 X103.346 Y55.566 F1000
G1 X104.076 Y55.566 F1000
G1 X104.222 Y55.712 F1000
G1 X104.660 Y55.712 F1000
G1 X104.806 Y55.858 F1000
G1 X104.952 Y55.858 F1000
G1 X105.098 Y56.004 F1000
G1 X105.244 Y56.004 F1000
G1 X105.390 Y56.150 F1000
G1 X105.536 Y56.150 F1000
G1 X105.828 Y56.442 F1000
G1 X105.974 Y56.442 F1000
G1 X106.558 Y57.026 F1000
G1 X106.558 Y57.172 F1000
G1 X106.850 Y57.464 F1000
G1 X106.850 Y57.610 F1000
G1 X106.996 Y57.756 F1000
G1 X106.996 Y57.902 F1000
G1 X107.142 Y58.048 F1000
G1 X107.142 Y58.194 F1000
G1 X107.288 Y58.340 F1000
G1 X107.288 Y58.778 F1000
G1 X107.434 Y58.924 F1000
G1 X107.434 Y59.654 F1000
G1 X107.580 Y59.800 F1000
G1 X109.040 Y59.800 F1000
G1 X107.580 Y59.800 F1000
G1 X107.434 Y59.946 F1000
G1 X107.434 Y60.676 F1000
G1 X107.288 Y60.822 F1000
G1 X107.288 Y61.260 F1000
G1 X107.142 Y61.406 F1000
G1 X107.142 Y61.552 F1000
G1 X106.996 Y61.698 F1000
G1 X106.996 Y61.844 F1000
G1 X106.850 Y61.990 F1000
G1 X106.850 Y62.136 F1000
G1 X106.558 Y62.428 F1000
G1 X106.558 Y62.574 F1000
G1 X105.974 Y63.158 F1000
G1 X105.828 Y63.158 F1000
G1 X105.536 Y63.450 F1000
G1 X105.390 Y63.450 F1000
G1 X105.098 Y63.742 F1000
G1 X104.806 Y63.742 F1000
G1 X104.660 Y63.888 F1000
G1 X104.514 Y63.888 F1000
G1 X104.368 Y64.034 F1000
G1 X103.930 Y64.034 F1000
G1 X103.784 Y64.180 F1000
G1 X103.346 Y64.180 F1000
G1 X103.200 Y64.326 F1000
G0 Z3.0 ; Pen up

G0 X103.200 Y64.034 F3000 ; Travel to line 11
G0 Z0.0 ; Pen down
G1 X103.346 Y64.180 F1000
G1 X103.784 Y64.180 F1000
G1 X103.930 Y64.034 F1000
G1 X104.368 Y64.034 F1000
G1 X104.514 Y63.888 F1000
G1 X104.660 Y63.888 F1000
G1 X104.806 Y63.742 F1000
G1 X105.098 Y63.742 F1000
G1 X105.390 Y63.450 F1000
G1 X105.536 Y63.450 F1000
G1 X106.850 Y62.136 F1000
G1 X106.850 Y61.990 F1000
G1 X106.996 Y61.844 F1000
G1 X106.996 Y61.698 F1000
G1 X107.142 Y61.552 F1000
G1 X107.142 Y61.406 F1000
G1 X107.288 Y61.260 F1000
G1 X107.288 Y60.822 F1000
G1 X107.434 Y60.676 F1000
G1 X107.434 Y59.946 F1000
G1 X107.288 Y59.800 F1000
G1 X103.346 Y59.800 F1000
G1 X103.200 Y59.946 F1000
G0 Z3.0 ; Pen up

G0 X103.200 Y59.654 F3000 ; Travel to line 12
G0 Z0.0 ; Pen down
G1 X103.346 Y59.800 F1000
G1 X107.288 Y59.800 F1000
G1 X107.434 Y59.654 F1000
G1 X107.434 Y58.924 F1000
G1 X107.288 Y58.778 F1000
G1 X107.288 Y58.340 F1000
G1 X107.142 Y58.194 F1000
G1 X107.142 Y58.048 F1000
G1 X106.996 Y57.902 F1000
G1 X106.996 Y57.756 F1000
G1 X106.850 Y57.610 F1000
G1 X106.850 Y57.464 F1000
G1 X105.536 Y56.150 F1000
G1 X105.390 Y56.150 F1000
G1 X105.244 Y56.004 F1000
G1 X105.098 Y56.004 F1000
G1 X104.952 Y55.858 F1000
G1 X104.806 Y55.858 F1000
G1 X104.660 Y55.712 F1000
G1 X104.222 Y55.712 F1000
G1 X104.076 Y55.566 F1000
G1 X103.346 Y55.566 F1000
G1 X103.200 Y55.712 F1000
G0 Z3.0 ; Pen up

G0 X102.470 Y52.500 F3000 ; Travel to line 13
G0 Z0.0 ; Pen down
G1 X100.280 Y52.500 F1000
G0 Z3.0 ; Pen up

G0 X98.090 Y52.500 F3000 ; Travel to line 14
G0 Z0.0 ; Pen down
G1 X95.900 Y52.500 F1000
G0 Z3.0 ; Pen up

G0 X93.710 Y52.500 F3000 ; Travel to line 15
G0 Z0.0 ; Pen down
G1 X91.520 Y52.500 F1000
G0 Z3.0 ; Pen up

G0 X89.330 Y52.500 F3000 ; Travel to line 16
G0 Z0.0 ; Pen down
G1 X87.140 Y52.500 F1000
G0 Z3.0 ; Pen up

G0 X84.950 Y52.500 F3000 ; Travel to line 17
G0 Z0.0 ; Pen down
G1 X82.760 Y52.500 F1000
G0 Z3.0 ; Pen up

G0 X80.570 Y52.500 F3000 ; Travel to line 18
G0 Z0.0 ; Pen down
G1 X78.380 Y52.500 F1000
G0 Z3.0 ; Pen up

G0 X76.190 Y52.500 F3000 ; Travel to line 19
G0 Z0.0 ; Pen down
G1 X74.000 Y52.500 F1000
G0 Z3.0 ; Pen up

G0 X71.810 Y52.500 F3000 ; Travel to line 20
G0 Z0.0 ; Pen down
G1 X69.620 Y52.500 F1000
G0 Z3.0 ; Pen up

G0 X63.050 Y52.500 F3000 ; Travel to line 21
G0 Z0.0 ; Pen down
G1 X60.860 Y52.500 F1000
G0 Z3.0 ; Pen up

G0 X58.670 Y52.500 F3000 ; Travel to line 22
G0 Z0.0 ; Pen down
G1 X56.480 Y52.500 F1000
G0 Z3.0 ; Pen up

G0 X54.290 Y52.500 F3000 ; Travel to line 23
G0 Z0.0 ; Pen down
G1 X52.100 Y52.500 F1000
G0 Z3.0 ; Pen up

G0 X49.910 Y52.500 F3000 ; Travel to line 24
G0 Z0.0 ; Pen down
G1 X47.720 Y52.500 F1000
G0 Z3.0 ; Pen up

G0 X44.800 Y55.712 F3000 ; Travel to line 25
G0 Z0.0 ; Pen down
G1 X44.946 Y55.566 F1000
G1 X45.676 Y55.566 F1000
G1 X45.822 Y55.712 F1000
G1 X46.260 Y55.712 F1000
G1 X46.406 Y55.858 F1000
G1 X46.552 Y55.858 F1000
G1 X46.698 Y56.004 F1000
G1 X46.844 Y56.004 F1000
G1 X46.990 Y56.150 F1000
G1 X47.136 Y56.150 F1000
G1 X48.450 Y57.464 F1000
G1 X48.450 Y57.610 F1000
G1 X48.596 Y57.756 F1000
G1 X48.596 Y57.902 F1000
G1 X48.742 Y58.048 F1000
G1 X48.742 Y58.194 F1000
G1 X48.888 Y58.340 F1000
G1 X48.888 Y58.778 F1000
G1 X49.034 Y58.924 F1000
G1 X49.034 Y59.654 F1000
G1 X48.888 Y59.800 F1000
G1 X44.946 Y59.800 F1000
G1 X44.800 Y59.654 F1000
G0 Z3.0 ; Pen up

G0 X44.800 Y59.946 F3000 ; Travel to line 26
G0 Z0.0 ; Pen down
G1 X44.946 Y59.800 F1000
G1 X48.888 Y59.800 F1000
G1 X49.034 Y59.946 F1000
G1 X49.034 Y60.676 F1000
G1 X48.888 Y60.822 F1000
G1 X48.888 Y61.260 F1000
G1 X48.742 Y61.406 F1000
G1 X48.742 Y61.552 F1000
G1 X48.596 Y61.698 F1000
G1 X48.596 Y61.844 F1000
G1 X48.450 Y61.990 F1000
G1 X48.450 Y62.136 F1000
G1 X47.136 Y63.450 F1000
G1 X46.990 Y63.450 F1000
G1 X46.698 Y63.742 F1000
G1 X46.406 Y63.742 F1000
G1 X46.260 Y63.888 F1000
G1 X46.114 Y63.888 F1000
G1 X45.968 Y64.034 F1000
G1 X45.530 Y64.034 F1000
G1 X45.384 Y64.180 F1000
G1 X44.946 Y64.180 F1000
G1 X44.800 Y64.034 F1000
G0 Z3.0 ; Pen up

G0 X44.800 Y64.326 F3000 ; Travel to line 27
G0 Z0.0 ; Pen down
G1 X44.946 Y64.180 F1000
G1 X45.384 Y64.180 F1000
G1 X45.530 Y64.034 F1000
G1 X45.968 Y64.034 F1000
G1 X46.114 Y63.888 F1000
G1 X46.260 Y63.888 F1000
G1 X46.406 Y63.742 F1000
G1 X46.698 Y63.742 F1000
G1 X46.990 Y63.450 F1000
G1 X47.136 Y63.450 F1000
G1 X47.428 Y63.158 F1000
G1 X47.574 Y63.158 F1000
G1 X48.158 Y62.574 F1000
G1 X48.158 Y62.428 F1000
G1 X48.450 Y62.136 F1000
G1 X48.450 Y61.990 F1000
G1 X48.596 Y61.844 F1000
G1 X48.596 Y61.698 F1000
G1 X48.742 Y61.552 F1000
G1 X48.742 Y61.406 F1000
G1 X48.888 Y61.260 F1000
G1 X48.888 Y60.822 F1000
G1 X49.034 Y60.676 F1000
G1 X49.034 Y59.946 F1000
G1 X49.180 Y59.800 F1000
G1 X50.640 Y59.800 F1000
G1 X49.180 Y59.800 F1000
G1 X49.034 Y59.654 F1000
G1 X49.034 Y58.924 F1000
G1 X48.888 Y58.778 F1000
G1 X48.888 Y58.340 F1000
G1 X48.742 Y58.194 F1000
G1 X48.742 Y58.048 F1000
G1 X48.596 Y57.902 F1000
G1 X48.596 Y57.756 F1000
G1 X48.450 Y57.610 F1000
G1 X48.450 Y57.464 F1000
G1 X48.158 Y57.172 F1000
G1 X48.158 Y57.026 F1000
G1 X47.574 Y56.442 F1000
G1 X47.428 Y56.442 F1000
G1 X47.136 Y56.150 F1000
G1 X46.990 Y56.150 F1000
G1 X46.844 Y56.004 F1000
G1 X46.698 Y56.004 F1000
G1 X46.552 Y55.858 F1000
G1 X46.406 Y55.858 F1000
G1 X46.260 Y55.712 F1000
G1 X45.822 Y55.712 F1000
G1 X45.676 Y55.566 F1000
G1 X44.946 Y55.566 F1000
G1 X44.800 Y55.420 F1000
G1 X44.800 Y53.960 F1000
G1 X44.800 Y55.420 F1000
G1 X44.654 Y55.566 F1000
G1 X43.924 Y55.566 F1000
G1 X43.778 Y55.712 F1000
G1 X43.340 Y55.712 F1000
G1 X43.194 Y55.858 F1000
G1 X43.048 Y55.858 F1000
G1 X42.902 Y56.004 F1000
G1 X42.756 Y56.004 F1000
G1 X42.610 Y56.150 F1000
G1 X42.464 Y56.150 F1000
G1 X42.172 Y56.442 F1000
G1 X42.026 Y56.442 F1000
G1 X41.442 Y57.026 F1000
G1 X41.442 Y57.172 F1000
G1 X41.150 Y57.464 F1000
G1 X41.150 Y57.610 F1000
G1 X40.858 Y57.902 F1000
G1 X40.858 Y58.194 F1000
G1 X40.712 Y58.340 F1000
G1 X40.712 Y58.486 F1000
G1 X40.566 Y58.632 F1000
G1 X40.566 Y59.070 F1000
G1 X40.420 Y59.216 F1000
G1 X40.420 Y59.654 F1000
G1 X40.274 Y59.800 F1000
G1 X38.960 Y59.800 F1000
G1 X40.274 Y59.800 F1000
G1 X40.420 Y59.946 F1000
G1 X40.420 Y60.384 F1000
G1 X40.566 Y60.530 F1000
G1 X40.566 Y60.968 F1000
G1 X40.712 Y61.114 F1000
G1 X40.712 Y61.260 F1000
G1 X40.858 Y61.406 F1000
G1 X40.858 Y61.698 F1000
G1 X41.150 Y61.990 F1000
G1 X41.150 Y62.136 F1000
G1 X41.442 Y62.428 F1000
G1 X41.442 Y62.574 F1000
G1 X42.026 Y63.158 F1000
G1 X42.172 Y63.158 F1000
G1 X42.464 Y63.450 F1000
G1 X42.610 Y63.450 F1000
G1 X42.902 Y63.742 F1000
G1 X43.194 Y63.742 F1000
G1 X43.340 Y63.888 F1000
G1 X43.486 Y63.888 F1000
G1 X43.632 Y64.034 F1000
G1 X44.070 Y64.034 F1000
G1 X44.216 Y64.180 F1000
G1 X44.654 Y64.180 F1000
G1 X44.800 Y64.326 F1000
G1 X44.800 Y65.640 F1000
G0 Z3.0 ; Pen up

G0 X44.070 Y64.034 F3000 ; Travel to line 28
G0 Z0.0 ; Pen down
G1 X44.216 Y64.180 F1000
G1 X44.654 Y64.180 F1000
G1 X44.800 Y64.034 F1000
G1 X44.800 Y59.946 F1000
G1 X44.654 Y59.800 F1000
G1 X40.566 Y59.800 F1000
G1 X40.420 Y59.946 F1000
G1 X40.420 Y60.384 F1000
G1 X40.566 Y60.530 F1000
G1 X40.566 Y60.968 F1000
G1 X40.712 Y61.114 F1000
G1 X40.712 Y61.260 F1000
G1 X40.858 Y61.406 F1000
G1 X40.858 Y61.698 F1000
G1 X41.150 Y61.990 F1000
G1 X41.150 Y62.136 F1000
G1 X42.464 Y63.450 F1000
G1 X42.610 Y63.450 F1000
G1 X42.902 Y63.742 F1000
G1 X43.194 Y63.742 F1000
G1 X43.340 Y63.888 F1000
G1 X43.486 Y63.888 F1000
G1 X43.632 Y64.034 F1000
G0 Z3.0 ; Pen up

G0 X40.420 Y59.654 F3000 ; Travel to line 29
G0 Z0.0 ; Pen down
G1 X40.566 Y59.800 F1000
G1 X44.654 Y59.800 F1000
G1 X44.800 Y59.654 F1000
G1 X44.800 Y55.712 F1000
G1 X44.654 Y55.566 F1000
G1 X43.924 Y55.566 F1000
G1 X43.778 Y55.712 F1000
G1 X43.340 Y55.712 F1000
G1 X43.194 Y55.858 F1000
G1 X43.048 Y55.858 F1000
G1 X42.902 Y56.004 F1000
G1 X42.756 Y56.004 F1000
G1 X42.610 Y56.150 F1000
G1 X42.464 Y56.150 F1000
G1 X41.150 Y57.464 F1000
G1 X41.150 Y57.610 F1000
G1 X40.858 Y57.902 F1000
G1 X40.858 Y58.194 F1000
G1 X40.712 Y58.340 F1000
G1 X40.712 Y58.486 F1000
G1 X40.566 Y58.632 F1000
G1 X40.566 Y59.070 F1000
G1 X40.420 Y59.216 F1000
G0 Z3.0 ; Pen up

G0 X43.632 Y49.434 F3000 ; Travel to line 30
G0 Z0.0 ; Pen down
G1 X43.486 Y49.288 F1000
G1 X43.340 Y49.288 F1000
G1 X43.194 Y49.142 F1000
G1 X42.902 Y49.142 F1000
G1 X42.610 Y48.850 F1000
G1 X42.464 Y48.850 F1000
G1 X41.150 Y47.536 F1000
G1 X41.150 Y47.390 F1000
G1 X40.858 Y47.098 F1000
G1 X40.858 Y46.806 F1000
G1 X40.712 Y46.660 F1000
G1 X40.712 Y46.514 F1000
G1 X40.566 Y46.368 F1000
G1 X40.566 Y45.930 F1000
G1 X40.420 Y45.784 F1000
G1 X40.420 Y45.346 F1000
G1 X40.566 Y45.200 F1000
G1 X44.654 Y45.200 F1000
G1 X44.800 Y45.346 F1000
G1 X44.800 Y49.434 F1000
G1 X44.654 Y49.580 F1000
G1 X44.216 Y49.580 F1000
G1 X44.070 Y49.434 F1000
G0 Z3.0 ; Pen up

G0 X72.248 Y59.508 F3000 ; Travel to line 31
G0 Z0.0 ; Pen down
G1 X72.102 Y59.362 F1000
G1 X71.664 Y59.362 F1000
G1 X71.518 Y59.216 F1000
G1 X71.372 Y59.216 F1000
G1 X71.226 Y59.070 F1000
G1 X71.080 Y59.070 F1000
G1 X70.934 Y58.924 F1000
G1 X70.788 Y58.924 F1000
G1 X70.642 Y58.778 F1000
G1 X70.496 Y58.778 F1000
G1 X70.204 Y58.486 F1000
G1 X70.058 Y58.486 F1000
G1 X69.620 Y58.048 F1000
G1 X69.474 Y58.048 F1000
G1 X68.452 Y57.026 F1000
G1 X68.452 Y56.880 F1000
G1 X68.014 Y56.442 F1000
G1 X68.014 Y56.296 F1000
G1 X67.722 Y56.004 F1000
G1 X67.722 Y55.858 F1000
G1 X67.576 Y55.712 F1000
G1 X67.576 Y55.566 F1000
G1 X67.430 Y55.420 F1000
G1 X67.430 Y55.274 F1000
G1 X67.284 Y55.128 F1000
G1 X67.284 Y54.982 F1000
G1 X67.138 Y54.836 F1000
G1 X67.138 Y54.398 F1000
G1 X66.992 Y54.252 F1000
G1 X66.992 Y53.668 F1000
G1 X66.846 Y53.522 F1000
G1 X66.846 Y52.646 F1000
G1 X66.992 Y52.500 F1000
G1 X67.430 Y52.500 F1000
G1 X66.992 Y52.500 F1000
G1 X66.846 Y52.354 F1000
G1 X66.846 Y51.478 F1000
G1 X66.992 Y51.332 F1000
G1 X66.992 Y50.748 F1000
G1 X67.138 Y50.602 F1000
G1 X67.138 Y50.164 F1000
G1 X67.284 Y50.018 F1000
G1 X67.284 Y49.872 F1000
G1 X67.430 Y49.726 F1000
G1 X67.430 Y49.580 F1000
G1 X67.576 Y49.434 F1000
G1 X67.576 Y49.288 F1000
G1 X67.722 Y49.142 F1000
G1 X67.722 Y48.996 F1000
G1 X68.014 Y48.704 F1000
G1 X68.014 Y48.558 F1000
G1 X68.452 Y48.120 F1000
G1 X68.452 Y47.974 F1000
G1 X69.328 Y47.098 F1000
G1 X69.474 Y47.098 F1000
G1 X69.912 Y46.660 F1000
G1 X70.058 Y46.660 F1000
G1 X70.350 Y46.368 F1000
G1 X70.496 Y46.368 F1000
G1 X70.642 Y46.222 F1000
G1 X70.788 Y46.222 F1000
G1 X70.934 Y46.076 F1000
G1 X71.080 Y46.076 F1000
G1 X71.226 Y45.930 F1000
G1 X71.372 Y45.930 F1000
G1 X71.518 Y45.784 F1000
G1 X71.810 Y45.784 F1000
G1 X71.956 Y45.638 F1000
G1 X72.248 Y45.638 F1000
G1 X72.394 Y45.492 F1000
G1 X72.978 Y45.492 F1000
G1 X73.124 Y45.346 F1000
G1 X74.876 Y45.346 F1000
G1 X75.022 Y45.492 F1000
G1 X75.606 Y45.492 F1000
G1 X75.752 Y45.638 F1000
G1 X76.044 Y45.638 F1000
G1 X76.190 Y45.784 F1000
G1 X76.482 Y45.784 F1000
G1 X76.628 Y45.930 F1000
G1 X76.774 Y45.930 F1000
G1 X76.920 Y46.076 F1000
G1 X77.066 Y46.076 F1000
G1 X77.212 Y46.222 F1000
G1 X77.358 Y46.222 F1000
G1 X77.504 Y46.368 F1000
G1 X77.650 Y46.368 F1000
G1 X77.942 Y46.660 F1000
G1 X78.088 Y46.660 F1000
G1 X78.526 Y47.098 F1000
G1 X78.672 Y47.098 F1000
G1 X79.402 Y47.828 F1000
G1 X79.402 Y47.974 F1000
G1 X79.840 Y48.412 F1000
G1 X79.840 Y48.558 F1000
G1 X80.132 Y48.850 F1000
G1 X80.132 Y48.996 F1000
G1 X80.278 Y49.142 F1000
G1 X80.278 Y49.288 F1000
G1 X80.424 Y49.434 F1000
G1 X80.424 Y49.580 F1000
G1 X80.570 Y49.726 F1000
G1 X80.570 Y49.872 F1000
G1 X80.716 Y50.018 F1000
G1 X80.716 Y50.310 F1000
G1 X80.862 Y50.456 F1000
G1 X80.862 Y50.748 F1000
G1 X81.008 Y50.894 F1000
G1 X81.008 Y51.478 F1000
G1 X81.154 Y51.624 F1000
G1 X81.154 Y53.376 F1000
G1 X81.008 Y53.522 F1000
G1 X81.008 Y54.106 F1000
G1 X80.862 Y54.252 F1000
G1 X80.862 Y54.544 F1000
G1 X80.716 Y54.690 F1000
G1 X80.716 Y54.982 F1000
G1 X80.570 Y55.128 F1000
G1 X80.570 Y55.274 F1000
G1 X80.424 Y55.420 F1000
G1 X80.424 Y55.566 F1000
G1 X80.278 Y55.712 F1000
G1 X80.278 Y55.858 F1000
G1 X80.132 Y56.004 F1000
G1 X80.132 Y56.150 F1000
G1 X79.840 Y56.442 F1000
G1 X79.840 Y56.588 F1000
G1 X79.402 Y57.026 F1000
G1 X79.402 Y57.172 F1000
G1 X78.526 Y58.048 F1000
G1 X78.380 Y58.048 F1000
G1 X77.942 Y58.486 F1000
G1 X77.796 Y58.486 F1000
G1 X77.504 Y58.778 F1000
G1 X77.358 Y58.778 F1000
G1 X77.212 Y58.924 F1000
G1 X77.066 Y58.924 F1000
G1 X76.920 Y59.070 F1000
G1 X76.774 Y59.070 F1000
G1 X76.628 Y59.216 F1000
G1 X76.482 Y59.216 F1000
G1 X76.336 Y59.362 F1000
G1 X75.898 Y59.362 F1000
G1 X75.752 Y59.508 F1000
G1 X75.168 Y59.508 F1000
G1 X75.022 Y59.654 F1000
G1 X72.978 Y59.654 F1000
G1 X72.832 Y59.508 F1000
G0 Z3.0 ; Pen up

G0 X72.978 Y59.654 F3000 ; Travel to line 32
G0 Z0.0 ; Pen down
G1 X72.832 Y59.508 F1000
G1 X72.248 Y59.508 F1000
G1 X72.102 Y59.362 F1000
G1 X71.664 Y59.362 F1000
G1 X71.518 Y59.216 F1000
G1 X71.372 Y59.216 F1000
G1 X71.226 Y59.070 F1000
G1 X70.934 Y59.070 F1000
G1 X70.788 Y58.924 F1000
G1 X70.642 Y58.924 F1000
G1 X70.496 Y58.778 F1000
G1 X70.350 Y58.778 F1000
G1 X70.058 Y58.486 F1000
G1 X69.912 Y58.486 F1000
G1 X69.474 Y58.048 F1000
G1 X69.328 Y58.048 F1000
G1 X68.452 Y57.172 F1000
G1 X68.452 Y57.026 F1000
G1 X68.014 Y56.588 F1000
G1 X68.014 Y56.442 F1000
G1 X67.722 Y56.150 F1000
G1 X67.722 Y56.004 F1000
G1 X67.576 Y55.858 F1000
G1 X67.576 Y55.712 F1000
G1 X67.430 Y55.566 F1000
G1 X67.430 Y55.274 F1000
G1 X67.284 Y55.128 F1000
G1 X67.284 Y54.982 F1000
G1 X67.138 Y54.836 F1000
G1 X67.138 Y54.398 F1000
G1 X66.992 Y54.252 F1000
G1 X66.992 Y53.668 F1000
G1 X66.846 Y53.522 F1000
G1 X66.846 Y52.646 F1000
G1 X66.700 Y52.500 F1000
G1 X65.240 Y52.500 F1000
G1 X66.700 Y52.500 F1000
G1 X66.846 Y52.354 F1000
G1 X66.846 Y51.478 F1000
G1 X66.992 Y51.332 F1000
G1 X66.992 Y50.748 F1000
G1 X67.138 Y50.602 F1000
G1 X67.138 Y50.164 F1000
G1 X67.284 Y50.018 F1000
G1 X67.284 Y49.872 F1000
G1 X67.430 Y49.726 F1000
G1 X67.430 Y49.434 F1000
G1 X67.576 Y49.288 F1000
G1 X67.576 Y49.142 F1000
G1 X67.722 Y48.996 F1000
G1 X67.722 Y48.850 F1000
G1 X68.014 Y48.558 F1000
G1 X68.014 Y48.412 F1000
G1 X68.452 Y47.974 F1000
G1 X68.452 Y47.828 F1000
G1 X69.182 Y47.098 F1000
G1 X69.328 Y47.098 F1000
G1 X69.766 Y46.660 F1000
G1 X69.912 Y46.660 F1000
G1 X70.204 Y46.368 F1000
G1 X70.350 Y46.368 F1000
G1 X70.496 Y46.222 F1000
G1 X70.642 Y46.222 F1000
G1 X70.788 Y46.076 F1000
G1 X71.080 Y46.076 F1000
G1 X71.226 Y45.930 F1000
G1 X71.372 Y45.930 F1000
G1 X71.518 Y45.784 F1000
G1 X71.810 Y45.784 F1000
G1 X71.956 Y45.638 F1000
G1 X72.248 Y45.638 F1000
G1 X72.394 Y45.492 F1000
G1 X72.978 Y45.492 F1000
G1 X73.124 Y45.346 F1000
G1 X74.876 Y45.346 F1000
G1 X75.022 Y45.492 F1000
G1 X75.606 Y45.492 F1000
G1 X75.752 Y45.638 F1000
G1 X76.044 Y45.638 F1000
G1 X76.190 Y45.784 F1000
G1 X76.482 Y45.784 F1000
G1 X76.628 Y45.930 F1000
G1 X76.774 Y45.930 F1000
G1 X76.920 Y46.076 F1000
G1 X77.212 Y46.076 F1000
G1 X77.358 Y46.222 F1000
G1 X77.504 Y46.222 F1000
G1 X77.650 Y46.368 F1000
G1 X77.796 Y46.368 F1000
G1 X78.088 Y46.660 F1000
G1 X78.234 Y46.660 F1000
G1 X78.672 Y47.098 F1000
G1 X78.818 Y47.098 F1000
G1 X79.402 Y47.682 F1000
G1 X79.402 Y47.828 F1000
G1 X79.840 Y48.266 F1000
G1 X79.840 Y48.412 F1000
G1 X80.132 Y48.704 F1000
G1 X80.132 Y48.850 F1000
G1 X80.278 Y48.996 F1000
G1 X80.278 Y49.142 F1000
G1 X80.424 Y49.288 F1000
G1 X80.424 Y49.580 F1000
G1 X80.570 Y49.726 F1000
G1 X80.570 Y49.872 F1000
G1 X80.716 Y50.018 F1000
G1 X80.716 Y50.310 F1000
G1 X80.862 Y50.456 F1000
G1 X80.862 Y50.748 F1000
G1 X81.008 Y50.894 F1000
G1 X81.008 Y51.478 F1000
G1 X81.154 Y51.624 F1000
G1 X81.154 Y53.376 F1000
G1 X81.008 Y53.522 F1000
G1 X81.008 Y54.106 F1000
G1 X80.862 Y54.252 F1000
G1 X80.862 Y54.544 F1000
G1 X80.716 Y54.690 F1000
G1 X80.716 Y54.982 F1000
G1 X80.570 Y55.128 F1000
G1 X80.570 Y55.274 F1000
G1 X80.424 Y55.420 F1000
G1 X80.424 Y55.712 F1000
G1 X80.278 Y55.858 F1000
G1 X80.278 Y56.004 F1000
G1 X80.132 Y56.150 F1000
G1 X80.132 Y56.296 F1000
G1 X79.840 Y56.588 F1000
G1 X79.840 Y56.734 F1000
G1 X79.402 Y57.172 F1000
G1 X79.402 Y57.318 F1000
G1 X78.672 Y58.048 F1000
G1 X78.526 Y58.048 F1000
G1 X78.088 Y58.486 F1000
G1 X77.942 Y58.486 F1000
G1 X77.650 Y58.778 F1000
G1 X77.504 Y58.778 F1000
G1 X77.358 Y58.924 F1000
G1 X77.212 Y58.924 F1000
G1 X77.066 Y59.070 F1000
G1 X76.774 Y59.070 F1000
G1 X76.628 Y59.216 F1000
G1 X76.482 Y59.216 F1000
G1 X76.336 Y59.362 F1000
G1 X75.898 Y59.362 F1000
G1 X75.752 Y59.508 F1000
G1 X75.168 Y59.508 F1000
G1 X75.022 Y59.654 F1000
G0 Z3.0 ; Pen up

G0 X98.820 Y59.654 F3000 ; Travel to line 33
G0 Z0.0 ; Pen down
G1 X98.966 Y59.800 F1000
G1 X103.054 Y59.800 F1000
G1 X103.200 Y59.654 F1000
G1 X103.200 Y55.712 F1000
G1 X103.054 Y55.566 F1000
G1 X102.324 Y55.566 F1000
G1 X102.178 Y55.712 F1000
G1 X101.740 Y55.712 F1000
G1 X101.594 Y55.858 F1000
G1 X101.448 Y55.858 F1000
G1 X101.302 Y56.004 F1000
G1 X101.156 Y56.004 F1000
G1 X101.010 Y56.150 F1000
G1 X100.864 Y56.150 F1000
G1 X99.550 Y57.464 F1000
G1 X99.550 Y57.610 F1000
G1 X99.258 Y57.902 F1000
G1 X99.258 Y58.194 F1000
G1 X99.112 Y58.340 F1000
G1 X99.112 Y58.486 F1000
G1 X98.966 Y58.632 F1000
G1 X98.966 Y59.070 F1000
G1 X98.820 Y59.216 F1000
G0 Z3.0 ; Pen up

G0 X102.032 Y64.034 F3000 ; Travel to line 34
G0 Z0.0 ; Pen down
G1 X101.886 Y63.888 F1000
G1 X101.740 Y63.888 F1000
G1 X101.594 Y63.742 F1000
G1 X101.302 Y63.742 F1000
G1 X101.010 Y63.450 F1000
G1 X100.864 Y63.450 F1000
G1 X99.550 Y62.136 F1000
G1 X99.550 Y61.990 F1000
G1 X99.258 Y61.698 F1000
G1 X99.258 Y61.406 F1000
G1 X99.112 Y61.260 F1000
G1 X99.112 Y61.114 F1000
G1 X98.966 Y60.968 F1000
G1 X98.966 Y60.530 F1000
G1 X98.820 Y60.384 F1000
G1 X98.820 Y59.946 F1000
G1 X98.966 Y59.800 F1000
G1 X103.054 Y59.800 F1000
G1 X103.200 Y59.946 F1000
G1 X103.200 Y64.034 F1000
G1 X103.054 Y64.180 F1000
G1 X102.616 Y64.180 F1000
G1 X102.470 Y64.034 F1000
G0 Z3.0 ; Pen up

G0 X104.660 Y52.500 F3000 ; Travel to line 35
G0 Z0.0 ; Pen down
G1 X106.850 Y52.500 F1000
G0 Z3.0 ; Pen up

G0 X109.040 Y52.500 F3000 ; Travel to line 36
G0 Z0.0 ; Pen down
G1 X111.230 Y52.500 F1000
G0 Z3.0 ; Pen up

G0 X113.420 Y52.500 F3000 ; Travel to line 37
G0 Z0.0 ; Pen down
G1 X115.610 Y52.500 F1000
G0 Z3.0 ; Pen up

G0 X103.200 Y51.040 F3000 ; Travel to line 38
G0 Z0.0 ; Pen down
G1 X103.200 Y49.726 F1000
G1 X103.054 Y49.580 F1000
G1 X102.616 Y49.580 F1000
G1 X102.470 Y49.434 F1000
G1 X102.032 Y49.434 F1000
G1 X101.886 Y49.288 F1000
G1 X101.740 Y49.288 F1000
G1 X101.594 Y49.142 F1000
G1 X101.302 Y49.142 F1000
G1 X101.010 Y48.850 F1000
G1 X100.864 Y48.850 F1000
G1 X100.572 Y48.558 F1000
G1 X100.426 Y48.558 F1000
G1 X99.842 Y47.974 F1000
G1 X99.842 Y47.828 F1000
G1 X99.550 Y47.536 F1000
G1 X99.550 Y47.390 F1000
G1 X99.258 Y47.098 F1000
G1 X99.258 Y46.806 F1000
G1 X99.112 Y46.660 F1000
G1 X99.112 Y46.514 F1000
G1 X98.966 Y46.368 F1000
G1 X98.966 Y45.930 F1000
G1 X98.820 Y45.784 F1000
G1 X98.820 Y45.346 F1000
G1 X98.674 Y45.200 F1000
G1 X97.360 Y45.200 F1000
G1 X98.674 Y45.200 F1000
G1 X98.820 Y45.054 F1000
G1 X98.820 Y44.616 F1000
G1 X98.966 Y44.470 F1000
G1 X98.966 Y44.032 F1000
G1 X99.112 Y43.886 F1000
G1 X99.112 Y43.740 F1000
G1 X99.258 Y43.594 F1000
G1 X99.258 Y43.302 F1000
G1 X99.550 Y43.010 F1000
G1 X99.550 Y42.864 F1000
G1 X99.842 Y42.572 F1000
G1 X99.842 Y42.426 F1000
G1 X100.426 Y41.842 F1000
G1 X100.572 Y41.842 F1000
G1 X100.864 Y41.550 F1000
G1 X101.010 Y41.550 F1000
G1 X101.156 Y41.404 F1000
G1 X101.302 Y41.404 F1000
G1 X101.448 Y41.258 F1000
G1 X101.594 Y41.258 F1000
G1 X101.740 Y41.112 F1000
G1 X102.178 Y41.112 F1000
G1 X102.324 Y40.966 F1000
G1 X103.054 Y40.966 F1000
G1 X103.200 Y40.820 F1000
G1 X103.200 Y39.360 F1000
G1 X103.200 Y40.820 F1000
G1 X103.346 Y40.966 F1000
G1 X104.076 Y40.966 F1000
G1 X104.222 Y41.112 F1000
G1 X104.660 Y41.112 F1000
G1 X104.806 Y41.258 F1000
G1 X104.952 Y41.258 F1000
G1 X105.098 Y41.404 F1000
G1 X105.244 Y41.404 F1000
G1 X105.390 Y41.550 F1000
G1 X105.536 Y41.550 F1000
G1 X105.828 Y41.842 F1000
G1 X105.974 Y41.842 F1000
G1 X106.558 Y42.426 F1000
G1 X106.558 Y42.572 F1000
G1 X106.850 Y42.864 F1000
G1 X106.850 Y43.010 F1000
G1 X106.996 Y43.156 F1000
G1 X106.996 Y43.302 F1000
G1 X107.142 Y43.448 F1000
G1 X107.142 Y43.594 F1000
G1 X107.288 Y43.740 F1000
G1 X107.288 Y44.178 F1000
G1 X107.434 Y44.324 F1000
G1 X107.434 Y45.054 F1000
G1 X107.580 Y45.200 F1000
G1 X109.040 Y45.200 F1000
G1 X107.580 Y45.200 F1000
G1 X107.434 Y45.346 F1000
G1 X107.434 Y46.076 F1000
G1 X107.288 Y46.222 F1000
G1 X107.288 Y46.660 F1000
G1 X107.142 Y46.806 F1000
G1 X107.142 Y46.952 F1000
G1 X106.996 Y47.098 F1000
G1 X106.996 Y47.244 F1000
G1 X106.850 Y47.390 F1000
G1 X106.850 Y47.536 F1000
G1 X106.558 Y47.828 F1000
G1 X106.558 Y47.974 F1000
G1 X105.974 Y48.558 F1000
G1 X105.828 Y48.558 F1000
G1 X105.536 Y48.850 F1000
G1 X105.390 Y48.850 F1000
G1 X105.098 Y49.142 F1000
G1 X104.806 Y49.142 F1000
G1 X104.660 Y49.288 F1000
G1 X104.514 Y49.288 F1000
G1 X104.368 Y49.434 F1000
G1 X103.930 Y49.434 F1000
G1 X103.784 Y49.580 F1000
G1 X103.346 Y49.580 F1000
G1 X103.200 Y49.726 F1000
G0 Z3.0 ; Pen up

G0 X103.200 Y49.434 F3000 ; Travel to line 39
G0 Z0.0 ; Pen down
G1 X103.346 Y49.580 F1000
G1 X103.784 Y49.580 F1000
G1 X103.930 Y49.434 F1000
G1 X104.368 Y49.434 F1000
G1 X104.514 Y49.288 F1000
G1 X104.660 Y49.288 F1000
G1 X104.806 Y49.142 F1000
G1 X105.098 Y49.142 F1000
G1 X105.390 Y48.850 F1000
G1 X105.536 Y48.850 F1000
G1 X106.850 Y47.536 F1000
G1 X106.850 Y47.390 F1000
G1 X106.996 Y47.244 F1000
G1 X106.996 Y47.098 F1000
G1 X107.142 Y46.952 F1000
G1 X107.142 Y46.806 F1000
G1 X107.288 Y46.660 F1000
G1 X107.288 Y46.222 F1000
G1 X107.434 Y46.076 F1000
G1 X107.434 Y45.346 F1000
G1 X107.288 Y45.200 F1000
G1 X103.346 Y45.200 F1000
G1 X103.200 Y45.346 F1000
G0 Z3.0 ; Pen up

G0 X103.200 Y45.054 F3000 ; Travel to line 40
G0 Z0.0 ; Pen down
G1 X103.346 Y45.200 F1000
G1 X107.288 Y45.200 F1000
G1 X107.434 Y45.054 F1000
G1 X107.434 Y44.324 F1000
G1 X107.288 Y44.178 F1000
G1 X107.288 Y43.740 F1000
G1 X107.142 Y43.594 F1000
G1 X107.142 Y43.448 F1000
G1 X106.996 Y43.302 F1000
G1 X106.996 Y43.156 F1000
G1 X106.850 Y43.010 F1000
G1 X106.850 Y42.864 F1000
G1 X105.536 Y41.550 F1000
G1 X105.390 Y41.550 F1000
G1 X105.244 Y41.404 F1000
G1 X105.098 Y41.404 F1000
G1 X104.952 Y41.258 F1000
G1 X104.806 Y41.258 F1000
G1 X104.660 Y41.112 F1000
G1 X104.222 Y41.112 F1000
G1 X104.076 Y40.966 F1000
G1 X103.346 Y40.966 F1000
G1 X103.200 Y41.112 F1000
G0 Z3.0 ; Pen up

G0 X98.820 Y44.616 F3000 ; Travel to line 41
G0 Z0.0 ; Pen down
G1 X98.966 Y44.470 F1000
G1 X98.966 Y44.032 F1000
G1 X99.112 Y43.886 F1000
G1 X99.112 Y43.740 F1000
G1 X99.258 Y43.594 F1000
G1 X99.258 Y43.302 F1000
G1 X99.550 Y43.010 F1000
G1 X99.550 Y42.864 F1000
G1 X100.864 Y41.550 F1000
G1 X101.010 Y41.550 F1000
G1 X101.156 Y41.404 F1000
G1 X101.302 Y41.404 F1000
G1 X101.448 Y41.258 F1000
G1 X101.594 Y41.258 F1000
G1 X101.740 Y41.112 F1000
G1 X102.178 Y41.112 F1000
G1 X102.324 Y40.966 F1000
G1 X103.054 Y40.966 F1000
G1 X103.200 Y41.112 F1000
G1 X103.200 Y45.054 F1000
G1 X103.054 Y45.200 F1000
G1 X98.966 Y45.200 F1000
G1 X98.820 Y45.054 F1000
G0 Z3.0 ; Pen up

G0 X102.032 Y49.434 F3000 ; Travel to line 42
G0 Z0.0 ; Pen down
G1 X101.886 Y49.288 F1000
G1 X101.740 Y49.288 F1000
G1 X101.594 Y49.142 F1000
G1 X101.302 Y49.142 F1000
G1 X101.010 Y48.850 F1000
G1 X100.864 Y48.850 F1000
G1 X99.550 Y47.536 F1000
G1 X99.550 Y47.390 F1000
G1 X99.258 Y47.098 F1000
G1 X99.258 Y46.806 F1000
G1 X99.112 Y46.660 F1000
G1 X99.112 Y46.514 F1000
G1 X98.966 Y46.368 F1000
G1 X98.966 Y45.930 F1000
G1 X98.820 Y45.784 F1000
G1 X98.820 Y45.346 F1000
G1 X98.966 Y45.200 F1000
G1 X103.054 Y45.200 F1000
G1 X103.200 Y45.346 F1000
G1 X103.200 Y49.434 F1000
G1 X103.054 Y49.580 F1000
G1 X102.616 Y49.580 F1000
G1 X102.470 Y49.434 F1000
G0 Z3.0 ; Pen up

G0 X30.200 Y81.846 F3000 ; Travel to line 43
G0 Z0.0 ; Pen down
G1 X30.346 Y81.700 F1000
G1 X117.654 Y81.700 F1000
G1 X117.800 Y81.846 F1000
G1 X117.800 Y83.160 F1000
G1 X117.800 Y81.554 F1000
G1 X117.654 Y81.700 F1000
G1 X30.346 Y81.700 F1000
G1 X30.200 Y81.554 F1000
G1 X30.200 Y80.240 F1000
G1 X30.200 Y83.160 F1000
G0 Z3.0 ; Pen up

G0 X24.360 Y74.400 F3000 ; Travel to line 44
G0 Z0.0 ; Pen down
G1 X23.046 Y74.400 F1000
G1 X22.900 Y74.254 F1000
G1 X22.900 Y30.746 F1000
G1 X23.046 Y30.600 F1000
G1 X24.360 Y30.600 F1000
G1 X22.754 Y30.600 F1000
G1 X22.900 Y30.746 F1000
G1 X22.900 Y74.254 F1000
G1 X22.754 Y74.400 F1000
G1 X21.440 Y74.400 F1000
G0 Z3.0 ; Pen up

; Return to origin
G0 X0 Y0
G0 Z3.0

; Total drawing distance: 1523.51 mm
; Total travel distance: 340.79 mm
; Total lines: 44
; Estimated time: 98.2 seconds (1.6 minutes)
M2 ; End program