; Blueprint to G-code
; Input: test_data\test_images_inverted\white_on_blue_circuit.png
; Generated with blueprint2gcode.py

G21 ; Set units to millimeters
G90 ; Absolute positioning
G0 Z3.0 ; Pen up
G0 X0 Y0 ; Move to origin

G0 X74.000 Y22.115 F3000 ; Travel to line 1
G0 Z0.0 ; Pen down
G1 X74.258 Y21.858 F1000
G1 X99.235 Y21.858 F1000
G1 X99.493 Y22.115 F1000
G1 X99.493 Y26.492 F1000
G1 X99.235 Y26.750 F1000
G1 X74.258 Y26.750 F1000
G1 X74.000 Y26.492 F1000
G0 Z3.0 ; Pen up

G0 X74.000 Y31.385 F3000 ; Travel to line 2
G0 Z0.0 ; Pen down
G1 X74.000 Y27.008 F1000
G1 X74.258 Y26.750 F1000
G1 X99.235 Y26.750 F1000
G1 X99.493 Y27.008 F1000
G1 X99.493 Y31.643 F1000
G1 X99.235 Y31.900 F1000
G1 X74.515 Y31.900 F1000
G0 Z3.0 ; Pen up

G0 X35.375 Y73.615 F3000 ; Travel to line 3
G0 Z0.0 ; Pen down
G1 X35.633 Y73.358 F1000
G1 X47.735 Y73.358 F1000
G1 X47.992 Y73.615 F1000
G1 X47.992 Y77.993 F1000
G1 X47.735 Y78.250 F1000
G1 X35.633 Y78.250 F1000
G1 X35.375 Y77.993 F1000
G0 Z3.0 ; Pen up

G0 X35.375 Y82.885 F3000 ; Travel to line 4
G0 Z0.0 ; Pen down
G1 X35.375 Y78.508 F1000
G1 X35.633 Y78.250 F1000
G1 X47.735 Y78.250 F1000
G1 X47.992 Y78.508 F1000
G1 X47.992 Y83.142 F1000
G1 X47.735 Y83.400 F1000
G1 X35.890 Y83.400 F1000
G0 Z3.0 ; Pen up

G0 X35.633 Y83.400 F3000 ; Travel to line 5
G0 Z0.0 ; Pen down
G1 X35.375 Y83.142 F1000
G1 X35.375 Y78.508 F1000
G1 X35.117 Y78.250 F1000
G1 X22.500 Y78.250 F1000
G1 X35.117 Y78.250 F1000
G1 X35.375 Y77.993 F1000
G1 X35.375 Y73.358 F1000
G1 X47.992 Y73.358 F1000
G1 X47.992 Y77.993 F1000
G1 X48.250 Y78.250 F1000
G1 X60.867 Y78.250 F1000
G1 X61.125 Y77.993 F1000
G1 X61.125 Y26.750 F1000
G1 X73.743 Y26.750 F1000
G1 X74.000 Y26.492 F1000
G1 X74.000 Y21.858 F1000
G1 X99.493 Y21.858 F1000
G1 X99.493 Y26.492 F1000
G1 X99.750 Y26.750 F1000
G1 X125.500 Y26.750 F1000
G1 X99.750 Y26.750 F1000
G1 X99.493 Y27.008 F1000
G1 X99.493 Y31.900 F1000
G1 X74.258 Y31.900 F1000
G1 X74.000 Y31.643 F1000
G1 X74.000 Y27.008 F1000
G1 X73.743 Y26.750 F1000
G1 X61.383 Y26.750 F1000
G1 X61.125 Y27.008 F1000
G1 X61.125 Y78.250 F1000
G1 X48.250 Y78.250 F1000
G1 X47.992 Y78.508 F1000
G1 X47.992 Y83.400 F1000
G0 Z3.0 ; Pen up

; Return to origin
G0 X0 Y0
G0 Z3.0

; Total drawing distance: 640.69 mm
; Total travel distance: 144.48 mm
; Total lines: 5
; Estimated time: 41.3 seconds (0.7 minutes)
M2 ; End program