; Blueprint to G-code
; Input: test_data\test_images_inverted\white_on_black_geometric.png
; Generated with blueprint2gcode.py

G21 ; Set units to millimeters
G90 ; Absolute positioning
G0 Z3.0 ; Pen up
G0 X0 Y0 ; Move to origin

G0 X43.632 Y98.576 F3000 ; Travel to line 1
G0 Z0.0 ; Pen down
G1 X43.340 Y98.284 F1000
G1 X43.048 Y98.284 F1000
G1 X42.464 Y97.700 F1000
G1 X42.172 Y97.700 F1000
G1 X41.880 Y97.408 F1000
G1 X41.588 Y97.408 F1000
G1 X41.004 Y96.824 F1000
G1 X40.712 Y96.824 F1000
G1 X40.420 Y96.532 F1000
G1 X40.128 Y96.532 F1000
G1 X39.544 Y95.948 F1000
G1 X39.252 Y95.948 F1000
G1 X38.960 Y95.656 F1000
G1 X38.668 Y95.656 F1000
G1 X38.084 Y95.072 F1000
G1 X37.792 Y95.072 F1000
G1 X37.500 Y94.780 F1000
G1 X37.208 Y94.780 F1000
G1 X36.624 Y94.196 F1000
G1 X36.332 Y94.196 F1000
G1 X36.040 Y93.904 F1000
G1 X35.748 Y93.904 F1000
G1 X35.164 Y93.320 F1000
G1 X34.872 Y93.320 F1000
G1 X34.580 Y93.028 F1000
G1 X34.288 Y93.028 F1000
G1 X33.704 Y92.444 F1000
G1 X33.412 Y92.444 F1000
G1 X33.120 Y92.152 F1000
G1 X32.828 Y92.152 F1000
G1 X32.244 Y91.568 F1000
G1 X31.952 Y91.568 F1000
G1 X31.660 Y91.276 F1000
G1 X31.368 Y91.276 F1000
G1 X30.784 Y90.692 F1000
G1 X30.492 Y90.692 F1000
G1 X30.200 Y90.400 F1000
G1 X30.200 Y73.172 F1000
G1 X31.076 Y72.296 F1000
G1 X31.368 Y72.296 F1000
G1 X31.660 Y72.004 F1000
G1 X31.952 Y72.004 F1000
G1 X32.536 Y71.420 F1000
G1 X32.828 Y71.420 F1000
G1 X33.120 Y71.128 F1000
G1 X33.412 Y71.128 F1000
G1 X33.996 Y70.544 F1000
G1 X34.288 Y70.544 F1000
G1 X34.580 Y70.252 F1000
G1 X34.872 Y70.252 F1000
G1 X35.456 Y69.668 F1000
G1 X35.748 Y69.668 F1000
G1 X36.040 Y69.376 F1000
G1 X36.332 Y69.376 F1000
G1 X36.916 Y68.792 F1000
G1 X37.208 Y68.792 F1000
G1 X37.500 Y68.500 F1000
G1 X37.792 Y68.500 F1000
G1 X38.376 Y67.916 F1000
G1 X38.668 Y67.916 F1000
G1 X38.960 Y67.624 F1000
G1 X39.252 Y67.624 F1000
G1 X39.836 Y67.040 F1000
G1 X40.128 Y67.040 F1000
G1 X40.420 Y66.748 F1000
G1 X40.712 Y66.748 F1000
G1 X41.296 Y66.164 F1000
G1 X41.588 Y66.164 F1000
G1 X41.880 Y65.872 F1000
G1 X42.172 Y65.872 F1000
G1 X42.756 Y65.288 F1000
G1 X43.048 Y65.288 F1000
G1 X43.340 Y64.996 F1000
G1 X43.632 Y64.996 F1000
G1 X44.216 Y64.412 F1000
G1 X44.508 Y64.412 F1000
G1 X44.800 Y64.120 F1000
G1 X45.092 Y64.412 F1000
G1 X45.384 Y64.412 F1000
G1 X45.968 Y64.996 F1000
G1 X46.260 Y64.996 F1000
G1 X46.552 Y65.288 F1000
G1 X46.844 Y65.288 F1000
G1 X47.428 Y65.872 F1000
G1 X47.720 Y65.872 F1000
G1 X48.012 Y66.164 F1000
G1 X48.304 Y66.164 F1000
G1 X48.888 Y66.748 F1000
G1 X49.180 Y66.748 F1000
G1 X49.472 Y67.040 F1000
G1 X49.764 Y67.040 F1000
G1 X50.348 Y67.624 F1000
G1 X50.640 Y67.624 F1000
G1 X50.932 Y67.916 F1000
G1 X51.224 Y67.916 F1000
G1 X51.808 Y68.500 F1000
G1 X52.100 Y68.500 F1000
G1 X52.392 Y68.792 F1000
G1 X52.684 Y68.792 F1000
G1 X53.268 Y69.376 F1000
G1 X53.560 Y69.376 F1000
G1 X53.852 Y69.668 F1000
G1 X54.144 Y69.668 F1000
G1 X54.728 Y70.252 F1000
G1 X55.020 Y70.252 F1000
G1 X55.312 Y70.544 F1000
G1 X55.604 Y70.544 F1000
G1 X56.188 Y71.128 F1000
G1 X56.480 Y71.128 F1000
G1 X56.772 Y71.420 F1000
G1 X57.064 Y71.420 F1000
G1 X57.648 Y72.004 F1000
G1 X57.940 Y72.004 F1000
G1 X58.232 Y72.296 F1000
G1 X58.524 Y72.296 F1000
G1 X59.400 Y73.172 F1000
G1 X59.400 Y90.400 F1000
G1 X59.108 Y90.692 F1000
G1 X58.816 Y90.692 F1000
G1 X58.232 Y91.276 F1000
G1 X57.940 Y91.276 F1000
G1 X57.648 Y91.568 F1000
G1 X57.356 Y91.568 F1000
G1 X56.772 Y92.152 F1000
G1 X56.480 Y92.152 F1000
G1 X56.188 Y92.444 F1000
G1 X55.896 Y92.444 F1000
G1 X55.312 Y93.028 F1000
G1 X55.020 Y93.028 F1000
G1 X54.728 Y93.320 F1000
G1 X54.436 Y93.320 F1000
G1 X53.852 Y93.904 F1000
G1 X53.560 Y93.904 F1000
G1 X53.268 Y94.196 F1000
G1 X52.976 Y94.196 F1000
G1 X52.392 Y94.780 F1000
G1 X52.100 Y94.780 F1000
G1 X51.808 Y95.072 F1000
G1 X51.516 Y95.072 F1000
G1 X50.932 Y95.656 F1000
G1 X50.640 Y95.656 F1000
G1 X50.348 Y95.948 F1000
G1 X50.056 Y95.948 F1000
G1 X49.472 Y96.532 F1000
G1 X49.180 Y96.532 F1000
G1 X48.888 Y96.824 F1000
G1 X48.596 Y96.824 F1000
G1 X48.012 Y97.408 F1000
G1 X47.720 Y97.408 F1000
G1 X47.428 Y97.700 F1000
G1 X47.136 Y97.700 F1000
G1 X46.552 Y98.284 F1000
G1 X46.260 Y98.284 F1000
G1 X45.968 Y98.576 F1000
G1 X45.676 Y98.576 F1000
G1 X45.384 Y98.868 F1000
G1 X44.216 Y98.868 F1000
G1 X43.924 Y98.576 F1000
G0 Z3.0 ; Pen up

G0 X44.216 Y98.868 F3000 ; Travel to line 2
G0 Z0.0 ; Pen down
G1 X43.924 Y98.576 F1000
G1 X43.632 Y98.576 F1000
G1 X43.340 Y98.284 F1000
G1 X43.048 Y98.284 F1000
G1 X42.464 Y97.700 F1000
G1 X42.172 Y97.700 F1000
G1 X41.880 Y97.408 F1000
G1 X41.588 Y97.408 F1000
G1 X41.004 Y96.824 F1000
G1 X40.712 Y96.824 F1000
G1 X40.420 Y96.532 F1000
G1 X40.128 Y96.532 F1000
G1 X39.544 Y95.948 F1000
G1 X39.252 Y95.948 F1000
G1 X38.960 Y95.656 F1000
G1 X38.668 Y95.656 F1000
G1 X38.084 Y95.072 F1000
G1 X37.792 Y95.072 F1000
G1 X37.500 Y94.780 F1000
G1 X37.208 Y94.780 F1000
G1 X36.624 Y94.196 F1000
G1 X36.332 Y94.196 F1000
G1 X36.040 Y93.904 F1000
G1 X35.748 Y93.904 F1000
G1 X35.164 Y93.320 F1000
G1 X34.872 Y93.320 F1000
G1 X34.580 Y93.028 F1000
G1 X34.288 Y93.028 F1000
G1 X33.704 Y92.444 F1000
G1 X33.412 Y92.444 F1000
G1 X33.120 Y92.152 F1000
G1 X32.828 Y92.152 F1000
G1 X32.244 Y91.568 F1000
G1 X31.952 Y91.568 F1000
G1 X31.660 Y91.276 F1000
G1 X31.368 Y91.276 F1000
G1 X30.784 Y90.692 F1000
G1 X30.492 Y90.692 F1000
G1 X30.200 Y90.400 F1000
G1 X30.200 Y72.880 F1000
G1 X30.492 Y72.880 F1000
G1 X31.076 Y72.296 F1000
G1 X31.368 Y72.296 F1000
G1 X31.660 Y72.004 F1000
G1 X31.952 Y72.004 F1000
G1 X32.536 Y71.420 F1000
G1 X32.828 Y71.420 F1000
G1 X33.120 Y71.128 F1000
G1 X33.412 Y71.128 F1000
G1 X33.996 Y70.544 F1000
G1 X34.288 Y70.544 F1000
G1 X34.580 Y70.252 F1000
G1 X34.872 Y70.252 F1000
G1 X35.456 Y69.668 F1000
G1 X35.748 Y69.668 F1000
G1 X36.040 Y69.376 F1000
G1 X36.332 Y69.376 F1000
G1 X36.916 Y68.792 F1000
G1 X37.208 Y68.792 F1000
G1 X37.500 Y68.500 F1000
G1 X37.792 Y68.500 F1000
G1 X38.376 Y67.916 F1000
G1 X38.668 Y67.916 F1000
G1 X38.960 Y67.624 F1000
G1 X39.252 Y67.624 F1000
G1 X39.836 Y67.040 F1000
G1 X40.128 Y67.040 F1000
G1 X40.420 Y66.748 F1000
G1 X40.712 Y66.748 F1000
G1 X41.296 Y66.164 F1000
G1 X41.588 Y66.164 F1000
G1 X41.880 Y65.872 F1000
G1 X42.172 Y65.872 F1000
G1 X42.756 Y65.288 F1000
G1 X43.048 Y65.288 F1000
G1 X43.340 Y64.996 F1000
G1 X43.632 Y64.996 F1000
G1 X44.216 Y64.412 F1000
G1 X44.508 Y64.412 F1000
G1 X44.800 Y64.120 F1000
G1 X45.092 Y64.412 F1000
G1 X45.384 Y64.412 F1000
G1 X45.968 Y64.996 F1000
G1 X46.260 Y64.996 F1000
G1 X46.552 Y65.288 F1000
G1 X46.844 Y65.288 F1000
G1 X47.428 Y65.872 F1000
G1 X47.720 Y65.872 F1000
G1 X48.012 Y66.164 F1000
G1 X48.304 Y66.164 F1000
G1 X48.888 Y66.748 F1000
G1 X49.180 Y66.748 F1000
G1 X49.472 Y67.040 F1000
G1 X49.764 Y67.040 F1000
G1 X50.348 Y67.624 F1000
G1 X50.640 Y67.624 F1000
G1 X50.932 Y67.916 F1000
G1 X51.224 Y67.916 F1000
G1 X51.808 Y68.500 F1000
G1 X52.100 Y68.500 F1000
G1 X52.392 Y68.792 F1000
G1 X52.684 Y68.792 F1000
G1 X53.268 Y69.376 F1000
G1 X53.560 Y69.376 F1000
G1 X53.852 Y69.668 F1000
G1 X54.144 Y69.668 F1000
G1 X54.728 Y70.252 F1000
G1 X55.020 Y70.252 F1000
G1 X55.312 Y70.544 F1000
G1 X55.604 Y70.544 F1000
G1 X56.188 Y71.128 F1000
G1 X56.480 Y71.128 F1000
G1 X56.772 Y71.420 F1000
G1 X57.064 Y71.420 F1000
G1 X57.648 Y72.004 F1000
G1 X57.940 Y72.004 F1000
G1 X58.232 Y72.296 F1000
G1 X58.524 Y72.296 F1000
G1 X59.400 Y73.172 F1000
G1 X59.400 Y90.400 F1000
G1 X59.108 Y90.692 F1000
G1 X58.816 Y90.692 F1000
G1 X58.232 Y91.276 F1000
G1 X57.940 Y91.276 F1000
G1 X57.648 Y91.568 F1000
G1 X57.356 Y91.568 F1000
G1 X56.772 Y92.152 F1000
G1 X56.480 Y92.152 F1000
G1 X56.188 Y92.444 F1000
G1 X55.896 Y92.444 F1000
G1 X55.312 Y93.028 F1000
G1 X55.020 Y93.028 F1000
G1 X54.728 Y93.320 F1000
G1 X54.436 Y93.320 F1000
G1 X53.852 Y93.904 F1000
G1 X53.560 Y93.904 F1000
G1 X53.268 Y94.196 F1000
G1 X52.976 Y94.196 F1000
G1 X52.392 Y94.780 F1000
G1 X52.100 Y94.780 F1000
G1 X51.808 Y95.072 F1000
G1 X51.516 Y95.072 F1000
G1 X50.932 Y95.656 F1000
G1 X50.640 Y95.656 F1000
G1 X50.348 Y95.948 F1000
G1 X50.056 Y95.948 F1000
G1 X49.472 Y96.532 F1000
G1 X49.180 Y96.532 F1000
G1 X48.888 Y96.824 F1000
G1 X48.596 Y96.824 F1000
G1 X48.012 Y97.408 F1000
G1 X47.720 Y97.408 F1000
G1 X47.428 Y97.700 F1000
G1 X47.136 Y97.700 F1000
G1 X46.552 Y98.284 F1000
G1 X46.260 Y98.284 F1000
G1 X45.968 Y98.576 F1000
G1 X45.676 Y98.576 F1000
G1 X45.384 Y98.868 F1000
G0 Z3.0 ; Pen up

G0 X40.128 Y163.108 F3000 ; Travel to line 3
G0 Z0.0 ; Pen down
G1 X40.420 Y162.816 F1000
G1 X41.880 Y162.816 F1000
G1 X42.172 Y162.524 F1000
G1 X43.048 Y162.524 F1000
G1 X43.340 Y162.232 F1000
G1 X44.216 Y162.232 F1000
G1 X44.508 Y161.940 F1000
G1 X45.092 Y161.940 F1000
G1 X45.384 Y161.648 F1000
G1 X45.676 Y161.648 F1000
G1 X45.968 Y161.356 F1000
G1 X46.552 Y161.356 F1000
G1 X46.844 Y161.064 F1000
G1 X47.136 Y161.064 F1000
G1 X47.428 Y160.772 F1000
G1 X47.720 Y160.772 F1000
G1 X48.012 Y160.480 F1000
G1 X48.304 Y160.480 F1000
G1 X48.888 Y159.896 F1000
G1 X49.180 Y159.896 F1000
G1 X49.764 Y159.312 F1000
G1 X50.056 Y159.312 F1000
G1 X50.932 Y158.436 F1000
G1 X51.224 Y158.436 F1000
G1 X54.144 Y155.516 F1000
G1 X54.144 Y155.224 F1000
G1 X55.020 Y154.348 F1000
G1 X55.020 Y154.056 F1000
G1 X55.604 Y153.472 F1000
G1 X55.604 Y153.180 F1000
G1 X56.188 Y152.596 F1000
G1 X56.188 Y152.304 F1000
G1 X56.480 Y152.012 F1000
G1 X56.480 Y151.720 F1000
G1 X56.772 Y151.428 F1000
G1 X56.772 Y151.136 F1000
G1 X57.064 Y150.844 F1000
G1 X57.064 Y150.260 F1000
G1 X57.356 Y149.968 F1000
G1 X57.356 Y149.676 F1000
G1 X57.648 Y149.384 F1000
G1 X57.648 Y148.800 F1000
G1 X57.940 Y148.508 F1000
G1 X57.940 Y147.924 F1000
G1 X58.232 Y147.632 F1000
G1 X58.232 Y147.048 F1000
G1 X58.524 Y146.756 F1000
G1 X58.524 Y145.588 F1000
G1 X58.816 Y145.296 F1000
G1 X58.816 Y143.836 F1000
G1 X59.108 Y143.544 F1000
G1 X59.108 Y139.456 F1000
G1 X58.816 Y139.164 F1000
G1 X58.816 Y137.704 F1000
G1 X58.524 Y137.412 F1000
G1 X58.524 Y136.244 F1000
G1 X58.232 Y135.952 F1000
G1 X58.232 Y135.368 F1000
G1 X57.940 Y135.076 F1000
G1 X57.940 Y134.492 F1000
G1 X57.648 Y134.200 F1000
G1 X57.648 Y133.616 F1000
G1 X57.356 Y133.324 F1000
G1 X57.356 Y133.032 F1000
G1 X57.064 Y132.740 F1000
G1 X57.064 Y132.156 F1000
G1 X56.772 Y131.864 F1000
G1 X56.772 Y131.572 F1000
G1 X56.480 Y131.280 F1000
G1 X56.480 Y130.988 F1000
G1 X56.188 Y130.696 F1000
G1 X56.188 Y130.404 F1000
G1 X55.604 Y129.820 F1000
G1 X55.604 Y129.528 F1000
G1 X55.020 Y128.944 F1000
G1 X55.020 Y128.652 F1000
G1 X54.144 Y127.776 F1000
G1 X54.144 Y127.484 F1000
G1 X51.516 Y124.856 F1000
G1 X51.224 Y124.856 F1000
G1 X50.348 Y123.980 F1000
G1 X50.056 Y123.980 F1000
G1 X49.472 Y123.396 F1000
G1 X49.180 Y123.396 F1000
G1 X48.596 Y122.812 F1000
G1 X48.304 Y122.812 F1000
G1 X48.012 Y122.520 F1000
G1 X47.720 Y122.520 F1000
G1 X47.428 Y122.228 F1000
G1 X47.136 Y122.228 F1000
G1 X46.844 Y121.936 F1000
G1 X46.260 Y121.936 F1000
G1 X45.968 Y121.644 F1000
G1 X45.676 Y121.644 F1000
G1 X45.384 Y121.352 F1000
G1 X44.800 Y121.352 F1000
G1 X44.508 Y121.060 F1000
G1 X43.924 Y121.060 F1000
G1 X43.632 Y120.768 F1000
G1 X43.048 Y120.768 F1000
G1 X42.756 Y120.476 F1000
G1 X41.588 Y120.476 F1000
G1 X41.296 Y120.184 F1000
G1 X39.836 Y120.184 F1000
G1 X39.544 Y119.892 F1000
G1 X35.456 Y119.892 F1000
G1 X35.164 Y120.184 F1000
G1 X33.704 Y120.184 F1000
G1 X33.412 Y120.476 F1000
G1 X32.244 Y120.476 F1000
G1 X31.952 Y120.768 F1000
G1 X31.368 Y120.768 F1000
G1 X31.076 Y121.060 F1000
G1 X30.492 Y121.060 F1000
G1 X30.200 Y121.352 F1000
G1 X29.616 Y121.352 F1000
G1 X29.324 Y121.644 F1000
G1 X29.032 Y121.644 F1000
G1 X28.740 Y121.936 F1000
G1 X28.156 Y121.936 F1000
G1 X27.864 Y122.228 F1000
G1 X27.572 Y122.228 F1000
G1 X27.280 Y122.520 F1000
G1 X26.988 Y122.520 F1000
G1 X26.696 Y122.812 F1000
G1 X26.404 Y122.812 F1000
G1 X25.820 Y123.396 F1000
G1 X25.528 Y123.396 F1000
G1 X24.944 Y123.980 F1000
G1 X24.652 Y123.980 F1000
G1 X23.776 Y124.856 F1000
G1 X23.484 Y124.856 F1000
G1 X20.564 Y127.776 F1000
G1 X20.564 Y128.068 F1000
G1 X19.688 Y128.944 F1000
G1 X19.688 Y129.236 F1000
G1 X19.104 Y129.820 F1000
G1 X19.104 Y130.112 F1000
G1 X18.520 Y130.696 F1000
G1 X18.520 Y130.988 F1000
G1 X18.228 Y131.280 F1000
G1 X18.228 Y131.572 F1000
G1 X17.936 Y131.864 F1000
G1 X17.936 Y132.156 F1000
G1 X17.644 Y132.448 F1000
G1 X17.644 Y133.032 F1000
G1 X17.352 Y133.324 F1000
G1 X17.352 Y133.616 F1000
G1 X17.060 Y133.908 F1000
G1 X17.060 Y134.492 F1000
G1 X16.768 Y134.784 F1000
G1 X16.768 Y135.660 F1000
G1 X16.476 Y135.952 F1000
G1 X16.476 Y136.828 F1000
G1 X16.184 Y137.120 F1000
G1 X16.184 Y138.580 F1000
G1 X15.892 Y138.872 F1000
G1 X15.892 Y144.128 F1000
G1 X16.184 Y144.420 F1000
G1 X16.184 Y145.880 F1000
G1 X16.476 Y146.172 F1000
G1 X16.476 Y147.048 F1000
G1 X16.768 Y147.340 F1000
G1 X16.768 Y148.216 F1000
G1 X17.060 Y148.508 F1000
G1 X17.060 Y149.092 F1000
G1 X17.352 Y149.384 F1000
G1 X17.352 Y149.676 F1000
G1 X17.644 Y149.968 F1000
G1 X17.644 Y150.552 F1000
G1 X17.936 Y150.844 F1000
G1 X17.936 Y151.136 F1000
G1 X18.228 Y151.428 F1000
G1 X18.228 Y151.720 F1000
G1 X18.520 Y152.012 F1000
G1 X18.520 Y152.304 F1000
G1 X19.104 Y152.888 F1000
G1 X19.104 Y153.180 F1000
G1 X19.688 Y153.764 F1000
G1 X19.688 Y154.056 F1000
G1 X20.564 Y154.932 F1000
G1 X20.564 Y155.224 F1000
G1 X23.776 Y158.436 F1000
G1 X24.068 Y158.436 F1000
G1 X24.944 Y159.312 F1000
G1 X25.236 Y159.312 F1000
G1 X25.820 Y159.896 F1000
G1 X26.112 Y159.896 F1000
G1 X26.696 Y160.480 F1000
G1 X26.988 Y160.480 F1000
G1 X27.280 Y160.772 F1000
G1 X27.572 Y160.772 F1000
G1 X27.864 Y161.064 F1000
G1 X28.156 Y161.064 F1000
G1 X28.448 Y161.356 F1000
G1 X29.032 Y161.356 F1000
G1 X29.324 Y161.648 F1000
G1 X29.616 Y161.648 F1000
G1 X29.908 Y161.940 F1000
G1 X30.492 Y161.940 F1000
G1 X30.784 Y162.232 F1000
G1 X31.660 Y162.232 F1000
G1 X31.952 Y162.524 F1000
G1 X32.828 Y162.524 F1000
G1 X33.120 Y162.816 F1000
G1 X34.580 Y162.816 F1000
G1 X34.872 Y163.108 F1000
G0 Z3.0 ; Pen up

G0 X34.580 Y162.816 F3000 ; Travel to line 4
G0 Z0.0 ; Pen down
G1 X34.872 Y163.108 F1000
G1 X40.128 Y163.108 F1000
G1 X40.420 Y162.816 F1000
G1 X41.880 Y162.816 F1000
G1 X42.172 Y162.524 F1000
G1 X43.048 Y162.524 F1000
G1 X43.340 Y162.232 F1000
G1 X44.216 Y162.232 F1000
G1 X44.508 Y161.940 F1000
G1 X45.092 Y161.940 F1000
G1 X45.384 Y161.648 F1000
G1 X45.676 Y161.648 F1000
G1 X45.968 Y161.356 F1000
G1 X46.260 Y161.356 F1000
G1 X46.552 Y161.064 F1000
G1 X46.844 Y161.064 F1000
G1 X47.136 Y160.772 F1000
G1 X47.428 Y160.772 F1000
G1 X47.720 Y160.480 F1000
G1 X48.012 Y160.480 F1000
G1 X48.596 Y159.896 F1000
G1 X48.888 Y159.896 F1000
G1 X49.472 Y159.312 F1000
G1 X49.764 Y159.312 F1000
G1 X50.640 Y158.436 F1000
G1 X50.932 Y158.436 F1000
G1 X54.144 Y155.224 F1000
G1 X54.144 Y154.932 F1000
G1 X55.020 Y154.056 F1000
G1 X55.020 Y153.764 F1000
G1 X55.604 Y153.180 F1000
G1 X55.604 Y152.888 F1000
G1 X56.188 Y152.304 F1000
G1 X56.188 Y152.012 F1000
G1 X56.480 Y151.720 F1000
G1 X56.480 Y151.428 F1000
G1 X56.772 Y151.136 F1000
G1 X56.772 Y150.844 F1000
G1 X57.064 Y150.552 F1000
G1 X57.064 Y150.260 F1000
G1 X57.356 Y149.968 F1000
G1 X57.356 Y149.676 F1000
G1 X57.648 Y149.384 F1000
G1 X57.648 Y148.800 F1000
G1 X57.940 Y148.508 F1000
G1 X57.940 Y147.924 F1000
G1 X58.232 Y147.632 F1000
G1 X58.232 Y147.048 F1000
G1 X58.524 Y146.756 F1000
G1 X58.524 Y145.588 F1000
G1 X58.816 Y145.296 F1000
G1 X58.816 Y143.836 F1000
G1 X59.108 Y143.544 F1000
G1 X59.108 Y139.456 F1000
G1 X58.816 Y139.164 F1000
G1 X58.816 Y137.704 F1000
G1 X58.524 Y137.412 F1000
G1 X58.524 Y136.244 F1000
G1 X58.232 Y135.952 F1000
G1 X58.232 Y135.368 F1000
G1 X57.940 Y135.076 F1000
G1 X57.940 Y134.492 F1000
G1 X57.648 Y134.200 F1000
G1 X57.648 Y133.616 F1000
G1 X57.356 Y133.324 F1000
G1 X57.356 Y133.032 F1000
G1 X57.064 Y132.740 F1000
G1 X57.064 Y132.448 F1000
G1 X56.772 Y132.156 F1000
G1 X56.772 Y131.864 F1000
G1 X56.480 Y131.572 F1000
G1 X56.480 Y131.280 F1000
G1 X56.188 Y130.988 F1000
G1 X56.188 Y130.696 F1000
G1 X55.604 Y130.112 F1000
G1 X55.604 Y129.820 F1000
G1 X55.020 Y129.236 F1000
G1 X55.020 Y128.944 F1000
G1 X54.144 Y128.068 F1000
G1 X54.144 Y127.776 F1000
G1 X51.224 Y124.856 F1000
G1 X50.932 Y124.856 F1000
G1 X50.056 Y123.980 F1000
G1 X49.764 Y123.980 F1000
G1 X49.180 Y123.396 F1000
G1 X48.888 Y123.396 F1000
G1 X48.304 Y122.812 F1000
G1 X48.012 Y122.812 F1000
G1 X47.720 Y122.520 F1000
G1 X47.428 Y122.520 F1000
G1 X47.136 Y122.228 F1000
G1 X46.844 Y122.228 F1000
G1 X46.552 Y121.936 F1000
G1 X46.260 Y121.936 F1000
G1 X45.968 Y121.644 F1000
G1 X45.676 Y121.644 F1000
G1 X45.384 Y121.352 F1000
G1 X44.800 Y121.352 F1000
G1 X44.508 Y121.060 F1000
G1 X43.924 Y121.060 F1000
G1 X43.632 Y120.768 F1000
G1 X43.048 Y120.768 F1000
G1 X42.756 Y120.476 F1000
G1 X41.588 Y120.476 F1000
G1 X41.296 Y120.184 F1000
G1 X39.836 Y120.184 F1000
G1 X39.544 Y119.892 F1000
G1 X35.456 Y119.892 F1000
G1 X35.164 Y120.184 F1000
G1 X33.704 Y120.184 F1000
G1 X33.412 Y120.476 F1000
G1 X32.244 Y120.476 F1000
G1 X31.952 Y120.768 F1000
G1 X31.368 Y120.768 F1000
G1 X31.076 Y121.060 F1000
G1 X30.492 Y121.060 F1000
G1 X30.200 Y121.352 F1000
G1 X29.616 Y121.352 F1000
G1 X29.324 Y121.644 F1000
G1 X29.032 Y121.644 F1000
G1 X28.740 Y121.936 F1000
G1 X28.448 Y121.936 F1000
G1 X28.156 Y122.228 F1000
G1 X27.864 Y122.228 F1000
G1 X27.572 Y122.520 F1000
G1 X27.280 Y122.520 F1000
G1 X26.988 Y122.812 F1000
G1 X26.696 Y122.812 F1000
G1 X26.112 Y123.396 F1000
G1 X25.820 Y123.396 F1000
G1 X25.236 Y123.980 F1000
G1 X24.944 Y123.980 F1000
G1 X24.068 Y124.856 F1000
G1 X23.776 Y124.856 F1000
G1 X20.564 Y128.068 F1000
G1 X20.564 Y128.360 F1000
G1 X19.688 Y129.236 F1000
G1 X19.688 Y129.528 F1000
G1 X19.104 Y130.112 F1000
G1 X19.104 Y130.404 F1000
G1 X18.520 Y130.988 F1000
G1 X18.520 Y131.280 F1000
G1 X18.228 Y131.572 F1000
G1 X18.228 Y131.864 F1000
G1 X17.936 Y132.156 F1000
G1 X17.936 Y132.448 F1000
G1 X17.644 Y132.740 F1000
G1 X17.644 Y133.032 F1000
G1 X17.352 Y133.324 F1000
G1 X17.352 Y133.616 F1000
G1 X17.060 Y133.908 F1000
G1 X17.060 Y134.492 F1000
G1 X16.768 Y134.784 F1000
G1 X16.768 Y135.660 F1000
G1 X16.476 Y135.952 F1000
G1 X16.476 Y136.828 F1000
G1 X16.184 Y137.120 F1000
G1 X16.184 Y138.580 F1000
G1 X15.892 Y138.872 F1000
G1 X15.892 Y144.128 F1000
G1 X16.184 Y144.420 F1000
G1 X16.184 Y145.880 F1000
G1 X16.476 Y146.172 F1000
G1 X16.476 Y147.048 F1000
G1 X16.768 Y147.340 F1000
G1 X16.768 Y148.216 F1000
G1 X17.060 Y148.508 F1000
G1 X17.060 Y149.092 F1000
G1 X17.352 Y149.384 F1000
G1 X17.352 Y149.676 F1000
G1 X17.644 Y149.968 F1000
G1 X17.644 Y150.260 F1000
G1 X17.936 Y150.552 F1000
G1 X17.936 Y150.844 F1000
G1 X18.228 Y151.136 F1000
G1 X18.228 Y151.428 F1000
G1 X18.520 Y151.720 F1000
G1 X18.520 Y152.012 F1000
G1 X19.104 Y152.596 F1000
G1 X19.104 Y152.888 F1000
G1 X19.688 Y153.472 F1000
G1 X19.688 Y153.764 F1000
G1 X20.564 Y154.640 F1000
G1 X20.564 Y154.932 F1000
G1 X24.068 Y158.436 F1000
G1 X24.360 Y158.436 F1000
G1 X25.236 Y159.312 F1000
G1 X25.528 Y159.312 F1000
G1 X26.112 Y159.896 F1000
G1 X26.404 Y159.896 F1000
G1 X26.988 Y160.480 F1000
G1 X27.280 Y160.480 F1000
G1 X27.572 Y160.772 F1000
G1 X27.864 Y160.772 F1000
G1 X28.156 Y161.064 F1000
G1 X28.448 Y161.064 F1000
G1 X28.740 Y161.356 F1000
G1 X29.032 Y161.356 F1000
G1 X29.324 Y161.648 F1000
G1 X29.616 Y161.648 F1000
G1 X29.908 Y161.940 F1000
G1 X30.492 Y161.940 F1000
G1 X30.784 Y162.232 F1000
G1 X31.660 Y162.232 F1000
G1 X31.952 Y162.524 F1000
G1 X32.828 Y162.524 F1000
G1 X33.120 Y162.816 F1000
G0 Z3.0 ; Pen up

G0 X109.916 Y162.524 F3000 ; Travel to line 5
G0 Z0.0 ; Pen down
G1 X110.208 Y162.816 F1000
G1 X110.500 Y162.816 F1000
G1 X111.084 Y162.232 F1000
G1 X111.084 Y161.940 F1000
G1 X111.376 Y161.648 F1000
G1 X111.376 Y161.356 F1000
G1 X111.668 Y161.064 F1000
G1 X111.668 Y160.772 F1000
G1 X111.960 Y160.480 F1000
G1 X111.960 Y160.188 F1000
G1 X112.252 Y159.896 F1000
G1 X112.252 Y159.604 F1000
G1 X112.544 Y159.312 F1000
G1 X112.544 Y159.020 F1000
G1 X112.836 Y158.728 F1000
G1 X112.836 Y158.436 F1000
G1 X113.128 Y158.144 F1000
G1 X113.128 Y157.852 F1000
G1 X113.420 Y157.560 F1000
G1 X113.420 Y157.268 F1000
G1 X113.712 Y156.976 F1000
G1 X113.712 Y156.684 F1000
G1 X114.004 Y156.392 F1000
G1 X114.004 Y156.100 F1000
G1 X114.296 Y155.808 F1000
G1 X114.296 Y155.516 F1000
G1 X114.588 Y155.224 F1000
G1 X114.588 Y154.932 F1000
G1 X114.880 Y154.640 F1000
G1 X114.880 Y154.348 F1000
G1 X115.172 Y154.056 F1000
G1 X115.172 Y153.764 F1000
G1 X115.464 Y153.472 F1000
G1 X115.464 Y153.180 F1000
G1 X115.756 Y152.888 F1000
G1 X115.756 Y152.596 F1000
G1 X116.048 Y152.304 F1000
G1 X116.048 Y152.012 F1000
G1 X116.340 Y151.720 F1000
G1 X116.340 Y151.428 F1000
G1 X116.632 Y151.136 F1000
G1 X116.632 Y150.844 F1000
G1 X116.924 Y150.552 F1000
G1 X116.924 Y150.260 F1000
G1 X117.216 Y149.968 F1000
G1 X117.216 Y149.676 F1000
G1 X117.508 Y149.384 F1000
G1 X117.508 Y149.092 F1000
G1 X117.800 Y148.800 F1000
G1 X117.800 Y148.508 F1000
G1 X118.092 Y148.216 F1000
G1 X118.092 Y147.924 F1000
G1 X118.384 Y147.632 F1000
G1 X118.384 Y147.340 F1000
G1 X118.676 Y147.048 F1000
G1 X118.676 Y146.756 F1000
G1 X118.968 Y146.464 F1000
G1 X118.968 Y146.172 F1000
G1 X119.260 Y145.880 F1000
G1 X119.260 Y145.588 F1000
G1 X119.552 Y145.296 F1000
G1 X119.552 Y145.004 F1000
G1 X119.844 Y144.712 F1000
G1 X119.844 Y144.420 F1000
G1 X120.136 Y144.128 F1000
G1 X120.136 Y143.836 F1000
G1 X120.428 Y143.544 F1000
G1 X120.428 Y143.252 F1000
G1 X120.720 Y142.960 F1000
G1 X120.720 Y142.668 F1000
G1 X121.012 Y142.376 F1000
G1 X121.012 Y142.084 F1000
G1 X121.304 Y141.792 F1000
G1 X121.304 Y141.500 F1000
G1 X121.596 Y141.208 F1000
G1 X121.596 Y140.916 F1000
G1 X121.888 Y140.624 F1000
G1 X121.888 Y140.332 F1000
G1 X122.180 Y140.040 F1000
G1 X122.180 Y139.748 F1000
G1 X122.472 Y139.456 F1000
G1 X122.472 Y139.164 F1000
G1 X122.764 Y138.872 F1000
G1 X122.764 Y138.580 F1000
G1 X123.056 Y138.288 F1000
G1 X123.056 Y137.996 F1000
G1 X123.348 Y137.704 F1000
G1 X123.348 Y137.412 F1000
G1 X123.640 Y137.120 F1000
G1 X123.640 Y136.828 F1000
G1 X123.932 Y136.536 F1000
G1 X123.932 Y136.244 F1000
G1 X124.224 Y135.952 F1000
G1 X124.224 Y135.660 F1000
G1 X124.516 Y135.368 F1000
G1 X124.516 Y135.076 F1000
G1 X124.808 Y134.784 F1000
G1 X124.808 Y134.492 F1000
G1 X125.100 Y134.200 F1000
G1 X125.100 Y133.908 F1000
G1 X125.392 Y133.616 F1000
G1 X125.392 Y133.324 F1000
G1 X125.684 Y133.032 F1000
G1 X125.684 Y132.740 F1000
G1 X125.976 Y132.448 F1000
G1 X125.976 Y132.156 F1000
G1 X126.268 Y131.864 F1000
G1 X126.268 Y131.572 F1000
G1 X126.560 Y131.280 F1000
G1 X126.560 Y130.988 F1000
G1 X126.852 Y130.696 F1000
G1 X126.852 Y130.404 F1000
G1 X127.144 Y130.112 F1000
G1 X127.144 Y129.820 F1000
G1 X127.436 Y129.528 F1000
G1 X127.436 Y129.236 F1000
G1 X127.728 Y128.944 F1000
G1 X127.728 Y128.652 F1000
G1 X128.020 Y128.360 F1000
G1 X128.020 Y128.068 F1000
G1 X128.312 Y127.776 F1000
G1 X128.312 Y127.484 F1000
G1 X128.604 Y127.192 F1000
G1 X128.604 Y126.900 F1000
G1 X128.896 Y126.608 F1000
G1 X128.896 Y126.316 F1000
G1 X129.188 Y126.024 F1000
G1 X129.188 Y125.732 F1000
G1 X129.480 Y125.440 F1000
G1 X129.480 Y125.148 F1000
G1 X129.772 Y124.856 F1000
G1 X129.772 Y124.564 F1000
G1 X130.064 Y124.272 F1000
G1 X130.064 Y123.980 F1000
G1 X130.356 Y123.688 F1000
G1 X130.356 Y123.396 F1000
G1 X130.648 Y123.104 F1000
G1 X130.648 Y122.812 F1000
G1 X130.940 Y122.520 F1000
G1 X130.940 Y122.228 F1000
G1 X131.232 Y121.936 F1000
G1 X131.232 Y121.644 F1000
G1 X131.524 Y121.352 F1000
G1 X131.524 Y121.060 F1000
G1 X131.816 Y120.768 F1000
G1 X131.816 Y119.892 F1000
G1 X131.524 Y119.600 F1000
G1 X89.184 Y119.600 F1000
G1 X88.892 Y119.892 F1000
G1 X88.892 Y120.476 F1000
G1 X89.184 Y120.768 F1000
G1 X89.184 Y121.060 F1000
G1 X89.476 Y121.352 F1000
G1 X89.476 Y121.644 F1000
G1 X89.768 Y121.936 F1000
G1 X89.768 Y122.228 F1000
G1 X90.060 Y122.520 F1000
G1 X90.060 Y122.812 F1000
G1 X90.352 Y123.104 F1000
G1 X90.352 Y123.396 F1000
G1 X90.644 Y123.688 F1000
G1 X90.644 Y123.980 F1000
G1 X90.936 Y124.272 F1000
G1 X90.936 Y124.564 F1000
G1 X91.228 Y124.856 F1000
G1 X91.228 Y125.148 F1000
G1 X91.520 Y125.440 F1000
G1 X91.520 Y125.732 F1000
G1 X91.812 Y126.024 F1000
G1 X91.812 Y126.316 F1000
G1 X92.104 Y126.608 F1000
G1 X92.104 Y126.900 F1000
G1 X92.396 Y127.192 F1000
G1 X92.396 Y127.484 F1000
G1 X92.688 Y127.776 F1000
G1 X92.688 Y128.068 F1000
G1 X92.980 Y128.360 F1000
G1 X92.980 Y128.652 F1000
G1 X93.272 Y128.944 F1000
G1 X93.272 Y129.236 F1000
G1 X93.564 Y129.528 F1000
G1 X93.564 Y129.820 F1000
G1 X93.856 Y130.112 F1000
G1 X93.856 Y130.404 F1000
G1 X94.148 Y130.696 F1000
G1 X94.148 Y130.988 F1000
G1 X94.440 Y131.280 F1000
G1 X94.440 Y131.572 F1000
G1 X94.732 Y131.864 F1000
G1 X94.732 Y132.156 F1000
G1 X95.024 Y132.448 F1000
G1 X95.024 Y132.740 F1000
G1 X95.316 Y133.032 F1000
G1 X95.316 Y133.324 F1000
G1 X95.608 Y133.616 F1000
G1 X95.608 Y133.908 F1000
G1 X95.900 Y134.200 F1000
G1 X95.900 Y134.492 F1000
G1 X96.192 Y134.784 F1000
G1 X96.192 Y135.076 F1000
G1 X96.484 Y135.368 F1000
G1 X96.484 Y135.660 F1000
G1 X96.776 Y135.952 F1000
G1 X96.776 Y136.244 F1000
G1 X97.068 Y136.536 F1000
G1 X97.068 Y136.828 F1000
G1 X97.360 Y137.120 F1000
G1 X97.360 Y137.412 F1000
G1 X97.652 Y137.704 F1000
G1 X97.652 Y137.996 F1000
G1 X97.944 Y138.288 F1000
G1 X97.944 Y138.580 F1000
G1 X98.236 Y138.872 F1000
G1 X98.236 Y139.164 F1000
G1 X98.528 Y139.456 F1000
G1 X98.528 Y139.748 F1000
G1 X98.820 Y140.040 F1000
G1 X98.820 Y140.332 F1000
G1 X99.112 Y140.624 F1000
G1 X99.112 Y140.916 F1000
G1 X99.404 Y141.208 F1000
G1 X99.404 Y141.500 F1000
G1 X99.696 Y141.792 F1000
G1 X99.696 Y142.084 F1000
G1 X99.988 Y142.376 F1000
G1 X99.988 Y142.668 F1000
G1 X100.280 Y142.960 F1000
G1 X100.280 Y143.252 F1000
G1 X100.572 Y143.544 F1000
G1 X100.572 Y143.836 F1000
G1 X100.864 Y144.128 F1000
G1 X100.864 Y144.420 F1000
G1 X101.156 Y144.712 F1000
G1 X101.156 Y145.004 F1000
G1 X101.448 Y145.296 F1000
G1 X101.448 Y145.588 F1000
G1 X101.740 Y145.880 F1000
G1 X101.740 Y146.172 F1000
G1 X102.032 Y146.464 F1000
G1 X102.032 Y146.756 F1000
G1 X102.324 Y147.048 F1000
G1 X102.324 Y147.340 F1000
G1 X102.616 Y147.632 F1000
G1 X102.616 Y147.924 F1000
G1 X102.908 Y148.216 F1000
G1 X102.908 Y148.508 F1000
G1 X103.200 Y148.800 F1000
G1 X103.200 Y149.092 F1000
G1 X103.492 Y149.384 F1000
G1 X103.492 Y149.676 F1000
G1 X103.784 Y149.968 F1000
G1 X103.784 Y150.260 F1000
G1 X104.076 Y150.552 F1000
G1 X104.076 Y150.844 F1000
G1 X104.368 Y151.136 F1000
G1 X104.368 Y151.428 F1000
G1 X104.660 Y151.720 F1000
G1 X104.660 Y152.012 F1000
G1 X104.952 Y152.304 F1000
G1 X104.952 Y152.596 F1000
G1 X105.244 Y152.888 F1000
G1 X105.244 Y153.180 F1000
G1 X105.536 Y153.472 F1000
G1 X105.536 Y153.764 F1000
G1 X105.828 Y154.056 F1000
G1 X105.828 Y154.348 F1000
G1 X106.120 Y154.640 F1000
G1 X106.120 Y154.932 F1000
G1 X106.412 Y155.224 F1000
G1 X106.412 Y155.516 F1000
G1 X106.704 Y155.808 F1000
G1 X106.704 Y156.100 F1000
G1 X106.996 Y156.392 F1000
G1 X106.996 Y156.684 F1000
G1 X107.288 Y156.976 F1000
G1 X107.288 Y157.268 F1000
G1 X107.580 Y157.560 F1000
G1 X107.580 Y157.852 F1000
G1 X107.872 Y158.144 F1000
G1 X107.872 Y158.436 F1000
G1 X108.164 Y158.728 F1000
G1 X108.164 Y159.020 F1000
G1 X108.456 Y159.312 F1000
G1 X108.456 Y159.604 F1000
G1 X108.748 Y159.896 F1000
G1 X108.748 Y160.188 F1000
G1 X109.040 Y160.480 F1000
G1 X109.040 Y160.772 F1000
G1 X109.332 Y161.064 F1000
G1 X109.332 Y161.356 F1000
G1 X109.624 Y161.648 F1000
G1 X109.624 Y161.940 F1000
G1 X109.916 Y162.232 F1000
G0 Z3.0 ; Pen up

G0 X110.208 Y162.816 F3000 ; Travel to line 6
G0 Z0.0 ; Pen down
G1 X109.916 Y162.524 F1000
G1 X109.916 Y162.232 F1000
G1 X109.624 Y161.940 F1000
G1 X109.624 Y161.648 F1000
G1 X109.332 Y161.356 F1000
G1 X109.332 Y161.064 F1000
G1 X109.040 Y160.772 F1000
G1 X109.040 Y160.480 F1000
G1 X108.748 Y160.188 F1000
G1 X108.748 Y159.896 F1000
G1 X108.456 Y159.604 F1000
G1 X108.456 Y159.312 F1000
G1 X108.164 Y159.020 F1000
G1 X108.164 Y158.728 F1000
G1 X107.872 Y158.436 F1000
G1 X107.872 Y158.144 F1000
G1 X107.580 Y157.852 F1000
G1 X107.580 Y157.560 F1000
G1 X107.288 Y157.268 F1000
G1 X107.288 Y156.976 F1000
G1 X106.996 Y156.684 F1000
G1 X106.996 Y156.392 F1000
G1 X106.704 Y156.100 F1000
G1 X106.704 Y155.808 F1000
G1 X106.412 Y155.516 F1000
G1 X106.412 Y155.224 F1000
G1 X106.120 Y154.932 F1000
G1 X106.120 Y154.640 F1000
G1 X105.828 Y154.348 F1000
G1 X105.828 Y154.056 F1000
G1 X105.536 Y153.764 F1000
G1 X105.536 Y153.472 F1000
G1 X105.244 Y153.180 F1000
G1 X105.244 Y152.888 F1000
G1 X104.952 Y152.596 F1000
G1 X104.952 Y152.304 F1000
G1 X104.660 Y152.012 F1000
G1 X104.660 Y151.720 F1000
G1 X104.368 Y151.428 F1000
G1 X104.368 Y151.136 F1000
G1 X104.076 Y150.844 F1000
G1 X104.076 Y150.552 F1000
G1 X103.784 Y150.260 F1000
G1 X103.784 Y149.968 F1000
G1 X103.492 Y149.676 F1000
G1 X103.492 Y149.384 F1000
G1 X103.200 Y149.092 F1000
G1 X103.200 Y148.800 F1000
G1 X102.908 Y148.508 F1000
G1 X102.908 Y148.216 F1000
G1 X102.616 Y147.924 F1000
G1 X102.616 Y147.632 F1000
G1 X102.324 Y147.340 F1000
G1 X102.324 Y147.048 F1000
G1 X102.032 Y146.756 F1000
G1 X102.032 Y146.464 F1000
G1 X101.740 Y146.172 F1000
G1 X101.740 Y145.880 F1000
G1 X101.448 Y145.588 F1000
G1 X101.448 Y145.296 F1000
G1 X101.156 Y145.004 F1000
G1 X101.156 Y144.712 F1000
G1 X100.864 Y144.420 F1000
G1 X100.864 Y144.128 F1000
G1 X100.572 Y143.836 F1000
G1 X100.572 Y143.544 F1000
G1 X100.280 Y143.252 F1000
G1 X100.280 Y142.960 F1000
G1 X99.988 Y142.668 F1000
G1 X99.988 Y142.376 F1000
G1 X99.696 Y142.084 F1000
G1 X99.696 Y141.792 F1000
G1 X99.404 Y141.500 F1000
G1 X99.404 Y141.208 F1000
G1 X99.112 Y140.916 F1000
G1 X99.112 Y140.624 F1000
G1 X98.820 Y140.332 F1000
G1 X98.820 Y140.040 F1000
G1 X98.528 Y139.748 F1000
G1 X98.528 Y139.456 F1000
G1 X98.236 Y139.164 F1000
G1 X98.236 Y138.872 F1000
G1 X97.944 Y138.580 F1000
G1 X97.944 Y138.288 F1000
G1 X97.652 Y137.996 F1000
G1 X97.652 Y137.704 F1000
G1 X97.360 Y137.412 F1000
G1 X97.360 Y137.120 F1000
G1 X97.068 Y136.828 F1000
G1 X97.068 Y136.536 F1000
G1 X96.776 Y136.244 F1000
G1 X96.776 Y135.952 F1000
G1 X96.484 Y135.660 F1000
G1 X96.484 Y135.368 F1000
G1 X96.192 Y135.076 F1000
G1 X96.192 Y134.784 F1000
G1 X95.900 Y134.492 F1000
G1 X95.900 Y134.200 F1000
G1 X95.608 Y133.908 F1000
G1 X95.608 Y133.616 F1000
G1 X95.316 Y133.324 F1000
G1 X95.316 Y133.032 F1000
G1 X95.024 Y132.740 F1000
G1 X95.024 Y132.448 F1000
G1 X94.732 Y132.156 F1000
G1 X94.732 Y131.864 F1000
G1 X94.440 Y131.572 F1000
G1 X94.440 Y131.280 F1000
G1 X94.148 Y130.988 F1000
G1 X94.148 Y130.696 F1000
G1 X93.856 Y130.404 F1000
G1 X93.856 Y130.112 F1000
G1 X93.564 Y129.820 F1000
G1 X93.564 Y129.528 F1000
G1 X93.272 Y129.236 F1000
G1 X93.272 Y128.944 F1000
G1 X92.980 Y128.652 F1000
G1 X92.980 Y128.360 F1000
G1 X92.688 Y128.068 F1000
G1 X92.688 Y127.776 F1000
G1 X92.396 Y127.484 F1000
G1 X92.396 Y127.192 F1000
G1 X92.104 Y126.900 F1000
G1 X92.104 Y126.608 F1000
G1 X91.812 Y126.316 F1000
G1 X91.812 Y126.024 F1000
G1 X91.520 Y125.732 F1000
G1 X91.520 Y125.440 F1000
G1 X91.228 Y125.148 F1000
G1 X91.228 Y124.856 F1000
G1 X90.936 Y124.564 F1000
G1 X90.936 Y124.272 F1000
G1 X90.644 Y123.980 F1000
G1 X90.644 Y123.688 F1000
G1 X90.352 Y123.396 F1000
G1 X90.352 Y123.104 F1000
G1 X90.060 Y122.812 F1000
G1 X90.060 Y122.520 F1000
G1 X89.768 Y122.228 F1000
G1 X89.768 Y121.936 F1000
G1 X89.476 Y121.644 F1000
G1 X89.476 Y121.352 F1000
G1 X89.184 Y121.060 F1000
G1 X89.184 Y120.768 F1000
G1 X88.892 Y120.476 F1000
G1 X88.892 Y119.600 F1000
G1 X131.816 Y119.600 F1000
G1 X131.816 Y120.768 F1000
G1 X131.524 Y121.060 F1000
G1 X131.524 Y121.352 F1000
G1 X131.232 Y121.644 F1000
G1 X131.232 Y121.936 F1000
G1 X130.940 Y122.228 F1000
G1 X130.940 Y122.520 F1000
G1 X130.648 Y122.812 F1000
G1 X130.648 Y123.104 F1000
G1 X130.356 Y123.396 F1000
G1 X130.356 Y123.688 F1000
G1 X130.064 Y123.980 F1000
G1 X130.064 Y124.272 F1000
G1 X129.772 Y124.564 F1000
G1 X129.772 Y124.856 F1000
G1 X129.480 Y125.148 F1000
G1 X129.480 Y125.440 F1000
G1 X129.188 Y125.732 F1000
G1 X129.188 Y126.024 F1000
G1 X128.896 Y126.316 F1000
G1 X128.896 Y126.608 F1000
G1 X128.604 Y126.900 F1000
G1 X128.604 Y127.192 F1000
G1 X128.312 Y127.484 F1000
G1 X128.312 Y127.776 F1000
G1 X128.020 Y128.068 F1000
G1 X128.020 Y128.360 F1000
G1 X127.728 Y128.652 F1000
G1 X127.728 Y128.944 F1000
G1 X127.436 Y129.236 F1000
G1 X127.436 Y129.528 F1000
G1 X127.144 Y129.820 F1000
G1 X127.144 Y130.112 F1000
G1 X126.852 Y130.404 F1000
G1 X126.852 Y130.696 F1000
G1 X126.560 Y130.988 F1000
G1 X126.560 Y131.280 F1000
G1 X126.268 Y131.572 F1000
G1 X126.268 Y131.864 F1000
G1 X125.976 Y132.156 F1000
G1 X125.976 Y132.448 F1000
G1 X125.684 Y132.740 F1000
G1 X125.684 Y133.032 F1000
G1 X125.392 Y133.324 F1000
G1 X125.392 Y133.616 F1000
G1 X125.100 Y133.908 F1000
G1 X125.100 Y134.200 F1000
G1 X124.808 Y134.492 F1000
G1 X124.808 Y134.784 F1000
G1 X124.516 Y135.076 F1000
G1 X124.516 Y135.368 F1000
G1 X124.224 Y135.660 F1000
G1 X124.224 Y135.952 F1000
G1 X123.932 Y136.244 F1000
G1 X123.932 Y136.536 F1000
G1 X123.640 Y136.828 F1000
G1 X123.640 Y137.120 F1000
G1 X123.348 Y137.412 F1000
G1 X123.348 Y137.704 F1000
G1 X123.056 Y137.996 F1000
G1 X123.056 Y138.288 F1000
G1 X122.764 Y138.580 F1000
G1 X122.764 Y138.872 F1000
G1 X122.472 Y139.164 F1000
G1 X122.472 Y139.456 F1000
G1 X122.180 Y139.748 F1000
G1 X122.180 Y140.040 F1000
G1 X121.888 Y140.332 F1000
G1 X121.888 Y140.624 F1000
G1 X121.596 Y140.916 F1000
G1 X121.596 Y141.208 F1000
G1 X121.304 Y141.500 F1000
G1 X121.304 Y141.792 F1000
G1 X121.012 Y142.084 F1000
G1 X121.012 Y142.376 F1000
G1 X120.720 Y142.668 F1000
G1 X120.720 Y142.960 F1000
G1 X120.428 Y143.252 F1000
G1 X120.428 Y143.544 F1000
G1 X120.136 Y143.836 F1000
G1 X120.136 Y144.128 F1000
G1 X119.844 Y144.420 F1000
G1 X119.844 Y144.712 F1000
G1 X119.552 Y145.004 F1000
G1 X119.552 Y145.296 F1000
G1 X119.260 Y145.588 F1000
G1 X119.260 Y145.880 F1000
G1 X118.968 Y146.172 F1000
G1 X118.968 Y146.464 F1000
G1 X118.676 Y146.756 F1000
G1 X118.676 Y147.048 F1000
G1 X118.384 Y147.340 F1000
G1 X118.384 Y147.632 F1000
G1 X118.092 Y147.924 F1000
G1 X118.092 Y148.216 F1000
G1 X117.800 Y148.508 F1000
G1 X117.800 Y148.800 F1000
G1 X117.508 Y149.092 F1000
G1 X117.508 Y149.384 F1000
G1 X117.216 Y149.676 F1000
G1 X117.216 Y149.968 F1000
G1 X116.924 Y150.260 F1000
G1 X116.924 Y150.552 F1000
G1 X116.632 Y150.844 F1000
G1 X116.632 Y151.136 F1000
G1 X116.340 Y151.428 F1000
G1 X116.340 Y151.720 F1000
G1 X116.048 Y152.012 F1000
G1 X116.048 Y152.304 F1000
G1 X115.756 Y152.596 F1000
G1 X115.756 Y152.888 F1000
G1 X115.464 Y153.180 F1000
G1 X115.464 Y153.472 F1000
G1 X115.172 Y153.764 F1000
G1 X115.172 Y154.056 F1000
G1 X114.880 Y154.348 F1000
G1 X114.880 Y154.640 F1000
G1 X114.588 Y154.932 F1000
G1 X114.588 Y155.224 F1000
G1 X114.296 Y155.516 F1000
G1 X114.296 Y155.808 F1000
G1 X114.004 Y156.100 F1000
G1 X114.004 Y156.392 F1000
G1 X113.712 Y156.684 F1000
G1 X113.712 Y156.976 F1000
G1 X113.420 Y157.268 F1000
G1 X113.420 Y157.560 F1000
G1 X113.128 Y157.852 F1000
G1 X113.128 Y158.144 F1000
G1 X112.836 Y158.436 F1000
G1 X112.836 Y158.728 F1000
G1 X112.544 Y159.020 F1000
G1 X112.544 Y159.312 F1000
G1 X112.252 Y159.604 F1000
G1 X112.252 Y159.896 F1000
G1 X111.960 Y160.188 F1000
G1 X111.960 Y160.480 F1000
G1 X111.668 Y160.772 F1000
G1 X111.668 Y161.064 F1000
G1 X111.376 Y161.356 F1000
G1 X111.376 Y161.648 F1000
G1 X111.084 Y161.940 F1000
G1 X111.084 Y162.232 F1000
G1 X110.792 Y162.524 F1000
G1 X110.792 Y162.816 F1000
G0 Z3.0 ; Pen up

G0 X117.508 Y90.108 F3000 ; Travel to line 7
G0 Z0.0 ; Pen down
G1 X117.508 Y89.816 F1000
G1 X117.216 Y89.524 F1000
G1 X117.216 Y88.940 F1000
G1 X116.924 Y88.648 F1000
G1 X116.924 Y88.064 F1000
G1 X116.632 Y87.772 F1000
G1 X116.632 Y87.188 F1000
G1 X116.340 Y86.896 F1000
G1 X116.340 Y86.312 F1000
G1 X116.048 Y86.020 F1000
G1 X116.048 Y85.436 F1000
G1 X115.756 Y85.144 F1000
G1 X115.756 Y84.560 F1000
G1 X115.464 Y84.268 F1000
G1 X115.464 Y83.684 F1000
G1 X115.172 Y83.392 F1000
G1 X115.172 Y82.808 F1000
G1 X114.880 Y82.516 F1000
G1 X114.880 Y81.932 F1000
G1 X114.588 Y81.640 F1000
G1 X114.588 Y81.056 F1000
G1 X114.296 Y80.764 F1000
G1 X114.296 Y80.180 F1000
G1 X114.004 Y79.888 F1000
G1 X114.004 Y79.304 F1000
G1 X113.712 Y79.012 F1000
G1 X113.712 Y78.428 F1000
G1 X113.420 Y78.136 F1000
G1 X113.420 Y77.552 F1000
G1 X113.128 Y77.260 F1000
G1 X113.128 Y76.676 F1000
G1 X112.836 Y76.384 F1000
G1 X112.836 Y75.800 F1000
G1 X112.544 Y75.508 F1000
G1 X112.544 Y74.924 F1000
G1 X112.252 Y74.632 F1000
G1 X112.252 Y74.048 F1000
G1 X111.960 Y73.756 F1000
G1 X111.960 Y73.172 F1000
G1 X111.668 Y72.880 F1000
G1 X95.900 Y72.880 F1000
G1 X95.608 Y72.588 F1000
G1 X95.316 Y72.588 F1000
G1 X95.024 Y72.880 F1000
G1 X94.440 Y72.880 F1000
G1 X95.024 Y72.880 F1000
G1 X95.316 Y72.588 F1000
G1 X95.608 Y72.588 F1000
G1 X95.900 Y72.296 F1000
G1 X95.900 Y72.004 F1000
G1 X96.192 Y72.004 F1000
G1 X96.776 Y71.420 F1000
G1 X97.068 Y71.420 F1000
G1 X97.360 Y71.128 F1000
G1 X97.652 Y71.128 F1000
G1 X98.236 Y70.544 F1000
G1 X98.528 Y70.544 F1000
G1 X98.820 Y70.252 F1000
G1 X99.112 Y70.252 F1000
G1 X99.696 Y69.668 F1000
G1 X99.988 Y69.668 F1000
G1 X100.280 Y69.376 F1000
G1 X100.572 Y69.376 F1000
G1 X101.156 Y68.792 F1000
G1 X101.448 Y68.792 F1000
G1 X101.740 Y68.500 F1000
G1 X102.032 Y68.500 F1000
G1 X102.616 Y67.916 F1000
G1 X102.908 Y67.916 F1000
G1 X103.200 Y67.624 F1000
G1 X103.492 Y67.624 F1000
G1 X104.076 Y67.040 F1000
G1 X104.368 Y67.040 F1000
G1 X104.660 Y66.748 F1000
G1 X104.952 Y66.748 F1000
G1 X105.536 Y66.164 F1000
G1 X105.828 Y66.164 F1000
G1 X106.120 Y65.872 F1000
G1 X106.412 Y65.872 F1000
G1 X106.996 Y65.288 F1000
G1 X107.288 Y65.288 F1000
G1 X107.580 Y64.996 F1000
G1 X107.872 Y64.996 F1000
G1 X108.748 Y64.120 F1000
G1 X108.748 Y63.536 F1000
G1 X108.456 Y63.244 F1000
G1 X108.456 Y62.660 F1000
G1 X108.164 Y62.368 F1000
G1 X108.164 Y61.784 F1000
G1 X107.872 Y61.492 F1000
G1 X107.872 Y60.908 F1000
G1 X107.580 Y60.616 F1000
G1 X107.580 Y60.032 F1000
G1 X107.288 Y59.740 F1000
G1 X107.288 Y59.156 F1000
G1 X106.996 Y58.864 F1000
G1 X106.996 Y58.280 F1000
G1 X106.704 Y57.988 F1000
G1 X106.704 Y57.404 F1000
G1 X106.412 Y57.112 F1000
G1 X106.412 Y56.528 F1000
G1 X106.120 Y56.236 F1000
G1 X106.120 Y55.652 F1000
G1 X105.828 Y55.360 F1000
G1 X105.828 Y54.776 F1000
G1 X105.536 Y54.484 F1000
G1 X105.536 Y53.900 F1000
G1 X105.244 Y53.608 F1000
G1 X105.244 Y53.024 F1000
G1 X104.952 Y52.732 F1000
G1 X104.952 Y52.148 F1000
G1 X104.660 Y51.856 F1000
G1 X104.660 Y51.272 F1000
G1 X104.368 Y50.980 F1000
G1 X104.368 Y50.396 F1000
G1 X104.076 Y50.104 F1000
G1 X104.076 Y49.520 F1000
G1 X103.784 Y49.228 F1000
G1 X103.784 Y48.644 F1000
G1 X103.492 Y48.352 F1000
G1 X103.492 Y47.768 F1000
G1 X103.200 Y47.476 F1000
G1 X103.200 Y47.184 F1000
G1 X104.076 Y47.184 F1000
G1 X105.244 Y48.352 F1000
G1 X105.536 Y48.352 F1000
G1 X106.704 Y49.520 F1000
G1 X106.996 Y49.520 F1000
G1 X108.164 Y50.688 F1000
G1 X108.456 Y50.688 F1000
G1 X109.624 Y51.856 F1000
G1 X109.916 Y51.856 F1000
G1 X111.084 Y53.024 F1000
G1 X111.376 Y53.024 F1000
G1 X112.544 Y54.192 F1000
G1 X112.836 Y54.192 F1000
G1 X114.004 Y55.360 F1000
G1 X114.296 Y55.360 F1000
G1 X115.464 Y56.528 F1000
G1 X115.756 Y56.528 F1000
G1 X116.924 Y57.696 F1000
G1 X117.216 Y57.696 F1000
G1 X117.800 Y58.280 F1000
G1 X118.384 Y57.696 F1000
G1 X118.676 Y57.696 F1000
G1 X119.844 Y56.528 F1000
G1 X120.136 Y56.528 F1000
G1 X121.304 Y55.360 F1000
G1 X121.596 Y55.360 F1000
G1 X122.764 Y54.192 F1000
G1 X123.056 Y54.192 F1000
G1 X124.224 Y53.024 F1000
G1 X124.516 Y53.024 F1000
G1 X125.684 Y51.856 F1000
G1 X125.976 Y51.856 F1000
G1 X127.144 Y50.688 F1000
G1 X127.436 Y50.688 F1000
G1 X128.604 Y49.520 F1000
G1 X128.896 Y49.520 F1000
G1 X130.064 Y48.352 F1000
G1 X130.356 Y48.352 F1000
G1 X131.524 Y47.184 F1000
G1 X132.108 Y47.184 F1000
G1 X132.108 Y48.060 F1000
G1 X131.816 Y48.352 F1000
G1 X131.816 Y48.936 F1000
G1 X131.524 Y49.228 F1000
G1 X131.524 Y49.812 F1000
G1 X131.232 Y50.104 F1000
G1 X131.232 Y50.688 F1000
G1 X130.940 Y50.980 F1000
G1 X130.940 Y51.564 F1000
G1 X130.648 Y51.856 F1000
G1 X130.648 Y52.440 F1000
G1 X130.356 Y52.732 F1000
G1 X130.356 Y53.316 F1000
G1 X130.064 Y53.608 F1000
G1 X130.064 Y54.192 F1000
G1 X129.772 Y54.484 F1000
G1 X129.772 Y55.068 F1000
G1 X129.480 Y55.360 F1000
G1 X129.480 Y55.944 F1000
G1 X129.188 Y56.236 F1000
G1 X129.188 Y56.820 F1000
G1 X128.896 Y57.112 F1000
G1 X128.896 Y57.696 F1000
G1 X128.604 Y57.988 F1000
G1 X128.604 Y58.572 F1000
G1 X128.312 Y58.864 F1000
G1 X128.312 Y59.448 F1000
G1 X128.020 Y59.740 F1000
G1 X128.020 Y60.324 F1000
G1 X127.728 Y60.616 F1000
G1 X127.728 Y61.200 F1000
G1 X127.436 Y61.492 F1000
G1 X127.436 Y62.076 F1000
G1 X127.144 Y62.368 F1000
G1 X127.144 Y62.952 F1000
G1 X126.852 Y63.244 F1000
G1 X126.852 Y63.828 F1000
G1 X126.560 Y64.120 F1000
G1 X126.852 Y64.412 F1000
G1 X127.144 Y64.412 F1000
G1 X127.728 Y64.996 F1000
G1 X128.020 Y64.996 F1000
G1 X128.312 Y65.288 F1000
G1 X128.604 Y65.288 F1000
G1 X129.188 Y65.872 F1000
G1 X129.480 Y65.872 F1000
G1 X129.772 Y66.164 F1000
G1 X130.064 Y66.164 F1000
G1 X130.648 Y66.748 F1000
G1 X130.940 Y66.748 F1000
G1 X131.232 Y67.040 F1000
G1 X131.524 Y67.040 F1000
G1 X132.108 Y67.624 F1000
G1 X132.400 Y67.624 F1000
G1 X132.692 Y67.916 F1000
G1 X132.984 Y67.916 F1000
G1 X133.568 Y68.500 F1000
G1 X133.860 Y68.500 F1000
G1 X134.152 Y68.792 F1000
G1 X134.444 Y68.792 F1000
G1 X135.028 Y69.376 F1000
G1 X135.320 Y69.376 F1000
G1 X135.612 Y69.668 F1000
G1 X135.904 Y69.668 F1000
G1 X136.488 Y70.252 F1000
G1 X136.780 Y70.252 F1000
G1 X137.072 Y70.544 F1000
G1 X137.364 Y70.544 F1000
G1 X137.948 Y71.128 F1000
G1 X138.240 Y71.128 F1000
G1 X138.532 Y71.420 F1000
G1 X138.824 Y71.420 F1000
G1 X139.408 Y72.004 F1000
G1 X139.700 Y72.004 F1000
G1 X139.700 Y72.296 F1000
G1 X139.992 Y72.588 F1000
G1 X140.284 Y72.588 F1000
G1 X140.576 Y72.880 F1000
G1 X141.160 Y72.880 F1000
G1 X140.576 Y72.880 F1000
G1 X140.284 Y72.588 F1000
G1 X139.992 Y72.588 F1000
G1 X139.700 Y72.880 F1000
G1 X123.932 Y72.880 F1000
G1 X123.640 Y73.172 F1000
G1 X123.640 Y73.464 F1000
G1 X123.348 Y73.756 F1000
G1 X123.348 Y74.340 F1000
G1 X123.056 Y74.632 F1000
G1 X123.056 Y75.216 F1000
G1 X122.764 Y75.508 F1000
G1 X122.764 Y76.092 F1000
G1 X122.472 Y76.384 F1000
G1 X122.472 Y76.968 F1000
G1 X122.180 Y77.260 F1000
G1 X122.180 Y77.844 F1000
G1 X121.888 Y78.136 F1000
G1 X121.888 Y78.720 F1000
G1 X121.596 Y79.012 F1000
G1 X121.596 Y79.596 F1000
G1 X121.304 Y79.888 F1000
G1 X121.304 Y80.472 F1000
G1 X121.012 Y80.764 F1000
G1 X121.012 Y81.348 F1000
G1 X120.720 Y81.640 F1000
G1 X120.720 Y82.224 F1000
G1 X120.428 Y82.516 F1000
G1 X120.428 Y83.100 F1000
G1 X120.136 Y83.392 F1000
G1 X120.136 Y83.976 F1000
G1 X119.844 Y84.268 F1000
G1 X119.844 Y84.852 F1000
G1 X119.552 Y85.144 F1000
G1 X119.552 Y85.728 F1000
G1 X119.260 Y86.020 F1000
G1 X119.260 Y86.604 F1000
G1 X118.968 Y86.896 F1000
G1 X118.968 Y87.480 F1000
G1 X118.676 Y87.772 F1000
G1 X118.676 Y88.356 F1000
G1 X118.384 Y88.648 F1000
G1 X118.384 Y89.232 F1000
G1 X118.092 Y89.524 F1000
G1 X118.092 Y90.108 F1000
G0 Z3.0 ; Pen up

G0 X117.800 Y90.108 F3000 ; Travel to line 8
G0 Z0.0 ; Pen down
G1 X118.092 Y89.816 F1000
G1 X118.092 Y89.524 F1000
G1 X118.384 Y89.232 F1000
G1 X118.384 Y88.648 F1000
G1 X118.676 Y88.356 F1000
G1 X118.676 Y87.772 F1000
G1 X118.968 Y87.480 F1000
G1 X118.968 Y86.896 F1000
G1 X119.260 Y86.604 F1000
G1 X119.260 Y86.020 F1000
G1 X119.552 Y85.728 F1000
G1 X119.552 Y85.144 F1000
G1 X119.844 Y84.852 F1000
G1 X119.844 Y84.268 F1000
G1 X120.136 Y83.976 F1000
G1 X120.136 Y83.392 F1000
G1 X120.428 Y83.100 F1000
G1 X120.428 Y82.516 F1000
G1 X120.720 Y82.224 F1000
G1 X120.720 Y81.640 F1000
G1 X121.012 Y81.348 F1000
G1 X121.012 Y80.764 F1000
G1 X121.304 Y80.472 F1000
G1 X121.304 Y79.888 F1000
G1 X121.596 Y79.596 F1000
G1 X121.596 Y79.012 F1000
G1 X121.888 Y78.720 F1000
G1 X121.888 Y78.136 F1000
G1 X122.180 Y77.844 F1000
G1 X122.180 Y77.260 F1000
G1 X122.472 Y76.968 F1000
G1 X122.472 Y76.384 F1000
G1 X122.764 Y76.092 F1000
G1 X122.764 Y75.508 F1000
G1 X123.056 Y75.216 F1000
G1 X123.056 Y74.632 F1000
G1 X123.348 Y74.340 F1000
G1 X123.348 Y73.756 F1000
G1 X123.640 Y73.464 F1000
G1 X123.640 Y72.880 F1000
G1 X139.700 Y72.880 F1000
G1 X139.992 Y72.588 F1000
G1 X138.824 Y71.420 F1000
G1 X138.532 Y71.420 F1000
G1 X138.240 Y71.128 F1000
G1 X137.948 Y71.128 F1000
G1 X137.364 Y70.544 F1000
G1 X137.072 Y70.544 F1000
G1 X136.780 Y70.252 F1000
G1 X136.488 Y70.252 F1000
G1 X135.904 Y69.668 F1000
G1 X135.612 Y69.668 F1000
G1 X135.320 Y69.376 F1000
G1 X135.028 Y69.376 F1000
G1 X134.444 Y68.792 F1000
G1 X134.152 Y68.792 F1000
G1 X133.860 Y68.500 F1000
G1 X133.568 Y68.500 F1000
G1 X132.984 Y67.916 F1000
G1 X132.692 Y67.916 F1000
G1 X132.400 Y67.624 F1000
G1 X132.108 Y67.624 F1000
G1 X131.524 Y67.040 F1000
G1 X131.232 Y67.040 F1000
G1 X130.940 Y66.748 F1000
G1 X130.648 Y66.748 F1000
G1 X130.064 Y66.164 F1000
G1 X129.772 Y66.164 F1000
G1 X129.480 Y65.872 F1000
G1 X129.188 Y65.872 F1000
G1 X128.604 Y65.288 F1000
G1 X128.312 Y65.288 F1000
G1 X128.020 Y64.996 F1000
G1 X127.728 Y64.996 F1000
G1 X127.144 Y64.412 F1000
G1 X126.852 Y64.412 F1000
G1 X126.560 Y64.120 F1000
G1 X126.852 Y63.828 F1000
G1 X126.852 Y63.244 F1000
G1 X127.144 Y62.952 F1000
G1 X127.144 Y62.368 F1000
G1 X127.436 Y62.076 F1000
G1 X127.436 Y61.492 F1000
G1 X127.728 Y61.200 F1000
G1 X127.728 Y60.616 F1000
G1 X128.020 Y60.324 F1000
G1 X128.020 Y59.740 F1000
G1 X128.312 Y59.448 F1000
G1 X128.312 Y58.864 F1000
G1 X128.604 Y58.572 F1000
G1 X128.604 Y57.988 F1000
G1 X128.896 Y57.696 F1000
G1 X128.896 Y57.112 F1000
G1 X129.188 Y56.820 F1000
G1 X129.188 Y56.236 F1000
G1 X129.480 Y55.944 F1000
G1 X129.480 Y55.360 F1000
G1 X129.772 Y55.068 F1000
G1 X129.772 Y54.484 F1000
G1 X130.064 Y54.192 F1000
G1 X130.064 Y53.608 F1000
G1 X130.356 Y53.316 F1000
G1 X130.356 Y52.732 F1000
G1 X130.648 Y52.440 F1000
G1 X130.648 Y51.856 F1000
G1 X130.940 Y51.564 F1000
G1 X130.940 Y50.980 F1000
G1 X131.232 Y50.688 F1000
G1 X131.232 Y50.104 F1000
G1 X131.524 Y49.812 F1000
G1 X131.524 Y49.228 F1000
G1 X131.816 Y48.936 F1000
G1 X131.816 Y48.352 F1000
G1 X132.108 Y48.060 F1000
G1 X132.108 Y47.476 F1000
G1 X131.816 Y47.184 F1000
G1 X131.524 Y47.476 F1000
G1 X131.232 Y47.476 F1000
G1 X130.064 Y48.644 F1000
G1 X129.772 Y48.644 F1000
G1 X128.604 Y49.812 F1000
G1 X128.312 Y49.812 F1000
G1 X127.144 Y50.980 F1000
G1 X126.852 Y50.980 F1000
G1 X125.684 Y52.148 F1000
G1 X125.392 Y52.148 F1000
G1 X124.224 Y53.316 F1000
G1 X123.932 Y53.316 F1000
G1 X122.764 Y54.484 F1000
G1 X122.472 Y54.484 F1000
G1 X121.304 Y55.652 F1000
G1 X121.012 Y55.652 F1000
G1 X119.844 Y56.820 F1000
G1 X119.552 Y56.820 F1000
G1 X118.384 Y57.988 F1000
G1 X118.092 Y57.988 F1000
G1 X117.800 Y58.280 F1000
G1 X117.508 Y57.988 F1000
G1 X117.216 Y57.988 F1000
G1 X116.048 Y56.820 F1000
G1 X115.756 Y56.820 F1000
G1 X114.588 Y55.652 F1000
G1 X114.296 Y55.652 F1000
G1 X113.128 Y54.484 F1000
G1 X112.836 Y54.484 F1000
G1 X111.668 Y53.316 F1000
G1 X111.376 Y53.316 F1000
G1 X110.208 Y52.148 F1000
G1 X109.916 Y52.148 F1000
G1 X108.748 Y50.980 F1000
G1 X108.456 Y50.980 F1000
G1 X107.288 Y49.812 F1000
G1 X106.996 Y49.812 F1000
G1 X105.828 Y48.644 F1000
G1 X105.536 Y48.644 F1000
G1 X104.368 Y47.476 F1000
G1 X104.076 Y47.476 F1000
G1 X103.784 Y47.184 F1000
G1 X103.492 Y47.184 F1000
G1 X103.200 Y47.476 F1000
G1 X103.492 Y47.768 F1000
G1 X103.492 Y48.352 F1000
G1 X103.784 Y48.644 F1000
G1 X103.784 Y49.228 F1000
G1 X104.076 Y49.520 F1000
G1 X104.076 Y50.104 F1000
G1 X104.368 Y50.396 F1000
G1 X104.368 Y50.980 F1000
G1 X104.660 Y51.272 F1000
G1 X104.660 Y51.856 F1000
G1 X104.952 Y52.148 F1000
G1 X104.952 Y52.732 F1000
G1 X105.244 Y53.024 F1000
G1 X105.244 Y53.608 F1000
G1 X105.536 Y53.900 F1000
G1 X105.536 Y54.484 F1000
G1 X105.828 Y54.776 F1000
G1 X105.828 Y55.360 F1000
G1 X106.120 Y55.652 F1000
G1 X106.120 Y56.236 F1000
G1 X106.412 Y56.528 F1000
G1 X106.412 Y57.112 F1000
G1 X106.704 Y57.404 F1000
G1 X106.704 Y57.988 F1000
G1 X106.996 Y58.280 F1000
G1 X106.996 Y58.864 F1000
G1 X107.288 Y59.156 F1000
G1 X107.288 Y59.740 F1000
G1 X107.580 Y60.032 F1000
G1 X107.580 Y60.616 F1000
G1 X107.872 Y60.908 F1000
G1 X107.872 Y61.492 F1000
G1 X108.164 Y61.784 F1000
G1 X108.164 Y62.368 F1000
G1 X108.456 Y62.660 F1000
G1 X108.456 Y63.244 F1000
G1 X108.748 Y63.536 F1000
G1 X108.748 Y64.412 F1000
G1 X108.456 Y64.412 F1000
G1 X107.872 Y64.996 F1000
G1 X107.580 Y64.996 F1000
G1 X107.288 Y65.288 F1000
G1 X106.996 Y65.288 F1000
G1 X106.412 Y65.872 F1000
G1 X106.120 Y65.872 F1000
G1 X105.828 Y66.164 F1000
G1 X105.536 Y66.164 F1000
G1 X104.952 Y66.748 F1000
G1 X104.660 Y66.748 F1000
G1 X104.368 Y67.040 F1000
G1 X104.076 Y67.040 F1000
G1 X103.492 Y67.624 F1000
G1 X103.200 Y67.624 F1000
G1 X102.908 Y67.916 F1000
G1 X102.616 Y67.916 F1000
G1 X102.032 Y68.500 F1000
G1 X101.740 Y68.500 F1000
G1 X101.448 Y68.792 F1000
G1 X101.156 Y68.792 F1000
G1 X100.572 Y69.376 F1000
G1 X100.280 Y69.376 F1000
G1 X99.988 Y69.668 F1000
G1 X99.696 Y69.668 F1000
G1 X99.112 Y70.252 F1000
G1 X98.820 Y70.252 F1000
G1 X98.528 Y70.544 F1000
G1 X98.236 Y70.544 F1000
G1 X97.652 Y71.128 F1000
G1 X97.360 Y71.128 F1000
G1 X97.068 Y71.420 F1000
G1 X96.776 Y71.420 F1000
G1 X95.900 Y72.296 F1000
G1 X95.900 Y72.588 F1000
G1 X96.192 Y72.880 F1000
G1 X111.668 Y72.880 F1000
G1 X111.960 Y73.172 F1000
G1 X111.960 Y73.756 F1000
G1 X112.252 Y74.048 F1000
G1 X112.252 Y74.632 F1000
G1 X112.544 Y74.924 F1000
G1 X112.544 Y75.508 F1000
G1 X112.836 Y75.800 F1000
G1 X112.836 Y76.384 F1000
G1 X113.128 Y76.676 F1000
G1 X113.128 Y77.260 F1000
G1 X113.420 Y77.552 F1000
G1 X113.420 Y78.136 F1000
G1 X113.712 Y78.428 F1000
G1 X113.712 Y79.012 F1000
G1 X114.004 Y79.304 F1000
G1 X114.004 Y79.888 F1000
G1 X114.296 Y80.180 F1000
G1 X114.296 Y80.764 F1000
G1 X114.588 Y81.056 F1000
G1 X114.588 Y81.640 F1000
G1 X114.880 Y81.932 F1000
G1 X114.880 Y82.516 F1000
G1 X115.172 Y82.808 F1000
G1 X115.172 Y83.392 F1000
G1 X115.464 Y83.684 F1000
G1 X115.464 Y84.268 F1000
G1 X115.756 Y84.560 F1000
G1 X115.756 Y85.144 F1000
G1 X116.048 Y85.436 F1000
G1 X116.048 Y86.020 F1000
G1 X116.340 Y86.312 F1000
G1 X116.340 Y86.896 F1000
G1 X116.632 Y87.188 F1000
G1 X116.632 Y87.772 F1000
G1 X116.924 Y88.064 F1000
G1 X116.924 Y88.648 F1000
G1 X117.216 Y88.940 F1000
G1 X117.216 Y89.524 F1000
G0 Z3.0 ; Pen up

; Return to origin
G0 X0 Y0
G0 Z3.0

; Total drawing distance: 1473.98 mm
; Total travel distance: 323.84 mm
; Total lines: 8
; Estimated time: 94.9 seconds (1.6 minutes)
M2 ; End program