; Blueprint to G-code
; Input: C:\Users\dgran\code\blueprint2gcode\test_data\test_images_inverted\white_on_black_text.png
; Generated with blueprint2gcode.py

G21 ; Set units to millimeters
G90 ; Absolute positioning
G0 Z3.0 ; Pen up
G0 X0 Y0 ; Move to origin

G0 X1.000 Y16.730 F3000 ; Travel to line 1
G0 Z0.0 ; Pen down
G1 X1.365 Y16.365 F1000
G1 X28.010 Y16.365 F1000
G1 X28.375 Y16.730 F1000
G1 X28.375 Y43.375 F1000
G1 X28.375 Y16.730 F1000
G1 X28.740 Y16.365 F1000
G1 X42.610 Y16.365 F1000
G1 X42.975 Y16.730 F1000
G1 X42.975 Y39.360 F1000
G1 X42.610 Y39.725 F1000
G1 X42.610 Y42.645 F1000
G1 X42.245 Y43.010 F1000
G1 X42.245 Y45.930 F1000
G1 X41.880 Y46.295 F1000
G1 X41.880 Y49.215 F1000
G1 X41.515 Y49.580 F1000
G1 X41.515 Y52.500 F1000
G1 X41.150 Y52.865 F1000
G1 X41.150 Y55.785 F1000
G1 X40.785 Y56.150 F1000
G1 X40.785 Y59.070 F1000
G1 X40.420 Y59.435 F1000
G1 X40.420 Y62.355 F1000
G1 X40.055 Y62.720 F1000
G1 X40.055 Y65.640 F1000
G1 X39.690 Y66.005 F1000
G1 X39.690 Y68.925 F1000
G1 X39.325 Y69.290 F1000
G1 X39.325 Y72.210 F1000
G1 X38.960 Y72.575 F1000
G1 X38.960 Y75.495 F1000
G1 X38.595 Y75.860 F1000
G1 X38.595 Y78.780 F1000
G1 X38.230 Y79.145 F1000
G1 X38.230 Y88.635 F1000
G1 X37.865 Y89.000 F1000
G1 X1.365 Y89.000 F1000
G1 X1.000 Y88.635 F1000
G0 Z3.0 ; Pen up

G0 X1.000 Y89.000 F3000 ; Travel to line 2
G0 Z0.0 ; Pen down
G1 X1.000 Y16.365 F1000
G1 X146.635 Y16.365 F1000
G1 X146.635 Y89.000 F1000
G0 Z3.0 ; Pen up

G0 X71.445 Y88.635 F3000 ; Travel to line 3
G0 Z0.0 ; Pen down
G1 X71.810 Y89.000 F1000
G1 X146.270 Y89.000 F1000
G1 X146.635 Y88.635 F1000
G1 X146.635 Y52.865 F1000
G1 X146.270 Y52.500 F1000
G1 X90.790 Y52.500 F1000
G1 X84.950 Y58.340 F1000
G1 X84.950 Y61.260 F1000
G1 X84.950 Y58.340 F1000
G1 X90.425 Y52.865 F1000
G1 X90.425 Y52.500 F1000
G1 X90.060 Y52.135 F1000
G1 X89.695 Y52.135 F1000
G1 X84.950 Y47.390 F1000
G1 X84.950 Y43.740 F1000
G1 X84.950 Y47.025 F1000
G1 X90.425 Y52.500 F1000
G1 X146.270 Y52.500 F1000
G1 X146.635 Y52.135 F1000
G1 X146.635 Y16.730 F1000
G1 X146.270 Y16.365 F1000
G1 X71.810 Y16.365 F1000
G1 X71.445 Y16.730 F1000
G1 X71.445 Y36.075 F1000
G1 X71.080 Y36.440 F1000
G1 X71.080 Y36.805 F1000
G1 X71.445 Y37.170 F1000
G1 X71.445 Y37.535 F1000
G1 X71.080 Y37.900 F1000
G1 X71.080 Y39.725 F1000
G1 X70.715 Y40.090 F1000
G1 X70.715 Y43.010 F1000
G1 X70.350 Y43.375 F1000
G1 X70.350 Y48.485 F1000
G1 X69.985 Y48.850 F1000
G1 X69.985 Y51.040 F1000
G1 X69.620 Y51.405 F1000
G1 X69.620 Y53.595 F1000
G1 X69.985 Y53.960 F1000
G1 X69.985 Y56.150 F1000
G1 X70.350 Y56.515 F1000
G1 X70.350 Y61.625 F1000
G1 X70.715 Y61.990 F1000
G1 X70.715 Y64.910 F1000
G1 X71.080 Y65.275 F1000
G1 X71.080 Y67.100 F1000
G1 X71.445 Y67.465 F1000
G1 X71.445 Y67.830 F1000
G1 X71.080 Y68.195 F1000
G1 X71.080 Y68.560 F1000
G1 X71.445 Y68.925 F1000
G0 Z3.0 ; Pen up

G0 X53.195 Y65.640 F3000 ; Travel to line 4
G0 Z0.0 ; Pen down
G1 X54.290 Y64.545 F1000
G1 X54.290 Y64.180 F1000
G1 X54.655 Y63.815 F1000
G1 X54.655 Y63.450 F1000
G1 X55.385 Y62.720 F1000
G1 X55.385 Y61.990 F1000
G1 X55.750 Y61.625 F1000
G1 X56.115 Y61.625 F1000
G1 X55.750 Y61.625 F1000
G1 X55.385 Y61.260 F1000
G1 X55.385 Y60.530 F1000
G1 X54.655 Y59.800 F1000
G1 X54.655 Y59.435 F1000
G1 X54.290 Y59.070 F1000
G1 X54.290 Y58.705 F1000
G1 X53.195 Y57.610 F1000
G1 X53.195 Y47.390 F1000
G1 X54.290 Y46.295 F1000
G1 X54.290 Y45.930 F1000
G1 X54.655 Y45.565 F1000
G1 X54.655 Y45.200 F1000
G1 X55.385 Y44.470 F1000
G1 X55.385 Y43.740 F1000
G1 X55.750 Y43.375 F1000
G1 X56.115 Y43.375 F1000
G1 X55.750 Y43.375 F1000
G1 X55.385 Y43.010 F1000
G1 X55.385 Y42.280 F1000
G1 X54.655 Y41.550 F1000
G1 X54.655 Y41.185 F1000
G1 X54.290 Y40.820 F1000
G1 X54.290 Y40.455 F1000
G1 X53.195 Y39.360 F1000
G1 X53.195 Y16.730 F1000
G1 X53.560 Y16.365 F1000
G1 X71.080 Y16.365 F1000
G1 X71.445 Y16.730 F1000
G1 X71.445 Y36.075 F1000
G1 X71.080 Y36.440 F1000
G1 X71.080 Y36.805 F1000
G1 X71.445 Y37.170 F1000
G1 X71.445 Y37.535 F1000
G1 X71.080 Y37.900 F1000
G1 X71.080 Y39.725 F1000
G1 X70.715 Y40.090 F1000
G1 X70.715 Y43.010 F1000
G1 X70.350 Y43.375 F1000
G1 X70.350 Y48.485 F1000
G1 X69.985 Y48.850 F1000
G1 X69.985 Y51.040 F1000
G1 X69.620 Y51.405 F1000
G1 X69.620 Y52.135 F1000
G1 X69.255 Y52.500 F1000
G1 X59.400 Y52.500 F1000
G1 X69.255 Y52.500 F1000
G1 X69.620 Y52.865 F1000
G1 X69.620 Y53.595 F1000
G1 X69.985 Y53.960 F1000
G1 X69.985 Y56.150 F1000
G1 X70.350 Y56.515 F1000
G1 X70.350 Y61.625 F1000
G1 X70.715 Y61.990 F1000
G1 X70.715 Y64.910 F1000
G1 X71.080 Y65.275 F1000
G1 X71.080 Y67.100 F1000
G1 X71.445 Y67.465 F1000
G1 X71.445 Y67.830 F1000
G1 X71.080 Y68.195 F1000
G1 X71.080 Y68.560 F1000
G1 X71.445 Y68.925 F1000
G1 X71.445 Y88.635 F1000
G1 X71.080 Y89.000 F1000
G1 X53.560 Y89.000 F1000
G1 X53.195 Y88.635 F1000
G0 Z3.0 ; Pen up

G0 X38.230 Y88.635 F3000 ; Travel to line 5
G0 Z0.0 ; Pen down
G1 X38.595 Y89.000 F1000
G1 X52.830 Y89.000 F1000
G1 X53.195 Y88.635 F1000
G1 X53.195 Y65.640 F1000
G1 X54.290 Y64.545 F1000
G1 X54.290 Y64.180 F1000
G1 X54.655 Y63.815 F1000
G1 X54.655 Y63.450 F1000
G1 X55.385 Y62.720 F1000
G1 X55.385 Y61.990 F1000
G1 X55.750 Y61.625 F1000
G1 X55.385 Y61.260 F1000
G1 X55.385 Y60.895 F1000
G1 X55.020 Y60.530 F1000
G1 X55.020 Y60.165 F1000
G1 X54.290 Y59.435 F1000
G1 X54.290 Y59.070 F1000
G1 X53.560 Y58.340 F1000
G1 X53.560 Y57.975 F1000
G1 X53.195 Y57.610 F1000
G1 X53.195 Y47.390 F1000
G1 X54.290 Y46.295 F1000
G1 X54.290 Y45.930 F1000
G1 X54.655 Y45.565 F1000
G1 X54.655 Y45.200 F1000
G1 X55.385 Y44.470 F1000
G1 X55.385 Y43.740 F1000
G1 X55.750 Y43.375 F1000
G1 X55.385 Y43.010 F1000
G1 X55.385 Y42.645 F1000
G1 X55.020 Y42.280 F1000
G1 X55.020 Y41.915 F1000
G1 X54.290 Y41.185 F1000
G1 X54.290 Y40.820 F1000
G1 X53.560 Y40.090 F1000
G1 X53.560 Y39.725 F1000
G1 X53.195 Y39.360 F1000
G1 X53.195 Y16.730 F1000
G1 X52.830 Y16.365 F1000
G1 X43.340 Y16.365 F1000
G1 X42.975 Y16.730 F1000
G1 X42.975 Y39.360 F1000
G1 X42.610 Y39.725 F1000
G1 X42.610 Y42.645 F1000
G1 X42.245 Y43.010 F1000
G1 X42.245 Y45.930 F1000
G1 X41.880 Y46.295 F1000
G1 X41.880 Y49.215 F1000
G1 X41.515 Y49.580 F1000
G1 X41.515 Y52.500 F1000
G1 X41.150 Y52.865 F1000
G1 X41.150 Y55.785 F1000
G1 X40.785 Y56.150 F1000
G1 X40.785 Y59.070 F1000
G1 X40.420 Y59.435 F1000
G1 X40.420 Y62.355 F1000
G1 X40.055 Y62.720 F1000
G1 X40.055 Y65.640 F1000
G1 X39.690 Y66.005 F1000
G1 X39.690 Y68.925 F1000
G1 X39.325 Y69.290 F1000
G1 X39.325 Y72.210 F1000
G1 X38.960 Y72.575 F1000
G1 X38.960 Y75.495 F1000
G1 X38.595 Y75.860 F1000
G1 X38.595 Y78.780 F1000
G1 X38.230 Y79.145 F1000
G0 Z3.0 ; Pen up

G0 X28.375 Y67.100 F3000 ; Travel to line 6
G0 Z0.0 ; Pen down
G1 X28.375 Y52.865 F1000
G1 X27.280 Y51.770 F1000
G1 X26.915 Y51.770 F1000
G1 X26.185 Y51.040 F1000
G1 X25.820 Y51.040 F1000
G1 X25.090 Y50.310 F1000
G1 X24.725 Y50.310 F1000
G1 X25.455 Y50.310 F1000
G1 X26.185 Y51.040 F1000
G1 X26.550 Y51.040 F1000
G1 X27.280 Y51.770 F1000
G1 X27.645 Y51.770 F1000
G1 X28.375 Y52.500 F1000
G1 X29.105 Y51.770 F1000
G1 X29.470 Y51.770 F1000
G1 X30.200 Y51.040 F1000
G1 X30.565 Y51.040 F1000
G1 X31.295 Y50.310 F1000
G1 X31.660 Y50.310 F1000
G1 X32.390 Y49.580 F1000
G1 X31.660 Y50.310 F1000
G1 X31.295 Y50.310 F1000
G1 X30.565 Y51.040 F1000
G1 X30.200 Y51.040 F1000
G1 X29.470 Y51.770 F1000
G1 X29.105 Y51.770 F1000
G1 X28.375 Y52.500 F1000
G0 Z3.0 ; Pen up

; Return to origin
G0 X0 Y0
G0 Z3.0

; Total drawing distance: 1451.41 mm
; Total travel distance: 141.39 mm
; Total lines: 6
; Estimated time: 89.9 seconds (1.5 minutes)
M2 ; End program