; Blueprint to G-code
; Input: C:\Users\dgran\code\blueprint2gcode\test_data\test_images_inverted\white_on_blue_circuit.png
; Generated with blueprint2gcode.py

G21 ; Set units to millimeters
G90 ; Absolute positioning
G0 Z3.0 ; Pen up
G0 X0 Y0 ; Move to origin

G0 X9.625 Y51.985 F3000 ; Travel to line 1
G0 Z0.0 ; Pen down
G1 X9.883 Y51.727 F1000
G1 X29.195 Y71.040 F1000
G1 X29.195 Y71.297 F1000
G1 X29.453 Y71.555 F1000
G1 X29.195 Y71.297 F1000
G1 X29.195 Y70.782 F1000
G1 X10.140 Y51.727 F1000
G1 X9.883 Y51.727 F1000
G1 X9.625 Y51.470 F1000
G1 X9.625 Y23.660 F1000
G1 X9.883 Y23.402 F1000
G1 X36.663 Y50.183 F1000
G1 X37.178 Y50.183 F1000
G1 X37.435 Y50.440 F1000
G1 X37.950 Y50.440 F1000
G1 X54.430 Y66.920 F1000
G1 X54.430 Y71.040 F1000
G1 X54.172 Y71.297 F1000
G1 X54.430 Y71.040 F1000
G1 X54.430 Y66.663 F1000
G1 X38.465 Y50.697 F1000
G1 X38.207 Y50.697 F1000
G1 X37.950 Y50.440 F1000
G1 X37.435 Y50.440 F1000
G1 X37.178 Y50.183 F1000
G1 X36.920 Y50.183 F1000
G1 X10.140 Y23.402 F1000
G1 X9.883 Y23.402 F1000
G1 X9.625 Y23.145 F1000
G1 X9.625 Y1.515 F1000
G1 X9.883 Y1.258 F1000
G1 X49.795 Y1.258 F1000
G1 X50.053 Y1.515 F1000
G1 X50.053 Y1.772 F1000
G1 X67.820 Y19.540 F1000
G1 X67.820 Y19.797 F1000
G1 X68.078 Y20.055 F1000
G1 X67.820 Y19.797 F1000
G1 X67.820 Y19.282 F1000
G1 X50.053 Y1.515 F1000
G1 X50.310 Y1.258 F1000
G1 X123.440 Y1.258 F1000
G1 X123.698 Y1.515 F1000
G1 X112.368 Y12.845 F1000
G1 X112.368 Y13.103 F1000
G1 X112.110 Y13.360 F1000
G1 X112.368 Y13.103 F1000
G1 X112.368 Y12.845 F1000
G1 X123.955 Y1.258 F1000
G1 X137.860 Y1.258 F1000
G1 X138.118 Y1.515 F1000
G1 X138.118 Y65.890 F1000
G1 X137.860 Y66.148 F1000
G1 X112.368 Y40.655 F1000
G1 X112.368 Y40.398 F1000
G1 X112.110 Y40.140 F1000
G1 X112.368 Y40.398 F1000
G1 X112.368 Y40.913 F1000
G1 X137.603 Y66.148 F1000
G1 X137.860 Y66.148 F1000
G1 X138.118 Y66.405 F1000
G1 X138.118 Y103.743 F1000
G1 X137.860 Y104.000 F1000
G1 X134.255 Y104.000 F1000
G1 X133.998 Y103.743 F1000
G1 X133.998 Y103.485 F1000
G1 X85.330 Y54.818 F1000
G1 X84.815 Y54.818 F1000
G1 X84.558 Y54.560 F1000
G1 X84.043 Y54.560 F1000
G1 X67.562 Y38.080 F1000
G1 X67.562 Y34.475 F1000
G1 X67.820 Y34.218 F1000
G1 X67.820 Y33.703 F1000
G1 X68.078 Y33.445 F1000
G1 X67.820 Y33.703 F1000
G1 X67.820 Y34.218 F1000
G1 X67.562 Y34.475 F1000
G1 X67.562 Y38.080 F1000
G1 X67.820 Y38.337 F1000
G1 X67.820 Y38.595 F1000
G1 X83.528 Y54.303 F1000
G1 X83.785 Y54.303 F1000
G1 X84.043 Y54.560 F1000
G1 X84.558 Y54.560 F1000
G1 X84.815 Y54.818 F1000
G1 X85.073 Y54.818 F1000
G1 X133.998 Y103.743 F1000
G1 X133.740 Y104.000 F1000
G1 X72.455 Y104.000 F1000
G1 X72.198 Y103.743 F1000
G1 X72.198 Y103.485 F1000
G1 X54.430 Y85.718 F1000
G1 X54.430 Y85.460 F1000
G1 X54.172 Y85.203 F1000
G1 X54.430 Y85.460 F1000
G1 X54.430 Y85.975 F1000
G1 X72.198 Y103.743 F1000
G1 X71.940 Y104.000 F1000
G1 X11.428 Y104.000 F1000
G1 X11.170 Y103.743 F1000
G1 X29.195 Y85.718 F1000
G1 X29.195 Y85.203 F1000
G1 X29.453 Y84.945 F1000
G1 X29.195 Y85.203 F1000
G1 X29.195 Y85.718 F1000
G1 X10.912 Y104.000 F1000
G1 X9.883 Y104.000 F1000
G1 X9.625 Y103.743 F1000
G0 Z3.0 ; Pen up

G0 X9.625 Y104.000 F3000 ; Travel to line 2
G0 Z0.0 ; Pen down
G1 X9.625 Y1.258 F1000
G1 X138.118 Y1.258 F1000
G1 X138.118 Y104.000 F1000
G0 Z3.0 ; Pen up

G0 X96.918 Y29.325 F3000 ; Travel to line 3
G0 Z0.0 ; Pen down
G1 X76.575 Y29.325 F1000
G0 Z3.0 ; Pen up

G0 X76.575 Y24.175 F3000 ; Travel to line 4
G0 Z0.0 ; Pen down
G1 X96.918 Y24.175 F1000
G0 Z3.0 ; Pen up

G0 X45.418 Y75.675 F3000 ; Travel to line 5
G0 Z0.0 ; Pen down
G1 X37.950 Y75.675 F1000
G0 Z3.0 ; Pen up

G0 X37.950 Y80.825 F3000 ; Travel to line 6
G0 Z0.0 ; Pen down
G1 X45.418 Y80.825 F1000
G0 Z3.0 ; Pen up

; Return to origin
G0 X0 Y0
G0 Z3.0

; Total drawing distance: 1654.05 mm
; Total travel distance: 221.54 mm
; Total lines: 6
; Estimated time: 103.7 seconds (1.7 minutes)
M2 ; End program