; Blueprint to G-code
; Input: C:\Users\dgran\code\blueprint2gcode\test_data\test_images_inverted\white_on_black_geometric.png
; Generated with blueprint2gcode.py

G21 ; Set units to millimeters
G90 ; Absolute positioning
G0 Z3.0 ; Pen up
G0 X0 Y0 ; Move to origin

G0 X39.252 Y81.640 F3000 ; Travel to line 1
G0 Z0.0 ; Pen down
G1 X48.888 Y81.640 F1000
G0 Z3.0 ; Pen up

G0 X65.532 Y110.256 F3000 ; Travel to line 2
G0 Z0.0 ; Pen down
G1 X65.240 Y109.964 F1000
G1 X57.356 Y109.964 F1000
G1 X57.064 Y110.256 F1000
G1 X55.896 Y110.256 F1000
G1 X55.604 Y109.964 F1000
G1 X53.852 Y109.964 F1000
G1 X53.560 Y109.672 F1000
G1 X50.348 Y109.672 F1000
G1 X50.056 Y109.380 F1000
G1 X33.412 Y109.380 F1000
G1 X33.120 Y109.088 F1000
G1 X31.952 Y109.088 F1000
G1 X31.660 Y108.796 F1000
G1 X30.784 Y108.796 F1000
G1 X30.492 Y108.504 F1000
G1 X29.616 Y108.504 F1000
G1 X29.324 Y108.212 F1000
G1 X28.156 Y108.212 F1000
G1 X27.864 Y107.920 F1000
G1 X26.988 Y107.920 F1000
G1 X26.696 Y107.628 F1000
G1 X25.820 Y107.628 F1000
G1 X25.528 Y107.336 F1000
G1 X24.360 Y107.336 F1000
G1 X24.068 Y107.044 F1000
G1 X23.192 Y107.044 F1000
G1 X22.900 Y106.752 F1000
G1 X21.148 Y106.752 F1000
G1 X20.856 Y106.460 F1000
G1 X19.104 Y106.460 F1000
G1 X18.812 Y106.168 F1000
G1 X17.060 Y106.168 F1000
G1 X16.768 Y105.876 F1000
G1 X14.724 Y105.876 F1000
G1 X1.584 Y92.736 F1000
G1 X1.292 Y92.736 F1000
G1 X1.000 Y92.444 F1000
G1 X1.000 Y32.584 F1000
G1 X1.292 Y32.292 F1000
G1 X71.372 Y32.292 F1000
G1 X71.664 Y32.584 F1000
G1 X71.664 Y32.876 F1000
G1 X74.000 Y35.212 F1000
G1 X74.000 Y35.504 F1000
G1 X74.292 Y35.796 F1000
G1 X74.292 Y36.088 F1000
G1 X74.584 Y36.380 F1000
G1 X74.584 Y36.672 F1000
G1 X74.876 Y36.964 F1000
G1 X74.876 Y37.256 F1000
G1 X75.168 Y37.548 F1000
G1 X75.168 Y38.132 F1000
G1 X75.460 Y38.424 F1000
G1 X75.460 Y38.716 F1000
G1 X75.752 Y39.008 F1000
G1 X75.752 Y39.300 F1000
G1 X76.044 Y39.592 F1000
G1 X76.044 Y39.884 F1000
G1 X76.336 Y40.176 F1000
G1 X76.336 Y40.468 F1000
G1 X76.628 Y40.760 F1000
G1 X76.628 Y41.344 F1000
G1 X76.920 Y41.636 F1000
G1 X76.920 Y90.108 F1000
G1 X77.212 Y90.400 F1000
G1 X77.212 Y90.692 F1000
G1 X82.760 Y96.240 F1000
G1 X74.000 Y105.000 F1000
G1 X74.000 Y105.292 F1000
G1 X73.708 Y105.584 F1000
G1 X73.708 Y106.168 F1000
G1 X73.416 Y106.460 F1000
G1 X73.416 Y106.752 F1000
G1 X73.124 Y107.044 F1000
G1 X73.124 Y107.336 F1000
G1 X72.832 Y107.628 F1000
G1 X72.832 Y107.920 F1000
G1 X72.540 Y108.212 F1000
G1 X72.540 Y108.504 F1000
G1 X72.248 Y108.796 F1000
G1 X72.248 Y109.380 F1000
G1 X71.956 Y109.672 F1000
G1 X71.956 Y109.964 F1000
G1 X71.372 Y110.548 F1000
G1 X69.620 Y110.548 F1000
G1 X69.328 Y110.256 F1000
G0 Z3.0 ; Pen up

G0 X102.616 Y104.708 F3000 ; Travel to line 3
G0 Z0.0 ; Pen down
G1 X102.032 Y104.124 F1000
G1 X101.740 Y104.124 F1000
G1 X101.448 Y103.832 F1000
G1 X101.156 Y103.832 F1000
G1 X100.572 Y103.248 F1000
G1 X100.280 Y103.248 F1000
G1 X99.988 Y102.956 F1000
G1 X99.696 Y102.956 F1000
G1 X99.112 Y102.372 F1000
G1 X98.820 Y102.372 F1000
G1 X98.528 Y102.080 F1000
G1 X98.236 Y102.080 F1000
G1 X97.652 Y101.496 F1000
G1 X97.360 Y101.496 F1000
G1 X97.068 Y101.204 F1000
G1 X96.776 Y101.204 F1000
G1 X96.192 Y100.620 F1000
G1 X95.900 Y100.620 F1000
G1 X95.608 Y100.328 F1000
G1 X95.316 Y100.328 F1000
G1 X94.732 Y99.744 F1000
G1 X94.440 Y99.744 F1000
G1 X94.148 Y99.452 F1000
G1 X93.856 Y99.452 F1000
G1 X93.272 Y98.868 F1000
G1 X92.980 Y98.868 F1000
G1 X92.688 Y98.576 F1000
G1 X92.396 Y98.576 F1000
G1 X91.812 Y97.992 F1000
G1 X91.520 Y97.992 F1000
G1 X91.228 Y97.700 F1000
G1 X90.936 Y97.700 F1000
G1 X90.352 Y97.116 F1000
G1 X90.060 Y97.116 F1000
G1 X89.768 Y96.824 F1000
G1 X89.476 Y96.824 F1000
G1 X88.892 Y96.240 F1000
G1 X83.052 Y96.240 F1000
G1 X76.920 Y90.108 F1000
G1 X76.920 Y42.804 F1000
G1 X77.212 Y42.512 F1000
G1 X92.104 Y57.404 F1000
G1 X92.396 Y57.404 F1000
G1 X92.688 Y57.696 F1000
G1 X93.272 Y57.696 F1000
G1 X93.564 Y57.988 F1000
G1 X93.856 Y57.988 F1000
G1 X94.148 Y58.280 F1000
G1 X94.732 Y58.280 F1000
G1 X95.024 Y58.572 F1000
G1 X95.608 Y58.572 F1000
G1 X96.192 Y59.156 F1000
G1 X96.484 Y59.156 F1000
G1 X96.776 Y59.448 F1000
G1 X97.360 Y59.448 F1000
G1 X97.652 Y59.740 F1000
G1 X97.944 Y59.740 F1000
G1 X98.236 Y60.032 F1000
G1 X98.820 Y60.032 F1000
G1 X99.112 Y60.324 F1000
G1 X99.696 Y60.324 F1000
G1 X100.280 Y60.908 F1000
G1 X100.572 Y60.908 F1000
G1 X100.864 Y61.200 F1000
G1 X101.448 Y61.200 F1000
G1 X101.740 Y61.492 F1000
G1 X102.032 Y61.492 F1000
G1 X102.324 Y61.784 F1000
G1 X102.908 Y61.784 F1000
G1 X103.200 Y62.076 F1000
G1 X103.784 Y62.076 F1000
G1 X104.076 Y62.368 F1000
G1 X103.784 Y62.076 F1000
G1 X103.200 Y62.076 F1000
G1 X102.908 Y61.784 F1000
G1 X102.324 Y61.784 F1000
G1 X101.740 Y61.200 F1000
G1 X101.156 Y61.200 F1000
G1 X100.864 Y60.908 F1000
G1 X100.572 Y60.908 F1000
G1 X100.280 Y60.616 F1000
G1 X99.988 Y60.616 F1000
G1 X99.696 Y60.324 F1000
G1 X99.112 Y60.324 F1000
G1 X98.820 Y60.032 F1000
G1 X98.236 Y60.032 F1000
G1 X97.652 Y59.448 F1000
G1 X97.068 Y59.448 F1000
G1 X96.776 Y59.156 F1000
G1 X96.484 Y59.156 F1000
G1 X96.192 Y58.864 F1000
G1 X95.900 Y58.864 F1000
G1 X95.608 Y58.572 F1000
G1 X95.024 Y58.572 F1000
G1 X94.732 Y58.280 F1000
G1 X94.148 Y58.280 F1000
G1 X93.564 Y57.696 F1000
G1 X92.980 Y57.696 F1000
G1 X92.688 Y57.404 F1000
G1 X92.396 Y57.404 F1000
G1 X77.504 Y42.512 F1000
G1 X77.212 Y42.512 F1000
G1 X76.920 Y42.220 F1000
G1 X76.920 Y41.344 F1000
G1 X76.628 Y41.052 F1000
G1 X76.628 Y40.760 F1000
G1 X76.336 Y40.468 F1000
G1 X76.336 Y40.176 F1000
G1 X76.044 Y39.884 F1000
G1 X76.044 Y39.592 F1000
G1 X75.752 Y39.300 F1000
G1 X75.752 Y38.716 F1000
G1 X75.460 Y38.424 F1000
G1 X75.460 Y38.132 F1000
G1 X75.168 Y37.840 F1000
G1 X75.168 Y37.548 F1000
G1 X74.876 Y37.256 F1000
G1 X74.876 Y36.964 F1000
G1 X74.584 Y36.672 F1000
G1 X74.584 Y36.380 F1000
G1 X74.292 Y36.088 F1000
G1 X74.292 Y35.504 F1000
G1 X74.000 Y35.212 F1000
G1 X74.000 Y34.920 F1000
G1 X71.664 Y32.584 F1000
G1 X71.956 Y32.292 F1000
G1 X146.416 Y32.292 F1000
G1 X146.708 Y32.584 F1000
G1 X146.708 Y96.240 F1000
G1 X146.124 Y96.824 F1000
G1 X145.832 Y96.824 F1000
G1 X145.540 Y97.116 F1000
G1 X145.248 Y97.116 F1000
G1 X144.664 Y97.700 F1000
G1 X144.372 Y97.700 F1000
G1 X144.080 Y97.992 F1000
G1 X143.788 Y97.992 F1000
G1 X143.204 Y98.576 F1000
G1 X142.912 Y98.576 F1000
G1 X142.620 Y98.868 F1000
G1 X142.328 Y98.868 F1000
G1 X141.744 Y99.452 F1000
G1 X141.452 Y99.452 F1000
G1 X141.160 Y99.744 F1000
G1 X140.868 Y99.744 F1000
G1 X140.284 Y100.328 F1000
G1 X139.992 Y100.328 F1000
G1 X139.700 Y100.620 F1000
G1 X139.408 Y100.620 F1000
G1 X138.824 Y101.204 F1000
G1 X138.532 Y101.204 F1000
G1 X138.240 Y101.496 F1000
G1 X137.948 Y101.496 F1000
G1 X137.364 Y102.080 F1000
G1 X137.072 Y102.080 F1000
G1 X136.780 Y102.372 F1000
G1 X136.488 Y102.372 F1000
G1 X135.904 Y102.956 F1000
G1 X135.612 Y102.956 F1000
G1 X135.320 Y103.248 F1000
G1 X135.028 Y103.248 F1000
G1 X134.444 Y103.832 F1000
G1 X134.152 Y103.832 F1000
G1 X133.860 Y104.124 F1000
G1 X133.568 Y104.124 F1000
G1 X132.984 Y104.708 F1000
G1 X132.692 Y104.708 F1000
G1 X132.400 Y105.000 F1000
G1 X103.200 Y105.000 F1000
G1 X102.908 Y104.708 F1000
G0 Z3.0 ; Pen up

G0 X117.800 Y89.816 F3000 ; Travel to line 4
G0 Z0.0 ; Pen down
G1 X117.800 Y65.872 F1000
G1 X117.508 Y65.580 F1000
G1 X116.048 Y65.580 F1000
G1 X113.128 Y68.500 F1000
G1 X112.544 Y68.500 F1000
G1 X112.252 Y68.792 F1000
G1 X111.376 Y68.792 F1000
G1 X111.084 Y69.084 F1000
G1 X110.208 Y69.084 F1000
G1 X109.916 Y69.376 F1000
G1 X108.748 Y69.376 F1000
G1 X108.456 Y69.668 F1000
G1 X107.580 Y69.668 F1000
G1 X107.288 Y69.960 F1000
G1 X106.412 Y69.960 F1000
G1 X106.120 Y70.252 F1000
G1 X104.952 Y70.252 F1000
G1 X104.660 Y70.544 F1000
G1 X103.784 Y70.544 F1000
G1 X103.492 Y70.836 F1000
G1 X102.616 Y70.836 F1000
G1 X102.324 Y71.128 F1000
G1 X101.156 Y71.128 F1000
G1 X100.864 Y71.420 F1000
G1 X99.988 Y71.420 F1000
G1 X99.696 Y71.712 F1000
G1 X98.820 Y71.712 F1000
G1 X98.528 Y72.004 F1000
G1 X97.360 Y72.004 F1000
G1 X97.068 Y72.296 F1000
G1 X96.192 Y72.296 F1000
G1 X97.068 Y72.296 F1000
G1 X97.360 Y72.004 F1000
G1 X98.528 Y72.004 F1000
G1 X98.820 Y71.712 F1000
G1 X99.696 Y71.712 F1000
G1 X99.988 Y71.420 F1000
G1 X100.864 Y71.420 F1000
G1 X101.156 Y71.128 F1000
G1 X102.324 Y71.128 F1000
G1 X102.616 Y70.836 F1000
G1 X103.492 Y70.836 F1000
G1 X103.784 Y70.544 F1000
G1 X104.660 Y70.544 F1000
G1 X104.952 Y70.252 F1000
G1 X106.120 Y70.252 F1000
G1 X106.412 Y69.960 F1000
G1 X107.288 Y69.960 F1000
G1 X107.580 Y69.668 F1000
G1 X108.456 Y69.668 F1000
G1 X108.748 Y69.376 F1000
G1 X109.916 Y69.376 F1000
G1 X110.208 Y69.084 F1000
G1 X111.084 Y69.084 F1000
G1 X111.376 Y68.792 F1000
G1 X112.252 Y68.792 F1000
G1 X112.544 Y68.500 F1000
G1 X113.128 Y68.500 F1000
G1 X116.048 Y65.580 F1000
G1 X113.420 Y62.952 F1000
G1 X113.420 Y62.660 F1000
G1 X113.128 Y62.368 F1000
G1 X113.128 Y62.076 F1000
G1 X112.836 Y61.784 F1000
G1 X112.836 Y61.200 F1000
G1 X112.544 Y60.908 F1000
G1 X112.544 Y60.616 F1000
G1 X111.960 Y60.032 F1000
G1 X111.960 Y59.740 F1000
G1 X111.668 Y59.448 F1000
G1 X111.668 Y59.156 F1000
G1 X110.792 Y58.280 F1000
G1 X110.792 Y57.988 F1000
G1 X110.208 Y57.404 F1000
G1 X110.208 Y57.112 F1000
G1 X109.624 Y56.528 F1000
G1 X109.624 Y56.236 F1000
G1 X109.332 Y55.944 F1000
G1 X109.332 Y55.652 F1000
G1 X109.040 Y55.360 F1000
G1 X108.748 Y55.360 F1000
G1 X108.748 Y55.068 F1000
G1 X108.456 Y54.776 F1000
G1 X108.456 Y54.484 F1000
G1 X107.872 Y53.900 F1000
G1 X107.872 Y53.608 F1000
G1 X107.288 Y53.024 F1000
G1 X107.288 Y52.732 F1000
G1 X106.412 Y51.856 F1000
G1 X106.412 Y51.564 F1000
G1 X106.120 Y51.272 F1000
G1 X106.120 Y50.980 F1000
G1 X105.536 Y50.396 F1000
G1 X105.536 Y50.104 F1000
G1 X104.952 Y49.520 F1000
G1 X104.952 Y49.228 F1000
G1 X104.076 Y48.352 F1000
G1 X104.076 Y47.768 F1000
G1 X104.076 Y48.060 F1000
G1 X104.368 Y48.352 F1000
G1 X104.368 Y48.644 F1000
G1 X104.952 Y49.228 F1000
G1 X104.952 Y49.520 F1000
G1 X105.536 Y50.104 F1000
G1 X105.536 Y50.396 F1000
G1 X106.412 Y51.272 F1000
G1 X106.412 Y51.564 F1000
G1 X106.996 Y52.148 F1000
G1 X106.996 Y52.440 F1000
G1 X107.288 Y52.732 F1000
G1 X107.288 Y53.024 F1000
G1 X108.164 Y53.900 F1000
G1 X108.164 Y54.192 F1000
G1 X108.748 Y54.776 F1000
G1 X108.748 Y55.068 F1000
G1 X109.332 Y55.652 F1000
G1 X109.332 Y55.944 F1000
G1 X109.624 Y56.236 F1000
G1 X109.624 Y56.528 F1000
G1 X109.916 Y56.820 F1000
G1 X110.208 Y56.820 F1000
G1 X110.208 Y57.112 F1000
G1 X110.500 Y57.404 F1000
G1 X110.500 Y57.696 F1000
G1 X111.084 Y58.280 F1000
G1 X111.084 Y58.572 F1000
G1 X111.668 Y59.156 F1000
G1 X111.668 Y59.448 F1000
G1 X112.544 Y60.324 F1000
G1 X112.544 Y60.908 F1000
G1 X112.836 Y61.200 F1000
G1 X112.836 Y61.492 F1000
G1 X113.128 Y61.784 F1000
G1 X113.128 Y62.368 F1000
G1 X116.340 Y65.580 F1000
G1 X119.260 Y65.580 F1000
G1 X122.180 Y62.660 F1000
G1 X122.180 Y62.368 F1000
G1 X122.472 Y62.076 F1000
G1 X122.472 Y61.784 F1000
G1 X122.764 Y61.492 F1000
G1 X122.764 Y60.908 F1000
G1 X123.056 Y60.616 F1000
G1 X123.056 Y60.324 F1000
G1 X123.932 Y59.448 F1000
G1 X123.932 Y59.156 F1000
G1 X124.224 Y58.864 F1000
G1 X124.224 Y58.572 F1000
G1 X124.808 Y57.988 F1000
G1 X124.808 Y57.696 F1000
G1 X125.392 Y57.112 F1000
G1 X125.392 Y56.820 F1000
G1 X126.268 Y55.944 F1000
G1 X126.268 Y55.652 F1000
G1 X126.852 Y55.068 F1000
G1 X126.852 Y54.776 F1000
G1 X127.144 Y54.484 F1000
G1 X127.144 Y54.192 F1000
G1 X128.020 Y53.316 F1000
G1 X128.020 Y53.024 F1000
G1 X128.604 Y52.440 F1000
G1 X128.604 Y52.148 F1000
G1 X129.188 Y51.564 F1000
G1 X129.188 Y51.272 F1000
G1 X129.480 Y50.980 F1000
G1 X129.480 Y50.688 F1000
G1 X129.772 Y50.688 F1000
G1 X130.064 Y50.396 F1000
G1 X130.064 Y50.104 F1000
G1 X130.356 Y49.812 F1000
G1 X130.356 Y49.520 F1000
G1 X130.940 Y48.936 F1000
G1 X130.940 Y48.644 F1000
G1 X131.524 Y48.060 F1000
G1 X131.524 Y47.768 F1000
G1 X131.524 Y48.060 F1000
G1 X131.232 Y48.352 F1000
G1 X131.232 Y48.644 F1000
G1 X130.356 Y49.520 F1000
G1 X130.356 Y49.812 F1000
G1 X130.064 Y50.104 F1000
G1 X130.064 Y50.396 F1000
G1 X129.480 Y50.980 F1000
G1 X129.480 Y51.272 F1000
G1 X128.896 Y51.856 F1000
G1 X128.896 Y52.148 F1000
G1 X128.020 Y53.024 F1000
G1 X128.020 Y53.316 F1000
G1 X127.436 Y53.900 F1000
G1 X127.436 Y54.192 F1000
G1 X127.144 Y54.484 F1000
G1 X127.144 Y54.776 F1000
G1 X126.268 Y55.652 F1000
G1 X126.268 Y55.944 F1000
G1 X125.684 Y56.528 F1000
G1 X125.684 Y56.820 F1000
G1 X125.100 Y57.404 F1000
G1 X125.100 Y57.696 F1000
G1 X124.808 Y57.988 F1000
G1 X124.808 Y58.280 F1000
G1 X124.516 Y58.280 F1000
G1 X124.224 Y58.572 F1000
G1 X124.224 Y58.864 F1000
G1 X123.932 Y59.156 F1000
G1 X123.932 Y59.448 F1000
G1 X123.348 Y60.032 F1000
G1 X123.348 Y60.324 F1000
G1 X122.764 Y60.908 F1000
G1 X122.764 Y61.492 F1000
G1 X122.472 Y61.784 F1000
G1 X122.472 Y62.076 F1000
G1 X122.180 Y62.368 F1000
G1 X122.180 Y62.660 F1000
G1 X119.552 Y65.288 F1000
G1 X119.552 Y65.580 F1000
G1 X122.472 Y68.500 F1000
G1 X123.056 Y68.500 F1000
G1 X123.348 Y68.792 F1000
G1 X124.224 Y68.792 F1000
G1 X124.516 Y69.084 F1000
G1 X125.392 Y69.084 F1000
G1 X125.684 Y69.376 F1000
G1 X126.852 Y69.376 F1000
G1 X127.144 Y69.668 F1000
G1 X128.020 Y69.668 F1000
G1 X128.312 Y69.960 F1000
G1 X129.188 Y69.960 F1000
G1 X129.480 Y70.252 F1000
G1 X130.648 Y70.252 F1000
G1 X130.940 Y70.544 F1000
G1 X131.816 Y70.544 F1000
G1 X132.108 Y70.836 F1000
G1 X132.984 Y70.836 F1000
G1 X133.276 Y71.128 F1000
G1 X134.444 Y71.128 F1000
G1 X134.736 Y71.420 F1000
G1 X135.612 Y71.420 F1000
G1 X135.904 Y71.712 F1000
G1 X136.780 Y71.712 F1000
G1 X137.072 Y72.004 F1000
G1 X138.240 Y72.004 F1000
G1 X138.532 Y72.296 F1000
G1 X139.408 Y72.296 F1000
G1 X138.532 Y72.296 F1000
G1 X138.240 Y72.004 F1000
G1 X137.072 Y72.004 F1000
G1 X136.780 Y71.712 F1000
G1 X135.904 Y71.712 F1000
G1 X135.612 Y71.420 F1000
G1 X134.736 Y71.420 F1000
G1 X134.444 Y71.128 F1000
G1 X133.276 Y71.128 F1000
G1 X132.984 Y70.836 F1000
G1 X132.108 Y70.836 F1000
G1 X131.816 Y70.544 F1000
G1 X130.940 Y70.544 F1000
G1 X130.648 Y70.252 F1000
G1 X129.480 Y70.252 F1000
G1 X129.188 Y69.960 F1000
G1 X128.312 Y69.960 F1000
G1 X128.020 Y69.668 F1000
G1 X127.144 Y69.668 F1000
G1 X126.852 Y69.376 F1000
G1 X125.684 Y69.376 F1000
G1 X125.392 Y69.084 F1000
G1 X124.516 Y69.084 F1000
G1 X124.224 Y68.792 F1000
G1 X123.348 Y68.792 F1000
G1 X123.056 Y68.500 F1000
G1 X122.180 Y68.500 F1000
G1 X119.260 Y65.580 F1000
G1 X118.092 Y65.580 F1000
G1 X117.800 Y65.872 F1000
G0 Z3.0 ; Pen up

G0 X110.500 Y130.696 F3000 ; Travel to line 5
G0 Z0.0 ; Pen down
G1 X110.500 Y162.524 F1000
G0 Z3.0 ; Pen up

G0 X80.716 Y177.416 F3000 ; Travel to line 6
G0 Z0.0 ; Pen down
G1 X80.716 Y172.160 F1000
G1 X80.424 Y171.868 F1000
G1 X80.424 Y168.072 F1000
G1 X80.132 Y167.780 F1000
G1 X80.132 Y165.736 F1000
G1 X79.840 Y165.444 F1000
G1 X79.840 Y163.400 F1000
G1 X79.548 Y163.108 F1000
G1 X79.548 Y161.940 F1000
G1 X79.256 Y161.648 F1000
G1 X79.256 Y160.480 F1000
G1 X78.964 Y160.188 F1000
G1 X78.964 Y159.020 F1000
G1 X78.672 Y158.728 F1000
G1 X78.672 Y157.560 F1000
G1 X78.380 Y157.268 F1000
G1 X78.380 Y156.100 F1000
G1 X78.088 Y155.808 F1000
G1 X78.088 Y154.640 F1000
G1 X77.796 Y154.348 F1000
G1 X77.796 Y153.180 F1000
G1 X77.504 Y152.888 F1000
G1 X77.504 Y151.720 F1000
G1 X77.212 Y151.428 F1000
G1 X77.212 Y150.260 F1000
G1 X76.920 Y149.968 F1000
G1 X76.920 Y148.800 F1000
G1 X76.628 Y148.508 F1000
G1 X76.628 Y147.340 F1000
G1 X76.336 Y147.048 F1000
G1 X76.336 Y145.880 F1000
G1 X76.044 Y145.588 F1000
G1 X76.044 Y144.420 F1000
G1 X75.752 Y144.128 F1000
G1 X75.752 Y142.960 F1000
G1 X75.460 Y142.668 F1000
G1 X75.460 Y141.500 F1000
G1 X75.168 Y141.208 F1000
G1 X75.168 Y140.040 F1000
G1 X74.876 Y139.748 F1000
G1 X74.876 Y138.580 F1000
G1 X74.584 Y138.288 F1000
G1 X74.584 Y137.120 F1000
G1 X74.292 Y136.828 F1000
G1 X74.292 Y135.660 F1000
G1 X74.000 Y135.368 F1000
G1 X74.000 Y124.564 F1000
G1 X73.708 Y124.272 F1000
G1 X73.708 Y121.060 F1000
G1 X73.416 Y120.768 F1000
G1 X73.416 Y119.016 F1000
G1 X73.124 Y118.724 F1000
G1 X73.124 Y117.264 F1000
G1 X72.832 Y116.972 F1000
G1 X72.832 Y115.804 F1000
G1 X72.540 Y115.512 F1000
G1 X72.540 Y114.344 F1000
G1 X72.248 Y114.052 F1000
G1 X72.248 Y113.176 F1000
G1 X71.956 Y112.884 F1000
G1 X71.956 Y112.008 F1000
G1 X71.664 Y111.716 F1000
G1 X71.664 Y111.132 F1000
G1 X71.372 Y110.840 F1000
G1 X71.664 Y110.548 F1000
G1 X71.664 Y110.256 F1000
G1 X71.956 Y109.964 F1000
G1 X71.956 Y109.672 F1000
G1 X72.248 Y109.380 F1000
G1 X72.248 Y108.796 F1000
G1 X72.540 Y108.504 F1000
G1 X72.540 Y108.212 F1000
G1 X72.832 Y107.920 F1000
G1 X72.832 Y107.628 F1000
G1 X73.124 Y107.336 F1000
G1 X73.124 Y107.044 F1000
G1 X73.416 Y106.752 F1000
G1 X73.416 Y106.460 F1000
G1 X73.708 Y106.168 F1000
G1 X73.708 Y105.584 F1000
G1 X74.000 Y105.292 F1000
G1 X74.000 Y105.000 F1000
G1 X82.760 Y96.240 F1000
G1 X88.600 Y96.240 F1000
G1 X88.892 Y96.532 F1000
G1 X89.184 Y96.532 F1000
G1 X89.768 Y97.116 F1000
G1 X90.060 Y97.116 F1000
G1 X90.352 Y97.408 F1000
G1 X90.644 Y97.408 F1000
G1 X91.228 Y97.992 F1000
G1 X91.520 Y97.992 F1000
G1 X91.812 Y98.284 F1000
G1 X92.104 Y98.284 F1000
G1 X92.688 Y98.868 F1000
G1 X92.980 Y98.868 F1000
G1 X93.272 Y99.160 F1000
G1 X93.564 Y99.160 F1000
G1 X94.148 Y99.744 F1000
G1 X94.440 Y99.744 F1000
G1 X94.732 Y100.036 F1000
G1 X95.024 Y100.036 F1000
G1 X95.608 Y100.620 F1000
G1 X95.900 Y100.620 F1000
G1 X96.192 Y100.912 F1000
G1 X96.484 Y100.912 F1000
G1 X97.068 Y101.496 F1000
G1 X97.360 Y101.496 F1000
G1 X97.652 Y101.788 F1000
G1 X97.944 Y101.788 F1000
G1 X98.528 Y102.372 F1000
G1 X98.820 Y102.372 F1000
G1 X99.112 Y102.664 F1000
G1 X99.404 Y102.664 F1000
G1 X99.988 Y103.248 F1000
G1 X100.280 Y103.248 F1000
G1 X100.572 Y103.540 F1000
G1 X100.864 Y103.540 F1000
G1 X101.448 Y104.124 F1000
G1 X101.740 Y104.124 F1000
G1 X102.032 Y104.416 F1000
G1 X102.324 Y104.416 F1000
G1 X102.616 Y104.708 F1000
G1 X102.908 Y104.708 F1000
G1 X103.200 Y105.000 F1000
G1 X132.400 Y105.000 F1000
G1 X132.692 Y104.708 F1000
G1 X132.984 Y104.708 F1000
G1 X133.568 Y104.124 F1000
G1 X133.860 Y104.124 F1000
G1 X134.152 Y103.832 F1000
G1 X134.444 Y103.832 F1000
G1 X135.028 Y103.248 F1000
G1 X135.320 Y103.248 F1000
G1 X135.612 Y102.956 F1000
G1 X135.904 Y102.956 F1000
G1 X136.488 Y102.372 F1000
G1 X136.780 Y102.372 F1000
G1 X137.072 Y102.080 F1000
G1 X137.364 Y102.080 F1000
G1 X137.948 Y101.496 F1000
G1 X138.240 Y101.496 F1000
G1 X138.532 Y101.204 F1000
G1 X138.824 Y101.204 F1000
G1 X139.408 Y100.620 F1000
G1 X139.700 Y100.620 F1000
G1 X139.992 Y100.328 F1000
G1 X140.284 Y100.328 F1000
G1 X140.868 Y99.744 F1000
G1 X141.160 Y99.744 F1000
G1 X141.452 Y99.452 F1000
G1 X141.744 Y99.452 F1000
G1 X142.328 Y98.868 F1000
G1 X142.620 Y98.868 F1000
G1 X142.912 Y98.576 F1000
G1 X143.204 Y98.576 F1000
G1 X143.788 Y97.992 F1000
G1 X144.080 Y97.992 F1000
G1 X144.372 Y97.700 F1000
G1 X144.664 Y97.700 F1000
G1 X145.248 Y97.116 F1000
G1 X145.540 Y97.116 F1000
G1 X145.832 Y96.824 F1000
G1 X146.124 Y96.824 F1000
G1 X146.416 Y96.532 F1000
G1 X146.708 Y96.824 F1000
G1 X146.708 Y177.708 F1000
G1 X146.416 Y178.000 F1000
G1 X80.716 Y178.000 F1000
G1 X80.424 Y177.708 F1000
G0 Z3.0 ; Pen up

G0 X146.708 Y178.000 F3000 ; Travel to line 7
G0 Z0.0 ; Pen down
G1 X146.708 Y32.292 F1000
G1 X1.000 Y32.292 F1000
G1 X1.000 Y178.000 F1000
G0 Z3.0 ; Pen up

G0 X1.000 Y177.708 F3000 ; Travel to line 8
G0 Z0.0 ; Pen down
G1 X1.292 Y178.000 F1000
G1 X80.132 Y178.000 F1000
G1 X80.716 Y177.416 F1000
G1 X80.716 Y172.160 F1000
G1 X80.424 Y171.868 F1000
G1 X80.424 Y168.072 F1000
G1 X80.132 Y167.780 F1000
G1 X80.132 Y165.736 F1000
G1 X79.840 Y165.444 F1000
G1 X79.840 Y163.400 F1000
G1 X79.548 Y163.108 F1000
G1 X79.548 Y161.940 F1000
G1 X79.256 Y161.648 F1000
G1 X79.256 Y160.480 F1000
G1 X78.964 Y160.188 F1000
G1 X78.964 Y159.020 F1000
G1 X78.672 Y158.728 F1000
G1 X78.672 Y157.560 F1000
G1 X78.380 Y157.268 F1000
G1 X78.380 Y156.100 F1000
G1 X78.088 Y155.808 F1000
G1 X78.088 Y154.640 F1000
G1 X77.796 Y154.348 F1000
G1 X77.796 Y153.180 F1000
G1 X77.504 Y152.888 F1000
G1 X77.504 Y151.720 F1000
G1 X77.212 Y151.428 F1000
G1 X77.212 Y150.260 F1000
G1 X76.920 Y149.968 F1000
G1 X76.920 Y148.800 F1000
G1 X76.628 Y148.508 F1000
G1 X76.628 Y147.340 F1000
G1 X76.336 Y147.048 F1000
G1 X76.336 Y145.880 F1000
G1 X76.044 Y145.588 F1000
G1 X76.044 Y144.420 F1000
G1 X75.752 Y144.128 F1000
G1 X75.752 Y142.960 F1000
G1 X75.460 Y142.668 F1000
G1 X75.460 Y141.500 F1000
G1 X75.168 Y141.208 F1000
G1 X75.168 Y140.040 F1000
G1 X74.876 Y139.748 F1000
G1 X74.876 Y138.580 F1000
G1 X74.584 Y138.288 F1000
G1 X74.584 Y137.120 F1000
G1 X74.292 Y136.828 F1000
G1 X74.292 Y135.660 F1000
G1 X74.000 Y135.368 F1000
G1 X74.000 Y124.564 F1000
G1 X73.708 Y124.272 F1000
G1 X73.708 Y121.060 F1000
G1 X73.416 Y120.768 F1000
G1 X73.416 Y119.016 F1000
G1 X73.124 Y118.724 F1000
G1 X73.124 Y117.264 F1000
G1 X72.832 Y116.972 F1000
G1 X72.832 Y115.804 F1000
G1 X72.540 Y115.512 F1000
G1 X72.540 Y114.344 F1000
G1 X72.248 Y114.052 F1000
G1 X72.248 Y113.176 F1000
G1 X71.956 Y112.884 F1000
G1 X71.956 Y112.008 F1000
G1 X71.664 Y111.716 F1000
G1 X71.664 Y111.132 F1000
G1 X71.080 Y110.548 F1000
G1 X69.620 Y110.548 F1000
G1 X69.328 Y110.256 F1000
G1 X65.532 Y110.256 F1000
G1 X65.240 Y109.964 F1000
G1 X57.356 Y109.964 F1000
G1 X57.064 Y110.256 F1000
G1 X55.896 Y110.256 F1000
G1 X55.604 Y109.964 F1000
G1 X53.852 Y109.964 F1000
G1 X53.560 Y109.672 F1000
G1 X50.348 Y109.672 F1000
G1 X50.056 Y109.380 F1000
G1 X33.412 Y109.380 F1000
G1 X33.120 Y109.088 F1000
G1 X31.952 Y109.088 F1000
G1 X31.660 Y108.796 F1000
G1 X30.784 Y108.796 F1000
G1 X30.492 Y108.504 F1000
G1 X29.616 Y108.504 F1000
G1 X29.324 Y108.212 F1000
G1 X28.156 Y108.212 F1000
G1 X27.864 Y107.920 F1000
G1 X26.988 Y107.920 F1000
G1 X26.696 Y107.628 F1000
G1 X25.820 Y107.628 F1000
G1 X25.528 Y107.336 F1000
G1 X24.360 Y107.336 F1000
G1 X24.068 Y107.044 F1000
G1 X23.192 Y107.044 F1000
G1 X22.900 Y106.752 F1000
G1 X21.148 Y106.752 F1000
G1 X20.856 Y106.460 F1000
G1 X19.104 Y106.460 F1000
G1 X18.812 Y106.168 F1000
G1 X17.060 Y106.168 F1000
G1 X16.768 Y105.876 F1000
G1 X14.432 Y105.876 F1000
G1 X1.292 Y92.736 F1000
G1 X1.000 Y93.028 F1000
G0 Z3.0 ; Pen up

; Return to origin
G0 X0 Y0
G0 Z3.0

; Total drawing distance: 2142.65 mm
; Total travel distance: 343.61 mm
; Total lines: 8
; Estimated time: 135.4 seconds (2.3 minutes)
M2 ; End program