; Blueprint to G-code
; Input: C:\Users\dgran\code\blueprint2gcode\test_data\test_images_inverted\white_on_black_text.png
; Generated with blueprint2gcode.py

G21 ; Set units to millimeters
G90 ; Absolute positioning
G0 Z3.0 ; Pen up
G0 X0 Y0 ; Move to origin

G0 X48.450 Y35.345 F3000 ; Travel to line 1
G0 Z0.0 ; Pen down
G1 X48.450 Y70.020 F1000
G0 Z3.0 ; Pen up

G0 X58.305 Y70.385 F3000 ; Travel to line 2
G0 Z0.0 ; Pen down
G1 X58.670 Y70.020 F1000
G1 X59.765 Y70.020 F1000
G1 X60.130 Y69.655 F1000
G1 X60.495 Y69.655 F1000
G1 X60.860 Y69.290 F1000
G1 X61.590 Y69.290 F1000
G1 X62.320 Y68.560 F1000
G1 X62.685 Y68.560 F1000
G1 X64.510 Y66.735 F1000
G1 X64.510 Y66.370 F1000
G1 X65.240 Y65.640 F1000
G1 X65.240 Y64.910 F1000
G1 X65.605 Y64.545 F1000
G1 X65.605 Y64.180 F1000
G1 X65.970 Y63.815 F1000
G1 X65.970 Y59.435 F1000
G1 X65.605 Y59.070 F1000
G1 X65.605 Y58.705 F1000
G1 X65.240 Y58.340 F1000
G1 X65.240 Y57.610 F1000
G1 X64.510 Y56.880 F1000
G1 X64.510 Y56.515 F1000
G1 X62.685 Y54.690 F1000
G1 X62.320 Y54.690 F1000
G1 X61.590 Y53.960 F1000
G1 X60.860 Y53.960 F1000
G1 X60.495 Y53.595 F1000
G1 X60.130 Y53.595 F1000
G1 X59.765 Y53.230 F1000
G1 X58.670 Y53.230 F1000
G1 X58.670 Y52.865 F1000
G1 X58.305 Y52.500 F1000
G1 X59.035 Y51.770 F1000
G1 X59.765 Y51.770 F1000
G1 X60.130 Y51.405 F1000
G1 X60.495 Y51.405 F1000
G1 X60.860 Y51.040 F1000
G1 X61.590 Y51.040 F1000
G1 X62.320 Y50.310 F1000
G1 X62.685 Y50.310 F1000
G1 X64.510 Y48.485 F1000
G1 X64.510 Y48.120 F1000
G1 X65.240 Y47.390 F1000
G1 X65.240 Y46.660 F1000
G1 X65.605 Y46.295 F1000
G1 X65.605 Y45.930 F1000
G1 X65.970 Y45.565 F1000
G1 X65.970 Y41.185 F1000
G1 X65.605 Y40.820 F1000
G1 X65.605 Y40.455 F1000
G1 X65.240 Y40.090 F1000
G1 X65.240 Y39.360 F1000
G1 X64.510 Y38.630 F1000
G1 X64.510 Y38.265 F1000
G1 X62.685 Y36.440 F1000
G1 X62.320 Y36.440 F1000
G1 X61.590 Y35.710 F1000
G1 X60.860 Y35.710 F1000
G1 X60.495 Y35.345 F1000
G1 X60.130 Y35.345 F1000
G1 X59.765 Y34.980 F1000
G1 X58.305 Y34.980 F1000
G1 X59.765 Y34.980 F1000
G1 X60.130 Y35.345 F1000
G1 X60.860 Y35.345 F1000
G1 X61.225 Y35.710 F1000
G1 X61.590 Y35.710 F1000
G1 X61.955 Y36.075 F1000
G1 X62.320 Y36.075 F1000
G1 X64.875 Y38.630 F1000
G1 X64.875 Y38.995 F1000
G1 X65.240 Y39.360 F1000
G1 X65.240 Y39.725 F1000
G1 X65.605 Y40.090 F1000
G1 X65.605 Y40.820 F1000
G1 X65.970 Y41.185 F1000
G1 X65.970 Y45.565 F1000
G1 X65.605 Y45.930 F1000
G1 X65.605 Y46.660 F1000
G1 X65.240 Y47.025 F1000
G1 X65.240 Y47.390 F1000
G1 X64.875 Y47.755 F1000
G1 X64.875 Y48.120 F1000
G1 X62.320 Y50.675 F1000
G1 X61.955 Y50.675 F1000
G1 X61.590 Y51.040 F1000
G1 X61.225 Y51.040 F1000
G1 X60.860 Y51.405 F1000
G1 X60.130 Y51.405 F1000
G1 X59.765 Y51.770 F1000
G1 X59.035 Y51.770 F1000
G1 X58.305 Y52.500 F1000
G1 X59.035 Y53.230 F1000
G1 X59.765 Y53.230 F1000
G1 X60.130 Y53.595 F1000
G1 X60.860 Y53.595 F1000
G1 X61.225 Y53.960 F1000
G1 X61.590 Y53.960 F1000
G1 X61.955 Y54.325 F1000
G1 X62.320 Y54.325 F1000
G1 X64.875 Y56.880 F1000
G1 X64.875 Y57.245 F1000
G1 X65.240 Y57.610 F1000
G1 X65.240 Y57.975 F1000
G1 X65.605 Y58.340 F1000
G1 X65.605 Y59.070 F1000
G1 X65.970 Y59.435 F1000
G1 X65.970 Y63.815 F1000
G1 X65.605 Y64.180 F1000
G1 X65.605 Y64.910 F1000
G1 X65.240 Y65.275 F1000
G1 X65.240 Y65.640 F1000
G1 X64.875 Y66.005 F1000
G1 X64.875 Y66.370 F1000
G1 X62.320 Y68.925 F1000
G1 X61.955 Y68.925 F1000
G1 X61.590 Y69.290 F1000
G1 X61.225 Y69.290 F1000
G1 X60.860 Y69.655 F1000
G1 X60.130 Y69.655 F1000
G1 X59.765 Y70.020 F1000
G1 X58.670 Y70.020 F1000
G0 Z3.0 ; Pen up

G0 X83.125 Y70.020 F3000 ; Travel to line 3
G0 Z0.0 ; Pen down
G1 X82.760 Y69.655 F1000
G1 X82.395 Y69.655 F1000
G1 X82.030 Y69.290 F1000
G1 X81.665 Y69.290 F1000
G1 X80.570 Y68.195 F1000
G1 X80.205 Y68.195 F1000
G1 X79.110 Y67.100 F1000
G1 X79.110 Y66.735 F1000
G1 X78.015 Y65.640 F1000
G1 X78.015 Y65.275 F1000
G1 X77.650 Y64.910 F1000
G1 X77.650 Y64.545 F1000
G1 X76.920 Y63.815 F1000
G1 X76.920 Y63.450 F1000
G1 X76.555 Y63.085 F1000
G1 X76.555 Y62.355 F1000
G1 X76.190 Y61.990 F1000
G1 X76.190 Y61.625 F1000
G1 X75.825 Y61.260 F1000
G1 X75.825 Y60.530 F1000
G1 X75.460 Y60.165 F1000
G1 X75.460 Y59.070 F1000
G1 X75.095 Y58.705 F1000
G1 X75.095 Y56.515 F1000
G1 X74.730 Y56.150 F1000
G1 X74.730 Y48.850 F1000
G1 X75.095 Y48.485 F1000
G1 X75.095 Y46.295 F1000
G1 X75.460 Y45.930 F1000
G1 X75.460 Y44.835 F1000
G1 X75.825 Y44.470 F1000
G1 X75.825 Y43.740 F1000
G1 X76.190 Y43.375 F1000
G1 X76.190 Y43.010 F1000
G1 X76.555 Y42.645 F1000
G1 X76.555 Y41.915 F1000
G1 X76.920 Y41.550 F1000
G1 X76.920 Y41.185 F1000
G1 X77.650 Y40.455 F1000
G1 X77.650 Y40.090 F1000
G1 X78.015 Y39.725 F1000
G1 X78.015 Y39.360 F1000
G1 X79.110 Y38.265 F1000
G1 X79.110 Y37.900 F1000
G1 X80.205 Y36.805 F1000
G1 X80.570 Y36.805 F1000
G1 X81.300 Y36.075 F1000
G1 X81.665 Y36.075 F1000
G1 X82.030 Y35.710 F1000
G1 X82.395 Y35.710 F1000
G1 X82.760 Y35.345 F1000
G1 X83.855 Y35.345 F1000
G1 X84.220 Y34.980 F1000
G1 X85.680 Y34.980 F1000
G1 X86.045 Y35.345 F1000
G1 X87.140 Y35.345 F1000
G1 X87.505 Y35.710 F1000
G1 X87.870 Y35.710 F1000
G1 X88.235 Y36.075 F1000
G1 X88.600 Y36.075 F1000
G1 X89.330 Y36.805 F1000
G1 X89.695 Y36.805 F1000
G1 X90.790 Y37.900 F1000
G1 X90.790 Y38.265 F1000
G1 X91.520 Y38.995 F1000
G1 X91.520 Y39.360 F1000
G1 X91.520 Y38.995 F1000
G1 X88.600 Y36.075 F1000
G1 X88.235 Y36.075 F1000
G1 X87.870 Y35.710 F1000
G1 X87.140 Y35.710 F1000
G1 X86.775 Y35.345 F1000
G1 X86.045 Y35.345 F1000
G1 X85.680 Y34.980 F1000
G1 X84.220 Y34.980 F1000
G1 X83.855 Y35.345 F1000
G1 X83.125 Y35.345 F1000
G1 X82.760 Y35.710 F1000
G1 X82.030 Y35.710 F1000
G1 X81.665 Y36.075 F1000
G1 X81.300 Y36.075 F1000
G1 X78.380 Y38.995 F1000
G1 X78.380 Y39.360 F1000
G1 X77.650 Y40.090 F1000
G1 X77.650 Y40.455 F1000
G1 X76.920 Y41.185 F1000
G1 X76.920 Y41.550 F1000
G1 X76.555 Y41.915 F1000
G1 X76.555 Y42.645 F1000
G1 X76.190 Y43.010 F1000
G1 X76.190 Y43.375 F1000
G1 X75.825 Y43.740 F1000
G1 X75.825 Y44.835 F1000
G1 X75.460 Y45.200 F1000
G1 X75.460 Y46.295 F1000
G1 X75.095 Y46.660 F1000
G1 X75.095 Y48.485 F1000
G1 X74.730 Y48.850 F1000
G1 X74.730 Y56.150 F1000
G1 X75.095 Y56.515 F1000
G1 X75.095 Y58.340 F1000
G1 X75.460 Y58.705 F1000
G1 X75.460 Y59.800 F1000
G1 X75.825 Y60.165 F1000
G1 X75.825 Y61.260 F1000
G1 X76.190 Y61.625 F1000
G1 X76.190 Y61.990 F1000
G1 X76.555 Y62.355 F1000
G1 X76.555 Y63.085 F1000
G1 X76.920 Y63.450 F1000
G1 X76.920 Y63.815 F1000
G1 X77.650 Y64.545 F1000
G1 X77.650 Y64.910 F1000
G1 X78.380 Y65.640 F1000
G1 X78.380 Y66.005 F1000
G1 X81.665 Y69.290 F1000
G1 X82.030 Y69.290 F1000
G1 X82.395 Y69.655 F1000
G1 X83.125 Y69.655 F1000
G1 X83.490 Y70.020 F1000
G1 X86.410 Y70.020 F1000
G1 X86.775 Y69.655 F1000
G1 X87.505 Y69.655 F1000
G1 X87.870 Y69.290 F1000
G1 X88.235 Y69.290 F1000
G1 X91.520 Y66.005 F1000
G1 X91.520 Y65.640 F1000
G1 X91.520 Y66.005 F1000
G1 X90.790 Y66.735 F1000
G1 X90.790 Y67.100 F1000
G1 X89.695 Y68.195 F1000
G1 X89.330 Y68.195 F1000
G1 X88.235 Y69.290 F1000
G1 X87.870 Y69.290 F1000
G1 X87.505 Y69.655 F1000
G1 X87.140 Y69.655 F1000
G1 X86.775 Y70.020 F1000
G0 Z3.0 ; Pen up

G0 X28.375 Y70.020 F3000 ; Travel to line 4
G0 Z0.0 ; Pen down
G1 X28.375 Y68.560 F1000
G1 X27.280 Y67.465 F1000
G1 X27.280 Y66.370 F1000
G1 X26.915 Y66.005 F1000
G1 X26.915 Y64.910 F1000
G1 X26.550 Y64.545 F1000
G1 X26.550 Y63.450 F1000
G1 X26.185 Y63.085 F1000
G1 X26.185 Y61.990 F1000
G1 X25.820 Y61.625 F1000
G1 X25.820 Y60.530 F1000
G1 X25.455 Y60.165 F1000
G1 X25.455 Y59.070 F1000
G1 X25.090 Y58.705 F1000
G1 X25.090 Y57.610 F1000
G1 X24.725 Y57.245 F1000
G1 X24.725 Y56.150 F1000
G1 X24.360 Y55.785 F1000
G1 X24.360 Y54.690 F1000
G1 X23.995 Y54.325 F1000
G1 X23.995 Y53.230 F1000
G1 X23.630 Y52.865 F1000
G1 X23.630 Y51.770 F1000
G1 X23.265 Y51.405 F1000
G1 X23.265 Y49.580 F1000
G1 X22.900 Y49.215 F1000
G1 X22.900 Y48.850 F1000
G1 X22.535 Y48.485 F1000
G1 X22.535 Y47.390 F1000
G1 X22.170 Y47.025 F1000
G1 X22.170 Y45.930 F1000
G1 X21.805 Y45.565 F1000
G1 X21.805 Y44.470 F1000
G1 X21.440 Y44.105 F1000
G1 X21.440 Y43.010 F1000
G1 X21.075 Y42.645 F1000
G1 X21.075 Y41.550 F1000
G1 X20.710 Y41.185 F1000
G1 X20.710 Y40.090 F1000
G1 X20.345 Y39.725 F1000
G1 X20.345 Y38.630 F1000
G1 X19.980 Y38.265 F1000
G1 X19.980 Y37.170 F1000
G1 X19.615 Y36.805 F1000
G1 X19.615 Y35.710 F1000
G1 X19.250 Y35.345 F1000
G1 X19.250 Y34.980 F1000
G1 X19.250 Y35.345 F1000
G1 X19.615 Y35.710 F1000
G1 X19.615 Y36.805 F1000
G1 X19.980 Y37.170 F1000
G1 X19.980 Y38.265 F1000
G1 X20.345 Y38.630 F1000
G1 X20.345 Y39.725 F1000
G1 X20.710 Y40.090 F1000
G1 X20.710 Y41.185 F1000
G1 X21.075 Y41.550 F1000
G1 X21.075 Y42.645 F1000
G1 X21.440 Y43.010 F1000
G1 X21.440 Y44.105 F1000
G1 X21.805 Y44.470 F1000
G1 X21.805 Y45.565 F1000
G1 X22.170 Y45.930 F1000
G1 X22.170 Y47.025 F1000
G1 X22.535 Y47.390 F1000
G1 X22.535 Y48.485 F1000
G1 X23.265 Y49.215 F1000
G1 X23.630 Y48.850 F1000
G1 X33.120 Y48.850 F1000
G1 X33.485 Y49.215 F1000
G1 X33.850 Y48.850 F1000
G1 X33.850 Y47.755 F1000
G1 X34.215 Y47.390 F1000
G1 X34.215 Y46.295 F1000
G1 X34.580 Y45.930 F1000
G1 X34.580 Y44.835 F1000
G1 X34.945 Y44.470 F1000
G1 X34.945 Y43.375 F1000
G1 X35.310 Y43.010 F1000
G1 X35.310 Y41.915 F1000
G1 X35.675 Y41.550 F1000
G1 X35.675 Y40.455 F1000
G1 X36.040 Y40.090 F1000
G1 X36.040 Y38.995 F1000
G1 X36.405 Y38.630 F1000
G1 X36.405 Y37.535 F1000
G1 X36.770 Y37.170 F1000
G1 X36.770 Y36.075 F1000
G1 X37.135 Y35.710 F1000
G1 X37.135 Y34.980 F1000
G1 X37.135 Y35.710 F1000
G1 X36.770 Y36.075 F1000
G1 X36.770 Y37.170 F1000
G1 X36.405 Y37.535 F1000
G1 X36.405 Y38.630 F1000
G1 X36.040 Y38.995 F1000
G1 X36.040 Y40.090 F1000
G1 X35.675 Y40.455 F1000
G1 X35.675 Y41.550 F1000
G1 X35.310 Y41.915 F1000
G1 X35.310 Y43.010 F1000
G1 X34.945 Y43.375 F1000
G1 X34.945 Y44.470 F1000
G1 X34.580 Y44.835 F1000
G1 X34.580 Y45.930 F1000
G1 X34.215 Y46.295 F1000
G1 X34.215 Y47.390 F1000
G1 X33.850 Y47.755 F1000
G1 X33.850 Y48.850 F1000
G1 X33.485 Y49.215 F1000
G1 X33.485 Y50.310 F1000
G1 X33.120 Y50.675 F1000
G1 X33.120 Y51.770 F1000
G1 X32.755 Y52.135 F1000
G1 X32.755 Y53.230 F1000
G1 X32.390 Y53.595 F1000
G1 X32.390 Y54.690 F1000
G1 X32.025 Y55.055 F1000
G1 X32.025 Y56.150 F1000
G1 X31.660 Y56.515 F1000
G1 X31.660 Y57.610 F1000
G1 X31.295 Y57.975 F1000
G1 X31.295 Y59.070 F1000
G1 X30.930 Y59.435 F1000
G1 X30.930 Y60.530 F1000
G1 X30.565 Y60.895 F1000
G1 X30.565 Y61.990 F1000
G1 X30.200 Y62.355 F1000
G1 X30.200 Y63.450 F1000
G1 X29.835 Y63.815 F1000
G1 X29.835 Y64.910 F1000
G1 X29.470 Y65.275 F1000
G1 X29.470 Y66.370 F1000
G1 X29.105 Y66.735 F1000
G1 X29.105 Y67.830 F1000
G1 X28.740 Y67.830 F1000
G1 X28.375 Y68.195 F1000
G1 X28.375 Y68.195 F1000
G1 X29.105 Y67.465 F1000
G1 X29.105 Y66.735 F1000
G1 X29.470 Y66.370 F1000
G1 X29.470 Y65.275 F1000
G1 X29.835 Y64.910 F1000
G1 X29.835 Y63.815 F1000
G1 X30.200 Y63.450 F1000
G1 X30.200 Y62.355 F1000
G1 X30.565 Y61.990 F1000
G1 X30.565 Y60.895 F1000
G1 X30.930 Y60.530 F1000
G1 X30.930 Y59.435 F1000
G1 X31.295 Y59.070 F1000
G1 X31.295 Y57.975 F1000
G1 X31.660 Y57.610 F1000
G1 X31.660 Y56.515 F1000
G1 X32.025 Y56.150 F1000
G1 X32.025 Y55.055 F1000
G1 X32.390 Y54.690 F1000
G1 X32.390 Y53.595 F1000
G1 X32.755 Y53.230 F1000
G1 X32.755 Y52.135 F1000
G1 X33.120 Y51.770 F1000
G1 X33.120 Y50.675 F1000
G1 X33.485 Y50.310 F1000
G1 X33.485 Y49.215 F1000
G1 X33.120 Y48.850 F1000
G1 X23.630 Y48.850 F1000
G1 X23.265 Y49.215 F1000
G1 X23.265 Y51.405 F1000
G1 X23.630 Y51.770 F1000
G1 X23.630 Y52.865 F1000
G1 X23.995 Y53.230 F1000
G1 X23.995 Y54.325 F1000
G1 X24.360 Y54.690 F1000
G1 X24.360 Y55.785 F1000
G1 X24.725 Y56.150 F1000
G1 X24.725 Y57.245 F1000
G1 X25.090 Y57.610 F1000
G1 X25.090 Y58.705 F1000
G1 X25.455 Y59.070 F1000
G1 X25.455 Y60.165 F1000
G1 X25.820 Y60.530 F1000
G1 X25.820 Y61.625 F1000
G1 X26.185 Y61.990 F1000
G1 X26.185 Y63.085 F1000
G1 X26.550 Y63.450 F1000
G1 X26.550 Y64.545 F1000
G1 X26.915 Y64.910 F1000
G1 X26.915 Y66.005 F1000
G1 X27.280 Y66.370 F1000
G1 X27.280 Y67.100 F1000
G0 Z3.0 ; Pen up

; Return to origin
G0 X0 Y0
G0 Z3.0

; Total drawing distance: 576.65 mm
; Total travel distance: 152.69 mm
; Total lines: 4
; Estimated time: 37.7 seconds (0.6 minutes)
M2 ; End program