; Blueprint to G-code
; Input: test_images/test1_simple_box.png
; Generated with blueprint2gcode.py

G21 ; Set units to millimeters
G90 ; Absolute positioning
G0 Z3.0 ; Pen up
G0 X0 Y0 ; Move to origin

G0 X22.672 Y18.510 F3000 ; Travel to line 1
G0 Z0.0 ; Pen down
G1 X22.843 Y18.338 F1000
G1 X124.298 Y18.338 F1000
G1 X124.470 Y18.510 F1000
G1 X124.470 Y18.853 F1000
G1 X124.298 Y19.025 F1000
G1 X124.127 Y19.025 F1000
G1 X123.783 Y19.368 F1000
G1 X123.612 Y19.368 F1000
G1 X123.268 Y19.712 F1000
G1 X123.097 Y19.712 F1000
G1 X122.753 Y20.055 F1000
G1 X122.582 Y20.055 F1000
G1 X122.238 Y20.398 F1000
G1 X122.067 Y20.398 F1000
G1 X121.723 Y20.742 F1000
G1 X121.552 Y20.742 F1000
G1 X121.208 Y21.085 F1000
G1 X121.037 Y21.085 F1000
G1 X120.693 Y21.428 F1000
G1 X120.522 Y21.428 F1000
G1 X120.178 Y21.772 F1000
G1 X120.007 Y21.772 F1000
G1 X119.663 Y22.115 F1000
G1 X119.492 Y22.115 F1000
G1 X119.148 Y22.458 F1000
G1 X118.977 Y22.458 F1000
G1 X118.633 Y22.802 F1000
G1 X118.462 Y22.802 F1000
G1 X118.118 Y23.145 F1000
G1 X117.947 Y23.145 F1000
G1 X117.603 Y23.488 F1000
G1 X117.432 Y23.488 F1000
G1 X117.088 Y23.832 F1000
G1 X116.917 Y23.832 F1000
G1 X116.573 Y24.175 F1000
G1 X116.402 Y24.175 F1000
G1 X116.058 Y24.518 F1000
G1 X115.887 Y24.518 F1000
G1 X115.543 Y24.862 F1000
G1 X115.372 Y24.862 F1000
G1 X115.028 Y25.205 F1000
G1 X114.857 Y25.205 F1000
G1 X114.513 Y25.548 F1000
G1 X114.342 Y25.548 F1000
G1 X113.998 Y25.892 F1000
G1 X113.827 Y25.892 F1000
G1 X113.483 Y26.235 F1000
G1 X113.312 Y26.235 F1000
G1 X112.968 Y26.578 F1000
G1 X112.797 Y26.578 F1000
G1 X112.453 Y26.922 F1000
G1 X112.282 Y26.922 F1000
G1 X111.938 Y27.265 F1000
G1 X111.767 Y27.265 F1000
G1 X111.423 Y27.608 F1000
G1 X111.252 Y27.608 F1000
G1 X110.908 Y27.952 F1000
G1 X110.737 Y27.952 F1000
G1 X110.393 Y28.295 F1000
G1 X110.222 Y28.295 F1000
G1 X109.878 Y28.638 F1000
G1 X109.707 Y28.638 F1000
G1 X109.363 Y28.982 F1000
G1 X109.192 Y28.982 F1000
G1 X108.848 Y29.325 F1000
G1 X108.677 Y29.325 F1000
G1 X108.333 Y29.668 F1000
G1 X108.162 Y29.668 F1000
G1 X107.818 Y30.012 F1000
G1 X107.647 Y30.012 F1000
G1 X107.303 Y30.355 F1000
G1 X107.132 Y30.355 F1000
G1 X106.788 Y30.698 F1000
G1 X106.617 Y30.698 F1000
G1 X106.273 Y31.042 F1000
G1 X106.102 Y31.042 F1000
G1 X105.758 Y31.385 F1000
G1 X105.587 Y31.385 F1000
G1 X105.243 Y31.728 F1000
G1 X105.072 Y31.728 F1000
G1 X104.728 Y32.072 F1000
G1 X104.557 Y32.072 F1000
G1 X104.213 Y32.415 F1000
G1 X104.042 Y32.415 F1000
G1 X103.698 Y32.758 F1000
G1 X103.527 Y32.758 F1000
G1 X103.183 Y33.102 F1000
G1 X103.012 Y33.102 F1000
G1 X102.668 Y33.445 F1000
G1 X102.497 Y33.445 F1000
G1 X102.153 Y33.788 F1000
G1 X101.982 Y33.788 F1000
G1 X101.638 Y34.132 F1000
G1 X101.467 Y34.132 F1000
G1 X101.123 Y34.475 F1000
G1 X100.952 Y34.475 F1000
G1 X100.608 Y34.818 F1000
G1 X100.437 Y34.818 F1000
G1 X100.093 Y35.162 F1000
G1 X99.922 Y35.162 F1000
G1 X99.578 Y35.505 F1000
G1 X99.407 Y35.505 F1000
G1 X99.063 Y35.848 F1000
G1 X98.892 Y35.848 F1000
G1 X98.548 Y36.192 F1000
G1 X98.377 Y36.192 F1000
G1 X98.033 Y36.535 F1000
G1 X97.862 Y36.535 F1000
G1 X97.518 Y36.878 F1000
G1 X97.347 Y36.878 F1000
G1 X97.003 Y37.222 F1000
G1 X96.832 Y37.222 F1000
G1 X96.488 Y37.565 F1000
G1 X96.317 Y37.565 F1000
G1 X95.973 Y37.908 F1000
G1 X95.802 Y37.908 F1000
G1 X95.458 Y38.252 F1000
G1 X95.287 Y38.252 F1000
G1 X94.943 Y38.595 F1000
G1 X94.772 Y38.595 F1000
G1 X94.428 Y38.938 F1000
G1 X94.257 Y38.938 F1000
G1 X93.913 Y39.282 F1000
G1 X93.742 Y39.282 F1000
G1 X93.398 Y39.625 F1000
G1 X93.227 Y39.625 F1000
G1 X92.883 Y39.968 F1000
G1 X92.712 Y39.968 F1000
G1 X92.368 Y40.312 F1000
G1 X92.197 Y40.312 F1000
G1 X91.853 Y40.655 F1000
G1 X91.682 Y40.655 F1000
G1 X91.338 Y40.998 F1000
G1 X91.167 Y40.998 F1000
G1 X90.823 Y41.342 F1000
G1 X90.652 Y41.342 F1000
G1 X90.308 Y41.685 F1000
G1 X90.137 Y41.685 F1000
G1 X89.793 Y42.028 F1000
G1 X89.622 Y42.028 F1000
G1 X89.278 Y42.372 F1000
G1 X89.107 Y42.372 F1000
G1 X88.763 Y42.715 F1000
G1 X88.592 Y42.715 F1000
G1 X88.248 Y43.058 F1000
G1 X88.077 Y43.058 F1000
G1 X87.733 Y43.402 F1000
G1 X87.562 Y43.402 F1000
G1 X87.218 Y43.745 F1000
G1 X87.047 Y43.745 F1000
G1 X86.703 Y44.088 F1000
G1 X86.532 Y44.088 F1000
G1 X86.188 Y44.432 F1000
G1 X86.017 Y44.432 F1000
G1 X85.673 Y44.775 F1000
G1 X85.502 Y44.775 F1000
G1 X85.158 Y45.118 F1000
G1 X84.987 Y45.118 F1000
G1 X84.643 Y45.462 F1000
G1 X84.472 Y45.462 F1000
G1 X84.128 Y45.805 F1000
G1 X83.957 Y45.805 F1000
G1 X83.613 Y46.148 F1000
G1 X83.442 Y46.148 F1000
G1 X83.098 Y46.492 F1000
G1 X82.927 Y46.492 F1000
G1 X82.583 Y46.835 F1000
G1 X82.412 Y46.835 F1000
G1 X82.068 Y47.178 F1000
G1 X81.897 Y47.178 F1000
G1 X81.553 Y47.522 F1000
G1 X81.382 Y47.522 F1000
G1 X81.038 Y47.865 F1000
G1 X80.867 Y47.865 F1000
G1 X80.523 Y48.208 F1000
G1 X80.352 Y48.208 F1000
G1 X80.008 Y48.552 F1000
G1 X79.837 Y48.552 F1000
G1 X79.493 Y48.895 F1000
G1 X79.322 Y48.895 F1000
G1 X78.978 Y49.238 F1000
G1 X78.807 Y49.238 F1000
G1 X78.463 Y49.582 F1000
G1 X78.292 Y49.582 F1000
G1 X77.948 Y49.925 F1000
G1 X77.777 Y49.925 F1000
G1 X77.433 Y50.268 F1000
G1 X77.262 Y50.268 F1000
G1 X76.918 Y50.612 F1000
G1 X76.747 Y50.612 F1000
G1 X76.403 Y50.955 F1000
G1 X76.232 Y50.955 F1000
G1 X75.888 Y51.298 F1000
G1 X75.717 Y51.298 F1000
G1 X75.373 Y51.642 F1000
G1 X75.202 Y51.642 F1000
G1 X74.858 Y51.985 F1000
G1 X74.858 Y52.157 F1000
G1 X74.687 Y52.328 F1000
G1 X74.343 Y52.328 F1000
G1 X74.000 Y51.985 F1000
G1 X74.000 Y35.505 F1000
G1 X74.000 Y51.985 F1000
G1 X74.172 Y52.157 F1000
G1 X74.172 Y52.328 F1000
G1 X73.828 Y52.672 F1000
G1 X73.657 Y52.672 F1000
G1 X73.485 Y52.500 F1000
G1 X57.005 Y52.500 F1000
G1 X73.313 Y52.500 F1000
G1 X73.485 Y52.672 F1000
G1 X73.485 Y52.843 F1000
G1 X73.313 Y53.015 F1000
G1 X73.142 Y53.015 F1000
G1 X72.798 Y53.358 F1000
G1 X72.627 Y53.358 F1000
G1 X72.283 Y53.702 F1000
G1 X72.112 Y53.702 F1000
G1 X71.768 Y54.045 F1000
G1 X71.597 Y54.045 F1000
G1 X71.253 Y54.388 F1000
G1 X71.082 Y54.388 F1000
G1 X70.738 Y54.732 F1000
G1 X70.567 Y54.732 F1000
G1 X70.223 Y55.075 F1000
G1 X70.052 Y55.075 F1000
G1 X69.708 Y55.418 F1000
G1 X69.537 Y55.418 F1000
G1 X69.193 Y55.762 F1000
G1 X69.022 Y55.762 F1000
G1 X68.678 Y56.105 F1000
G1 X68.507 Y56.105 F1000
G1 X68.163 Y56.448 F1000
G1 X67.992 Y56.448 F1000
G1 X67.648 Y56.792 F1000
G1 X67.477 Y56.792 F1000
G1 X67.133 Y57.135 F1000
G1 X66.962 Y57.135 F1000
G1 X66.618 Y57.478 F1000
G1 X66.447 Y57.478 F1000
G1 X66.103 Y57.822 F1000
G1 X65.932 Y57.822 F1000
G1 X65.588 Y58.165 F1000
G1 X65.417 Y58.165 F1000
G1 X65.073 Y58.508 F1000
G1 X64.902 Y58.508 F1000
G1 X64.558 Y58.852 F1000
G1 X64.387 Y58.852 F1000
G1 X64.043 Y59.195 F1000
G1 X63.872 Y59.195 F1000
G1 X63.528 Y59.538 F1000
G1 X63.357 Y59.538 F1000
G1 X63.013 Y59.882 F1000
G1 X62.842 Y59.882 F1000
G1 X62.498 Y60.225 F1000
G1 X62.327 Y60.225 F1000
G1 X61.983 Y60.568 F1000
G1 X61.812 Y60.568 F1000
G1 X61.468 Y60.912 F1000
G1 X61.297 Y60.912 F1000
G1 X60.953 Y61.255 F1000
G1 X60.782 Y61.255 F1000
G1 X60.438 Y61.598 F1000
G1 X60.267 Y61.598 F1000
G1 X59.923 Y61.942 F1000
G1 X59.752 Y61.942 F1000
G1 X59.408 Y62.285 F1000
G1 X59.237 Y62.285 F1000
G1 X58.893 Y62.628 F1000
G1 X58.722 Y62.628 F1000
G1 X58.378 Y62.972 F1000
G1 X58.207 Y62.972 F1000
G1 X57.863 Y63.315 F1000
G1 X57.692 Y63.315 F1000
G1 X57.348 Y63.658 F1000
G1 X57.177 Y63.658 F1000
G1 X56.833 Y64.002 F1000
G1 X56.662 Y64.002 F1000
G1 X56.318 Y64.345 F1000
G1 X56.147 Y64.345 F1000
G1 X55.803 Y64.688 F1000
G1 X55.632 Y64.688 F1000
G1 X55.288 Y65.032 F1000
G1 X55.117 Y65.032 F1000
G1 X54.773 Y65.375 F1000
G1 X54.602 Y65.375 F1000
G1 X54.258 Y65.718 F1000
G1 X54.087 Y65.718 F1000
G1 X53.743 Y66.062 F1000
G1 X53.572 Y66.062 F1000
G1 X53.228 Y66.405 F1000
G1 X53.057 Y66.405 F1000
G1 X52.713 Y66.748 F1000
G1 X52.542 Y66.748 F1000
G1 X52.198 Y67.092 F1000
G1 X52.027 Y67.092 F1000
G1 X51.683 Y67.435 F1000
G1 X51.512 Y67.435 F1000
G1 X51.168 Y67.778 F1000
G1 X50.997 Y67.778 F1000
G1 X50.653 Y68.122 F1000
G1 X50.482 Y68.122 F1000
G1 X50.138 Y68.465 F1000
G1 X49.967 Y68.465 F1000
G1 X49.623 Y68.808 F1000
G1 X49.452 Y68.808 F1000
G1 X49.108 Y69.152 F1000
G1 X48.937 Y69.152 F1000
G1 X48.593 Y69.495 F1000
G1 X48.422 Y69.495 F1000
G1 X48.078 Y69.838 F1000
G1 X47.907 Y69.838 F1000
G1 X47.563 Y70.182 F1000
G1 X47.392 Y70.182 F1000
G1 X47.048 Y70.525 F1000
G1 X46.877 Y70.525 F1000
G1 X46.533 Y70.868 F1000
G1 X46.362 Y70.868 F1000
G1 X46.018 Y71.212 F1000
G1 X45.847 Y71.212 F1000
G1 X45.503 Y71.555 F1000
G1 X45.332 Y71.555 F1000
G1 X44.988 Y71.898 F1000
G1 X44.817 Y71.898 F1000
G1 X44.473 Y72.242 F1000
G1 X44.302 Y72.242 F1000
G1 X43.958 Y72.585 F1000
G1 X43.787 Y72.585 F1000
G1 X43.443 Y72.928 F1000
G1 X43.272 Y72.928 F1000
G1 X42.928 Y73.272 F1000
G1 X42.757 Y73.272 F1000
G1 X42.413 Y73.615 F1000
G1 X42.242 Y73.615 F1000
G1 X41.898 Y73.958 F1000
G1 X41.727 Y73.958 F1000
G1 X41.383 Y74.302 F1000
G1 X41.212 Y74.302 F1000
G1 X40.868 Y74.645 F1000
G1 X40.697 Y74.645 F1000
G1 X40.353 Y74.988 F1000
G1 X40.182 Y74.988 F1000
G1 X39.838 Y75.332 F1000
G1 X39.667 Y75.332 F1000
G1 X39.323 Y75.675 F1000
G1 X39.152 Y75.675 F1000
G1 X38.808 Y76.018 F1000
G1 X38.637 Y76.018 F1000
G1 X38.293 Y76.362 F1000
G1 X38.122 Y76.362 F1000
G1 X37.778 Y76.705 F1000
G1 X37.607 Y76.705 F1000
G1 X37.263 Y77.048 F1000
G1 X37.092 Y77.048 F1000
G1 X36.748 Y77.392 F1000
G1 X36.577 Y77.392 F1000
G1 X36.233 Y77.735 F1000
G1 X36.062 Y77.735 F1000
G1 X35.718 Y78.078 F1000
G1 X35.547 Y78.078 F1000
G1 X35.203 Y78.422 F1000
G1 X35.032 Y78.422 F1000
G1 X34.688 Y78.765 F1000
G1 X34.517 Y78.765 F1000
G1 X34.173 Y79.108 F1000
G1 X34.002 Y79.108 F1000
G1 X33.658 Y79.452 F1000
G1 X33.487 Y79.452 F1000
G1 X33.143 Y79.795 F1000
G1 X32.972 Y79.795 F1000
G1 X32.628 Y80.138 F1000
G1 X32.457 Y80.138 F1000
G1 X32.113 Y80.482 F1000
G1 X31.942 Y80.482 F1000
G1 X31.598 Y80.825 F1000
G1 X31.427 Y80.825 F1000
G1 X31.083 Y81.168 F1000
G1 X30.912 Y81.168 F1000
G1 X30.568 Y81.512 F1000
G1 X30.397 Y81.512 F1000
G1 X30.053 Y81.855 F1000
G1 X29.882 Y81.855 F1000
G1 X29.538 Y82.198 F1000
G1 X29.367 Y82.198 F1000
G1 X29.023 Y82.542 F1000
G1 X28.852 Y82.542 F1000
G1 X28.508 Y82.885 F1000
G1 X28.337 Y82.885 F1000
G1 X27.993 Y83.228 F1000
G1 X27.822 Y83.228 F1000
G1 X27.478 Y83.572 F1000
G1 X27.307 Y83.572 F1000
G1 X26.963 Y83.915 F1000
G1 X26.792 Y83.915 F1000
G1 X26.448 Y84.258 F1000
G1 X26.277 Y84.258 F1000
G1 X25.933 Y84.602 F1000
G1 X25.762 Y84.602 F1000
G1 X25.418 Y84.945 F1000
G1 X25.247 Y84.945 F1000
G1 X24.903 Y85.288 F1000
G1 X24.732 Y85.288 F1000
G1 X24.388 Y85.632 F1000
G1 X24.217 Y85.632 F1000
G1 X23.873 Y85.975 F1000
G1 X23.702 Y85.975 F1000
G1 X23.702 Y86.147 F1000
G1 X23.358 Y86.490 F1000
G1 X22.843 Y86.490 F1000
G1 X22.672 Y86.318 F1000
G0 Z3.0 ; Pen up

G0 X23.530 Y86.318 F3000 ; Travel to line 2
G0 Z0.0 ; Pen down
G1 X24.045 Y85.803 F1000
G1 X24.217 Y85.803 F1000
G1 X24.560 Y85.460 F1000
G1 X24.732 Y85.460 F1000
G1 X25.075 Y85.117 F1000
G1 X25.247 Y85.117 F1000
G1 X25.590 Y84.773 F1000
G1 X25.762 Y84.773 F1000
G1 X26.105 Y84.430 F1000
G1 X26.277 Y84.430 F1000
G1 X26.620 Y84.087 F1000
G1 X26.792 Y84.087 F1000
G1 X27.135 Y83.743 F1000
G1 X27.307 Y83.743 F1000
G1 X27.650 Y83.400 F1000
G1 X27.822 Y83.400 F1000
G1 X28.165 Y83.057 F1000
G1 X28.337 Y83.057 F1000
G1 X28.680 Y82.713 F1000
G1 X28.852 Y82.713 F1000
G1 X29.195 Y82.370 F1000
G1 X29.367 Y82.370 F1000
G1 X29.710 Y82.027 F1000
G1 X29.882 Y82.027 F1000
G1 X30.225 Y81.683 F1000
G1 X30.397 Y81.683 F1000
G1 X30.740 Y81.340 F1000
G1 X30.912 Y81.340 F1000
G1 X31.255 Y80.997 F1000
G1 X31.427 Y80.997 F1000
G1 X31.770 Y80.653 F1000
G1 X31.942 Y80.653 F1000
G1 X32.285 Y80.310 F1000
G1 X32.457 Y80.310 F1000
G1 X32.800 Y79.967 F1000
G1 X32.972 Y79.967 F1000
G1 X33.315 Y79.623 F1000
G1 X33.487 Y79.623 F1000
G1 X33.830 Y79.280 F1000
G1 X34.002 Y79.280 F1000
G1 X34.345 Y78.937 F1000
G1 X34.517 Y78.937 F1000
G1 X34.860 Y78.593 F1000
G1 X35.032 Y78.593 F1000
G1 X35.375 Y78.250 F1000
G1 X35.547 Y78.250 F1000
G1 X35.890 Y77.907 F1000
G1 X36.062 Y77.907 F1000
G1 X36.405 Y77.563 F1000
G1 X36.577 Y77.563 F1000
G1 X36.920 Y77.220 F1000
G1 X37.092 Y77.220 F1000
G1 X37.435 Y76.877 F1000
G1 X37.607 Y76.877 F1000
G1 X37.950 Y76.533 F1000
G1 X38.122 Y76.533 F1000
G1 X38.465 Y76.190 F1000
G1 X38.637 Y76.190 F1000
G1 X38.980 Y75.847 F1000
G1 X39.152 Y75.847 F1000
G1 X39.495 Y75.503 F1000
G1 X39.667 Y75.503 F1000
G1 X40.010 Y75.160 F1000
G1 X40.182 Y75.160 F1000
G1 X40.525 Y74.817 F1000
G1 X40.697 Y74.817 F1000
G1 X41.040 Y74.473 F1000
G1 X41.212 Y74.473 F1000
G1 X41.555 Y74.130 F1000
G1 X41.727 Y74.130 F1000
G1 X42.070 Y73.787 F1000
G1 X42.242 Y73.787 F1000
G1 X42.585 Y73.443 F1000
G1 X42.757 Y73.443 F1000
G1 X43.100 Y73.100 F1000
G1 X43.272 Y73.100 F1000
G1 X43.615 Y72.757 F1000
G1 X43.787 Y72.757 F1000
G1 X44.130 Y72.413 F1000
G1 X44.302 Y72.413 F1000
G1 X44.645 Y72.070 F1000
G1 X44.817 Y72.070 F1000
G1 X45.160 Y71.727 F1000
G1 X45.332 Y71.727 F1000
G1 X45.675 Y71.383 F1000
G1 X45.847 Y71.383 F1000
G1 X46.190 Y71.040 F1000
G1 X46.362 Y71.040 F1000
G1 X46.705 Y70.697 F1000
G1 X46.877 Y70.697 F1000
G1 X47.220 Y70.353 F1000
G1 X47.392 Y70.353 F1000
G1 X47.735 Y70.010 F1000
G1 X47.907 Y70.010 F1000
G1 X48.250 Y69.667 F1000
G1 X48.422 Y69.667 F1000
G1 X48.765 Y69.323 F1000
G1 X48.937 Y69.323 F1000
G1 X49.280 Y68.980 F1000
G1 X49.452 Y68.980 F1000
G1 X49.795 Y68.637 F1000
G1 X49.967 Y68.637 F1000
G1 X50.310 Y68.293 F1000
G1 X50.482 Y68.293 F1000
G1 X50.825 Y67.950 F1000
G1 X50.997 Y67.950 F1000
G1 X51.340 Y67.607 F1000
G1 X51.512 Y67.607 F1000
G1 X51.855 Y67.263 F1000
G1 X52.027 Y67.263 F1000
G1 X52.370 Y66.920 F1000
G1 X52.542 Y66.920 F1000
G1 X52.885 Y66.577 F1000
G1 X53.057 Y66.577 F1000
G1 X53.400 Y66.233 F1000
G1 X53.572 Y66.233 F1000
G1 X53.915 Y65.890 F1000
G1 X54.087 Y65.890 F1000
G1 X54.430 Y65.547 F1000
G1 X54.602 Y65.547 F1000
G1 X54.945 Y65.203 F1000
G1 X55.117 Y65.203 F1000
G1 X55.460 Y64.860 F1000
G1 X55.632 Y64.860 F1000
G1 X55.975 Y64.517 F1000
G1 X56.147 Y64.517 F1000
G1 X56.490 Y64.173 F1000
G1 X56.662 Y64.173 F1000
G1 X57.005 Y63.830 F1000
G1 X57.177 Y63.830 F1000
G1 X57.520 Y63.487 F1000
G1 X57.692 Y63.487 F1000
G1 X58.035 Y63.143 F1000
G1 X58.207 Y63.143 F1000
G1 X58.550 Y62.800 F1000
G1 X58.722 Y62.800 F1000
G1 X59.065 Y62.457 F1000
G1 X59.237 Y62.457 F1000
G1 X59.580 Y62.113 F1000
G1 X59.752 Y62.113 F1000
G1 X60.095 Y61.770 F1000
G1 X60.267 Y61.770 F1000
G1 X60.610 Y61.427 F1000
G1 X60.782 Y61.427 F1000
G1 X61.125 Y61.083 F1000
G1 X61.297 Y61.083 F1000
G1 X61.640 Y60.740 F1000
G1 X61.812 Y60.740 F1000
G1 X62.155 Y60.397 F1000
G1 X62.327 Y60.397 F1000
G1 X62.670 Y60.053 F1000
G1 X62.842 Y60.053 F1000
G1 X63.185 Y59.710 F1000
G1 X63.357 Y59.710 F1000
G1 X63.700 Y59.367 F1000
G1 X63.872 Y59.367 F1000
G1 X64.215 Y59.023 F1000
G1 X64.387 Y59.023 F1000
G1 X64.730 Y58.680 F1000
G1 X64.902 Y58.680 F1000
G1 X65.245 Y58.337 F1000
G1 X65.417 Y58.337 F1000
G1 X65.760 Y57.993 F1000
G1 X65.932 Y57.993 F1000
G1 X66.275 Y57.650 F1000
G1 X66.447 Y57.650 F1000
G1 X66.790 Y57.307 F1000
G1 X66.962 Y57.307 F1000
G1 X67.305 Y56.963 F1000
G1 X67.477 Y56.963 F1000
G1 X67.820 Y56.620 F1000
G1 X67.992 Y56.620 F1000
G1 X68.335 Y56.277 F1000
G1 X68.507 Y56.277 F1000
G1 X68.850 Y55.933 F1000
G1 X69.022 Y55.933 F1000
G1 X69.365 Y55.590 F1000
G1 X69.537 Y55.590 F1000
G1 X69.880 Y55.247 F1000
G1 X70.052 Y55.247 F1000
G1 X70.395 Y54.903 F1000
G1 X70.567 Y54.903 F1000
G1 X70.910 Y54.560 F1000
G1 X71.082 Y54.560 F1000
G1 X71.425 Y54.217 F1000
G1 X71.597 Y54.217 F1000
G1 X71.940 Y53.873 F1000
G1 X72.112 Y53.873 F1000
G1 X72.455 Y53.530 F1000
G1 X72.627 Y53.530 F1000
G1 X72.970 Y53.187 F1000
G1 X73.142 Y53.187 F1000
G1 X73.657 Y52.672 F1000
G1 X73.828 Y52.672 F1000
G1 X74.000 Y52.843 F1000
G1 X74.000 Y69.495 F1000
G1 X74.000 Y52.500 F1000
G1 X74.172 Y52.328 F1000
G1 X74.687 Y52.328 F1000
G1 X74.858 Y52.500 F1000
G1 X90.995 Y52.500 F1000
G1 X75.030 Y52.500 F1000
G1 X74.858 Y52.328 F1000
G1 X74.858 Y51.985 F1000
G1 X75.030 Y51.813 F1000
G1 X75.202 Y51.813 F1000
G1 X75.545 Y51.470 F1000
G1 X75.717 Y51.470 F1000
G1 X76.060 Y51.127 F1000
G1 X76.232 Y51.127 F1000
G1 X76.575 Y50.783 F1000
G1 X76.747 Y50.783 F1000
G1 X77.090 Y50.440 F1000
G1 X77.262 Y50.440 F1000
G1 X77.605 Y50.097 F1000
G1 X77.777 Y50.097 F1000
G1 X78.120 Y49.753 F1000
G1 X78.292 Y49.753 F1000
G1 X78.635 Y49.410 F1000
G1 X78.807 Y49.410 F1000
G1 X79.150 Y49.067 F1000
G1 X79.322 Y49.067 F1000
G1 X79.665 Y48.723 F1000
G1 X79.837 Y48.723 F1000
G1 X80.180 Y48.380 F1000
G1 X80.352 Y48.380 F1000
G1 X80.695 Y48.037 F1000
G1 X80.867 Y48.037 F1000
G1 X81.210 Y47.693 F1000
G1 X81.382 Y47.693 F1000
G1 X81.725 Y47.350 F1000
G1 X81.897 Y47.350 F1000
G1 X82.240 Y47.007 F1000
G1 X82.412 Y47.007 F1000
G1 X82.755 Y46.663 F1000
G1 X82.927 Y46.663 F1000
G1 X83.270 Y46.320 F1000
G1 X83.442 Y46.320 F1000
G1 X83.785 Y45.977 F1000
G1 X83.957 Y45.977 F1000
G1 X84.300 Y45.633 F1000
G1 X84.472 Y45.633 F1000
G1 X84.815 Y45.290 F1000
G1 X84.987 Y45.290 F1000
G1 X85.330 Y44.947 F1000
G1 X85.502 Y44.947 F1000
G1 X85.845 Y44.603 F1000
G1 X86.017 Y44.603 F1000
G1 X86.360 Y44.260 F1000
G1 X86.532 Y44.260 F1000
G1 X86.875 Y43.917 F1000
G1 X87.047 Y43.917 F1000
G1 X87.390 Y43.573 F1000
G1 X87.562 Y43.573 F1000
G1 X87.905 Y43.230 F1000
G1 X88.077 Y43.230 F1000
G1 X88.420 Y42.887 F1000
G1 X88.592 Y42.887 F1000
G1 X88.935 Y42.543 F1000
G1 X89.107 Y42.543 F1000
G1 X89.450 Y42.200 F1000
G1 X89.622 Y42.200 F1000
G1 X89.965 Y41.857 F1000
G1 X90.137 Y41.857 F1000
G1 X90.480 Y41.513 F1000
G1 X90.652 Y41.513 F1000
G1 X90.995 Y41.170 F1000
G1 X91.167 Y41.170 F1000
G1 X91.510 Y40.827 F1000
G1 X91.682 Y40.827 F1000
G1 X92.025 Y40.483 F1000
G1 X92.197 Y40.483 F1000
G1 X92.540 Y40.140 F1000
G1 X92.712 Y40.140 F1000
G1 X93.055 Y39.797 F1000
G1 X93.227 Y39.797 F1000
G1 X93.570 Y39.453 F1000
G1 X93.742 Y39.453 F1000
G1 X94.085 Y39.110 F1000
G1 X94.257 Y39.110 F1000
G1 X94.600 Y38.767 F1000
G1 X94.772 Y38.767 F1000
G1 X95.115 Y38.423 F1000
G1 X95.287 Y38.423 F1000
G1 X95.630 Y38.080 F1000
G1 X95.802 Y38.080 F1000
G1 X96.145 Y37.737 F1000
G1 X96.317 Y37.737 F1000
G1 X96.660 Y37.393 F1000
G1 X96.832 Y37.393 F1000
G1 X97.175 Y37.050 F1000
G1 X97.347 Y37.050 F1000
G1 X97.690 Y36.707 F1000
G1 X97.862 Y36.707 F1000
G1 X98.205 Y36.363 F1000
G1 X98.377 Y36.363 F1000
G1 X98.720 Y36.020 F1000
G1 X98.892 Y36.020 F1000
G1 X99.235 Y35.677 F1000
G1 X99.407 Y35.677 F1000
G1 X99.750 Y35.333 F1000
G1 X99.922 Y35.333 F1000
G1 X100.265 Y34.990 F1000
G1 X100.437 Y34.990 F1000
G1 X100.780 Y34.647 F1000
G1 X100.952 Y34.647 F1000
G1 X101.295 Y34.303 F1000
G1 X101.467 Y34.303 F1000
G1 X101.810 Y33.960 F1000
G1 X101.982 Y33.960 F1000
G1 X102.325 Y33.617 F1000
G1 X102.497 Y33.617 F1000
G1 X102.840 Y33.273 F1000
G1 X103.012 Y33.273 F1000
G1 X103.355 Y32.930 F1000
G1 X103.527 Y32.930 F1000
G1 X103.870 Y32.587 F1000
G1 X104.042 Y32.587 F1000
G1 X104.385 Y32.243 F1000
G1 X104.557 Y32.243 F1000
G1 X104.900 Y31.900 F1000
G1 X105.072 Y31.900 F1000
G1 X105.415 Y31.557 F1000
G1 X105.587 Y31.557 F1000
G1 X105.930 Y31.213 F1000
G1 X106.102 Y31.213 F1000
G1 X106.445 Y30.870 F1000
G1 X106.617 Y30.870 F1000
G1 X106.960 Y30.527 F1000
G1 X107.132 Y30.527 F1000
G1 X107.475 Y30.183 F1000
G1 X107.647 Y30.183 F1000
G1 X107.990 Y29.840 F1000
G1 X108.162 Y29.840 F1000
G1 X108.505 Y29.497 F1000
G1 X108.677 Y29.497 F1000
G1 X109.020 Y29.153 F1000
G1 X109.192 Y29.153 F1000
G1 X109.535 Y28.810 F1000
G1 X109.707 Y28.810 F1000
G1 X110.050 Y28.467 F1000
G1 X110.222 Y28.467 F1000
G1 X110.565 Y28.123 F1000
G1 X110.737 Y28.123 F1000
G1 X111.080 Y27.780 F1000
G1 X111.252 Y27.780 F1000
G1 X111.595 Y27.437 F1000
G1 X111.767 Y27.437 F1000
G1 X112.110 Y27.093 F1000
G1 X112.282 Y27.093 F1000
G1 X112.625 Y26.750 F1000
G1 X112.797 Y26.750 F1000
G1 X113.140 Y26.407 F1000
G1 X113.312 Y26.407 F1000
G1 X113.655 Y26.063 F1000
G1 X113.827 Y26.063 F1000
G1 X114.170 Y25.720 F1000
G1 X114.342 Y25.720 F1000
G1 X114.685 Y25.377 F1000
G1 X114.857 Y25.377 F1000
G1 X115.200 Y25.033 F1000
G1 X115.372 Y25.033 F1000
G1 X115.715 Y24.690 F1000
G1 X115.887 Y24.690 F1000
G1 X116.230 Y24.347 F1000
G1 X116.402 Y24.347 F1000
G1 X116.745 Y24.003 F1000
G1 X116.917 Y24.003 F1000
G1 X117.260 Y23.660 F1000
G1 X117.432 Y23.660 F1000
G1 X117.775 Y23.317 F1000
G1 X117.947 Y23.317 F1000
G1 X118.290 Y22.973 F1000
G1 X118.462 Y22.973 F1000
G1 X118.805 Y22.630 F1000
G1 X118.977 Y22.630 F1000
G1 X119.320 Y22.287 F1000
G1 X119.492 Y22.287 F1000
G1 X119.835 Y21.943 F1000
G1 X120.007 Y21.943 F1000
G1 X120.350 Y21.600 F1000
G1 X120.522 Y21.600 F1000
G1 X120.865 Y21.257 F1000
G1 X121.037 Y21.257 F1000
G1 X121.380 Y20.913 F1000
G1 X121.552 Y20.913 F1000
G1 X121.895 Y20.570 F1000
G1 X122.067 Y20.570 F1000
G1 X122.410 Y20.227 F1000
G1 X122.582 Y20.227 F1000
G1 X122.925 Y19.883 F1000
G1 X123.097 Y19.883 F1000
G1 X123.440 Y19.540 F1000
G1 X123.612 Y19.540 F1000
G1 X123.955 Y19.197 F1000
G1 X124.127 Y19.197 F1000
G1 X124.470 Y18.853 F1000
G1 X124.470 Y18.682 F1000
G1 X124.642 Y18.510 F1000
G1 X125.157 Y18.510 F1000
G1 X125.328 Y18.682 F1000
G1 X125.328 Y86.490 F1000
G1 X125.157 Y86.662 F1000
G1 X23.702 Y86.662 F1000
G1 X23.530 Y86.490 F1000
G0 Z3.0 ; Pen up

G0 X23.530 Y86.662 F3000 ; Travel to line 3
G0 Z0.0 ; Pen down
G1 X23.358 Y86.490 F1000
G1 X22.672 Y86.490 F1000
G1 X22.672 Y18.338 F1000
G1 X124.298 Y18.338 F1000
G1 X124.470 Y18.510 F1000
G1 X125.157 Y18.510 F1000
G1 X125.328 Y18.682 F1000
G1 X125.328 Y86.662 F1000
G0 Z3.0 ; Pen up

; Return to origin
G0 X0 Y0
G0 Z3.0

; Total drawing distance: 934.91 mm
; Total travel distance: 30.30 mm
; Total lines: 3
; Estimated time: 56.7 seconds (0.9 minutes)
M2 ; End program