; Blueprint to G-code
; Input: test_images/test7_geodesic_dome.png
; Generated with blueprint2gcode.py

G21 ; Set units to millimeters
G90 ; Absolute positioning
G0 Z3.0 ; Pen up
G0 X0 Y0 ; Move to origin

G0 X18.483 Y5.944 F3000 ; Travel to line 1
G0 Z0.0 ; Pen down
G1 X18.483 Y5.841 F1000
G1 X18.586 Y5.738 F1000
G1 X18.792 Y5.738 F1000
G1 X18.895 Y5.841 F1000
G1 X18.895 Y6.150 F1000
G1 X18.792 Y6.253 F1000
G0 Z3.0 ; Pen up

G0 X18.689 Y6.253 F3000 ; Travel to line 2
G0 Z0.0 ; Pen down
G1 X18.689 Y6.150 F1000
G1 X18.483 Y5.944 F1000
G1 X18.483 Y5.738 F1000
G1 X18.792 Y5.738 F1000
G1 X18.895 Y5.635 F1000
G1 X18.895 Y5.532 F1000
G1 X18.895 Y6.253 F1000
G0 Z3.0 ; Pen up

G0 X20.028 Y6.356 F3000 ; Travel to line 3
G0 Z0.0 ; Pen down
G1 X20.028 Y5.532 F1000
G1 X20.028 Y5.841 F1000
G1 X20.131 Y5.944 F1000
G1 X20.440 Y5.944 F1000
G1 X20.131 Y5.944 F1000
G1 X20.028 Y6.047 F1000
G1 X20.028 Y6.253 F1000
G1 X20.131 Y6.356 F1000
G1 X20.440 Y6.356 F1000
G0 Z3.0 ; Pen up

G0 X20.749 Y6.150 F3000 ; Travel to line 4
G0 Z0.0 ; Pen down
G1 X20.749 Y5.738 F1000
G1 X20.955 Y5.532 F1000
G1 X21.161 Y5.532 F1000
G1 X21.367 Y5.738 F1000
G1 X21.367 Y6.150 F1000
G1 X21.161 Y6.356 F1000
G1 X20.955 Y6.356 F1000
G1 X20.955 Y6.356 F1000
G1 X20.749 Y6.150 F1000
G1 X20.749 Y5.738 F1000
G1 X20.955 Y5.532 F1000
G1 X21.264 Y5.532 F1000
G1 X21.367 Y5.635 F1000
G1 X21.367 Y6.253 F1000
G1 X21.264 Y6.356 F1000
G0 Z3.0 ; Pen up

G0 X21.779 Y6.356 F3000 ; Travel to line 5
G0 Z0.0 ; Pen down
G1 X21.779 Y5.738 F1000
G1 X21.882 Y5.635 F1000
G1 X21.882 Y5.532 F1000
G1 X22.191 Y5.532 F1000
G1 X22.397 Y5.738 F1000
G1 X22.397 Y6.356 F1000
G1 X22.397 Y5.841 F1000
G1 X22.294 Y5.738 F1000
G1 X22.294 Y5.635 F1000
G1 X22.191 Y5.532 F1000
G1 X21.985 Y5.532 F1000
G1 X21.779 Y5.738 F1000
G0 Z3.0 ; Pen up

G0 X23.221 Y5.635 F3000 ; Travel to line 6
G0 Z0.0 ; Pen down
G1 X23.015 Y5.635 F1000
G1 X23.015 Y5.738 F1000
G1 X22.912 Y5.841 F1000
G1 X22.912 Y5.944 F1000
G1 X22.809 Y6.047 F1000
G1 X22.809 Y6.150 F1000
G1 X22.706 Y6.253 F1000
G1 X22.603 Y6.150 F1000
G1 X22.603 Y5.532 F1000
G1 X22.603 Y6.253 F1000
G1 X22.809 Y6.253 F1000
G1 X22.809 Y6.150 F1000
G1 X22.912 Y6.047 F1000
G1 X22.912 Y5.944 F1000
G1 X23.015 Y5.841 F1000
G1 X23.015 Y5.738 F1000
G1 X23.118 Y5.635 F1000
G1 X23.221 Y5.738 F1000
G1 X23.221 Y6.356 F1000
G0 Z3.0 ; Pen up

G0 X23.530 Y6.356 F3000 ; Travel to line 7
G0 Z0.0 ; Pen down
G1 X23.530 Y5.532 F1000
G1 X23.942 Y5.532 F1000
G1 X24.045 Y5.635 F1000
G1 X24.148 Y5.635 F1000
G1 X24.148 Y6.253 F1000
G1 X24.045 Y6.253 F1000
G1 X23.942 Y6.356 F1000
G0 Z3.0 ; Pen up

G0 X23.530 Y6.253 F3000 ; Travel to line 8
G0 Z0.0 ; Pen down
G1 X23.633 Y6.356 F1000
G1 X23.942 Y6.356 F1000
G1 X24.148 Y6.150 F1000
G1 X24.148 Y5.738 F1000
G1 X23.942 Y5.532 F1000
G1 X23.633 Y5.532 F1000
G1 X23.530 Y5.635 F1000
G0 Z3.0 ; Pen up

G0 X24.560 Y6.047 F3000 ; Travel to line 9
G0 Z0.0 ; Pen down
G1 X24.560 Y5.841 F1000
G1 X24.663 Y5.738 F1000
G1 X24.869 Y5.738 F1000
G1 X24.972 Y5.841 F1000
G1 X24.869 Y5.944 F1000
G1 X24.869 Y6.150 F1000
G1 X24.766 Y6.253 F1000
G1 X24.766 Y6.253 F1000
G1 X24.869 Y6.150 F1000
G1 X24.869 Y5.944 F1000
G1 X24.972 Y5.841 F1000
G1 X24.972 Y5.738 F1000
G1 X24.560 Y5.738 F1000
G1 X24.457 Y5.635 F1000
G1 X24.457 Y5.532 F1000
G1 X24.457 Y5.738 F1000
G1 X24.560 Y5.841 F1000
G1 X24.560 Y6.047 F1000
G1 X24.663 Y6.150 F1000
G1 X24.663 Y6.253 F1000
G0 Z3.0 ; Pen up

G0 X25.178 Y6.356 F3000 ; Travel to line 10
G0 Z0.0 ; Pen down
G1 X25.384 Y6.356 F1000
G1 X25.487 Y6.253 F1000
G1 X25.487 Y5.532 F1000
G1 X25.487 Y6.253 F1000
G1 X25.590 Y6.356 F1000
G1 X25.796 Y6.356 F1000
G0 Z3.0 ; Pen up

G0 X26.002 Y6.356 F3000 ; Travel to line 11
G0 Z0.0 ; Pen down
G1 X26.002 Y5.532 F1000
G0 Z3.0 ; Pen up

G0 X26.414 Y6.150 F3000 ; Travel to line 12
G0 Z0.0 ; Pen down
G1 X26.414 Y5.738 F1000
G1 X26.620 Y5.532 F1000
G1 X26.826 Y5.532 F1000
G1 X27.032 Y5.738 F1000
G1 X27.032 Y6.150 F1000
G1 X26.826 Y6.356 F1000
G1 X26.620 Y6.356 F1000
G1 X26.620 Y6.356 F1000
G1 X26.414 Y6.150 F1000
G1 X26.414 Y5.738 F1000
G1 X26.620 Y5.532 F1000
G1 X26.929 Y5.532 F1000
G1 X27.032 Y5.635 F1000
G1 X27.032 Y6.253 F1000
G1 X26.929 Y6.356 F1000
G0 Z3.0 ; Pen up

G0 X27.959 Y6.356 F3000 ; Travel to line 13
G0 Z0.0 ; Pen down
G1 X27.959 Y5.738 F1000
G1 X27.856 Y5.635 F1000
G1 X27.753 Y5.738 F1000
G1 X27.753 Y5.841 F1000
G1 X27.650 Y5.944 F1000
G1 X27.650 Y6.047 F1000
G1 X27.547 Y6.150 F1000
G1 X27.547 Y6.253 F1000
G1 X27.341 Y6.253 F1000
G1 X27.341 Y5.532 F1000
G1 X27.341 Y6.150 F1000
G1 X27.444 Y6.253 F1000
G1 X27.547 Y6.150 F1000
G1 X27.547 Y6.047 F1000
G1 X27.650 Y5.944 F1000
G1 X27.650 Y5.841 F1000
G1 X27.753 Y5.738 F1000
G1 X27.753 Y5.635 F1000
G1 X27.959 Y5.635 F1000
G0 Z3.0 ; Pen up

G0 X29.298 Y6.356 F3000 ; Travel to line 14
G0 Z0.0 ; Pen down
G1 X29.092 Y6.150 F1000
G1 X29.092 Y5.738 F1000
G1 X29.298 Y5.532 F1000
G1 X29.607 Y5.532 F1000
G1 X29.710 Y5.635 F1000
G1 X29.607 Y5.532 F1000
G1 X29.298 Y5.532 F1000
G1 X29.092 Y5.738 F1000
G1 X29.092 Y6.150 F1000
G1 X29.298 Y6.356 F1000
G1 X29.607 Y6.356 F1000
G1 X29.710 Y6.253 F1000
G1 X29.607 Y6.356 F1000
G0 Z3.0 ; Pen up

G0 X29.916 Y6.150 F3000 ; Travel to line 15
G0 Z0.0 ; Pen down
G1 X29.916 Y5.738 F1000
G1 X30.122 Y5.532 F1000
G1 X30.328 Y5.532 F1000
G1 X30.534 Y5.738 F1000
G1 X30.534 Y6.150 F1000
G1 X30.328 Y6.356 F1000
G1 X30.122 Y6.356 F1000
G1 X30.122 Y6.356 F1000
G1 X29.916 Y6.150 F1000
G1 X29.916 Y5.738 F1000
G1 X30.122 Y5.532 F1000
G1 X30.431 Y5.532 F1000
G1 X30.534 Y5.635 F1000
G1 X30.534 Y6.253 F1000
G1 X30.431 Y6.356 F1000
G0 Z3.0 ; Pen up

G0 X31.564 Y6.356 F3000 ; Travel to line 16
G0 Z0.0 ; Pen down
G1 X31.564 Y5.738 F1000
G1 X31.461 Y5.635 F1000
G1 X31.358 Y5.738 F1000
G1 X31.358 Y5.841 F1000
G1 X31.255 Y5.944 F1000
G1 X31.255 Y6.047 F1000
G1 X31.152 Y6.150 F1000
G1 X31.152 Y6.253 F1000
G1 X30.946 Y6.253 F1000
G1 X30.946 Y5.532 F1000
G1 X30.946 Y6.150 F1000
G1 X31.049 Y6.253 F1000
G1 X31.152 Y6.150 F1000
G1 X31.152 Y6.047 F1000
G1 X31.255 Y5.944 F1000
G1 X31.255 Y5.841 F1000
G1 X31.358 Y5.738 F1000
G1 X31.358 Y5.635 F1000
G1 X31.564 Y5.635 F1000
G0 Z3.0 ; Pen up

G0 X32.079 Y6.356 F3000 ; Travel to line 17
G0 Z0.0 ; Pen down
G1 X31.873 Y6.150 F1000
G1 X31.873 Y5.738 F1000
G1 X32.079 Y5.532 F1000
G1 X32.388 Y5.532 F1000
G1 X32.491 Y5.635 F1000
G1 X32.388 Y5.532 F1000
G1 X32.079 Y5.532 F1000
G1 X31.873 Y5.738 F1000
G1 X31.873 Y6.150 F1000
G1 X32.079 Y6.356 F1000
G1 X32.388 Y6.356 F1000
G1 X32.491 Y6.253 F1000
G1 X32.388 Y6.356 F1000
G0 Z3.0 ; Pen up

G0 X32.697 Y6.356 F3000 ; Travel to line 18
G0 Z0.0 ; Pen down
G1 X32.697 Y5.532 F1000
G1 X32.697 Y5.841 F1000
G1 X32.800 Y5.944 F1000
G1 X33.006 Y5.944 F1000
G1 X33.212 Y5.738 F1000
G1 X33.212 Y5.532 F1000
G1 X33.212 Y5.738 F1000
G1 X33.109 Y5.841 F1000
G1 X33.109 Y5.944 F1000
G1 X33.212 Y6.047 F1000
G1 X33.212 Y6.253 F1000
G1 X33.109 Y6.356 F1000
G0 Z3.0 ; Pen up

G0 X33.521 Y6.356 F3000 ; Travel to line 19
G0 Z0.0 ; Pen down
G1 X33.521 Y5.532 F1000
G1 X34.036 Y5.532 F1000
G1 X33.624 Y5.532 F1000
G1 X33.521 Y5.635 F1000
G1 X33.521 Y5.841 F1000
G1 X33.624 Y5.944 F1000
G1 X34.036 Y5.944 F1000
G1 X33.624 Y5.944 F1000
G1 X33.521 Y6.047 F1000
G1 X33.521 Y6.253 F1000
G1 X33.624 Y6.356 F1000
G1 X34.036 Y6.356 F1000
G0 Z3.0 ; Pen up

G0 X34.242 Y6.356 F3000 ; Travel to line 20
G0 Z0.0 ; Pen down
G1 X34.448 Y6.356 F1000
G1 X34.551 Y6.253 F1000
G1 X34.551 Y5.532 F1000
G1 X34.551 Y6.253 F1000
G1 X34.654 Y6.356 F1000
G1 X34.860 Y6.356 F1000
G0 Z3.0 ; Pen up

G0 X35.066 Y6.356 F3000 ; Travel to line 21
G0 Z0.0 ; Pen down
G1 X35.066 Y5.532 F1000
G1 X35.581 Y5.532 F1000
G1 X35.169 Y5.532 F1000
G1 X35.066 Y5.635 F1000
G1 X35.066 Y5.841 F1000
G1 X35.169 Y5.944 F1000
G1 X35.581 Y5.944 F1000
G1 X35.169 Y5.944 F1000
G1 X35.066 Y6.047 F1000
G1 X35.066 Y6.253 F1000
G1 X35.169 Y6.356 F1000
G1 X35.581 Y6.356 F1000
G0 Z3.0 ; Pen up

G0 X36.302 Y6.356 F3000 ; Travel to line 22
G0 Z0.0 ; Pen down
G1 X36.302 Y5.532 F1000
G1 X36.302 Y5.841 F1000
G1 X36.405 Y5.944 F1000
G1 X36.714 Y5.944 F1000
G1 X36.817 Y6.047 F1000
G1 X36.817 Y6.253 F1000
G1 X36.714 Y6.356 F1000
G0 Z3.0 ; Pen up

G0 X37.023 Y6.356 F3000 ; Travel to line 23
G0 Z0.0 ; Pen down
G1 X37.023 Y5.532 F1000
G0 Z3.0 ; Pen up

G0 X37.332 Y6.356 F3000 ; Travel to line 24
G0 Z0.0 ; Pen down
G1 X37.332 Y5.532 F1000
G1 X37.847 Y5.532 F1000
G1 X37.435 Y5.532 F1000
G1 X37.332 Y5.635 F1000
G1 X37.332 Y5.841 F1000
G1 X37.435 Y5.944 F1000
G1 X37.847 Y5.944 F1000
G1 X37.435 Y5.944 F1000
G1 X37.332 Y6.047 F1000
G1 X37.332 Y6.253 F1000
G1 X37.435 Y6.356 F1000
G1 X37.847 Y6.356 F1000
G0 Z3.0 ; Pen up

G0 X38.156 Y6.356 F3000 ; Travel to line 25
G0 Z0.0 ; Pen down
G1 X38.156 Y5.532 F1000
G1 X38.156 Y5.841 F1000
G1 X38.259 Y5.944 F1000
G1 X38.465 Y5.944 F1000
G1 X38.671 Y5.738 F1000
G1 X38.671 Y5.532 F1000
G1 X38.671 Y5.738 F1000
G1 X38.568 Y5.841 F1000
G1 X38.568 Y5.944 F1000
G1 X38.671 Y6.047 F1000
G1 X38.671 Y6.253 F1000
G1 X38.568 Y6.356 F1000
G0 Z3.0 ; Pen up

G0 X38.156 Y6.253 F3000 ; Travel to line 26
G0 Z0.0 ; Pen down
G1 X38.259 Y6.356 F1000
G1 X38.465 Y6.356 F1000
G1 X38.671 Y6.150 F1000
G1 X38.465 Y5.944 F1000
G1 X38.259 Y5.944 F1000
G1 X38.156 Y6.047 F1000
G0 Z3.0 ; Pen up

G0 X39.083 Y6.356 F3000 ; Travel to line 27
G0 Z0.0 ; Pen down
G1 X38.980 Y6.253 F1000
G1 X38.980 Y6.047 F1000
G1 X39.083 Y5.944 F1000
G1 X39.289 Y5.944 F1000
G1 X39.495 Y5.738 F1000
G1 X39.289 Y5.532 F1000
G1 X39.083 Y5.532 F1000
G1 X38.980 Y5.635 F1000
G1 X39.083 Y5.532 F1000
G1 X39.392 Y5.532 F1000
G1 X39.495 Y5.635 F1000
G1 X39.495 Y5.841 F1000
G1 X39.392 Y5.944 F1000
G1 X39.186 Y5.944 F1000
G1 X38.980 Y6.150 F1000
G1 X38.980 Y6.253 F1000
G1 X39.083 Y6.356 F1000
G1 X39.392 Y6.356 F1000
G0 Z3.0 ; Pen up

G0 X40.319 Y6.047 F3000 ; Travel to line 28
G0 Z0.0 ; Pen down
G1 X40.319 Y5.841 F1000
G1 X40.422 Y5.738 F1000
G1 X40.628 Y5.738 F1000
G1 X40.731 Y5.841 F1000
G1 X40.628 Y5.944 F1000
G1 X40.628 Y6.150 F1000
G1 X40.525 Y6.253 F1000
G1 X40.525 Y6.253 F1000
G1 X40.628 Y6.150 F1000
G1 X40.628 Y5.944 F1000
G1 X40.731 Y5.841 F1000
G1 X40.731 Y5.738 F1000
G1 X40.319 Y5.738 F1000
G1 X40.216 Y5.635 F1000
G1 X40.216 Y5.532 F1000
G1 X40.216 Y5.738 F1000
G1 X40.319 Y5.841 F1000
G1 X40.319 Y6.047 F1000
G1 X40.422 Y6.150 F1000
G1 X40.422 Y6.253 F1000
G0 Z3.0 ; Pen up

G0 X40.834 Y6.356 F3000 ; Travel to line 29
G0 Z0.0 ; Pen down
G1 X41.040 Y6.356 F1000
G1 X41.143 Y6.253 F1000
G1 X41.143 Y5.532 F1000
G1 X41.143 Y6.253 F1000
G1 X41.246 Y6.356 F1000
G1 X41.452 Y6.356 F1000
G0 Z3.0 ; Pen up

G0 X42.070 Y6.356 F3000 ; Travel to line 30
G0 Z0.0 ; Pen down
G1 X42.070 Y5.532 F1000
G1 X42.482 Y5.532 F1000
G1 X42.585 Y5.635 F1000
G1 X42.585 Y5.841 F1000
G1 X42.482 Y5.944 F1000
G1 X42.585 Y6.047 F1000
G1 X42.585 Y6.253 F1000
G1 X42.482 Y6.356 F1000
G0 Z3.0 ; Pen up

G0 X42.070 Y6.253 F3000 ; Travel to line 31
G0 Z0.0 ; Pen down
G1 X42.173 Y6.356 F1000
G1 X42.379 Y6.356 F1000
G1 X42.585 Y6.150 F1000
G1 X42.379 Y5.944 F1000
G1 X42.173 Y5.944 F1000
G1 X42.070 Y6.047 F1000
G0 Z3.0 ; Pen up

G0 X42.070 Y5.841 F3000 ; Travel to line 32
G0 Z0.0 ; Pen down
G1 X42.173 Y5.944 F1000
G1 X42.482 Y5.944 F1000
G1 X42.585 Y5.841 F1000
G1 X42.585 Y5.635 F1000
G1 X42.482 Y5.532 F1000
G1 X42.173 Y5.532 F1000
G1 X42.070 Y5.635 F1000
G0 Z3.0 ; Pen up

G0 X42.997 Y6.047 F3000 ; Travel to line 33
G0 Z0.0 ; Pen down
G1 X42.997 Y5.841 F1000
G1 X43.100 Y5.738 F1000
G1 X43.306 Y5.738 F1000
G1 X43.409 Y5.841 F1000
G1 X43.306 Y5.944 F1000
G1 X43.306 Y6.150 F1000
G1 X43.203 Y6.253 F1000
G1 X43.203 Y6.253 F1000
G1 X43.306 Y6.150 F1000
G1 X43.306 Y5.944 F1000
G1 X43.409 Y5.841 F1000
G1 X43.409 Y5.738 F1000
G1 X42.997 Y5.738 F1000
G1 X42.894 Y5.635 F1000
G1 X42.894 Y5.532 F1000
G1 X42.894 Y5.738 F1000
G1 X42.997 Y5.841 F1000
G1 X42.997 Y6.047 F1000
G1 X43.100 Y6.150 F1000
G1 X43.100 Y6.253 F1000
G0 Z3.0 ; Pen up

G0 X43.924 Y6.356 F3000 ; Travel to line 34
G0 Z0.0 ; Pen down
G1 X43.821 Y6.253 F1000
G1 X43.821 Y6.047 F1000
G1 X43.924 Y5.944 F1000
G1 X44.130 Y5.944 F1000
G1 X44.336 Y5.738 F1000
G1 X44.130 Y5.532 F1000
G1 X43.924 Y5.532 F1000
G1 X43.821 Y5.635 F1000
G1 X43.924 Y5.532 F1000
G1 X44.233 Y5.532 F1000
G1 X44.336 Y5.635 F1000
G1 X44.336 Y5.841 F1000
G1 X44.233 Y5.944 F1000
G1 X44.027 Y5.944 F1000
G1 X43.821 Y6.150 F1000
G1 X43.821 Y6.253 F1000
G1 X43.924 Y6.356 F1000
G1 X44.233 Y6.356 F1000
G0 Z3.0 ; Pen up

G0 X44.542 Y6.356 F3000 ; Travel to line 35
G0 Z0.0 ; Pen down
G1 X44.542 Y5.532 F1000
G1 X45.057 Y5.532 F1000
G1 X44.645 Y5.532 F1000
G1 X44.542 Y5.635 F1000
G1 X44.542 Y5.841 F1000
G1 X44.645 Y5.944 F1000
G1 X45.057 Y5.944 F1000
G1 X44.645 Y5.944 F1000
G1 X44.542 Y6.047 F1000
G1 X44.542 Y6.253 F1000
G1 X44.645 Y6.356 F1000
G1 X45.057 Y6.356 F1000
G0 Z3.0 ; Pen up

G0 X45.778 Y6.356 F3000 ; Travel to line 36
G0 Z0.0 ; Pen down
G1 X45.778 Y6.047 F1000
G1 X45.881 Y5.944 F1000
G1 X45.881 Y5.841 F1000
G1 X45.984 Y5.738 F1000
G1 X46.190 Y5.738 F1000
G1 X46.190 Y5.944 F1000
G1 X46.293 Y6.047 F1000
G1 X46.293 Y6.253 F1000
G1 X46.293 Y6.047 F1000
G1 X46.190 Y5.944 F1000
G1 X46.190 Y5.841 F1000
G1 X46.087 Y5.738 F1000
G1 X45.984 Y5.738 F1000
G1 X45.881 Y5.841 F1000
G1 X45.881 Y6.047 F1000
G1 X45.778 Y6.150 F1000
G0 Z3.0 ; Pen up

G0 X46.602 Y6.356 F3000 ; Travel to line 37
G0 Z0.0 ; Pen down
G1 X46.602 Y5.532 F1000
G1 X47.117 Y5.532 F1000
G1 X46.705 Y5.532 F1000
G1 X46.602 Y5.635 F1000
G1 X46.602 Y5.841 F1000
G1 X46.705 Y5.944 F1000
G1 X47.117 Y5.944 F1000
G1 X46.705 Y5.944 F1000
G1 X46.602 Y6.047 F1000
G1 X46.602 Y6.253 F1000
G1 X46.705 Y6.356 F1000
G1 X47.117 Y6.356 F1000
G0 Z3.0 ; Pen up

G0 X47.323 Y6.356 F3000 ; Travel to line 38
G0 Z0.0 ; Pen down
G1 X47.323 Y5.532 F1000
G1 X47.323 Y5.841 F1000
G1 X47.426 Y5.944 F1000
G1 X47.632 Y5.944 F1000
G1 X47.838 Y5.738 F1000
G1 X47.838 Y5.532 F1000
G1 X47.838 Y5.738 F1000
G1 X47.735 Y5.841 F1000
G1 X47.735 Y5.944 F1000
G1 X47.838 Y6.047 F1000
G1 X47.838 Y6.253 F1000
G1 X47.735 Y6.356 F1000
G0 Z3.0 ; Pen up

G0 X48.044 Y6.356 F3000 ; Travel to line 39
G0 Z0.0 ; Pen down
G1 X48.250 Y6.356 F1000
G1 X48.353 Y6.253 F1000
G1 X48.353 Y5.532 F1000
G1 X48.353 Y6.253 F1000
G1 X48.456 Y6.356 F1000
G1 X48.662 Y6.356 F1000
G0 Z3.0 ; Pen up

G0 X48.868 Y6.356 F3000 ; Travel to line 40
G0 Z0.0 ; Pen down
G1 X48.868 Y5.532 F1000
G0 Z3.0 ; Pen up

G0 X49.486 Y6.356 F3000 ; Travel to line 41
G0 Z0.0 ; Pen down
G1 X49.280 Y6.150 F1000
G1 X49.280 Y5.738 F1000
G1 X49.486 Y5.532 F1000
G1 X49.795 Y5.532 F1000
G1 X49.898 Y5.635 F1000
G1 X49.795 Y5.532 F1000
G1 X49.486 Y5.532 F1000
G1 X49.280 Y5.738 F1000
G1 X49.280 Y6.150 F1000
G1 X49.486 Y6.356 F1000
G1 X49.795 Y6.356 F1000
G1 X49.898 Y6.253 F1000
G1 X49.795 Y6.356 F1000
G0 Z3.0 ; Pen up

G0 X50.104 Y6.356 F3000 ; Travel to line 42
G0 Z0.0 ; Pen down
G1 X50.104 Y5.532 F1000
G1 X50.619 Y5.532 F1000
G1 X50.207 Y5.532 F1000
G1 X50.104 Y5.635 F1000
G1 X50.104 Y5.841 F1000
G1 X50.207 Y5.944 F1000
G1 X50.619 Y5.944 F1000
G1 X50.207 Y5.944 F1000
G1 X50.104 Y6.047 F1000
G1 X50.104 Y6.253 F1000
G1 X50.207 Y6.356 F1000
G1 X50.619 Y6.356 F1000
G0 Z3.0 ; Pen up

G0 X51.031 Y6.356 F3000 ; Travel to line 43
G0 Z0.0 ; Pen down
G1 X50.928 Y6.253 F1000
G1 X50.928 Y6.047 F1000
G1 X51.031 Y5.944 F1000
G1 X51.237 Y5.944 F1000
G1 X51.443 Y5.738 F1000
G1 X51.237 Y5.532 F1000
G1 X51.031 Y5.532 F1000
G1 X50.928 Y5.635 F1000
G1 X51.031 Y5.532 F1000
G1 X51.340 Y5.532 F1000
G1 X51.443 Y5.635 F1000
G1 X51.443 Y5.841 F1000
G1 X51.340 Y5.944 F1000
G1 X51.134 Y5.944 F1000
G1 X50.928 Y6.150 F1000
G1 X50.928 Y6.253 F1000
G1 X51.031 Y6.356 F1000
G1 X51.340 Y6.356 F1000
G0 Z3.0 ; Pen up

G0 X50.825 Y7.695 F3000 ; Travel to line 44
G0 Z0.0 ; Pen down
G1 X50.928 Y7.592 F1000
G1 X51.340 Y7.592 F1000
G1 X51.443 Y7.695 F1000
G1 X51.546 Y7.592 F1000
G1 X51.752 Y7.592 F1000
G1 X51.958 Y7.798 F1000
G1 X51.752 Y8.004 F1000
G1 X51.546 Y8.004 F1000
G1 X51.443 Y8.107 F1000
G1 X51.443 Y8.313 F1000
G1 X51.546 Y8.416 F1000
G1 X51.855 Y8.416 F1000
G1 X51.546 Y8.416 F1000
G1 X51.443 Y8.313 F1000
G1 X51.443 Y8.210 F1000
G1 X51.649 Y8.004 F1000
G1 X51.855 Y8.004 F1000
G1 X51.958 Y7.901 F1000
G1 X51.958 Y7.695 F1000
G1 X51.855 Y7.592 F1000
G1 X51.546 Y7.592 F1000
G1 X51.443 Y7.695 F1000
G1 X51.340 Y7.592 F1000
G1 X50.825 Y7.592 F1000
G1 X50.825 Y8.416 F1000
G0 Z3.0 ; Pen up

G0 X50.516 Y8.416 F3000 ; Travel to line 45
G0 Z0.0 ; Pen down
G1 X50.104 Y8.416 F1000
G1 X50.001 Y8.313 F1000
G1 X50.001 Y8.107 F1000
G1 X50.104 Y8.004 F1000
G1 X50.516 Y8.004 F1000
G1 X50.104 Y8.004 F1000
G1 X50.001 Y7.901 F1000
G1 X50.001 Y7.695 F1000
G1 X50.104 Y7.592 F1000
G1 X50.516 Y7.592 F1000
G1 X50.001 Y7.592 F1000
G1 X50.001 Y8.416 F1000
G0 Z3.0 ; Pen up

G0 X49.692 Y8.416 F3000 ; Travel to line 46
G0 Z0.0 ; Pen down
G1 X49.692 Y7.798 F1000
G1 X49.589 Y7.695 F1000
G1 X49.486 Y7.798 F1000
G1 X49.486 Y7.901 F1000
G1 X49.383 Y8.004 F1000
G1 X49.383 Y8.107 F1000
G1 X49.280 Y8.210 F1000
G1 X49.280 Y8.313 F1000
G1 X49.074 Y8.313 F1000
G1 X49.074 Y7.592 F1000
G1 X49.074 Y8.210 F1000
G1 X49.177 Y8.313 F1000
G1 X49.280 Y8.210 F1000
G1 X49.280 Y8.107 F1000
G1 X49.383 Y8.004 F1000
G1 X49.383 Y7.901 F1000
G1 X49.486 Y7.798 F1000
G1 X49.486 Y7.695 F1000
G1 X49.692 Y7.695 F1000
G0 Z3.0 ; Pen up

G0 X48.456 Y8.313 F3000 ; Travel to line 47
G0 Z0.0 ; Pen down
G1 X48.456 Y8.210 F1000
G1 X48.353 Y8.107 F1000
G1 X48.353 Y7.901 F1000
G1 X48.250 Y7.798 F1000
G1 X48.250 Y7.592 F1000
G1 X48.250 Y7.695 F1000
G1 X48.353 Y7.798 F1000
G1 X48.765 Y7.798 F1000
G1 X48.765 Y7.901 F1000
G1 X48.662 Y8.004 F1000
G1 X48.662 Y8.210 F1000
G1 X48.559 Y8.313 F1000
G1 X48.559 Y8.313 F1000
G1 X48.662 Y8.210 F1000
G1 X48.662 Y8.004 F1000
G1 X48.765 Y7.901 F1000
G1 X48.662 Y7.798 F1000
G1 X48.456 Y7.798 F1000
G1 X48.353 Y7.901 F1000
G1 X48.353 Y8.107 F1000
G0 Z3.0 ; Pen up

G0 X48.044 Y8.416 F3000 ; Travel to line 48
G0 Z0.0 ; Pen down
G1 X48.147 Y8.313 F1000
G1 X48.147 Y8.107 F1000
G1 X48.044 Y8.004 F1000
G1 X47.735 Y8.004 F1000
G1 X47.632 Y7.901 F1000
G1 X47.632 Y7.592 F1000
G1 X47.632 Y8.416 F1000
G0 Z3.0 ; Pen up

G0 X47.632 Y8.313 F3000 ; Travel to line 49
G0 Z0.0 ; Pen down
G1 X47.735 Y8.416 F1000
G1 X47.941 Y8.416 F1000
G1 X48.147 Y8.210 F1000
G1 X47.941 Y8.004 F1000
G1 X47.735 Y8.004 F1000
G1 X47.632 Y8.107 F1000
G0 Z3.0 ; Pen up

G0 X46.911 Y8.416 F3000 ; Travel to line 50
G0 Z0.0 ; Pen down
G1 X46.499 Y8.416 F1000
G1 X46.396 Y8.313 F1000
G1 X46.396 Y8.107 F1000
G1 X46.499 Y8.004 F1000
G1 X46.911 Y8.004 F1000
G1 X46.499 Y8.004 F1000
G1 X46.396 Y7.901 F1000
G1 X46.396 Y7.695 F1000
G1 X46.499 Y7.592 F1000
G1 X46.911 Y7.592 F1000
G1 X46.396 Y7.592 F1000
G1 X46.396 Y8.416 F1000
G0 Z3.0 ; Pen up

G0 X46.190 Y8.416 F3000 ; Travel to line 51
G0 Z0.0 ; Pen down
G1 X45.984 Y8.416 F1000
G1 X45.881 Y8.313 F1000
G1 X45.881 Y7.592 F1000
G1 X45.881 Y8.313 F1000
G1 X45.778 Y8.416 F1000
G1 X45.572 Y8.416 F1000
G0 Z3.0 ; Pen up

G0 X45.160 Y8.313 F3000 ; Travel to line 52
G0 Z0.0 ; Pen down
G1 X45.160 Y8.210 F1000
G1 X45.057 Y8.107 F1000
G1 X45.057 Y7.901 F1000
G1 X44.954 Y7.798 F1000
G1 X44.954 Y7.592 F1000
G1 X44.954 Y7.695 F1000
G1 X45.057 Y7.798 F1000
G1 X45.469 Y7.798 F1000
G1 X45.469 Y7.901 F1000
G1 X45.366 Y8.004 F1000
G1 X45.366 Y8.210 F1000
G1 X45.263 Y8.313 F1000
G1 X45.263 Y8.313 F1000
G1 X45.366 Y8.210 F1000
G1 X45.366 Y8.004 F1000
G1 X45.469 Y7.901 F1000
G1 X45.366 Y7.798 F1000
G1 X45.160 Y7.798 F1000
G1 X45.057 Y7.901 F1000
G1 X45.057 Y8.107 F1000
G0 Z3.0 ; Pen up

G0 X44.645 Y8.416 F3000 ; Travel to line 53
G0 Z0.0 ; Pen down
G1 X44.645 Y7.798 F1000
G1 X44.542 Y7.695 F1000
G1 X44.439 Y7.798 F1000
G1 X44.439 Y7.901 F1000
G1 X44.336 Y8.004 F1000
G1 X44.336 Y8.107 F1000
G1 X44.233 Y8.210 F1000
G1 X44.233 Y8.313 F1000
G1 X44.027 Y8.313 F1000
G1 X44.027 Y7.592 F1000
G1 X44.027 Y8.210 F1000
G1 X44.130 Y8.313 F1000
G1 X44.233 Y8.210 F1000
G1 X44.233 Y8.107 F1000
G1 X44.336 Y8.004 F1000
G1 X44.336 Y7.901 F1000
G1 X44.439 Y7.798 F1000
G1 X44.439 Y7.695 F1000
G1 X44.645 Y7.695 F1000
G0 Z3.0 ; Pen up

G0 X43.512 Y8.416 F3000 ; Travel to line 54
G0 Z0.0 ; Pen down
G1 X43.615 Y8.313 F1000
G1 X43.615 Y7.695 F1000
G1 X43.512 Y7.592 F1000
G1 X43.203 Y7.592 F1000
G1 X42.997 Y7.798 F1000
G1 X42.997 Y8.210 F1000
G1 X43.203 Y8.416 F1000
G1 X43.203 Y8.416 F1000
G1 X43.409 Y8.416 F1000
G1 X43.615 Y8.210 F1000
G1 X43.615 Y7.798 F1000
G1 X43.409 Y7.592 F1000
G1 X43.203 Y7.592 F1000
G1 X42.997 Y7.798 F1000
G1 X42.997 Y8.210 F1000
G0 Z3.0 ; Pen up

G0 X42.585 Y8.416 F3000 ; Travel to line 55
G0 Z0.0 ; Pen down
G1 X42.688 Y8.313 F1000
G1 X42.688 Y8.107 F1000
G1 X42.585 Y8.004 F1000
G1 X42.688 Y7.901 F1000
G1 X42.688 Y7.695 F1000
G1 X42.585 Y7.592 F1000
G1 X42.173 Y7.592 F1000
G1 X42.173 Y8.416 F1000
G0 Z3.0 ; Pen up

G0 X42.173 Y8.313 F3000 ; Travel to line 56
G0 Z0.0 ; Pen down
G1 X42.276 Y8.416 F1000
G1 X42.482 Y8.416 F1000
G1 X42.688 Y8.210 F1000
G1 X42.482 Y8.004 F1000
G1 X42.276 Y8.004 F1000
G1 X42.173 Y8.107 F1000
G0 Z3.0 ; Pen up

G0 X42.173 Y7.901 F3000 ; Travel to line 57
G0 Z0.0 ; Pen down
G1 X42.276 Y8.004 F1000
G1 X42.585 Y8.004 F1000
G1 X42.688 Y7.901 F1000
G1 X42.688 Y7.695 F1000
G1 X42.585 Y7.592 F1000
G1 X42.276 Y7.592 F1000
G1 X42.173 Y7.695 F1000
G0 Z3.0 ; Pen up

G0 X41.761 Y8.416 F3000 ; Travel to line 58
G0 Z0.0 ; Pen down
G1 X41.864 Y8.313 F1000
G1 X41.864 Y8.107 F1000
G1 X41.761 Y8.004 F1000
G1 X41.761 Y7.901 F1000
G1 X41.864 Y7.798 F1000
G1 X41.864 Y7.592 F1000
G1 X41.864 Y7.798 F1000
G1 X41.658 Y8.004 F1000
G1 X41.452 Y8.004 F1000
G1 X41.349 Y7.901 F1000
G1 X41.349 Y7.592 F1000
G1 X41.349 Y8.416 F1000
G0 Z3.0 ; Pen up

G0 X41.349 Y8.313 F3000 ; Travel to line 59
G0 Z0.0 ; Pen down
G1 X41.452 Y8.416 F1000
G1 X41.658 Y8.416 F1000
G1 X41.864 Y8.210 F1000
G1 X41.658 Y8.004 F1000
G1 X41.452 Y8.004 F1000
G1 X41.349 Y8.107 F1000
G0 Z3.0 ; Pen up

G0 X40.731 Y8.313 F3000 ; Travel to line 60
G0 Z0.0 ; Pen down
G1 X40.731 Y8.210 F1000
G1 X40.628 Y8.107 F1000
G1 X40.628 Y7.901 F1000
G1 X40.525 Y7.798 F1000
G1 X40.525 Y7.592 F1000
G1 X40.525 Y7.695 F1000
G1 X40.628 Y7.798 F1000
G1 X41.040 Y7.798 F1000
G1 X41.040 Y7.901 F1000
G1 X40.937 Y8.004 F1000
G1 X40.937 Y8.210 F1000
G1 X40.834 Y8.313 F1000
G1 X40.834 Y8.313 F1000
G1 X40.937 Y8.210 F1000
G1 X40.937 Y8.004 F1000
G1 X41.040 Y7.901 F1000
G1 X40.937 Y7.798 F1000
G1 X40.731 Y7.798 F1000
G1 X40.628 Y7.901 F1000
G1 X40.628 Y8.107 F1000
G0 Z3.0 ; Pen up

G0 X40.113 Y8.416 F3000 ; Travel to line 61
G0 Z0.0 ; Pen down
G1 X40.216 Y8.313 F1000
G1 X40.113 Y8.416 F1000
G1 X39.804 Y8.416 F1000
G1 X39.598 Y8.210 F1000
G1 X39.598 Y7.798 F1000
G1 X39.804 Y7.592 F1000
G1 X40.113 Y7.592 F1000
G1 X40.216 Y7.695 F1000
G1 X40.113 Y7.592 F1000
G1 X39.804 Y7.592 F1000
G1 X39.598 Y7.798 F1000
G1 X39.598 Y8.210 F1000
G1 X39.804 Y8.416 F1000
G0 Z3.0 ; Pen up

G0 X38.980 Y8.416 F3000 ; Travel to line 62
G0 Z0.0 ; Pen down
G1 X38.980 Y8.313 F1000
G1 X39.083 Y8.210 F1000
G1 X39.083 Y8.107 F1000
G1 X39.186 Y8.004 F1000
G1 X39.186 Y7.592 F1000
G1 X39.186 Y8.004 F1000
G1 X39.392 Y8.210 F1000
G1 X39.392 Y8.313 F1000
G1 X39.495 Y8.416 F1000
G1 X39.186 Y8.107 F1000
G1 X38.980 Y8.313 F1000
G0 Z3.0 ; Pen up

G0 X38.362 Y8.416 F3000 ; Travel to line 63
G0 Z0.0 ; Pen down
G1 X38.362 Y7.592 F1000
G1 X38.877 Y7.592 F1000
G1 X38.465 Y7.592 F1000
G1 X38.362 Y7.695 F1000
G0 Z3.0 ; Pen up

G0 X37.950 Y8.416 F3000 ; Travel to line 64
G0 Z0.0 ; Pen down
G1 X38.053 Y8.313 F1000
G1 X38.053 Y7.695 F1000
G1 X37.950 Y7.592 F1000
G1 X37.641 Y7.592 F1000
G1 X37.435 Y7.798 F1000
G1 X37.435 Y8.210 F1000
G1 X37.641 Y8.416 F1000
G1 X37.641 Y8.416 F1000
G1 X37.847 Y8.416 F1000
G1 X38.053 Y8.210 F1000
G1 X38.053 Y7.798 F1000
G1 X37.847 Y7.592 F1000
G1 X37.641 Y7.592 F1000
G1 X37.435 Y7.798 F1000
G1 X37.435 Y8.210 F1000
G0 Z3.0 ; Pen up

G0 X37.126 Y8.416 F3000 ; Travel to line 65
G0 Z0.0 ; Pen down
G1 X37.229 Y8.313 F1000
G1 X37.229 Y8.107 F1000
G1 X37.126 Y8.004 F1000
G1 X36.817 Y8.004 F1000
G1 X36.714 Y7.901 F1000
G1 X36.714 Y7.592 F1000
G1 X36.714 Y8.416 F1000
G0 Z3.0 ; Pen up

G0 X36.714 Y8.313 F3000 ; Travel to line 66
G0 Z0.0 ; Pen down
G1 X36.817 Y8.416 F1000
G1 X37.023 Y8.416 F1000
G1 X37.229 Y8.210 F1000
G1 X37.023 Y8.004 F1000
G1 X36.817 Y8.004 F1000
G1 X36.714 Y8.107 F1000
G0 Z3.0 ; Pen up

G0 X36.096 Y8.416 F3000 ; Travel to line 67
G0 Z0.0 ; Pen down
G1 X35.890 Y8.416 F1000
G1 X35.787 Y8.313 F1000
G1 X35.787 Y7.592 F1000
G1 X35.787 Y8.313 F1000
G1 X35.684 Y8.416 F1000
G1 X35.478 Y8.416 F1000
G0 Z3.0 ; Pen up

G0 X35.272 Y8.416 F3000 ; Travel to line 68
G0 Z0.0 ; Pen down
G1 X35.272 Y7.798 F1000
G1 X35.169 Y7.695 F1000
G1 X35.066 Y7.798 F1000
G1 X35.066 Y7.901 F1000
G1 X34.963 Y8.004 F1000
G1 X34.963 Y8.107 F1000
G1 X34.860 Y8.210 F1000
G1 X34.860 Y8.313 F1000
G1 X34.654 Y8.313 F1000
G1 X34.654 Y7.592 F1000
G1 X34.654 Y8.210 F1000
G1 X34.757 Y8.313 F1000
G1 X34.860 Y8.210 F1000
G1 X34.860 Y8.107 F1000
G1 X34.963 Y8.004 F1000
G1 X34.963 Y7.901 F1000
G1 X35.066 Y7.798 F1000
G1 X35.066 Y7.695 F1000
G1 X35.272 Y7.695 F1000
G0 Z3.0 ; Pen up

G0 X33.933 Y8.313 F3000 ; Travel to line 69
G0 Z0.0 ; Pen down
G1 X33.933 Y8.210 F1000
G1 X33.830 Y8.107 F1000
G1 X33.830 Y7.901 F1000
G1 X33.727 Y7.798 F1000
G1 X33.727 Y7.592 F1000
G1 X33.727 Y7.695 F1000
G1 X33.830 Y7.798 F1000
G1 X34.242 Y7.798 F1000
G1 X34.242 Y7.901 F1000
G1 X34.139 Y8.004 F1000
G1 X34.139 Y8.210 F1000
G1 X34.036 Y8.313 F1000
G1 X34.036 Y8.313 F1000
G1 X34.139 Y8.210 F1000
G1 X34.139 Y8.004 F1000
G1 X34.242 Y7.901 F1000
G1 X34.139 Y7.798 F1000
G1 X33.933 Y7.798 F1000
G1 X33.830 Y7.901 F1000
G1 X33.830 Y8.107 F1000
G0 Z3.0 ; Pen up

G0 X33.624 Y8.416 F3000 ; Travel to line 70
G0 Z0.0 ; Pen down
G1 X33.418 Y8.416 F1000
G1 X33.315 Y8.313 F1000
G1 X33.315 Y7.592 F1000
G1 X33.315 Y8.313 F1000
G1 X33.212 Y8.416 F1000
G1 X33.006 Y8.416 F1000
G0 Z3.0 ; Pen up

G0 X32.697 Y8.416 F3000 ; Travel to line 71
G0 Z0.0 ; Pen down
G1 X32.388 Y8.416 F1000
G1 X32.285 Y8.313 F1000
G1 X32.285 Y8.210 F1000
G1 X32.491 Y8.004 F1000
G1 X32.697 Y8.004 F1000
G1 X32.800 Y7.901 F1000
G1 X32.800 Y7.695 F1000
G1 X32.697 Y7.592 F1000
G1 X32.388 Y7.592 F1000
G1 X32.285 Y7.695 F1000
G1 X32.388 Y7.592 F1000
G1 X32.594 Y7.592 F1000
G1 X32.800 Y7.798 F1000
G1 X32.594 Y8.004 F1000
G1 X32.388 Y8.004 F1000
G1 X32.285 Y8.107 F1000
G1 X32.285 Y8.313 F1000
G1 X32.388 Y8.416 F1000
G0 Z3.0 ; Pen up

G0 X31.976 Y8.416 F3000 ; Travel to line 72
G0 Z0.0 ; Pen down
G1 X31.976 Y7.592 F1000
G0 Z3.0 ; Pen up

G0 X31.564 Y8.416 F3000 ; Travel to line 73
G0 Z0.0 ; Pen down
G1 X31.255 Y8.416 F1000
G1 X31.152 Y8.313 F1000
G1 X31.152 Y8.210 F1000
G1 X31.358 Y8.004 F1000
G1 X31.564 Y8.004 F1000
G1 X31.667 Y7.901 F1000
G1 X31.667 Y7.695 F1000
G1 X31.564 Y7.592 F1000
G1 X31.255 Y7.592 F1000
G1 X31.152 Y7.695 F1000
G1 X31.255 Y7.592 F1000
G1 X31.461 Y7.592 F1000
G1 X31.667 Y7.798 F1000
G1 X31.461 Y8.004 F1000
G1 X31.255 Y8.004 F1000
G1 X31.152 Y8.107 F1000
G1 X31.152 Y8.313 F1000
G1 X31.255 Y8.416 F1000
G0 Z3.0 ; Pen up

G0 X30.946 Y8.416 F3000 ; Travel to line 74
G0 Z0.0 ; Pen down
G1 X30.534 Y8.416 F1000
G1 X30.431 Y8.313 F1000
G1 X30.431 Y8.107 F1000
G1 X30.534 Y8.004 F1000
G1 X30.946 Y8.004 F1000
G1 X30.534 Y8.004 F1000
G1 X30.431 Y7.901 F1000
G1 X30.431 Y7.695 F1000
G1 X30.534 Y7.592 F1000
G1 X30.946 Y7.592 F1000
G1 X30.431 Y7.592 F1000
G1 X30.431 Y8.416 F1000
G0 Z3.0 ; Pen up

G0 X29.916 Y8.416 F3000 ; Travel to line 75
G0 Z0.0 ; Pen down
G1 X30.019 Y8.313 F1000
G1 X30.019 Y8.107 F1000
G1 X29.916 Y8.004 F1000
G1 X29.916 Y7.901 F1000
G1 X30.019 Y7.798 F1000
G1 X30.019 Y7.592 F1000
G1 X30.019 Y7.798 F1000
G1 X29.813 Y8.004 F1000
G1 X29.607 Y8.004 F1000
G1 X29.504 Y7.901 F1000
G1 X29.504 Y7.592 F1000
G1 X29.504 Y8.416 F1000
G0 Z3.0 ; Pen up

G0 X29.504 Y8.313 F3000 ; Travel to line 76
G0 Z0.0 ; Pen down
G1 X29.607 Y8.416 F1000
G1 X29.813 Y8.416 F1000
G1 X30.019 Y8.210 F1000
G1 X29.813 Y8.004 F1000
G1 X29.607 Y8.004 F1000
G1 X29.504 Y8.107 F1000
G0 Z3.0 ; Pen up

G0 X29.298 Y7.901 F3000 ; Travel to line 77
G0 Z0.0 ; Pen down
G1 X29.092 Y7.901 F1000
G0 Z3.0 ; Pen up

G0 X27.444 Y7.798 F3000 ; Travel to line 78
G0 Z0.0 ; Pen down
G1 X27.650 Y7.592 F1000
G1 X27.856 Y7.592 F1000
G1 X27.959 Y7.695 F1000
G1 X27.959 Y7.798 F1000
G1 X28.062 Y7.901 F1000
G1 X28.062 Y8.416 F1000
G1 X28.268 Y8.416 F1000
G1 X28.268 Y8.210 F1000
G1 X28.371 Y8.107 F1000
G1 X28.371 Y7.901 F1000
G1 X28.474 Y7.798 F1000
G1 X28.577 Y7.798 F1000
G1 X28.680 Y7.901 F1000
G1 X28.680 Y8.004 F1000
G1 X28.783 Y8.107 F1000
G1 X28.783 Y8.313 F1000
G1 X28.783 Y8.107 F1000
G1 X28.680 Y8.004 F1000
G1 X28.680 Y7.798 F1000
G1 X28.474 Y7.798 F1000
G1 X28.371 Y7.901 F1000
G1 X28.371 Y8.004 F1000
G1 X28.268 Y8.107 F1000
G1 X28.268 Y8.313 F1000
G1 X28.165 Y8.416 F1000
G1 X28.062 Y8.313 F1000
G1 X28.062 Y7.798 F1000
G1 X27.856 Y7.592 F1000
G1 X27.547 Y7.592 F1000
G1 X27.547 Y7.695 F1000
G1 X27.444 Y7.798 F1000
G1 X27.444 Y8.416 F1000
G0 Z3.0 ; Pen up

G0 X26.208 Y8.416 F3000 ; Travel to line 79
G0 Z0.0 ; Pen down
G1 X26.311 Y8.313 F1000
G1 X26.208 Y8.416 F1000
G1 X25.899 Y8.416 F1000
G1 X25.693 Y8.210 F1000
G1 X25.693 Y7.798 F1000
G1 X25.899 Y7.592 F1000
G1 X26.208 Y7.592 F1000
G1 X26.311 Y7.695 F1000
G1 X26.311 Y7.901 F1000
G1 X26.208 Y8.004 F1000
G1 X26.105 Y8.004 F1000
G1 X26.311 Y8.004 F1000
G1 X26.311 Y7.695 F1000
G1 X26.208 Y7.592 F1000
G1 X25.899 Y7.592 F1000
G1 X25.693 Y7.798 F1000
G1 X25.693 Y8.210 F1000
G1 X25.899 Y8.416 F1000
G0 Z3.0 ; Pen up

G0 X25.384 Y8.416 F3000 ; Travel to line 80
G0 Z0.0 ; Pen down
G1 X25.384 Y7.798 F1000
G1 X25.281 Y7.695 F1000
G1 X25.178 Y7.798 F1000
G1 X25.178 Y7.901 F1000
G1 X25.075 Y8.004 F1000
G1 X25.075 Y8.107 F1000
G1 X24.972 Y8.210 F1000
G1 X24.972 Y8.313 F1000
G1 X24.766 Y8.313 F1000
G1 X24.766 Y7.592 F1000
G1 X24.766 Y8.210 F1000
G1 X24.869 Y8.313 F1000
G1 X24.972 Y8.210 F1000
G1 X24.972 Y8.107 F1000
G1 X25.075 Y8.004 F1000
G1 X25.075 Y7.901 F1000
G1 X25.178 Y7.798 F1000
G1 X25.178 Y7.695 F1000
G1 X25.384 Y7.695 F1000
G0 Z3.0 ; Pen up

G0 X24.354 Y7.592 F3000 ; Travel to line 81
G0 Z0.0 ; Pen down
G1 X24.354 Y8.416 F1000
G0 Z3.0 ; Pen up

G0 X23.942 Y8.416 F3000 ; Travel to line 82
G0 Z0.0 ; Pen down
G1 X24.045 Y8.313 F1000
G1 X24.045 Y8.107 F1000
G1 X23.942 Y8.004 F1000
G1 X23.942 Y7.901 F1000
G1 X24.045 Y7.798 F1000
G1 X24.045 Y7.592 F1000
G1 X24.045 Y7.798 F1000
G1 X23.839 Y8.004 F1000
G1 X23.633 Y8.004 F1000
G1 X23.530 Y7.901 F1000
G1 X23.530 Y7.592 F1000
G1 X23.530 Y8.416 F1000
G0 Z3.0 ; Pen up

G0 X23.530 Y8.313 F3000 ; Travel to line 83
G0 Z0.0 ; Pen down
G1 X23.633 Y8.416 F1000
G1 X23.839 Y8.416 F1000
G1 X24.045 Y8.210 F1000
G1 X23.839 Y8.004 F1000
G1 X23.633 Y8.004 F1000
G1 X23.530 Y8.107 F1000
G0 Z3.0 ; Pen up

G0 X23.221 Y8.416 F3000 ; Travel to line 84
G0 Z0.0 ; Pen down
G1 X22.809 Y8.416 F1000
G1 X22.706 Y8.313 F1000
G1 X22.706 Y8.107 F1000
G1 X22.809 Y8.004 F1000
G1 X23.221 Y8.004 F1000
G1 X22.809 Y8.004 F1000
G1 X22.706 Y7.901 F1000
G1 X22.706 Y7.695 F1000
G1 X22.809 Y7.592 F1000
G1 X23.221 Y7.592 F1000
G1 X22.706 Y7.592 F1000
G1 X22.706 Y8.416 F1000
G0 Z3.0 ; Pen up

G0 X21.882 Y8.416 F3000 ; Travel to line 85
G0 Z0.0 ; Pen down
G1 X21.882 Y8.107 F1000
G1 X21.985 Y8.004 F1000
G1 X21.985 Y7.901 F1000
G1 X22.088 Y7.798 F1000
G1 X22.294 Y7.798 F1000
G1 X22.294 Y8.004 F1000
G1 X22.397 Y8.107 F1000
G1 X22.397 Y8.313 F1000
G1 X22.397 Y8.107 F1000
G1 X22.294 Y8.004 F1000
G1 X22.294 Y7.901 F1000
G1 X22.191 Y7.798 F1000
G1 X22.088 Y7.798 F1000
G1 X21.985 Y7.901 F1000
G1 X21.985 Y8.107 F1000
G1 X21.882 Y8.210 F1000
G0 Z3.0 ; Pen up

G0 X21.470 Y8.416 F3000 ; Travel to line 86
G0 Z0.0 ; Pen down
G1 X21.573 Y8.313 F1000
G1 X21.573 Y7.695 F1000
G1 X21.470 Y7.592 F1000
G1 X21.161 Y7.592 F1000
G1 X20.955 Y7.798 F1000
G1 X20.955 Y8.210 F1000
G1 X21.161 Y8.416 F1000
G1 X21.161 Y8.416 F1000
G1 X21.367 Y8.416 F1000
G1 X21.573 Y8.210 F1000
G1 X21.573 Y7.798 F1000
G1 X21.367 Y7.592 F1000
G1 X21.161 Y7.592 F1000
G1 X20.955 Y7.798 F1000
G1 X20.955 Y8.210 F1000
G0 Z3.0 ; Pen up

G0 X20.543 Y8.416 F3000 ; Travel to line 87
G0 Z0.0 ; Pen down
G1 X20.646 Y8.313 F1000
G1 X20.543 Y8.416 F1000
G1 X20.234 Y8.416 F1000
G1 X20.028 Y8.210 F1000
G1 X20.028 Y7.798 F1000
G1 X20.234 Y7.592 F1000
G1 X20.543 Y7.592 F1000
G1 X20.646 Y7.695 F1000
G1 X20.543 Y7.592 F1000
G1 X20.234 Y7.592 F1000
G1 X20.028 Y7.798 F1000
G1 X20.028 Y8.210 F1000
G1 X20.234 Y8.416 F1000
G0 Z3.0 ; Pen up

G0 X18.792 Y8.416 F3000 ; Travel to line 88
G0 Z0.0 ; Pen down
G1 X18.895 Y8.313 F1000
G1 X18.895 Y8.107 F1000
G1 X18.792 Y8.004 F1000
G1 X18.895 Y7.901 F1000
G1 X18.895 Y7.695 F1000
G1 X18.792 Y7.592 F1000
G1 X18.586 Y7.592 F1000
G1 X18.483 Y7.695 F1000
G1 X18.586 Y7.592 F1000
G1 X18.792 Y7.592 F1000
G1 X18.895 Y7.695 F1000
G1 X18.895 Y7.901 F1000
G1 X18.792 Y8.004 F1000
G1 X18.586 Y8.004 F1000
G1 X18.792 Y8.004 F1000
G1 X18.895 Y8.107 F1000
G1 X18.895 Y8.313 F1000
G1 X18.792 Y8.416 F1000
G1 X18.586 Y8.416 F1000
G1 X18.483 Y8.313 F1000
G1 X18.586 Y8.416 F1000
G0 Z3.0 ; Pen up

G0 X18.586 Y10.476 F3000 ; Travel to line 89
G0 Z0.0 ; Pen down
G1 X18.483 Y10.373 F1000
G1 X18.586 Y10.476 F1000
G1 X18.792 Y10.476 F1000
G1 X18.895 Y10.373 F1000
G1 X18.895 Y10.167 F1000
G1 X18.586 Y9.858 F1000
G1 X18.586 Y9.652 F1000
G1 X18.895 Y9.652 F1000
G1 X18.689 Y9.652 F1000
G1 X18.586 Y9.755 F1000
G1 X18.895 Y10.064 F1000
G1 X18.895 Y10.373 F1000
G1 X18.792 Y10.476 F1000
G0 Z3.0 ; Pen up

G0 X20.028 Y10.476 F3000 ; Travel to line 90
G0 Z0.0 ; Pen down
G1 X20.028 Y9.652 F1000
G1 X20.028 Y9.961 F1000
G1 X20.131 Y10.064 F1000
G1 X20.543 Y10.064 F1000
G1 X20.646 Y9.961 F1000
G1 X20.646 Y10.476 F1000
G1 X20.646 Y10.167 F1000
G1 X20.543 Y10.064 F1000
G1 X20.131 Y10.064 F1000
G1 X20.028 Y10.167 F1000
G0 Z3.0 ; Pen up

G0 X20.955 Y10.476 F3000 ; Travel to line 91
G0 Z0.0 ; Pen down
G1 X20.955 Y9.858 F1000
G1 X21.058 Y9.755 F1000
G1 X21.058 Y9.652 F1000
G1 X21.367 Y9.652 F1000
G1 X21.573 Y9.858 F1000
G1 X21.573 Y10.476 F1000
G1 X21.573 Y9.961 F1000
G1 X21.470 Y9.858 F1000
G1 X21.470 Y9.755 F1000
G1 X21.367 Y9.652 F1000
G1 X21.161 Y9.652 F1000
G1 X20.955 Y9.858 F1000
G0 Z3.0 ; Pen up

G0 X21.882 Y9.755 F3000 ; Travel to line 92
G0 Z0.0 ; Pen down
G1 X21.985 Y9.652 F1000
G1 X22.294 Y9.652 F1000
G1 X22.397 Y9.755 F1000
G1 X22.397 Y9.961 F1000
G1 X22.294 Y10.064 F1000
G1 X21.985 Y10.064 F1000
G1 X21.882 Y9.961 F1000
G0 Z3.0 ; Pen up

G0 X21.882 Y10.167 F3000 ; Travel to line 93
G0 Z0.0 ; Pen down
G1 X21.985 Y10.064 F1000
G1 X22.191 Y10.064 F1000
G1 X22.397 Y10.270 F1000
G1 X22.191 Y10.476 F1000
G1 X21.985 Y10.476 F1000
G1 X21.882 Y10.373 F1000
G0 Z3.0 ; Pen up

G0 X21.882 Y10.476 F3000 ; Travel to line 94
G0 Z0.0 ; Pen down
G1 X21.882 Y9.652 F1000
G1 X22.294 Y9.652 F1000
G1 X22.397 Y9.755 F1000
G1 X22.397 Y9.961 F1000
G1 X22.294 Y10.064 F1000
G1 X22.397 Y10.167 F1000
G1 X22.397 Y10.373 F1000
G1 X22.294 Y10.476 F1000
G0 Z3.0 ; Pen up

G0 X23.324 Y10.476 F3000 ; Travel to line 95
G0 Z0.0 ; Pen down
G1 X23.118 Y10.270 F1000
G1 X23.118 Y9.858 F1000
G1 X23.324 Y9.652 F1000
G1 X23.633 Y9.652 F1000
G1 X23.736 Y9.755 F1000
G1 X23.633 Y9.652 F1000
G1 X23.324 Y9.652 F1000
G1 X23.118 Y9.858 F1000
G1 X23.118 Y10.270 F1000
G1 X23.324 Y10.476 F1000
G1 X23.633 Y10.476 F1000
G1 X23.736 Y10.373 F1000
G1 X23.633 Y10.476 F1000
G0 Z3.0 ; Pen up

G0 X24.045 Y10.270 F3000 ; Travel to line 96
G0 Z0.0 ; Pen down
G1 X24.045 Y9.858 F1000
G1 X24.251 Y9.652 F1000
G1 X24.457 Y9.652 F1000
G1 X24.663 Y9.858 F1000
G1 X24.663 Y10.270 F1000
G1 X24.457 Y10.476 F1000
G1 X24.251 Y10.476 F1000
G1 X24.251 Y10.476 F1000
G1 X24.045 Y10.270 F1000
G1 X24.045 Y9.858 F1000
G1 X24.251 Y9.652 F1000
G1 X24.560 Y9.652 F1000
G1 X24.663 Y9.755 F1000
G1 X24.663 Y10.373 F1000
G1 X24.560 Y10.476 F1000
G0 Z3.0 ; Pen up

G0 X25.590 Y10.476 F3000 ; Travel to line 97
G0 Z0.0 ; Pen down
G1 X25.590 Y9.858 F1000
G1 X25.487 Y9.755 F1000
G1 X25.384 Y9.858 F1000
G1 X25.384 Y9.961 F1000
G1 X25.281 Y10.064 F1000
G1 X25.281 Y10.167 F1000
G1 X25.178 Y10.270 F1000
G1 X25.178 Y10.373 F1000
G1 X24.972 Y10.373 F1000
G1 X24.972 Y9.652 F1000
G1 X24.972 Y10.270 F1000
G1 X25.075 Y10.373 F1000
G1 X25.178 Y10.270 F1000
G1 X25.178 Y10.167 F1000
G1 X25.281 Y10.064 F1000
G1 X25.281 Y9.961 F1000
G1 X25.384 Y9.858 F1000
G1 X25.384 Y9.755 F1000
G1 X25.590 Y9.755 F1000
G0 Z3.0 ; Pen up

G0 X26.517 Y9.755 F3000 ; Travel to line 98
G0 Z0.0 ; Pen down
G1 X26.311 Y9.755 F1000
G1 X26.311 Y9.858 F1000
G1 X26.208 Y9.961 F1000
G1 X26.208 Y10.064 F1000
G1 X26.105 Y10.167 F1000
G1 X26.105 Y10.270 F1000
G1 X26.002 Y10.373 F1000
G1 X25.899 Y10.270 F1000
G1 X25.899 Y9.652 F1000
G1 X25.899 Y10.373 F1000
G1 X26.105 Y10.373 F1000
G1 X26.105 Y10.270 F1000
G1 X26.208 Y10.167 F1000
G1 X26.208 Y10.064 F1000
G1 X26.311 Y9.961 F1000
G1 X26.311 Y9.858 F1000
G1 X26.414 Y9.755 F1000
G1 X26.517 Y9.858 F1000
G1 X26.517 Y10.476 F1000
G0 Z3.0 ; Pen up

G0 X26.826 Y10.476 F3000 ; Travel to line 99
G0 Z0.0 ; Pen down
G1 X26.826 Y9.652 F1000
G1 X27.341 Y9.652 F1000
G1 X26.929 Y9.652 F1000
G1 X26.826 Y9.755 F1000
G1 X26.826 Y9.961 F1000
G1 X26.929 Y10.064 F1000
G1 X27.341 Y10.064 F1000
G1 X26.929 Y10.064 F1000
G1 X26.826 Y10.167 F1000
G1 X26.826 Y10.373 F1000
G1 X26.929 Y10.476 F1000
G1 X27.341 Y10.476 F1000
G0 Z3.0 ; Pen up

G0 X27.856 Y10.476 F3000 ; Travel to line 100
G0 Z0.0 ; Pen down
G1 X27.650 Y10.270 F1000
G1 X27.650 Y9.858 F1000
G1 X27.856 Y9.652 F1000
G1 X28.165 Y9.652 F1000
G1 X28.268 Y9.755 F1000
G1 X28.165 Y9.652 F1000
G1 X27.856 Y9.652 F1000
G1 X27.650 Y9.858 F1000
G1 X27.650 Y10.270 F1000
G1 X27.856 Y10.476 F1000
G1 X28.165 Y10.476 F1000
G1 X28.268 Y10.373 F1000
G1 X28.371 Y10.476 F1000
G1 X28.577 Y10.476 F1000
G1 X28.680 Y10.373 F1000
G1 X28.680 Y9.652 F1000
G1 X28.680 Y10.373 F1000
G1 X28.783 Y10.476 F1000
G1 X28.989 Y10.476 F1000
G1 X28.371 Y10.476 F1000
G1 X28.268 Y10.373 F1000
G1 X28.165 Y10.476 F1000
G0 Z3.0 ; Pen up

G0 X29.195 Y10.270 F3000 ; Travel to line 101
G0 Z0.0 ; Pen down
G1 X29.195 Y9.858 F1000
G1 X29.401 Y9.652 F1000
G1 X29.607 Y9.652 F1000
G1 X29.813 Y9.858 F1000
G1 X29.813 Y10.270 F1000
G1 X29.607 Y10.476 F1000
G1 X29.401 Y10.476 F1000
G1 X29.401 Y10.476 F1000
G1 X29.195 Y10.270 F1000
G1 X29.195 Y9.858 F1000
G1 X29.401 Y9.652 F1000
G1 X29.710 Y9.652 F1000
G1 X29.813 Y9.755 F1000
G1 X29.813 Y10.373 F1000
G1 X29.710 Y10.476 F1000
G0 Z3.0 ; Pen up

G0 X30.225 Y10.476 F3000 ; Travel to line 102
G0 Z0.0 ; Pen down
G1 X30.225 Y9.652 F1000
G1 X30.225 Y9.961 F1000
G1 X30.328 Y10.064 F1000
G1 X30.534 Y10.064 F1000
G1 X30.740 Y9.858 F1000
G1 X30.740 Y9.652 F1000
G1 X30.740 Y9.858 F1000
G1 X30.637 Y9.961 F1000
G1 X30.637 Y10.064 F1000
G1 X30.740 Y10.167 F1000
G1 X30.740 Y10.373 F1000
G1 X30.637 Y10.476 F1000
G0 Z3.0 ; Pen up

G0 X30.225 Y10.373 F3000 ; Travel to line 103
G0 Z0.0 ; Pen down
G1 X30.328 Y10.476 F1000
G1 X30.534 Y10.476 F1000
G1 X30.740 Y10.270 F1000
G1 X30.534 Y10.064 F1000
G1 X30.328 Y10.064 F1000
G1 X30.225 Y10.167 F1000
G0 Z3.0 ; Pen up

G0 X31.152 Y10.476 F3000 ; Travel to line 104
G0 Z0.0 ; Pen down
G1 X31.049 Y10.373 F1000
G1 X31.049 Y10.167 F1000
G1 X31.152 Y10.064 F1000
G1 X31.358 Y10.064 F1000
G1 X31.564 Y9.858 F1000
G1 X31.358 Y9.652 F1000
G1 X31.152 Y9.652 F1000
G1 X31.049 Y9.755 F1000
G1 X31.152 Y9.652 F1000
G1 X31.461 Y9.652 F1000
G1 X31.564 Y9.755 F1000
G1 X31.564 Y9.961 F1000
G1 X31.461 Y10.064 F1000
G1 X31.255 Y10.064 F1000
G1 X31.049 Y10.270 F1000
G1 X31.049 Y10.373 F1000
G1 X31.152 Y10.476 F1000
G1 X31.461 Y10.476 F1000
G0 Z3.0 ; Pen up

G0 X32.594 Y9.961 F3000 ; Travel to line 105
G0 Z0.0 ; Pen down
G1 X32.594 Y9.858 F1000
G1 X32.800 Y9.652 F1000
G1 X32.903 Y9.652 F1000
G1 X33.109 Y9.858 F1000
G1 X33.109 Y9.961 F1000
G1 X32.903 Y10.167 F1000
G1 X32.800 Y10.167 F1000
G0 Z3.0 ; Pen up

G0 X32.800 Y10.476 F3000 ; Travel to line 106
G0 Z0.0 ; Pen down
G1 X32.594 Y10.270 F1000
G1 X32.594 Y9.755 F1000
G1 X32.697 Y9.652 F1000
G1 X33.006 Y9.652 F1000
G1 X33.006 Y9.755 F1000
G1 X33.109 Y9.858 F1000
G1 X33.109 Y10.064 F1000
G1 X33.006 Y10.167 F1000
G1 X32.800 Y10.167 F1000
G1 X32.697 Y10.064 F1000
G1 X32.594 Y10.167 F1000
G1 X32.594 Y10.270 F1000
G1 X32.800 Y10.476 F1000
G1 X33.006 Y10.476 F1000
G0 Z3.0 ; Pen up

G0 X33.418 Y9.961 F3000 ; Travel to line 107
G0 Z0.0 ; Pen down
G1 X33.624 Y9.961 F1000
G0 Z3.0 ; Pen up

G0 X33.830 Y10.167 F3000 ; Travel to line 108
G0 Z0.0 ; Pen down
G1 X33.933 Y10.064 F1000
G1 X33.933 Y9.858 F1000
G1 X34.036 Y9.755 F1000
G1 X34.139 Y9.858 F1000
G1 X34.139 Y10.167 F1000
G1 X34.242 Y10.270 F1000
G1 X34.345 Y10.270 F1000
G1 X34.345 Y10.167 F1000
G1 X34.448 Y10.064 F1000
G1 X34.448 Y9.858 F1000
G1 X34.551 Y9.755 F1000
G1 X34.654 Y9.858 F1000
G1 X34.654 Y10.167 F1000
G1 X34.757 Y10.270 F1000
G1 X34.757 Y10.476 F1000
G1 X34.757 Y10.167 F1000
G1 X34.654 Y10.064 F1000
G1 X34.654 Y9.755 F1000
G1 X34.448 Y9.755 F1000
G1 X34.448 Y10.064 F1000
G1 X34.242 Y10.270 F1000
G1 X34.139 Y10.167 F1000
G1 X34.139 Y9.858 F1000
G1 X34.036 Y9.755 F1000
G1 X33.933 Y9.755 F1000
G1 X33.933 Y9.961 F1000
G1 X33.830 Y10.064 F1000
G1 X33.830 Y10.476 F1000
G0 Z3.0 ; Pen up

G0 X35.066 Y10.167 F3000 ; Travel to line 109
G0 Z0.0 ; Pen down
G1 X35.066 Y9.961 F1000
G1 X35.169 Y9.858 F1000
G1 X35.375 Y9.858 F1000
G1 X35.478 Y9.961 F1000
G1 X35.375 Y10.064 F1000
G1 X35.375 Y10.270 F1000
G1 X35.272 Y10.373 F1000
G1 X35.272 Y10.373 F1000
G1 X35.375 Y10.270 F1000
G1 X35.375 Y10.064 F1000
G1 X35.478 Y9.961 F1000
G1 X35.478 Y9.858 F1000
G1 X35.066 Y9.858 F1000
G1 X34.963 Y9.755 F1000
G1 X34.963 Y9.652 F1000
G1 X34.963 Y9.858 F1000
G1 X35.066 Y9.961 F1000
G1 X35.066 Y10.167 F1000
G1 X35.169 Y10.270 F1000
G1 X35.169 Y10.373 F1000
G0 Z3.0 ; Pen up

G0 X35.684 Y10.373 F3000 ; Travel to line 110
G0 Z0.0 ; Pen down
G1 X35.890 Y10.167 F1000
G1 X36.199 Y10.476 F1000
G1 X36.096 Y10.373 F1000
G1 X36.096 Y10.270 F1000
G1 X35.890 Y10.064 F1000
G1 X35.890 Y9.652 F1000
G1 X35.890 Y10.064 F1000
G1 X35.787 Y10.167 F1000
G1 X35.787 Y10.270 F1000
G1 X35.684 Y10.373 F1000
G1 X35.684 Y10.476 F1000
G0 Z3.0 ; Pen up

G0 X35.169 Y11.815 F3000 ; Travel to line 111
G0 Z0.0 ; Pen down
G1 X34.963 Y11.815 F1000
G1 X34.963 Y11.918 F1000
G1 X34.860 Y12.021 F1000
G1 X34.860 Y12.124 F1000
G1 X34.757 Y12.227 F1000
G1 X34.757 Y12.330 F1000
G1 X34.654 Y12.433 F1000
G1 X34.551 Y12.330 F1000
G1 X34.551 Y11.712 F1000
G1 X34.551 Y12.433 F1000
G1 X34.757 Y12.433 F1000
G1 X34.757 Y12.330 F1000
G1 X34.860 Y12.227 F1000
G1 X34.860 Y12.124 F1000
G1 X34.963 Y12.021 F1000
G1 X34.963 Y11.918 F1000
G1 X35.066 Y11.815 F1000
G1 X35.169 Y11.918 F1000
G1 X35.169 Y12.536 F1000
G0 Z3.0 ; Pen up

G0 X35.478 Y12.536 F3000 ; Travel to line 112
G0 Z0.0 ; Pen down
G1 X35.478 Y11.918 F1000
G1 X35.581 Y11.815 F1000
G1 X35.581 Y11.712 F1000
G1 X35.890 Y11.712 F1000
G1 X36.096 Y11.918 F1000
G1 X36.096 Y12.536 F1000
G1 X36.096 Y12.021 F1000
G1 X35.993 Y11.918 F1000
G1 X35.993 Y11.815 F1000
G1 X35.890 Y11.712 F1000
G1 X35.684 Y11.712 F1000
G1 X35.478 Y11.918 F1000
G0 Z3.0 ; Pen up

G0 X36.405 Y12.433 F3000 ; Travel to line 113
G0 Z0.0 ; Pen down
G1 X36.405 Y11.712 F1000
G1 X36.405 Y12.330 F1000
G1 X36.508 Y12.433 F1000
G1 X36.611 Y12.330 F1000
G1 X36.611 Y12.227 F1000
G1 X36.714 Y12.124 F1000
G1 X36.714 Y12.021 F1000
G1 X36.817 Y12.021 F1000
G1 X36.920 Y12.124 F1000
G1 X36.920 Y12.330 F1000
G1 X37.023 Y12.433 F1000
G1 X37.126 Y12.330 F1000
G1 X37.126 Y11.712 F1000
G1 X37.126 Y12.433 F1000
G1 X37.023 Y12.433 F1000
G1 X36.920 Y12.330 F1000
G1 X36.920 Y12.124 F1000
G1 X36.817 Y12.021 F1000
G1 X36.611 Y12.227 F1000
G1 X36.611 Y12.433 F1000
G0 Z3.0 ; Pen up

G0 X37.744 Y12.536 F3000 ; Travel to line 114
G0 Z0.0 ; Pen down
G1 X37.950 Y12.536 F1000
G1 X38.053 Y12.433 F1000
G1 X38.053 Y11.712 F1000
G1 X38.053 Y12.433 F1000
G1 X38.156 Y12.536 F1000
G1 X38.362 Y12.536 F1000
G0 Z3.0 ; Pen up

G0 X38.671 Y12.536 F3000 ; Travel to line 115
G0 Z0.0 ; Pen down
G1 X38.671 Y11.918 F1000
G1 X38.774 Y11.815 F1000
G1 X38.774 Y11.712 F1000
G1 X39.083 Y11.712 F1000
G1 X39.289 Y11.918 F1000
G1 X39.289 Y12.536 F1000
G1 X39.289 Y12.021 F1000
G1 X39.186 Y11.918 F1000
G1 X39.186 Y11.815 F1000
G1 X39.083 Y11.712 F1000
G1 X38.877 Y11.712 F1000
G1 X38.671 Y11.918 F1000
G0 Z3.0 ; Pen up

G0 X39.495 Y12.021 F3000 ; Travel to line 116
G0 Z0.0 ; Pen down
G1 X39.598 Y12.124 F1000
G1 X39.907 Y12.124 F1000
G1 X40.010 Y12.021 F1000
G1 X40.010 Y11.815 F1000
G1 X39.907 Y11.712 F1000
G1 X39.598 Y11.712 F1000
G1 X39.495 Y11.815 F1000
G0 Z3.0 ; Pen up

G0 X39.495 Y12.227 F3000 ; Travel to line 117
G0 Z0.0 ; Pen down
G1 X39.598 Y12.124 F1000
G1 X39.804 Y12.124 F1000
G1 X40.010 Y12.330 F1000
G1 X39.804 Y12.536 F1000
G1 X39.598 Y12.536 F1000
G1 X39.495 Y12.433 F1000
G0 Z3.0 ; Pen up

G0 X39.495 Y12.536 F3000 ; Travel to line 118
G0 Z0.0 ; Pen down
G1 X39.495 Y11.712 F1000
G1 X39.907 Y11.712 F1000
G1 X40.010 Y11.815 F1000
G1 X40.010 Y12.021 F1000
G1 X39.907 Y12.124 F1000
G1 X40.010 Y12.227 F1000
G1 X40.010 Y12.433 F1000
G1 X39.907 Y12.536 F1000
G0 Z3.0 ; Pen up

G0 X40.422 Y12.536 F3000 ; Travel to line 119
G0 Z0.0 ; Pen down
G1 X40.422 Y11.712 F1000
G1 X40.937 Y11.712 F1000
G1 X40.525 Y11.712 F1000
G1 X40.422 Y11.815 F1000
G1 X40.422 Y12.021 F1000
G1 X40.525 Y12.124 F1000
G1 X40.937 Y12.124 F1000
G1 X40.525 Y12.124 F1000
G1 X40.422 Y12.227 F1000
G1 X40.422 Y12.433 F1000
G1 X40.525 Y12.536 F1000
G1 X40.937 Y12.536 F1000
G0 Z3.0 ; Pen up

G0 X41.555 Y12.330 F3000 ; Travel to line 120
G0 Z0.0 ; Pen down
G1 X41.555 Y12.021 F1000
G1 X41.658 Y11.918 F1000
G1 X42.070 Y12.330 F1000
G1 X42.070 Y12.433 F1000
G1 X41.967 Y12.536 F1000
G1 X41.761 Y12.536 F1000
G1 X41.761 Y12.536 F1000
G1 X41.555 Y12.330 F1000
G1 X41.555 Y11.918 F1000
G1 X41.761 Y11.712 F1000
G1 X42.070 Y11.712 F1000
G1 X42.173 Y11.815 F1000
G1 X42.173 Y12.433 F1000
G1 X42.276 Y12.536 F1000
G1 X42.173 Y12.433 F1000
G1 X42.070 Y12.536 F1000
G0 Z3.0 ; Pen up

G0 X42.070 Y12.330 F3000 ; Travel to line 121
G0 Z0.0 ; Pen down
G1 X42.173 Y12.227 F1000
G1 X42.173 Y11.918 F1000
G1 X41.967 Y11.712 F1000
G1 X41.761 Y11.712 F1000
G1 X41.658 Y11.815 F1000
G1 X41.761 Y11.918 F1000
G1 X41.761 Y12.021 F1000
G0 Z3.0 ; Pen up

G0 X42.585 Y12.021 F3000 ; Travel to line 122
G0 Z0.0 ; Pen down
G1 X42.585 Y11.918 F1000
G1 X42.791 Y11.712 F1000
G1 X42.894 Y11.712 F1000
G1 X43.100 Y11.918 F1000
G1 X43.100 Y12.021 F1000
G1 X42.894 Y12.227 F1000
G1 X42.791 Y12.227 F1000
G0 Z3.0 ; Pen up

G0 X42.791 Y12.536 F3000 ; Travel to line 123
G0 Z0.0 ; Pen down
G1 X42.585 Y12.330 F1000
G1 X42.585 Y11.815 F1000
G1 X42.688 Y11.712 F1000
G1 X42.997 Y11.712 F1000
G1 X42.997 Y11.815 F1000
G1 X43.100 Y11.918 F1000
G1 X43.100 Y12.124 F1000
G1 X42.997 Y12.227 F1000
G1 X42.791 Y12.227 F1000
G1 X42.688 Y12.124 F1000
G1 X42.585 Y12.227 F1000
G1 X42.585 Y12.330 F1000
G1 X42.791 Y12.536 F1000
G1 X42.997 Y12.536 F1000
G0 Z3.0 ; Pen up

G0 X43.306 Y12.330 F3000 ; Travel to line 124
G0 Z0.0 ; Pen down
G1 X43.306 Y11.918 F1000
G1 X43.512 Y11.712 F1000
G1 X43.615 Y11.712 F1000
G1 X43.718 Y11.815 F1000
G1 X43.718 Y11.918 F1000
G1 X43.821 Y12.021 F1000
G1 X43.821 Y12.227 F1000
G1 X43.718 Y12.330 F1000
G1 X43.718 Y12.433 F1000
G1 X43.615 Y12.536 F1000
G1 X43.512 Y12.536 F1000
G0 Z3.0 ; Pen up

G0 X43.409 Y12.536 F3000 ; Travel to line 125
G0 Z0.0 ; Pen down
G1 X43.306 Y12.433 F1000
G1 X43.306 Y11.815 F1000
G1 X43.409 Y11.712 F1000
G1 X43.615 Y11.712 F1000
G1 X43.821 Y11.918 F1000
G1 X43.821 Y12.330 F1000
G1 X43.615 Y12.536 F1000
G0 Z3.0 ; Pen up

G0 X44.233 Y12.330 F3000 ; Travel to line 126
G0 Z0.0 ; Pen down
G1 X44.130 Y12.227 F1000
G1 X44.130 Y11.712 F1000
G1 X44.130 Y12.227 F1000
G1 X44.233 Y12.330 F1000
G1 X44.439 Y12.330 F1000
G1 X44.542 Y12.227 F1000
G1 X44.542 Y11.712 F1000
G1 X44.542 Y12.124 F1000
G1 X44.748 Y12.330 F1000
G1 X44.851 Y12.330 F1000
G1 X45.057 Y12.124 F1000
G1 X45.057 Y11.712 F1000
G1 X45.057 Y12.124 F1000
G1 X44.954 Y12.227 F1000
G1 X44.954 Y12.330 F1000
G1 X44.748 Y12.330 F1000
G1 X44.645 Y12.227 F1000
G1 X44.542 Y12.330 F1000
G0 Z3.0 ; Pen up

G0 X45.469 Y12.330 F3000 ; Travel to line 127
G0 Z0.0 ; Pen down
G1 X45.366 Y12.227 F1000
G1 X45.366 Y11.712 F1000
G1 X45.366 Y12.227 F1000
G1 X45.469 Y12.330 F1000
G1 X45.675 Y12.330 F1000
G1 X45.778 Y12.227 F1000
G1 X45.778 Y11.712 F1000
G1 X45.778 Y12.124 F1000
G1 X45.984 Y12.330 F1000
G1 X46.087 Y12.330 F1000
G1 X46.293 Y12.124 F1000
G1 X46.293 Y11.712 F1000
G1 X46.293 Y12.124 F1000
G1 X46.190 Y12.227 F1000
G1 X46.190 Y12.330 F1000
G1 X45.984 Y12.330 F1000
G1 X45.881 Y12.227 F1000
G1 X45.778 Y12.330 F1000
G0 Z3.0 ; Pen up

G0 X46.911 Y12.330 F3000 ; Travel to line 128
G0 Z0.0 ; Pen down
G1 X47.014 Y12.227 F1000
G1 X47.014 Y12.124 F1000
G1 X47.117 Y12.021 F1000
G1 X47.117 Y11.918 F1000
G1 X47.117 Y12.124 F1000
G0 Z3.0 ; Pen up

G0 X48.147 Y12.536 F3000 ; Travel to line 129
G0 Z0.0 ; Pen down
G1 X48.044 Y12.433 F1000
G1 X48.147 Y12.536 F1000
G1 X48.353 Y12.536 F1000
G1 X48.456 Y12.433 F1000
G1 X48.456 Y12.227 F1000
G1 X48.353 Y12.124 F1000
G1 X48.147 Y12.124 F1000
G1 X48.353 Y12.124 F1000
G1 X48.456 Y12.021 F1000
G1 X48.456 Y11.815 F1000
G1 X48.353 Y11.712 F1000
G1 X48.147 Y11.712 F1000
G1 X48.044 Y11.815 F1000
G1 X48.147 Y11.712 F1000
G1 X48.353 Y11.712 F1000
G1 X48.456 Y11.815 F1000
G1 X48.456 Y12.021 F1000
G1 X48.353 Y12.124 F1000
G1 X48.456 Y12.227 F1000
G1 X48.456 Y12.433 F1000
G1 X48.353 Y12.536 F1000
G0 Z3.0 ; Pen up

G0 X48.971 Y12.330 F3000 ; Travel to line 130
G0 Z0.0 ; Pen down
G1 X48.868 Y12.227 F1000
G1 X48.868 Y11.712 F1000
G1 X48.868 Y12.227 F1000
G1 X48.971 Y12.330 F1000
G1 X49.177 Y12.330 F1000
G1 X49.280 Y12.227 F1000
G1 X49.280 Y11.712 F1000
G1 X49.280 Y12.124 F1000
G1 X49.486 Y12.330 F1000
G1 X49.589 Y12.330 F1000
G1 X49.795 Y12.124 F1000
G1 X49.795 Y11.712 F1000
G1 X49.795 Y12.124 F1000
G1 X49.692 Y12.227 F1000
G1 X49.692 Y12.330 F1000
G1 X49.486 Y12.330 F1000
G1 X49.383 Y12.227 F1000
G1 X49.280 Y12.330 F1000
G0 Z3.0 ; Pen up

G0 X50.104 Y12.330 F3000 ; Travel to line 131
G0 Z0.0 ; Pen down
G1 X50.001 Y12.227 F1000
G1 X50.001 Y11.712 F1000
G1 X50.001 Y12.227 F1000
G1 X50.104 Y12.330 F1000
G1 X50.310 Y12.330 F1000
G1 X50.413 Y12.227 F1000
G1 X50.413 Y11.712 F1000
G1 X50.413 Y12.124 F1000
G1 X50.619 Y12.330 F1000
G1 X50.722 Y12.330 F1000
G1 X50.928 Y12.124 F1000
G1 X50.928 Y11.712 F1000
G1 X50.928 Y12.124 F1000
G1 X50.825 Y12.227 F1000
G1 X50.825 Y12.330 F1000
G1 X50.619 Y12.330 F1000
G1 X50.516 Y12.227 F1000
G1 X50.413 Y12.330 F1000
G0 Z3.0 ; Pen up

G0 X51.649 Y12.227 F3000 ; Travel to line 132
G0 Z0.0 ; Pen down
G1 X51.752 Y12.124 F1000
G1 X51.752 Y11.918 F1000
G1 X51.855 Y11.815 F1000
G1 X51.958 Y11.918 F1000
G1 X51.958 Y12.227 F1000
G1 X52.061 Y12.330 F1000
G1 X52.164 Y12.330 F1000
G1 X52.164 Y12.227 F1000
G1 X52.267 Y12.124 F1000
G1 X52.267 Y11.918 F1000
G1 X52.370 Y11.815 F1000
G1 X52.473 Y11.918 F1000
G1 X52.473 Y12.227 F1000
G1 X52.576 Y12.330 F1000
G1 X52.576 Y12.536 F1000
G1 X52.576 Y12.227 F1000
G1 X52.473 Y12.124 F1000
G1 X52.473 Y11.815 F1000
G1 X52.267 Y11.815 F1000
G1 X52.267 Y12.124 F1000
G1 X52.061 Y12.330 F1000
G1 X51.958 Y12.227 F1000
G1 X51.958 Y11.918 F1000
G1 X51.855 Y11.815 F1000
G1 X51.752 Y11.815 F1000
G1 X51.752 Y12.021 F1000
G1 X51.649 Y12.124 F1000
G1 X51.649 Y12.536 F1000
G0 Z3.0 ; Pen up

G0 X52.885 Y12.227 F3000 ; Travel to line 133
G0 Z0.0 ; Pen down
G1 X52.885 Y12.021 F1000
G1 X52.988 Y11.918 F1000
G1 X53.194 Y11.918 F1000
G1 X53.297 Y12.021 F1000
G1 X53.194 Y12.124 F1000
G1 X53.194 Y12.330 F1000
G1 X53.091 Y12.433 F1000
G1 X53.091 Y12.433 F1000
G1 X53.194 Y12.330 F1000
G1 X53.194 Y12.124 F1000
G1 X53.297 Y12.021 F1000
G1 X53.297 Y11.918 F1000
G1 X52.885 Y11.918 F1000
G1 X52.782 Y11.815 F1000
G1 X52.782 Y11.712 F1000
G1 X52.782 Y11.918 F1000
G1 X52.885 Y12.021 F1000
G1 X52.885 Y12.227 F1000
G1 X52.988 Y12.330 F1000
G1 X52.988 Y12.433 F1000
G0 Z3.0 ; Pen up

G0 X53.606 Y12.536 F3000 ; Travel to line 134
G0 Z0.0 ; Pen down
G1 X53.606 Y11.712 F1000
G1 X54.121 Y11.712 F1000
G1 X53.709 Y11.712 F1000
G1 X53.606 Y11.815 F1000
G0 Z3.0 ; Pen up

G0 X53.915 Y16.347 F3000 ; Travel to line 135
G0 Z0.0 ; Pen down
G1 X53.812 Y16.244 F1000
G1 X53.812 Y16.141 F1000
G1 X52.988 Y16.141 F1000
G1 X52.885 Y16.038 F1000
G1 X51.958 Y16.038 F1000
G1 X51.855 Y15.935 F1000
G1 X51.443 Y15.935 F1000
G1 X51.340 Y15.832 F1000
G1 X51.340 Y15.626 F1000
G1 X52.164 Y14.802 F1000
G1 X52.267 Y14.802 F1000
G1 X54.327 Y12.742 F1000
G1 X54.327 Y12.639 F1000
G1 X54.533 Y12.433 F1000
G1 X54.636 Y12.433 F1000
G1 X55.769 Y11.300 F1000
G1 X55.872 Y11.300 F1000
G1 X55.975 Y11.197 F1000
G1 X56.181 Y11.403 F1000
G1 X56.181 Y11.506 F1000
G1 X56.078 Y11.609 F1000
G1 X56.078 Y12.227 F1000
G1 X56.181 Y12.330 F1000
G1 X56.181 Y13.154 F1000
G1 X56.284 Y13.257 F1000
G1 X56.284 Y14.081 F1000
G1 X56.387 Y14.184 F1000
G1 X56.387 Y15.008 F1000
G1 X56.490 Y15.111 F1000
G1 X56.490 Y15.935 F1000
G1 X56.593 Y16.038 F1000
G1 X56.593 Y16.244 F1000
G1 X56.490 Y16.347 F1000
G1 X55.666 Y16.347 F1000
G1 X55.563 Y16.450 F1000
G1 X54.739 Y16.450 F1000
G1 X54.636 Y16.347 F1000
G0 Z3.0 ; Pen up

G0 X55.460 Y17.686 F3000 ; Travel to line 136
G0 Z0.0 ; Pen down
G1 X55.563 Y17.789 F1000
G1 X55.666 Y17.789 F1000
G1 X55.769 Y17.686 F1000
G1 X55.872 Y17.686 F1000
G1 X55.975 Y17.583 F1000
G1 X56.181 Y17.583 F1000
G1 X56.284 Y17.480 F1000
G1 X56.490 Y17.480 F1000
G1 X56.593 Y17.377 F1000
G1 X56.593 Y16.965 F1000
G1 X56.490 Y16.862 F1000
G1 X56.387 Y16.862 F1000
G1 X56.284 Y16.965 F1000
G1 X56.181 Y16.965 F1000
G0 Z3.0 ; Pen up

G0 X56.593 Y17.171 F3000 ; Travel to line 137
G0 Z0.0 ; Pen down
G1 X56.696 Y17.274 F1000
G1 X57.005 Y17.274 F1000
G1 X57.108 Y17.171 F1000
G1 X57.211 Y17.171 F1000
G1 X57.314 Y17.068 F1000
G1 X57.520 Y17.068 F1000
G1 X57.623 Y16.965 F1000
G1 X57.520 Y16.862 F1000
G1 X57.417 Y16.862 F1000
G1 X57.314 Y16.759 F1000
G1 X57.211 Y16.759 F1000
G1 X57.108 Y16.656 F1000
G1 X56.902 Y16.656 F1000
G1 X56.799 Y16.553 F1000
G1 X56.593 Y16.759 F1000
G0 Z3.0 ; Pen up

G0 X56.593 Y16.244 F3000 ; Travel to line 138
G0 Z0.0 ; Pen down
G1 X56.696 Y16.347 F1000
G1 X57.005 Y16.347 F1000
G1 X57.108 Y16.244 F1000
G1 X57.108 Y16.038 F1000
G1 X57.211 Y15.935 F1000
G1 X57.211 Y15.832 F1000
G1 X57.520 Y15.523 F1000
G1 X57.520 Y15.420 F1000
G1 X57.829 Y15.111 F1000
G1 X57.829 Y15.008 F1000
G1 X58.138 Y14.699 F1000
G1 X58.138 Y14.596 F1000
G1 X57.932 Y14.390 F1000
G1 X57.932 Y14.287 F1000
G1 X57.829 Y14.184 F1000
G1 X57.829 Y14.081 F1000
G1 X57.623 Y13.875 F1000
G1 X57.623 Y13.772 F1000
G1 X57.520 Y13.669 F1000
G1 X57.520 Y13.566 F1000
G1 X57.417 Y13.463 F1000
G1 X57.417 Y13.360 F1000
G1 X57.211 Y13.154 F1000
G1 X57.211 Y13.051 F1000
G1 X57.108 Y12.948 F1000
G1 X57.108 Y12.845 F1000
G1 X57.005 Y12.742 F1000
G1 X57.005 Y12.639 F1000
G1 X56.799 Y12.433 F1000
G1 X56.799 Y12.330 F1000
G1 X56.696 Y12.227 F1000
G1 X56.696 Y12.124 F1000
G1 X56.593 Y12.021 F1000
G1 X56.593 Y11.918 F1000
G1 X56.181 Y11.506 F1000
G1 X56.078 Y11.609 F1000
G1 X56.078 Y12.227 F1000
G1 X56.181 Y12.330 F1000
G1 X56.181 Y13.154 F1000
G1 X56.284 Y13.257 F1000
G1 X56.284 Y14.081 F1000
G1 X56.387 Y14.184 F1000
G1 X56.387 Y15.008 F1000
G1 X56.490 Y15.111 F1000
G1 X56.490 Y15.935 F1000
G1 X56.593 Y16.038 F1000
G0 Z3.0 ; Pen up

G0 X57.108 Y16.141 F3000 ; Travel to line 139
G0 Z0.0 ; Pen down
G1 X57.211 Y16.244 F1000
G1 X57.314 Y16.141 F1000
G1 X57.211 Y16.038 F1000
G1 X57.211 Y16.038 F1000
G1 X57.314 Y16.141 F1000
G1 X58.859 Y16.141 F1000
G1 X58.962 Y16.038 F1000
G1 X58.756 Y15.832 F1000
G1 X58.756 Y15.729 F1000
G1 X58.653 Y15.626 F1000
G1 X58.653 Y15.523 F1000
G1 X58.447 Y15.317 F1000
G1 X58.447 Y15.214 F1000
G1 X58.344 Y15.111 F1000
G1 X58.344 Y15.008 F1000
G1 X58.138 Y14.802 F1000
G1 X58.035 Y14.802 F1000
G1 X57.829 Y15.008 F1000
G1 X57.829 Y15.111 F1000
G1 X57.520 Y15.420 F1000
G1 X57.520 Y15.523 F1000
G1 X57.211 Y15.832 F1000
G0 Z3.0 ; Pen up

G0 X57.314 Y16.244 F3000 ; Travel to line 140
G0 Z0.0 ; Pen down
G1 X57.417 Y16.141 F1000
G1 X58.756 Y16.141 F1000
G1 X58.859 Y16.244 F1000
G1 X58.859 Y16.347 F1000
G1 X58.756 Y16.450 F1000
G1 X57.417 Y16.450 F1000
G1 X57.314 Y16.347 F1000
G0 Z3.0 ; Pen up

G0 X57.520 Y16.862 F3000 ; Travel to line 141
G0 Z0.0 ; Pen down
G1 X57.417 Y16.759 F1000
G1 X57.314 Y16.759 F1000
G1 X57.211 Y16.656 F1000
G1 X57.005 Y16.656 F1000
G1 X56.799 Y16.450 F1000
G1 X56.902 Y16.347 F1000
G1 X57.108 Y16.347 F1000
G1 X57.211 Y16.244 F1000
G1 X57.314 Y16.347 F1000
G1 X57.314 Y16.450 F1000
G1 X58.550 Y16.450 F1000
G1 X58.653 Y16.553 F1000
G1 X58.550 Y16.656 F1000
G1 X58.344 Y16.656 F1000
G1 X58.241 Y16.759 F1000
G1 X58.138 Y16.759 F1000
G1 X58.035 Y16.862 F1000
G1 X57.932 Y16.862 F1000
G1 X57.829 Y16.965 F1000
G1 X57.726 Y16.965 F1000
G1 X57.623 Y16.862 F1000
G0 Z3.0 ; Pen up

G0 X58.241 Y17.068 F3000 ; Travel to line 142
G0 Z0.0 ; Pen down
G1 X58.035 Y17.068 F1000
G1 X57.932 Y16.965 F1000
G1 X58.035 Y16.862 F1000
G1 X58.138 Y16.862 F1000
G1 X58.241 Y16.759 F1000
G1 X58.344 Y16.759 F1000
G1 X58.447 Y16.656 F1000
G1 X58.550 Y16.656 F1000
G1 X58.653 Y16.759 F1000
G1 X58.653 Y16.862 F1000
G1 X58.756 Y16.965 F1000
G1 X58.756 Y17.068 F1000
G1 X58.550 Y17.274 F1000
G1 X58.344 Y17.274 F1000
G1 X58.241 Y17.171 F1000
G0 Z3.0 ; Pen up

G0 X58.344 Y17.274 F3000 ; Travel to line 143
G0 Z0.0 ; Pen down
G1 X58.447 Y17.377 F1000
G1 X58.344 Y17.480 F1000
G1 X58.241 Y17.377 F1000
G1 X58.241 Y17.377 F1000
G1 X58.344 Y17.480 F1000
G1 X58.241 Y17.583 F1000
G1 X58.138 Y17.480 F1000
G0 Z3.0 ; Pen up

G0 X58.035 Y17.480 F3000 ; Travel to line 144
G0 Z0.0 ; Pen down
G1 X58.138 Y17.583 F1000
G1 X58.035 Y17.686 F1000
G1 X57.932 Y17.583 F1000
G1 X57.932 Y17.583 F1000
G1 X58.035 Y17.686 F1000
G1 X57.932 Y17.789 F1000
G1 X57.829 Y17.686 F1000
G0 Z3.0 ; Pen up

G0 X57.520 Y17.789 F3000 ; Travel to line 145
G0 Z0.0 ; Pen down
G1 X57.623 Y17.686 F1000
G1 X57.829 Y17.686 F1000
G1 X57.932 Y17.789 F1000
G1 X57.932 Y17.892 F1000
G1 X57.829 Y17.995 F1000
G1 X57.623 Y17.995 F1000
G1 X57.520 Y17.892 F1000
G0 Z3.0 ; Pen up

G0 X56.387 Y18.098 F3000 ; Travel to line 146
G0 Z0.0 ; Pen down
G1 X56.490 Y17.995 F1000
G1 X56.490 Y17.480 F1000
G1 X56.696 Y17.274 F1000
G1 X57.108 Y17.274 F1000
G1 X57.211 Y17.171 F1000
G1 X57.314 Y17.171 F1000
G1 X57.417 Y17.068 F1000
G1 X57.623 Y17.068 F1000
G1 X57.726 Y16.965 F1000
G1 X57.829 Y16.965 F1000
G1 X57.932 Y17.068 F1000
G1 X58.138 Y17.068 F1000
G1 X58.241 Y17.171 F1000
G1 X58.241 Y17.274 F1000
G1 X58.035 Y17.480 F1000
G1 X57.932 Y17.480 F1000
G1 X57.726 Y17.686 F1000
G1 X57.623 Y17.686 F1000
G1 X57.417 Y17.892 F1000
G1 X57.314 Y17.892 F1000
G1 X57.211 Y17.995 F1000
G1 X57.108 Y17.995 F1000
G1 X56.902 Y18.201 F1000
G1 X56.799 Y18.201 F1000
G1 X56.696 Y18.304 F1000
G1 X56.490 Y18.304 F1000
G1 X56.387 Y18.201 F1000
G0 Z3.0 ; Pen up

G0 X56.284 Y18.613 F3000 ; Travel to line 147
G0 Z0.0 ; Pen down
G1 X56.387 Y18.510 F1000
G1 X56.387 Y18.407 F1000
G1 X56.490 Y18.304 F1000
G1 X56.696 Y18.304 F1000
G1 X56.799 Y18.201 F1000
G1 X56.902 Y18.201 F1000
G1 X57.108 Y17.995 F1000
G1 X57.211 Y17.995 F1000
G1 X57.314 Y17.892 F1000
G1 X57.520 Y17.892 F1000
G1 X57.623 Y17.995 F1000
G1 X57.623 Y18.098 F1000
G1 X57.314 Y18.407 F1000
G1 X57.211 Y18.407 F1000
G1 X56.799 Y18.819 F1000
G1 X56.696 Y18.819 F1000
G1 X56.593 Y18.922 F1000
G1 X56.387 Y18.922 F1000
G1 X56.284 Y18.819 F1000
G0 Z3.0 ; Pen up

G0 X56.078 Y19.437 F3000 ; Travel to line 148
G0 Z0.0 ; Pen down
G1 X56.181 Y19.540 F1000
G1 X56.078 Y19.643 F1000
G1 X55.975 Y19.540 F1000
G0 Z3.0 ; Pen up

G0 X55.769 Y21.497 F3000 ; Travel to line 149
G0 Z0.0 ; Pen down
G1 X55.872 Y21.394 F1000
G1 X55.872 Y20.879 F1000
G1 X55.975 Y20.776 F1000
G1 X55.975 Y20.364 F1000
G1 X56.078 Y20.261 F1000
G1 X56.078 Y19.746 F1000
G1 X56.181 Y19.643 F1000
G1 X56.181 Y19.334 F1000
G1 X56.284 Y19.231 F1000
G1 X56.284 Y19.128 F1000
G1 X56.490 Y18.922 F1000
G1 X56.593 Y18.922 F1000
G1 X56.696 Y18.819 F1000
G1 X56.799 Y18.819 F1000
G1 X57.211 Y18.407 F1000
G1 X57.314 Y18.407 F1000
G1 X57.726 Y17.995 F1000
G1 X57.829 Y17.995 F1000
G1 X58.241 Y17.583 F1000
G1 X58.344 Y17.686 F1000
G1 X58.344 Y18.098 F1000
G1 X58.241 Y18.201 F1000
G1 X58.241 Y18.510 F1000
G1 X58.138 Y18.613 F1000
G1 X58.138 Y18.819 F1000
G1 X58.035 Y18.922 F1000
G1 X58.035 Y19.231 F1000
G1 X57.932 Y19.334 F1000
G1 X57.932 Y19.540 F1000
G1 X57.829 Y19.643 F1000
G1 X57.829 Y19.952 F1000
G1 X57.726 Y20.055 F1000
G1 X57.726 Y20.261 F1000
G1 X57.623 Y20.364 F1000
G1 X57.623 Y20.673 F1000
G1 X57.520 Y20.776 F1000
G1 X57.520 Y20.982 F1000
G1 X57.417 Y21.085 F1000
G1 X57.417 Y21.394 F1000
G1 X57.314 Y21.497 F1000
G1 X57.314 Y21.600 F1000
G1 X57.211 Y21.703 F1000
G1 X56.490 Y21.703 F1000
G1 X56.387 Y21.806 F1000
G1 X55.872 Y21.806 F1000
G1 X55.769 Y21.703 F1000
G0 Z3.0 ; Pen up

G0 X57.314 Y21.497 F3000 ; Travel to line 150
G0 Z0.0 ; Pen down
G1 X57.417 Y21.600 F1000
G1 X57.829 Y21.600 F1000
G1 X58.035 Y21.394 F1000
G1 X58.035 Y21.291 F1000
G1 X58.138 Y21.188 F1000
G1 X58.138 Y21.085 F1000
G1 X58.241 Y20.982 F1000
G1 X58.241 Y20.879 F1000
G1 X58.344 Y20.776 F1000
G1 X58.344 Y20.570 F1000
G1 X58.447 Y20.467 F1000
G1 X58.447 Y20.364 F1000
G1 X58.550 Y20.261 F1000
G1 X58.550 Y20.158 F1000
G1 X58.653 Y20.055 F1000
G1 X58.653 Y19.849 F1000
G1 X58.756 Y19.746 F1000
G1 X58.756 Y19.643 F1000
G1 X58.859 Y19.540 F1000
G1 X58.859 Y19.437 F1000
G1 X58.962 Y19.334 F1000
G1 X58.962 Y19.128 F1000
G1 X59.065 Y19.025 F1000
G1 X59.065 Y18.922 F1000
G1 X59.168 Y18.819 F1000
G1 X59.168 Y18.716 F1000
G1 X59.271 Y18.613 F1000
G1 X59.271 Y18.510 F1000
G1 X59.374 Y18.407 F1000
G1 X59.374 Y18.201 F1000
G1 X59.477 Y18.098 F1000
G1 X59.477 Y17.995 F1000
G1 X59.580 Y17.995 F1000
G1 X59.683 Y17.892 F1000
G1 X59.683 Y17.686 F1000
G1 X59.580 Y17.583 F1000
G1 X59.168 Y17.583 F1000
G1 X59.065 Y17.480 F1000
G1 X58.962 Y17.480 F1000
G1 X58.859 Y17.377 F1000
G1 X58.756 Y17.377 F1000
G1 X58.653 Y17.274 F1000
G1 X58.550 Y17.274 F1000
G1 X58.447 Y17.377 F1000
G1 X58.447 Y17.480 F1000
G1 X58.344 Y17.583 F1000
G1 X58.344 Y18.098 F1000
G1 X58.241 Y18.201 F1000
G1 X58.241 Y18.510 F1000
G1 X58.138 Y18.613 F1000
G1 X58.138 Y18.819 F1000
G1 X58.035 Y18.922 F1000
G1 X58.035 Y19.231 F1000
G1 X57.932 Y19.334 F1000
G1 X57.932 Y19.540 F1000
G1 X57.829 Y19.643 F1000
G1 X57.829 Y19.952 F1000
G1 X57.726 Y20.055 F1000
G1 X57.726 Y20.261 F1000
G1 X57.623 Y20.364 F1000
G1 X57.623 Y20.673 F1000
G1 X57.520 Y20.776 F1000
G1 X57.520 Y20.982 F1000
G1 X57.417 Y21.085 F1000
G1 X57.417 Y21.394 F1000
G0 Z3.0 ; Pen up

G0 X58.035 Y21.394 F3000 ; Travel to line 151
G0 Z0.0 ; Pen down
G1 X58.138 Y21.497 F1000
G1 X58.550 Y21.497 F1000
G1 X58.653 Y21.394 F1000
G1 X59.271 Y21.394 F1000
G1 X59.374 Y21.291 F1000
G1 X59.992 Y21.291 F1000
G1 X60.095 Y21.188 F1000
G1 X60.816 Y21.188 F1000
G1 X60.919 Y21.085 F1000
G1 X60.919 Y20.982 F1000
G1 X60.816 Y20.879 F1000
G1 X60.816 Y20.776 F1000
G1 X60.713 Y20.673 F1000
G1 X60.713 Y20.467 F1000
G1 X60.610 Y20.364 F1000
G1 X60.610 Y20.261 F1000
G1 X60.507 Y20.158 F1000
G1 X60.507 Y19.952 F1000
G1 X60.404 Y19.849 F1000
G1 X60.404 Y19.643 F1000
G1 X60.301 Y19.540 F1000
G1 X60.301 Y19.437 F1000
G1 X60.198 Y19.334 F1000
G1 X60.198 Y19.128 F1000
G1 X60.095 Y19.025 F1000
G1 X60.095 Y18.819 F1000
G1 X59.992 Y18.716 F1000
G1 X59.992 Y18.613 F1000
G1 X59.889 Y18.510 F1000
G1 X59.889 Y18.304 F1000
G1 X59.786 Y18.201 F1000
G1 X59.786 Y18.098 F1000
G1 X59.683 Y17.995 F1000
G1 X59.580 Y17.995 F1000
G1 X59.374 Y18.201 F1000
G1 X59.374 Y18.407 F1000
G1 X59.271 Y18.510 F1000
G1 X59.271 Y18.613 F1000
G1 X59.168 Y18.716 F1000
G1 X59.168 Y18.819 F1000
G1 X59.065 Y18.922 F1000
G1 X59.065 Y19.025 F1000
G1 X58.962 Y19.128 F1000
G1 X58.962 Y19.334 F1000
G1 X58.859 Y19.437 F1000
G1 X58.859 Y19.540 F1000
G1 X58.756 Y19.643 F1000
G1 X58.756 Y19.746 F1000
G1 X58.653 Y19.849 F1000
G1 X58.653 Y20.055 F1000
G1 X58.550 Y20.158 F1000
G1 X58.550 Y20.261 F1000
G1 X58.447 Y20.364 F1000
G1 X58.447 Y20.467 F1000
G1 X58.344 Y20.570 F1000
G1 X58.344 Y20.776 F1000
G1 X58.241 Y20.879 F1000
G1 X58.241 Y20.982 F1000
G1 X58.138 Y21.085 F1000
G1 X58.138 Y21.188 F1000
G1 X58.035 Y21.291 F1000
G0 Z3.0 ; Pen up

G0 X56.799 Y23.351 F3000 ; Travel to line 152
G0 Z0.0 ; Pen down
G1 X56.902 Y23.248 F1000
G1 X56.902 Y22.939 F1000
G1 X57.005 Y22.836 F1000
G1 X57.005 Y22.527 F1000
G1 X57.108 Y22.424 F1000
G1 X57.108 Y22.218 F1000
G1 X57.211 Y22.115 F1000
G1 X57.211 Y21.703 F1000
G1 X57.314 Y21.600 F1000
G1 X57.726 Y21.600 F1000
G1 X57.829 Y21.703 F1000
G1 X57.829 Y21.909 F1000
G1 X57.726 Y22.012 F1000
G1 X57.726 Y22.115 F1000
G1 X57.623 Y22.218 F1000
G1 X57.623 Y22.424 F1000
G1 X57.520 Y22.527 F1000
G1 X57.520 Y22.630 F1000
G1 X57.417 Y22.733 F1000
G1 X57.417 Y22.836 F1000
G1 X57.314 Y22.939 F1000
G1 X57.314 Y23.042 F1000
G1 X57.211 Y23.145 F1000
G1 X57.211 Y23.351 F1000
G1 X57.005 Y23.557 F1000
G0 Z3.0 ; Pen up

G0 X56.696 Y23.660 F3000 ; Travel to line 153
G0 Z0.0 ; Pen down
G1 X56.902 Y23.454 F1000
G1 X57.005 Y23.557 F1000
G1 X57.005 Y23.660 F1000
G1 X56.799 Y23.866 F1000
G1 X56.696 Y23.763 F1000
G0 Z3.0 ; Pen up

G0 X56.799 Y23.866 F3000 ; Travel to line 154
G0 Z0.0 ; Pen down
G1 X56.902 Y23.969 F1000
G1 X56.799 Y24.072 F1000
G1 X56.696 Y23.969 F1000
G0 Z3.0 ; Pen up

G0 X56.696 Y24.278 F3000 ; Travel to line 155
G0 Z0.0 ; Pen down
G1 X56.696 Y24.175 F1000
G1 X56.799 Y24.072 F1000
G1 X56.902 Y24.072 F1000
G1 X56.902 Y23.866 F1000
G1 X57.005 Y23.763 F1000
G1 X57.005 Y23.660 F1000
G1 X57.108 Y23.557 F1000
G1 X57.108 Y23.454 F1000
G1 X57.211 Y23.351 F1000
G1 X57.211 Y23.145 F1000
G1 X57.314 Y23.042 F1000
G1 X57.314 Y22.939 F1000
G1 X57.417 Y22.836 F1000
G1 X57.417 Y22.733 F1000
G1 X57.520 Y22.630 F1000
G1 X57.520 Y22.527 F1000
G1 X57.623 Y22.424 F1000
G1 X57.623 Y22.218 F1000
G1 X57.726 Y22.115 F1000
G1 X57.726 Y22.012 F1000
G1 X57.829 Y21.909 F1000
G1 X57.829 Y21.703 F1000
G1 X58.035 Y21.497 F1000
G1 X58.653 Y21.497 F1000
G1 X58.756 Y21.394 F1000
G1 X59.374 Y21.394 F1000
G1 X59.477 Y21.291 F1000
G1 X60.095 Y21.291 F1000
G1 X60.198 Y21.188 F1000
G1 X60.919 Y21.188 F1000
G1 X61.022 Y21.291 F1000
G1 X61.022 Y21.497 F1000
G1 X60.919 Y21.600 F1000
G1 X60.816 Y21.600 F1000
G1 X60.610 Y21.806 F1000
G1 X60.507 Y21.806 F1000
G1 X60.198 Y22.115 F1000
G1 X60.095 Y22.115 F1000
G1 X59.786 Y22.424 F1000
G1 X59.683 Y22.424 F1000
G1 X59.374 Y22.733 F1000
G1 X59.271 Y22.733 F1000
G1 X58.859 Y23.145 F1000
G1 X58.756 Y23.145 F1000
G1 X58.447 Y23.454 F1000
G1 X58.344 Y23.454 F1000
G1 X58.035 Y23.763 F1000
G1 X57.932 Y23.763 F1000
G1 X57.623 Y24.072 F1000
G1 X57.520 Y24.072 F1000
G1 X57.211 Y24.381 F1000
G1 X57.108 Y24.381 F1000
G1 X57.005 Y24.484 F1000
G1 X56.902 Y24.484 F1000
G0 Z3.0 ; Pen up

G0 X56.799 Y24.381 F3000 ; Travel to line 156
G0 Z0.0 ; Pen down
G1 X56.902 Y24.484 F1000
G1 X56.799 Y24.587 F1000
G1 X56.696 Y24.484 F1000
G0 Z3.0 ; Pen up

G0 X57.005 Y25.205 F3000 ; Travel to line 157
G0 Z0.0 ; Pen down
G1 X57.108 Y25.308 F1000
G1 X57.005 Y25.411 F1000
G1 X56.902 Y25.308 F1000
G0 Z3.0 ; Pen up

G0 X57.211 Y25.205 F3000 ; Travel to line 158
G0 Z0.0 ; Pen down
G1 X57.314 Y25.308 F1000
G1 X57.417 Y25.205 F1000
G1 X57.314 Y25.102 F1000
G0 Z3.0 ; Pen up

G0 X57.520 Y25.102 F3000 ; Travel to line 159
G0 Z0.0 ; Pen down
G1 X57.623 Y25.205 F1000
G1 X57.726 Y25.102 F1000
G1 X57.623 Y24.999 F1000
G0 Z3.0 ; Pen up

G0 X57.829 Y24.999 F3000 ; Travel to line 160
G0 Z0.0 ; Pen down
G1 X57.932 Y25.102 F1000
G1 X58.035 Y24.999 F1000
G1 X57.932 Y24.896 F1000
G0 Z3.0 ; Pen up

G0 X58.138 Y24.896 F3000 ; Travel to line 161
G0 Z0.0 ; Pen down
G1 X58.241 Y24.999 F1000
G1 X58.344 Y24.896 F1000
G1 X58.241 Y24.793 F1000
G0 Z3.0 ; Pen up

G0 X58.241 Y24.690 F3000 ; Travel to line 162
G0 Z0.0 ; Pen down
G1 X58.344 Y24.793 F1000
G1 X58.447 Y24.690 F1000
G1 X58.344 Y24.587 F1000
G0 Z3.0 ; Pen up

G0 X58.447 Y24.587 F3000 ; Travel to line 163
G0 Z0.0 ; Pen down
G1 X58.550 Y24.690 F1000
G1 X58.653 Y24.690 F1000
G1 X58.756 Y24.587 F1000
G1 X58.653 Y24.484 F1000
G1 X58.550 Y24.484 F1000
G0 Z3.0 ; Pen up

G0 X58.550 Y24.690 F3000 ; Travel to line 164
G0 Z0.0 ; Pen down
G1 X58.653 Y24.793 F1000
G1 X58.550 Y24.896 F1000
G1 X58.447 Y24.793 F1000
G0 Z3.0 ; Pen up

G0 X58.756 Y24.690 F3000 ; Travel to line 165
G0 Z0.0 ; Pen down
G1 X58.859 Y24.793 F1000
G1 X58.962 Y24.690 F1000
G1 X58.859 Y24.587 F1000
G0 Z3.0 ; Pen up

G0 X58.756 Y24.484 F3000 ; Travel to line 166
G0 Z0.0 ; Pen down
G1 X58.859 Y24.587 F1000
G1 X58.962 Y24.587 F1000
G1 X59.065 Y24.484 F1000
G1 X58.962 Y24.381 F1000
G1 X58.859 Y24.381 F1000
G0 Z3.0 ; Pen up

G0 X58.962 Y24.381 F3000 ; Travel to line 167
G0 Z0.0 ; Pen down
G1 X59.065 Y24.484 F1000
G1 X59.271 Y24.484 F1000
G1 X59.374 Y24.381 F1000
G1 X59.580 Y24.381 F1000
G1 X59.683 Y24.278 F1000
G1 X59.889 Y24.278 F1000
G1 X59.992 Y24.175 F1000
G1 X60.198 Y24.175 F1000
G1 X60.301 Y24.072 F1000
G1 X60.507 Y24.072 F1000
G1 X60.610 Y23.969 F1000
G1 X60.816 Y23.969 F1000
G1 X60.919 Y23.866 F1000
G1 X61.125 Y23.866 F1000
G1 X61.228 Y23.763 F1000
G1 X61.434 Y23.763 F1000
G1 X61.537 Y23.660 F1000
G1 X61.743 Y23.660 F1000
G1 X61.846 Y23.557 F1000
G1 X61.846 Y23.454 F1000
G1 X61.743 Y23.351 F1000
G1 X61.743 Y23.248 F1000
G1 X61.640 Y23.145 F1000
G1 X61.434 Y23.145 F1000
G1 X61.331 Y23.248 F1000
G1 X61.228 Y23.248 F1000
G1 X61.125 Y23.351 F1000
G1 X61.022 Y23.351 F1000
G1 X60.919 Y23.454 F1000
G1 X60.816 Y23.454 F1000
G1 X60.713 Y23.557 F1000
G1 X60.610 Y23.557 F1000
G1 X60.507 Y23.660 F1000
G1 X60.301 Y23.660 F1000
G1 X60.198 Y23.763 F1000
G1 X60.095 Y23.763 F1000
G1 X59.992 Y23.866 F1000
G1 X59.889 Y23.866 F1000
G1 X59.786 Y23.969 F1000
G1 X59.683 Y23.969 F1000
G1 X59.580 Y24.072 F1000
G1 X59.477 Y24.072 F1000
G1 X59.374 Y24.175 F1000
G1 X59.271 Y24.175 F1000
G1 X59.168 Y24.278 F1000
G1 X59.065 Y24.278 F1000
G0 Z3.0 ; Pen up

G0 X59.168 Y24.484 F3000 ; Travel to line 168
G0 Z0.0 ; Pen down
G1 X59.271 Y24.587 F1000
G1 X59.168 Y24.690 F1000
G1 X59.065 Y24.587 F1000
G0 Z3.0 ; Pen up

G0 X59.374 Y24.484 F3000 ; Travel to line 169
G0 Z0.0 ; Pen down
G1 X59.477 Y24.587 F1000
G1 X59.580 Y24.484 F1000
G1 X59.477 Y24.381 F1000
G0 Z3.0 ; Pen up

G0 X59.683 Y24.381 F3000 ; Travel to line 170
G0 Z0.0 ; Pen down
G1 X59.786 Y24.484 F1000
G1 X59.889 Y24.381 F1000
G1 X59.786 Y24.278 F1000
G0 Z3.0 ; Pen up

G0 X59.992 Y24.278 F3000 ; Travel to line 171
G0 Z0.0 ; Pen down
G1 X60.095 Y24.381 F1000
G1 X60.198 Y24.278 F1000
G1 X60.095 Y24.175 F1000
G0 Z3.0 ; Pen up

G0 X60.301 Y24.175 F3000 ; Travel to line 172
G0 Z0.0 ; Pen down
G1 X60.404 Y24.278 F1000
G1 X60.507 Y24.175 F1000
G1 X60.404 Y24.072 F1000
G0 Z3.0 ; Pen up

G0 X60.610 Y24.072 F3000 ; Travel to line 173
G0 Z0.0 ; Pen down
G1 X60.713 Y24.175 F1000
G1 X60.816 Y24.072 F1000
G1 X60.713 Y23.969 F1000
G0 Z3.0 ; Pen up

G0 X60.919 Y23.969 F3000 ; Travel to line 174
G0 Z0.0 ; Pen down
G1 X61.022 Y24.072 F1000
G1 X61.125 Y23.969 F1000
G1 X61.022 Y23.866 F1000
G0 Z3.0 ; Pen up

G0 X61.228 Y23.866 F3000 ; Travel to line 175
G0 Z0.0 ; Pen down
G1 X61.331 Y23.969 F1000
G1 X61.434 Y23.866 F1000
G1 X61.331 Y23.763 F1000
G0 Z3.0 ; Pen up

G0 X61.537 Y23.763 F3000 ; Travel to line 176
G0 Z0.0 ; Pen down
G1 X61.640 Y23.866 F1000
G1 X61.743 Y23.763 F1000
G1 X61.640 Y23.660 F1000
G0 Z3.0 ; Pen up

G0 X61.846 Y23.557 F3000 ; Travel to line 177
G0 Z0.0 ; Pen down
G1 X61.949 Y23.660 F1000
G1 X62.052 Y23.660 F1000
G1 X62.155 Y23.557 F1000
G1 X62.155 Y23.454 F1000
G1 X62.361 Y23.454 F1000
G1 X62.464 Y23.351 F1000
G1 X62.670 Y23.351 F1000
G1 X62.773 Y23.248 F1000
G1 X62.979 Y23.248 F1000
G1 X63.082 Y23.145 F1000
G1 X63.288 Y23.145 F1000
G1 X63.391 Y23.042 F1000
G1 X63.597 Y23.042 F1000
G1 X63.700 Y22.939 F1000
G1 X63.906 Y22.939 F1000
G1 X64.009 Y22.836 F1000
G1 X64.215 Y22.836 F1000
G1 X64.318 Y22.733 F1000
G1 X64.833 Y22.733 F1000
G1 X64.936 Y22.630 F1000
G1 X65.142 Y22.630 F1000
G1 X65.245 Y22.527 F1000
G1 X65.451 Y22.527 F1000
G1 X65.554 Y22.424 F1000
G1 X65.863 Y22.424 F1000
G1 X65.966 Y22.321 F1000
G1 X66.069 Y22.321 F1000
G1 X66.172 Y22.218 F1000
G1 X66.172 Y21.806 F1000
G1 X66.275 Y21.703 F1000
G1 X66.275 Y21.394 F1000
G1 X66.378 Y21.291 F1000
G1 X66.378 Y20.982 F1000
G1 X66.275 Y20.879 F1000
G1 X66.172 Y20.982 F1000
G1 X66.069 Y20.982 F1000
G1 X65.966 Y21.085 F1000
G1 X65.863 Y21.085 F1000
G1 X65.760 Y21.188 F1000
G1 X65.657 Y21.188 F1000
G1 X65.554 Y21.291 F1000
G1 X65.451 Y21.291 F1000
G1 X65.348 Y21.394 F1000
G1 X65.142 Y21.394 F1000
G1 X65.039 Y21.497 F1000
G1 X64.936 Y21.497 F1000
G1 X64.833 Y21.600 F1000
G1 X64.730 Y21.600 F1000
G1 X64.627 Y21.703 F1000
G1 X64.524 Y21.703 F1000
G1 X64.421 Y21.806 F1000
G1 X64.318 Y21.806 F1000
G1 X64.215 Y21.909 F1000
G1 X64.112 Y21.909 F1000
G1 X64.009 Y22.012 F1000
G1 X63.906 Y22.012 F1000
G1 X63.803 Y22.115 F1000
G1 X63.700 Y22.115 F1000
G1 X63.597 Y22.218 F1000
G1 X63.391 Y22.218 F1000
G1 X63.288 Y22.321 F1000
G1 X63.185 Y22.321 F1000
G1 X63.082 Y22.424 F1000
G1 X62.979 Y22.424 F1000
G1 X62.876 Y22.527 F1000
G1 X62.773 Y22.527 F1000
G1 X62.670 Y22.630 F1000
G1 X62.567 Y22.630 F1000
G1 X62.464 Y22.733 F1000
G1 X62.361 Y22.733 F1000
G1 X62.258 Y22.836 F1000
G1 X62.155 Y22.836 F1000
G1 X62.052 Y22.939 F1000
G1 X61.743 Y22.939 F1000
G1 X61.640 Y23.042 F1000
G1 X61.640 Y23.145 F1000
G1 X61.743 Y23.248 F1000
G1 X61.743 Y23.351 F1000
G1 X61.846 Y23.454 F1000
G0 Z3.0 ; Pen up

G0 X62.155 Y23.557 F3000 ; Travel to line 178
G0 Z0.0 ; Pen down
G1 X62.258 Y23.660 F1000
G1 X62.361 Y23.557 F1000
G1 X62.258 Y23.454 F1000
G0 Z3.0 ; Pen up

G0 X62.464 Y23.454 F3000 ; Travel to line 179
G0 Z0.0 ; Pen down
G1 X62.567 Y23.557 F1000
G1 X62.670 Y23.454 F1000
G1 X62.567 Y23.351 F1000
G0 Z3.0 ; Pen up

G0 X62.773 Y23.351 F3000 ; Travel to line 180
G0 Z0.0 ; Pen down
G1 X62.876 Y23.454 F1000
G1 X62.979 Y23.351 F1000
G1 X62.876 Y23.248 F1000
G0 Z3.0 ; Pen up

G0 X63.082 Y23.248 F3000 ; Travel to line 181
G0 Z0.0 ; Pen down
G1 X63.185 Y23.351 F1000
G1 X63.288 Y23.248 F1000
G1 X63.185 Y23.145 F1000
G0 Z3.0 ; Pen up

G0 X63.391 Y23.145 F3000 ; Travel to line 182
G0 Z0.0 ; Pen down
G1 X63.494 Y23.248 F1000
G1 X63.597 Y23.145 F1000
G1 X63.494 Y23.042 F1000
G0 Z3.0 ; Pen up

G0 X63.700 Y23.042 F3000 ; Travel to line 183
G0 Z0.0 ; Pen down
G1 X63.803 Y23.145 F1000
G1 X63.906 Y23.042 F1000
G1 X63.803 Y22.939 F1000
G0 Z3.0 ; Pen up

G0 X64.009 Y22.939 F3000 ; Travel to line 184
G0 Z0.0 ; Pen down
G1 X64.112 Y23.042 F1000
G1 X64.215 Y22.939 F1000
G1 X64.112 Y22.836 F1000
G0 Z3.0 ; Pen up

G0 X64.318 Y22.836 F3000 ; Travel to line 185
G0 Z0.0 ; Pen down
G1 X64.421 Y22.939 F1000
G1 X64.524 Y22.836 F1000
G1 X64.421 Y22.733 F1000
G0 Z3.0 ; Pen up

G0 X66.172 Y22.012 F3000 ; Travel to line 186
G0 Z0.0 ; Pen down
G1 X66.275 Y22.115 F1000
G1 X66.687 Y22.115 F1000
G1 X66.790 Y22.012 F1000
G1 X66.996 Y22.012 F1000
G1 X67.099 Y21.909 F1000
G1 X67.305 Y21.909 F1000
G1 X67.408 Y21.806 F1000
G1 X67.717 Y21.806 F1000
G1 X67.923 Y21.600 F1000
G1 X67.820 Y21.497 F1000
G1 X67.820 Y21.188 F1000
G1 X67.717 Y21.085 F1000
G1 X67.717 Y20.467 F1000
G1 X67.614 Y20.364 F1000
G1 X67.408 Y20.364 F1000
G1 X67.305 Y20.467 F1000
G1 X67.202 Y20.467 F1000
G1 X67.099 Y20.570 F1000
G1 X66.996 Y20.570 F1000
G1 X66.893 Y20.673 F1000
G1 X66.584 Y20.673 F1000
G1 X66.378 Y20.879 F1000
G1 X66.378 Y21.291 F1000
G1 X66.275 Y21.394 F1000
G1 X66.275 Y21.703 F1000
G1 X66.172 Y21.806 F1000
G0 Z3.0 ; Pen up

G0 X66.481 Y20.570 F3000 ; Travel to line 187
G0 Z0.0 ; Pen down
G1 X66.584 Y20.673 F1000
G1 X66.790 Y20.673 F1000
G1 X66.893 Y20.570 F1000
G1 X66.996 Y20.570 F1000
G1 X67.099 Y20.467 F1000
G1 X67.202 Y20.467 F1000
G1 X67.305 Y20.364 F1000
G1 X67.202 Y20.261 F1000
G1 X66.687 Y20.261 F1000
G1 X66.481 Y20.467 F1000
G0 Z3.0 ; Pen up

G0 X66.584 Y20.158 F3000 ; Travel to line 188
G0 Z0.0 ; Pen down
G1 X66.687 Y20.261 F1000
G1 X67.099 Y20.261 F1000
G1 X67.202 Y20.158 F1000
G1 X66.996 Y19.952 F1000
G1 X66.790 Y19.952 F1000
G1 X66.790 Y19.952 F1000
G1 X66.687 Y19.849 F1000
G1 X66.687 Y19.746 F1000
G1 X66.790 Y19.643 F1000
G1 X66.790 Y19.540 F1000
G1 X66.893 Y19.437 F1000
G1 X67.099 Y19.437 F1000
G1 X67.202 Y19.540 F1000
G1 X67.202 Y19.643 F1000
G1 X67.305 Y19.746 F1000
G1 X67.305 Y19.952 F1000
G1 X67.202 Y20.055 F1000
G1 X67.099 Y20.055 F1000
G1 X66.996 Y19.952 F1000
G0 Z3.0 ; Pen up

G0 X66.687 Y19.746 F3000 ; Travel to line 189
G0 Z0.0 ; Pen down
G1 X66.790 Y19.643 F1000
G1 X66.790 Y19.540 F1000
G1 X66.687 Y19.437 F1000
G1 X66.584 Y19.437 F1000
G1 X66.481 Y19.540 F1000
G0 Z3.0 ; Pen up

G0 X66.172 Y19.437 F3000 ; Travel to line 190
G0 Z0.0 ; Pen down
G1 X66.275 Y19.540 F1000
G1 X66.378 Y19.540 F1000
G1 X66.481 Y19.437 F1000
G1 X66.687 Y19.437 F1000
G1 X66.893 Y19.231 F1000
G1 X66.893 Y19.128 F1000
G1 X66.996 Y19.025 F1000
G1 X66.893 Y18.922 F1000
G1 X66.687 Y18.922 F1000
G1 X66.584 Y18.819 F1000
G1 X66.481 Y18.819 F1000
G1 X66.378 Y18.716 F1000
G1 X66.172 Y18.716 F1000
G1 X66.069 Y18.613 F1000
G1 X65.863 Y18.613 F1000
G1 X65.760 Y18.510 F1000
G1 X65.657 Y18.510 F1000
G1 X65.554 Y18.407 F1000
G1 X65.348 Y18.407 F1000
G1 X65.245 Y18.304 F1000
G1 X65.039 Y18.304 F1000
G1 X64.936 Y18.201 F1000
G1 X64.730 Y18.201 F1000
G1 X64.627 Y18.304 F1000
G1 X64.627 Y18.407 F1000
G1 X64.833 Y18.613 F1000
G1 X64.936 Y18.613 F1000
G1 X65.142 Y18.819 F1000
G1 X65.245 Y18.819 F1000
G1 X65.451 Y19.025 F1000
G1 X65.554 Y19.025 F1000
G1 X65.657 Y19.128 F1000
G1 X65.760 Y19.128 F1000
G1 X65.863 Y19.231 F1000
G1 X65.863 Y19.334 F1000
G1 X65.966 Y19.437 F1000
G0 Z3.0 ; Pen up

G0 X66.790 Y19.334 F3000 ; Travel to line 191
G0 Z0.0 ; Pen down
G1 X66.893 Y19.437 F1000
G1 X67.099 Y19.437 F1000
G1 X67.202 Y19.334 F1000
G1 X66.996 Y19.128 F1000
G0 Z3.0 ; Pen up

G0 X66.893 Y18.819 F3000 ; Travel to line 192
G0 Z0.0 ; Pen down
G1 X66.996 Y18.922 F1000
G1 X67.305 Y18.613 F1000
G1 X67.305 Y18.510 F1000
G1 X67.408 Y18.407 F1000
G1 X67.408 Y18.304 F1000
G1 X67.614 Y18.098 F1000
G1 X67.614 Y17.995 F1000
G1 X67.717 Y17.892 F1000
G1 X67.717 Y17.789 F1000
G1 X67.820 Y17.686 F1000
G1 X67.820 Y17.583 F1000
G1 X68.026 Y17.377 F1000
G1 X68.026 Y17.274 F1000
G1 X68.129 Y17.171 F1000
G1 X68.129 Y17.068 F1000
G1 X68.232 Y16.965 F1000
G1 X68.232 Y16.862 F1000
G1 X68.335 Y16.759 F1000
G1 X68.232 Y16.656 F1000
G1 X67.408 Y16.656 F1000
G1 X67.408 Y16.553 F1000
G1 X67.305 Y16.450 F1000
G1 X66.069 Y16.450 F1000
G1 X65.966 Y16.553 F1000
G1 X66.069 Y16.656 F1000
G1 X66.069 Y16.759 F1000
G1 X66.172 Y16.862 F1000
G1 X66.172 Y17.068 F1000
G1 X66.275 Y17.171 F1000
G1 X66.275 Y17.274 F1000
G1 X66.378 Y17.377 F1000
G1 X66.378 Y17.480 F1000
G1 X66.481 Y17.583 F1000
G1 X66.481 Y17.789 F1000
G1 X66.584 Y17.892 F1000
G1 X66.584 Y17.995 F1000
G1 X66.687 Y18.098 F1000
G1 X66.687 Y18.304 F1000
G1 X66.790 Y18.407 F1000
G1 X66.790 Y18.510 F1000
G1 X66.893 Y18.613 F1000
G0 Z3.0 ; Pen up

G0 X66.687 Y18.819 F3000 ; Travel to line 193
G0 Z0.0 ; Pen down
G1 X66.790 Y18.922 F1000
G1 X66.893 Y18.819 F1000
G1 X66.893 Y18.613 F1000
G1 X66.790 Y18.510 F1000
G1 X66.790 Y18.407 F1000
G1 X66.687 Y18.304 F1000
G1 X66.687 Y18.098 F1000
G1 X66.584 Y17.995 F1000
G1 X66.584 Y17.892 F1000
G1 X66.481 Y17.789 F1000
G1 X66.481 Y17.583 F1000
G1 X66.378 Y17.480 F1000
G1 X66.378 Y17.377 F1000
G1 X66.275 Y17.274 F1000
G1 X66.275 Y17.171 F1000
G1 X66.172 Y17.068 F1000
G1 X66.172 Y16.862 F1000
G1 X66.069 Y16.759 F1000
G1 X66.069 Y16.656 F1000
G1 X65.863 Y16.450 F1000
G1 X65.760 Y16.450 F1000
G1 X65.657 Y16.553 F1000
G1 X65.657 Y16.656 F1000
G1 X65.554 Y16.759 F1000
G1 X65.554 Y16.862 F1000
G1 X65.245 Y17.171 F1000
G1 X65.245 Y17.274 F1000
G1 X65.039 Y17.480 F1000
G1 X65.039 Y17.583 F1000
G1 X64.730 Y17.892 F1000
G1 X64.730 Y18.098 F1000
G1 X64.833 Y18.201 F1000
G1 X65.039 Y18.201 F1000
G1 X65.142 Y18.304 F1000
G1 X65.348 Y18.304 F1000
G1 X65.451 Y18.407 F1000
G1 X65.657 Y18.407 F1000
G1 X65.760 Y18.510 F1000
G1 X65.863 Y18.510 F1000
G1 X65.966 Y18.613 F1000
G1 X66.172 Y18.613 F1000
G1 X66.275 Y18.716 F1000
G1 X66.481 Y18.716 F1000
G1 X66.584 Y18.819 F1000
G0 Z3.0 ; Pen up

G0 X67.408 Y19.437 F3000 ; Travel to line 194
G0 Z0.0 ; Pen down
G1 X67.305 Y19.334 F1000
G1 X67.202 Y19.334 F1000
G1 X67.099 Y19.231 F1000
G1 X67.099 Y19.128 F1000
G1 X66.996 Y19.025 F1000
G1 X66.996 Y18.922 F1000
G1 X67.099 Y18.819 F1000
G1 X67.202 Y18.819 F1000
G1 X67.202 Y18.716 F1000
G1 X67.305 Y18.613 F1000
G1 X67.305 Y18.510 F1000
G1 X67.511 Y18.304 F1000
G1 X67.511 Y18.201 F1000
G1 X67.614 Y18.098 F1000
G1 X67.614 Y17.995 F1000
G1 X67.717 Y17.892 F1000
G1 X67.717 Y17.789 F1000
G1 X67.923 Y17.583 F1000
G1 X67.923 Y17.480 F1000
G1 X68.026 Y17.377 F1000
G1 X68.026 Y17.274 F1000
G1 X68.129 Y17.171 F1000
G1 X68.129 Y17.068 F1000
G1 X68.438 Y16.759 F1000
G1 X69.365 Y16.759 F1000
G1 X69.468 Y16.862 F1000
G1 X70.292 Y16.862 F1000
G1 X70.395 Y16.965 F1000
G1 X71.322 Y16.965 F1000
G1 X71.425 Y17.068 F1000
G1 X72.352 Y17.068 F1000
G1 X72.455 Y17.171 F1000
G1 X72.764 Y17.171 F1000
G1 X72.970 Y17.377 F1000
G1 X72.970 Y17.583 F1000
G1 X73.073 Y17.686 F1000
G1 X73.073 Y17.892 F1000
G1 X73.176 Y17.995 F1000
G1 X73.176 Y18.098 F1000
G1 X73.279 Y18.201 F1000
G1 X73.279 Y18.407 F1000
G1 X73.382 Y18.510 F1000
G1 X73.382 Y18.716 F1000
G1 X73.485 Y18.819 F1000
G1 X73.485 Y19.025 F1000
G1 X73.382 Y19.128 F1000
G1 X72.970 Y19.128 F1000
G1 X72.867 Y19.231 F1000
G1 X72.455 Y19.231 F1000
G1 X72.455 Y19.334 F1000
G1 X72.352 Y19.437 F1000
G1 X71.425 Y19.437 F1000
G1 X71.322 Y19.540 F1000
G1 X71.116 Y19.540 F1000
G1 X71.013 Y19.437 F1000
G1 X67.820 Y19.437 F1000
G1 X67.717 Y19.540 F1000
G1 X67.614 Y19.540 F1000
G1 X67.511 Y19.437 F1000
G0 Z3.0 ; Pen up

G0 X68.232 Y19.952 F3000 ; Travel to line 195
G0 Z0.0 ; Pen down
G1 X68.129 Y19.849 F1000
G1 X68.026 Y19.849 F1000
G1 X67.820 Y19.643 F1000
G1 X67.820 Y19.540 F1000
G1 X67.923 Y19.437 F1000
G1 X70.910 Y19.437 F1000
G1 X71.013 Y19.540 F1000
G1 X70.910 Y19.643 F1000
G1 X70.498 Y19.643 F1000
G1 X70.395 Y19.746 F1000
G1 X69.983 Y19.746 F1000
G1 X69.880 Y19.849 F1000
G1 X69.468 Y19.849 F1000
G1 X69.365 Y19.952 F1000
G1 X68.953 Y19.952 F1000
G1 X68.850 Y20.055 F1000
G1 X68.644 Y20.055 F1000
G1 X68.541 Y20.158 F1000
G1 X68.335 Y20.158 F1000
G1 X68.232 Y20.055 F1000
G0 Z3.0 ; Pen up

G0 X68.232 Y20.570 F3000 ; Travel to line 196
G0 Z0.0 ; Pen down
G1 X68.129 Y20.467 F1000
G1 X67.923 Y20.467 F1000
G1 X67.820 Y20.364 F1000
G1 X67.923 Y20.261 F1000
G1 X68.026 Y20.261 F1000
G1 X68.129 Y20.158 F1000
G1 X68.541 Y20.158 F1000
G1 X68.953 Y20.570 F1000
G1 X68.850 Y20.673 F1000
G1 X68.541 Y20.673 F1000
G1 X68.438 Y20.570 F1000
G0 Z3.0 ; Pen up

G0 X68.850 Y20.673 F3000 ; Travel to line 197
G0 Z0.0 ; Pen down
G1 X68.953 Y20.776 F1000
G1 X69.056 Y20.673 F1000
G1 X68.953 Y20.570 F1000
G0 Z3.0 ; Pen up

G0 X69.468 Y20.879 F3000 ; Travel to line 198
G0 Z0.0 ; Pen down
G1 X69.365 Y20.879 F1000
G1 X69.262 Y20.776 F1000
G1 X69.159 Y20.776 F1000
G1 X69.056 Y20.673 F1000
G1 X69.056 Y20.570 F1000
G1 X68.953 Y20.467 F1000
G1 X68.850 Y20.467 F1000
G1 X68.644 Y20.261 F1000
G1 X68.644 Y20.158 F1000
G1 X68.747 Y20.055 F1000
G1 X68.953 Y20.055 F1000
G1 X69.056 Y19.952 F1000
G1 X69.468 Y19.952 F1000
G1 X69.571 Y19.849 F1000
G1 X69.983 Y19.849 F1000
G1 X70.086 Y19.746 F1000
G1 X70.498 Y19.746 F1000
G1 X70.601 Y19.643 F1000
G1 X71.013 Y19.643 F1000
G1 X71.116 Y19.540 F1000
G1 X71.322 Y19.540 F1000
G1 X71.425 Y19.437 F1000
G1 X73.588 Y19.437 F1000
G1 X73.691 Y19.540 F1000
G1 X73.588 Y19.643 F1000
G1 X73.485 Y19.643 F1000
G1 X73.382 Y19.746 F1000
G1 X73.176 Y19.746 F1000
G1 X73.073 Y19.849 F1000
G1 X72.867 Y19.849 F1000
G1 X72.764 Y19.952 F1000
G1 X72.558 Y19.952 F1000
G1 X72.455 Y20.055 F1000
G1 X72.249 Y20.055 F1000
G1 X72.146 Y20.158 F1000
G1 X71.940 Y20.158 F1000
G1 X71.837 Y20.261 F1000
G1 X71.631 Y20.261 F1000
G1 X71.528 Y20.364 F1000
G1 X71.322 Y20.364 F1000
G1 X71.219 Y20.467 F1000
G1 X71.013 Y20.467 F1000
G1 X70.910 Y20.570 F1000
G1 X70.704 Y20.570 F1000
G1 X70.601 Y20.673 F1000
G1 X70.395 Y20.673 F1000
G1 X70.292 Y20.776 F1000
G1 X70.086 Y20.776 F1000
G1 X69.983 Y20.879 F1000
G1 X69.777 Y20.879 F1000
G1 X69.777 Y20.982 F1000
G1 X69.674 Y21.085 F1000
G1 X69.571 Y21.085 F1000
G1 X69.468 Y20.982 F1000
G0 Z3.0 ; Pen up

G0 X69.262 Y21.085 F3000 ; Travel to line 199
G0 Z0.0 ; Pen down
G1 X69.365 Y21.188 F1000
G1 X69.262 Y21.291 F1000
G1 X69.159 Y21.188 F1000
G0 Z3.0 ; Pen up

G0 X68.953 Y21.188 F3000 ; Travel to line 200
G0 Z0.0 ; Pen down
G1 X69.056 Y21.291 F1000
G1 X68.953 Y21.394 F1000
G1 X68.850 Y21.291 F1000
G0 Z3.0 ; Pen up

G0 X68.644 Y21.291 F3000 ; Travel to line 201
G0 Z0.0 ; Pen down
G1 X68.747 Y21.394 F1000
G1 X68.644 Y21.497 F1000
G1 X68.541 Y21.394 F1000
G0 Z3.0 ; Pen up

G0 X68.335 Y21.394 F3000 ; Travel to line 202
G0 Z0.0 ; Pen down
G1 X68.438 Y21.497 F1000
G1 X68.335 Y21.600 F1000
G1 X68.232 Y21.497 F1000
G0 Z3.0 ; Pen up

G0 X68.335 Y21.291 F3000 ; Travel to line 203
G0 Z0.0 ; Pen down
G1 X68.438 Y21.394 F1000
G1 X68.541 Y21.291 F1000
G1 X68.747 Y21.291 F1000
G1 X68.850 Y21.188 F1000
G1 X69.056 Y21.188 F1000
G1 X69.159 Y21.085 F1000
G1 X69.365 Y21.085 F1000
G1 X69.468 Y20.982 F1000
G1 X69.365 Y20.879 F1000
G1 X69.262 Y20.879 F1000
G1 X69.159 Y20.776 F1000
G1 X68.850 Y20.776 F1000
G1 X68.747 Y20.673 F1000
G1 X68.541 Y20.673 F1000
G1 X68.438 Y20.570 F1000
G1 X68.129 Y20.570 F1000
G1 X68.026 Y20.467 F1000
G1 X67.820 Y20.467 F1000
G1 X67.717 Y20.570 F1000
G1 X67.717 Y20.673 F1000
G1 X67.820 Y20.776 F1000
G1 X67.923 Y20.776 F1000
G1 X68.335 Y21.188 F1000
G0 Z3.0 ; Pen up

G0 X67.820 Y21.188 F3000 ; Travel to line 204
G0 Z0.0 ; Pen down
G1 X67.717 Y21.085 F1000
G1 X67.923 Y20.879 F1000
G1 X68.026 Y20.879 F1000
G1 X68.335 Y21.188 F1000
G1 X68.335 Y21.291 F1000
G1 X68.232 Y21.394 F1000
G1 X68.232 Y21.497 F1000
G1 X68.129 Y21.600 F1000
G1 X67.923 Y21.600 F1000
G1 X67.820 Y21.497 F1000
G0 Z3.0 ; Pen up

G0 X67.717 Y20.879 F3000 ; Travel to line 205
G0 Z0.0 ; Pen down
G1 X67.820 Y20.982 F1000
G1 X67.923 Y20.879 F1000
G1 X67.820 Y20.776 F1000
G0 Z3.0 ; Pen up

G0 X67.614 Y20.364 F3000 ; Travel to line 206
G0 Z0.0 ; Pen down
G1 X67.717 Y20.467 F1000
G1 X67.820 Y20.364 F1000
G1 X67.820 Y20.261 F1000
G1 X67.923 Y20.261 F1000
G1 X68.026 Y20.158 F1000
G1 X68.129 Y20.158 F1000
G1 X68.232 Y20.055 F1000
G1 X68.232 Y19.952 F1000
G1 X68.129 Y19.849 F1000
G1 X68.026 Y19.849 F1000
G1 X67.717 Y19.540 F1000
G1 X67.614 Y19.540 F1000
G1 X67.511 Y19.437 F1000
G1 X67.408 Y19.437 F1000
G1 X67.305 Y19.334 F1000
G1 X67.202 Y19.437 F1000
G1 X67.202 Y19.643 F1000
G1 X67.305 Y19.746 F1000
G1 X67.305 Y20.055 F1000
G1 X67.202 Y20.158 F1000
G1 X67.408 Y20.364 F1000
G0 Z3.0 ; Pen up

G0 X69.777 Y20.982 F3000 ; Travel to line 207
G0 Z0.0 ; Pen down
G1 X69.880 Y21.085 F1000
G1 X69.983 Y20.982 F1000
G1 X69.880 Y20.879 F1000
G0 Z3.0 ; Pen up

G0 X70.086 Y20.879 F3000 ; Travel to line 208
G0 Z0.0 ; Pen down
G1 X70.189 Y20.982 F1000
G1 X70.292 Y20.879 F1000
G1 X70.189 Y20.776 F1000
G0 Z3.0 ; Pen up

G0 X70.395 Y20.776 F3000 ; Travel to line 209
G0 Z0.0 ; Pen down
G1 X70.498 Y20.879 F1000
G1 X70.601 Y20.776 F1000
G1 X70.498 Y20.673 F1000
G0 Z3.0 ; Pen up

G0 X70.704 Y20.673 F3000 ; Travel to line 210
G0 Z0.0 ; Pen down
G1 X70.807 Y20.776 F1000
G1 X70.910 Y20.673 F1000
G1 X70.807 Y20.570 F1000
G0 Z3.0 ; Pen up

G0 X71.013 Y20.570 F3000 ; Travel to line 211
G0 Z0.0 ; Pen down
G1 X71.116 Y20.673 F1000
G1 X71.219 Y20.570 F1000
G1 X71.116 Y20.467 F1000
G0 Z3.0 ; Pen up

G0 X71.322 Y20.467 F3000 ; Travel to line 212
G0 Z0.0 ; Pen down
G1 X71.425 Y20.570 F1000
G1 X71.528 Y20.467 F1000
G1 X71.425 Y20.364 F1000
G0 Z3.0 ; Pen up

G0 X71.631 Y20.364 F3000 ; Travel to line 213
G0 Z0.0 ; Pen down
G1 X71.734 Y20.467 F1000
G1 X71.837 Y20.364 F1000
G1 X71.734 Y20.261 F1000
G0 Z3.0 ; Pen up

G0 X71.940 Y20.261 F3000 ; Travel to line 214
G0 Z0.0 ; Pen down
G1 X72.043 Y20.364 F1000
G1 X72.146 Y20.261 F1000
G1 X72.043 Y20.158 F1000
G0 Z3.0 ; Pen up

G0 X72.249 Y20.158 F3000 ; Travel to line 215
G0 Z0.0 ; Pen down
G1 X72.352 Y20.261 F1000
G1 X72.455 Y20.158 F1000
G1 X72.352 Y20.055 F1000
G0 Z3.0 ; Pen up

G0 X72.558 Y20.055 F3000 ; Travel to line 216
G0 Z0.0 ; Pen down
G1 X72.661 Y20.158 F1000
G1 X72.764 Y20.055 F1000
G1 X72.661 Y19.952 F1000
G0 Z3.0 ; Pen up

G0 X72.867 Y19.952 F3000 ; Travel to line 217
G0 Z0.0 ; Pen down
G1 X72.970 Y20.055 F1000
G1 X73.073 Y19.952 F1000
G1 X72.970 Y19.849 F1000
G0 Z3.0 ; Pen up

G0 X73.176 Y19.849 F3000 ; Travel to line 218
G0 Z0.0 ; Pen down
G1 X73.279 Y19.952 F1000
G1 X73.382 Y19.849 F1000
G1 X73.279 Y19.746 F1000
G0 Z3.0 ; Pen up

G0 X73.485 Y19.746 F3000 ; Travel to line 219
G0 Z0.0 ; Pen down
G1 X73.588 Y19.849 F1000
G1 X73.691 Y19.746 F1000
G1 X73.588 Y19.643 F1000
G0 Z3.0 ; Pen up

G0 X73.794 Y19.643 F3000 ; Travel to line 220
G0 Z0.0 ; Pen down
G1 X73.897 Y19.746 F1000
G1 X74.000 Y19.643 F1000
G1 X73.897 Y19.540 F1000
G0 Z3.0 ; Pen up

G0 X73.794 Y19.540 F3000 ; Travel to line 221
G0 Z0.0 ; Pen down
G1 X74.309 Y19.540 F1000
G1 X74.412 Y19.437 F1000
G1 X74.412 Y19.334 F1000
G1 X74.618 Y19.334 F1000
G1 X74.721 Y19.231 F1000
G1 X74.927 Y19.231 F1000
G1 X75.030 Y19.128 F1000
G1 X75.236 Y19.128 F1000
G1 X75.339 Y19.025 F1000
G1 X75.545 Y19.025 F1000
G1 X75.648 Y18.922 F1000
G1 X75.854 Y18.922 F1000
G1 X75.957 Y18.819 F1000
G1 X76.163 Y18.819 F1000
G1 X76.266 Y18.716 F1000
G1 X76.472 Y18.716 F1000
G1 X76.575 Y18.613 F1000
G1 X76.781 Y18.613 F1000
G1 X76.884 Y18.510 F1000
G1 X76.781 Y18.407 F1000
G1 X76.472 Y18.407 F1000
G1 X76.369 Y18.510 F1000
G1 X75.957 Y18.510 F1000
G1 X75.854 Y18.613 F1000
G1 X75.545 Y18.613 F1000
G1 X75.442 Y18.716 F1000
G1 X75.030 Y18.716 F1000
G1 X74.927 Y18.819 F1000
G1 X74.515 Y18.819 F1000
G1 X74.412 Y18.922 F1000
G1 X74.000 Y18.922 F1000
G1 X73.897 Y19.025 F1000
G1 X73.691 Y19.025 F1000
G1 X73.588 Y19.128 F1000
G1 X73.588 Y19.334 F1000
G0 Z3.0 ; Pen up

G0 X73.485 Y18.922 F3000 ; Travel to line 222
G0 Z0.0 ; Pen down
G1 X73.588 Y19.025 F1000
G1 X73.794 Y19.025 F1000
G1 X73.897 Y18.922 F1000
G1 X74.309 Y18.922 F1000
G1 X74.412 Y18.819 F1000
G1 X74.824 Y18.819 F1000
G1 X74.927 Y18.716 F1000
G1 X75.339 Y18.716 F1000
G1 X75.442 Y18.613 F1000
G1 X75.751 Y18.613 F1000
G1 X75.854 Y18.510 F1000
G1 X76.266 Y18.510 F1000
G1 X76.369 Y18.407 F1000
G1 X76.781 Y18.407 F1000
G1 X76.884 Y18.304 F1000
G1 X77.193 Y18.304 F1000
G1 X77.296 Y18.407 F1000
G1 X77.399 Y18.304 F1000
G1 X77.708 Y18.304 F1000
G1 X77.811 Y18.201 F1000
G1 X78.017 Y18.201 F1000
G1 X78.120 Y18.098 F1000
G1 X78.326 Y18.098 F1000
G1 X78.429 Y17.995 F1000
G1 X78.635 Y17.995 F1000
G1 X78.738 Y17.892 F1000
G1 X78.635 Y17.789 F1000
G1 X78.326 Y17.789 F1000
G1 X78.223 Y17.686 F1000
G1 X77.399 Y17.686 F1000
G1 X77.296 Y17.583 F1000
G1 X76.369 Y17.583 F1000
G1 X76.266 Y17.480 F1000
G1 X75.339 Y17.480 F1000
G1 X75.236 Y17.377 F1000
G1 X74.412 Y17.377 F1000
G1 X74.309 Y17.274 F1000
G1 X73.382 Y17.274 F1000
G1 X73.279 Y17.171 F1000
G1 X72.970 Y17.171 F1000
G1 X72.867 Y17.274 F1000
G1 X72.970 Y17.377 F1000
G1 X72.970 Y17.583 F1000
G1 X73.073 Y17.686 F1000
G1 X73.073 Y17.892 F1000
G1 X73.176 Y17.995 F1000
G1 X73.176 Y18.098 F1000
G1 X73.279 Y18.201 F1000
G1 X73.279 Y18.407 F1000
G1 X73.382 Y18.510 F1000
G1 X73.382 Y18.716 F1000
G1 X73.485 Y18.819 F1000
G0 Z3.0 ; Pen up

G0 X72.558 Y19.231 F3000 ; Travel to line 223
G0 Z0.0 ; Pen down
G1 X72.970 Y19.231 F1000
G1 X73.073 Y19.128 F1000
G1 X73.382 Y19.128 F1000
G1 X73.485 Y19.025 F1000
G1 X73.588 Y19.128 F1000
G1 X73.588 Y19.334 F1000
G1 X73.485 Y19.437 F1000
G1 X72.558 Y19.437 F1000
G1 X72.455 Y19.334 F1000
G0 Z3.0 ; Pen up

G0 X72.867 Y20.055 F3000 ; Travel to line 224
G0 Z0.0 ; Pen down
G1 X72.970 Y20.055 F1000
G1 X73.073 Y20.158 F1000
G1 X72.970 Y20.261 F1000
G1 X72.867 Y20.261 F1000
G1 X72.764 Y20.158 F1000
G0 Z3.0 ; Pen up

G0 X73.073 Y20.055 F3000 ; Travel to line 225
G0 Z0.0 ; Pen down
G1 X73.176 Y20.158 F1000
G1 X73.279 Y20.055 F1000
G1 X73.176 Y19.952 F1000
G0 Z3.0 ; Pen up

G0 X74.103 Y22.424 F3000 ; Travel to line 226
G0 Z0.0 ; Pen down
G1 X74.000 Y22.321 F1000
G1 X73.794 Y22.321 F1000
G1 X73.691 Y22.218 F1000
G1 X73.485 Y22.218 F1000
G1 X73.382 Y22.115 F1000
G1 X73.176 Y22.115 F1000
G1 X73.073 Y22.012 F1000
G1 X72.867 Y22.012 F1000
G1 X72.764 Y21.909 F1000
G1 X72.455 Y21.909 F1000
G1 X72.352 Y21.806 F1000
G1 X72.146 Y21.806 F1000
G1 X72.043 Y21.703 F1000
G1 X71.837 Y21.703 F1000
G1 X71.734 Y21.600 F1000
G1 X71.528 Y21.600 F1000
G1 X71.425 Y21.497 F1000
G1 X71.322 Y21.497 F1000
G1 X71.219 Y21.394 F1000
G1 X71.425 Y21.188 F1000
G1 X71.528 Y21.188 F1000
G1 X71.631 Y21.085 F1000
G1 X71.734 Y21.085 F1000
G1 X71.940 Y20.879 F1000
G1 X72.043 Y20.879 F1000
G1 X72.146 Y20.776 F1000
G1 X72.249 Y20.776 F1000
G1 X72.455 Y20.570 F1000
G1 X72.558 Y20.570 F1000
G1 X72.661 Y20.467 F1000
G1 X72.764 Y20.467 F1000
G1 X72.970 Y20.261 F1000
G1 X73.073 Y20.261 F1000
G1 X73.176 Y20.158 F1000
G1 X73.279 Y20.158 F1000
G1 X73.279 Y20.055 F1000
G1 X73.485 Y19.849 F1000
G1 X73.691 Y19.849 F1000
G1 X73.794 Y19.746 F1000
G1 X73.897 Y19.849 F1000
G1 X73.897 Y20.055 F1000
G1 X74.000 Y20.158 F1000
G1 X74.000 Y20.364 F1000
G1 X74.103 Y20.467 F1000
G1 X74.103 Y20.673 F1000
G1 X74.206 Y20.776 F1000
G1 X74.206 Y20.879 F1000
G1 X74.309 Y20.982 F1000
G1 X74.309 Y21.188 F1000
G1 X74.412 Y21.291 F1000
G1 X74.412 Y21.497 F1000
G1 X74.515 Y21.600 F1000
G1 X74.515 Y21.703 F1000
G1 X74.618 Y21.806 F1000
G1 X74.618 Y22.012 F1000
G1 X74.721 Y22.115 F1000
G1 X74.721 Y22.424 F1000
G1 X74.618 Y22.527 F1000
G1 X74.412 Y22.527 F1000
G1 X74.309 Y22.424 F1000
G0 Z3.0 ; Pen up

G0 X75.030 Y23.145 F3000 ; Travel to line 227
G0 Z0.0 ; Pen down
G1 X75.030 Y22.939 F1000
G1 X74.927 Y22.836 F1000
G1 X75.030 Y22.733 F1000
G1 X75.236 Y22.733 F1000
G1 X75.339 Y22.836 F1000
G1 X75.545 Y22.836 F1000
G1 X75.648 Y22.939 F1000
G1 X75.854 Y22.939 F1000
G1 X75.957 Y23.042 F1000
G1 X76.266 Y23.042 F1000
G1 X76.369 Y23.145 F1000
G1 X76.266 Y23.248 F1000
G1 X75.854 Y23.248 F1000
G1 X75.751 Y23.351 F1000
G1 X75.236 Y23.351 F1000
G0 Z3.0 ; Pen up

G0 X76.369 Y23.145 F3000 ; Travel to line 228
G0 Z0.0 ; Pen down
G1 X76.266 Y23.042 F1000
G1 X76.060 Y23.042 F1000
G1 X75.957 Y22.939 F1000
G1 X75.751 Y22.939 F1000
G1 X75.648 Y22.836 F1000
G1 X75.442 Y22.836 F1000
G1 X75.339 Y22.733 F1000
G1 X75.030 Y22.733 F1000
G1 X74.721 Y22.424 F1000
G1 X74.721 Y22.115 F1000
G1 X74.618 Y22.012 F1000
G1 X74.618 Y21.806 F1000
G1 X74.515 Y21.703 F1000
G1 X74.515 Y21.600 F1000
G1 X74.412 Y21.497 F1000
G1 X74.412 Y21.291 F1000
G1 X74.309 Y21.188 F1000
G1 X74.309 Y20.982 F1000
G1 X74.206 Y20.879 F1000
G1 X74.206 Y20.776 F1000
G1 X74.103 Y20.673 F1000
G1 X74.103 Y20.467 F1000
G1 X74.000 Y20.364 F1000
G1 X74.000 Y20.158 F1000
G1 X73.897 Y20.055 F1000
G1 X73.897 Y19.849 F1000
G1 X74.000 Y19.746 F1000
G1 X74.000 Y19.643 F1000
G1 X74.103 Y19.540 F1000
G1 X74.721 Y19.540 F1000
G1 X74.824 Y19.643 F1000
G1 X75.133 Y19.643 F1000
G1 X75.236 Y19.746 F1000
G1 X75.648 Y19.746 F1000
G1 X75.751 Y19.849 F1000
G1 X76.163 Y19.849 F1000
G1 X76.266 Y19.952 F1000
G1 X76.575 Y19.952 F1000
G1 X76.678 Y20.055 F1000
G1 X77.090 Y20.055 F1000
G1 X77.193 Y20.158 F1000
G1 X77.502 Y20.158 F1000
G1 X77.605 Y20.261 F1000
G1 X78.017 Y20.261 F1000
G1 X78.223 Y20.467 F1000
G1 X78.223 Y20.570 F1000
G1 X78.120 Y20.673 F1000
G1 X78.120 Y20.879 F1000
G1 X78.017 Y20.982 F1000
G1 X78.017 Y21.085 F1000
G1 X77.914 Y21.188 F1000
G1 X77.914 Y21.394 F1000
G1 X77.811 Y21.497 F1000
G1 X77.811 Y21.600 F1000
G1 X77.708 Y21.703 F1000
G1 X77.708 Y21.909 F1000
G1 X77.605 Y22.012 F1000
G1 X77.605 Y22.218 F1000
G1 X77.502 Y22.321 F1000
G1 X77.502 Y22.424 F1000
G1 X77.399 Y22.527 F1000
G1 X77.399 Y22.733 F1000
G1 X77.296 Y22.836 F1000
G1 X77.296 Y22.939 F1000
G1 X77.193 Y23.042 F1000
G1 X77.193 Y23.145 F1000
G1 X77.090 Y23.248 F1000
G1 X76.781 Y23.248 F1000
G1 X76.678 Y23.145 F1000
G0 Z3.0 ; Pen up

G0 X77.296 Y22.939 F3000 ; Travel to line 229
G0 Z0.0 ; Pen down
G1 X77.399 Y23.042 F1000
G1 X77.708 Y23.042 F1000
G1 X77.811 Y22.939 F1000
G1 X78.326 Y22.939 F1000
G1 X78.429 Y22.836 F1000
G1 X78.944 Y22.836 F1000
G1 X79.047 Y22.733 F1000
G1 X79.356 Y22.733 F1000
G1 X79.459 Y22.630 F1000
G1 X79.459 Y21.085 F1000
G1 X79.356 Y20.982 F1000
G1 X79.356 Y20.673 F1000
G1 X79.253 Y20.570 F1000
G1 X79.047 Y20.570 F1000
G1 X78.944 Y20.467 F1000
G1 X78.635 Y20.467 F1000
G1 X78.532 Y20.364 F1000
G1 X78.326 Y20.364 F1000
G1 X78.223 Y20.467 F1000
G1 X78.223 Y20.570 F1000
G1 X78.120 Y20.673 F1000
G1 X78.120 Y20.879 F1000
G1 X78.017 Y20.982 F1000
G1 X78.017 Y21.085 F1000
G1 X77.914 Y21.188 F1000
G1 X77.914 Y21.394 F1000
G1 X77.811 Y21.497 F1000
G1 X77.811 Y21.600 F1000
G1 X77.708 Y21.703 F1000
G1 X77.708 Y21.909 F1000
G1 X77.605 Y22.012 F1000
G1 X77.605 Y22.218 F1000
G1 X77.502 Y22.321 F1000
G1 X77.502 Y22.424 F1000
G1 X77.399 Y22.527 F1000
G1 X77.399 Y22.733 F1000
G1 X77.296 Y22.836 F1000
G0 Z3.0 ; Pen up

G0 X79.047 Y23.969 F3000 ; Travel to line 230
G0 Z0.0 ; Pen down
G1 X78.944 Y23.866 F1000
G1 X78.738 Y23.866 F1000
G1 X78.635 Y23.763 F1000
G1 X78.326 Y23.763 F1000
G1 X78.223 Y23.660 F1000
G1 X78.017 Y23.660 F1000
G1 X77.914 Y23.557 F1000
G1 X77.708 Y23.557 F1000
G1 X77.605 Y23.454 F1000
G1 X77.399 Y23.454 F1000
G1 X77.193 Y23.248 F1000
G1 X77.193 Y23.145 F1000
G1 X77.296 Y23.042 F1000
G1 X77.811 Y23.042 F1000
G1 X77.914 Y22.939 F1000
G1 X78.429 Y22.939 F1000
G1 X78.532 Y22.836 F1000
G1 X79.047 Y22.836 F1000
G1 X79.150 Y22.733 F1000
G1 X79.356 Y22.733 F1000
G1 X79.459 Y22.836 F1000
G1 X79.459 Y23.248 F1000
G1 X79.562 Y23.351 F1000
G1 X79.562 Y23.969 F1000
G1 X79.459 Y24.072 F1000
G1 X79.356 Y24.072 F1000
G1 X79.253 Y23.969 F1000
G0 Z3.0 ; Pen up

G0 X79.459 Y22.527 F3000 ; Travel to line 231
G0 Z0.0 ; Pen down
G1 X79.562 Y22.630 F1000
G1 X80.283 Y22.630 F1000
G1 X80.386 Y22.527 F1000
G1 X80.901 Y22.527 F1000
G1 X81.004 Y22.424 F1000
G1 X81.519 Y22.424 F1000
G1 X81.622 Y22.321 F1000
G1 X82.137 Y22.321 F1000
G1 X82.240 Y22.218 F1000
G1 X82.755 Y22.218 F1000
G1 X82.858 Y22.115 F1000
G1 X82.961 Y22.115 F1000
G1 X83.064 Y22.012 F1000
G1 X83.064 Y21.909 F1000
G1 X82.343 Y21.188 F1000
G1 X81.931 Y21.188 F1000
G1 X81.828 Y21.085 F1000
G1 X81.519 Y21.085 F1000
G1 X81.416 Y20.982 F1000
G1 X81.004 Y20.982 F1000
G1 X80.901 Y20.879 F1000
G1 X80.489 Y20.879 F1000
G1 X80.386 Y20.776 F1000
G1 X80.077 Y20.776 F1000
G1 X79.974 Y20.673 F1000
G1 X79.459 Y20.673 F1000
G1 X79.356 Y20.776 F1000
G1 X79.356 Y20.982 F1000
G1 X79.459 Y21.085 F1000
G0 Z3.0 ; Pen up

G0 X79.047 Y20.467 F3000 ; Travel to line 232
G0 Z0.0 ; Pen down
G1 X79.150 Y20.570 F1000
G1 X79.253 Y20.570 F1000
G1 X79.356 Y20.467 F1000
G1 X79.356 Y18.819 F1000
G1 X79.253 Y18.716 F1000
G1 X79.253 Y18.510 F1000
G1 X79.150 Y18.407 F1000
G1 X78.944 Y18.613 F1000
G1 X78.944 Y18.716 F1000
G1 X78.841 Y18.819 F1000
G1 X78.841 Y19.025 F1000
G1 X78.738 Y19.128 F1000
G1 X78.738 Y19.334 F1000
G1 X78.635 Y19.437 F1000
G1 X78.635 Y19.540 F1000
G1 X78.532 Y19.643 F1000
G1 X78.532 Y19.849 F1000
G1 X78.429 Y19.952 F1000
G1 X78.429 Y20.055 F1000
G1 X78.326 Y20.158 F1000
G1 X78.326 Y20.261 F1000
G1 X78.429 Y20.364 F1000
G1 X78.635 Y20.364 F1000
G1 X78.738 Y20.467 F1000
G0 Z3.0 ; Pen up

G0 X78.120 Y20.261 F3000 ; Travel to line 233
G0 Z0.0 ; Pen down
G1 X78.223 Y20.364 F1000
G1 X78.326 Y20.261 F1000
G1 X78.326 Y20.158 F1000
G1 X78.429 Y20.055 F1000
G1 X78.429 Y19.952 F1000
G1 X78.532 Y19.849 F1000
G1 X78.532 Y19.643 F1000
G1 X78.635 Y19.540 F1000
G1 X78.635 Y19.437 F1000
G1 X78.738 Y19.334 F1000
G1 X78.738 Y19.128 F1000
G1 X78.841 Y19.025 F1000
G1 X78.841 Y18.819 F1000
G1 X78.944 Y18.716 F1000
G1 X78.944 Y18.613 F1000
G1 X79.047 Y18.510 F1000
G1 X79.047 Y18.407 F1000
G1 X79.150 Y18.407 F1000
G1 X79.253 Y18.304 F1000
G1 X79.253 Y17.995 F1000
G1 X79.150 Y17.892 F1000
G1 X78.841 Y17.892 F1000
G1 X78.738 Y17.995 F1000
G1 X78.429 Y17.995 F1000
G1 X78.326 Y18.098 F1000
G1 X78.120 Y18.098 F1000
G1 X78.017 Y18.201 F1000
G1 X77.811 Y18.201 F1000
G1 X77.708 Y18.304 F1000
G1 X77.502 Y18.304 F1000
G1 X77.399 Y18.407 F1000
G1 X77.296 Y18.407 F1000
G1 X77.193 Y18.510 F1000
G1 X76.987 Y18.510 F1000
G1 X76.884 Y18.613 F1000
G1 X76.678 Y18.613 F1000
G1 X76.575 Y18.716 F1000
G1 X76.369 Y18.716 F1000
G1 X76.266 Y18.819 F1000
G1 X76.060 Y18.819 F1000
G1 X75.957 Y18.922 F1000
G1 X75.751 Y18.922 F1000
G1 X75.648 Y19.025 F1000
G1 X75.442 Y19.025 F1000
G1 X75.339 Y19.128 F1000
G1 X75.133 Y19.128 F1000
G1 X75.030 Y19.231 F1000
G1 X74.824 Y19.231 F1000
G1 X74.721 Y19.334 F1000
G1 X74.515 Y19.334 F1000
G1 X74.412 Y19.437 F1000
G1 X74.515 Y19.540 F1000
G1 X74.824 Y19.540 F1000
G1 X74.927 Y19.643 F1000
G1 X75.236 Y19.643 F1000
G1 X75.339 Y19.746 F1000
G1 X75.751 Y19.746 F1000
G1 X75.854 Y19.849 F1000
G1 X76.266 Y19.849 F1000
G1 X76.369 Y19.952 F1000
G1 X76.678 Y19.952 F1000
G1 X76.781 Y20.055 F1000
G1 X77.193 Y20.055 F1000
G1 X77.296 Y20.158 F1000
G1 X77.605 Y20.158 F1000
G1 X77.708 Y20.261 F1000
G0 Z3.0 ; Pen up

G0 X76.884 Y18.407 F3000 ; Travel to line 234
G0 Z0.0 ; Pen down
G1 X76.987 Y18.510 F1000
G1 X77.090 Y18.510 F1000
G1 X77.193 Y18.407 F1000
G1 X77.090 Y18.304 F1000
G1 X76.987 Y18.304 F1000
G0 Z3.0 ; Pen up

G0 X78.429 Y17.789 F3000 ; Travel to line 235
G0 Z0.0 ; Pen down
G1 X78.326 Y17.686 F1000
G1 X77.502 Y17.686 F1000
G1 X77.399 Y17.583 F1000
G1 X76.472 Y17.583 F1000
G1 X76.369 Y17.480 F1000
G1 X75.442 Y17.480 F1000
G1 X75.339 Y17.377 F1000
G1 X74.515 Y17.377 F1000
G1 X74.412 Y17.274 F1000
G1 X73.485 Y17.274 F1000
G1 X73.382 Y17.171 F1000
G1 X72.867 Y17.171 F1000
G1 X72.764 Y17.068 F1000
G1 X72.764 Y16.862 F1000
G1 X72.661 Y16.759 F1000
G1 X72.661 Y16.553 F1000
G1 X72.764 Y16.450 F1000
G1 X76.987 Y16.450 F1000
G1 X77.090 Y16.347 F1000
