; Blueprint to G-code
; Input: /home/david/code/blueprint2gcode/test_data/test_images_corners/test9_diamond.png
; Generated with blueprint2gcode.py

G21 ; Set units to millimeters
G90 ; Absolute positioning
G0 Z3.0 ; Pen up
G0 X0 Y0 ; Move to origin

G0 X86.100 Y132.733 F3000 ; Travel to line 1
G0 Z0.0 ; Pen down
G1 X177.967 Y55.080 F1000
G0 Z3.0 ; Pen up

G0 X178.313 Y55.427 F3000 ; Travel to line 2
G0 Z0.0 ; Pen down
G1 X86.793 Y133.080 F1000
G0 Z3.0 ; Pen up

G0 X87.140 Y133.427 F3000 ; Travel to line 3
G0 Z0.0 ; Pen down
G1 X179.007 Y55.427 F1000
G0 Z3.0 ; Pen up

G0 X179.007 Y55.773 F3000 ; Travel to line 4
G0 Z0.0 ; Pen down
G1 X87.833 Y133.427 F1000
G1 X87.833 Y133.427 F1000
G1 X179.007 Y55.773 F1000
G1 X179.007 Y55.773 F1000
G1 X87.833 Y133.427 F1000
G0 Z3.0 ; Pen up

G0 X87.833 Y133.773 F3000 ; Travel to line 5
G0 Z0.0 ; Pen down
G1 X179.353 Y56.120 F1000
G1 X179.353 Y56.120 F1000
G1 X87.833 Y133.773 F1000
G1 X87.833 Y133.773 F1000
G1 X179.353 Y56.120 F1000
G1 X179.353 Y56.120 F1000
G1 X88.180 Y133.773 F1000
G0 Z3.0 ; Pen up

G0 X88.527 Y134.120 F3000 ; Travel to line 6
G0 Z0.0 ; Pen down
G1 X180.047 Y56.467 F1000
G0 Z3.0 ; Pen up

G0 X180.393 Y56.813 F3000 ; Travel to line 7
G0 Z0.0 ; Pen down
G1 X88.873 Y134.467 F1000
G0 Z3.0 ; Pen up

G0 X89.220 Y134.813 F3000 ; Travel to line 8
G0 Z0.0 ; Pen down
G1 X180.740 Y56.813 F1000
G0 Z3.0 ; Pen up

G0 X181.087 Y57.160 F3000 ; Travel to line 9
G0 Z0.0 ; Pen down
G1 X89.913 Y135.160 F1000
G0 Z3.0 ; Pen up

G0 X90.260 Y135.507 F3000 ; Travel to line 10
G0 Z0.0 ; Pen down
G1 X181.433 Y57.507 F1000
G0 Z3.0 ; Pen up

G0 X182.127 Y57.853 F3000 ; Travel to line 11
G0 Z0.0 ; Pen down
G1 X90.607 Y135.507 F1000
G0 Z3.0 ; Pen up

G0 X90.953 Y135.853 F3000 ; Travel to line 12
G0 Z0.0 ; Pen down
G1 X182.473 Y58.200 F1000
G0 Z3.0 ; Pen up

G0 X182.820 Y58.200 F3000 ; Travel to line 13
G0 Z0.0 ; Pen down
G1 X91.300 Y136.200 F1000
G0 Z3.0 ; Pen up

G0 X91.993 Y136.547 F3000 ; Travel to line 14
G0 Z0.0 ; Pen down
G1 X183.167 Y58.547 F1000
G0 Z3.0 ; Pen up

G0 X183.513 Y58.893 F3000 ; Travel to line 15
G0 Z0.0 ; Pen down
G1 X92.340 Y136.893 F1000
G0 Z3.0 ; Pen up

G0 X93.033 Y136.893 F3000 ; Travel to line 16
G0 Z0.0 ; Pen down
G1 X184.207 Y59.240 F1000
G0 Z3.0 ; Pen up

G0 X184.553 Y59.587 F3000 ; Travel to line 17
G0 Z0.0 ; Pen down
G1 X93.380 Y137.587 F1000
G1 X93.380 Y137.587 F1000
G1 X184.900 Y59.587 F1000
G0 Z3.0 ; Pen up

G0 X185.247 Y59.933 F3000 ; Travel to line 18
G0 Z0.0 ; Pen down
G1 X93.727 Y137.587 F1000
G0 Z3.0 ; Pen up

G0 X94.073 Y137.933 F3000 ; Travel to line 19
G0 Z0.0 ; Pen down
G1 X186.287 Y60.627 F1000
G1 X186.287 Y60.627 F1000
G1 X94.073 Y137.933 F1000
G1 X94.073 Y137.933 F1000
G1 X185.593 Y60.280 F1000
G1 X185.593 Y60.280 F1000
G1 X94.073 Y137.933 F1000
G0 Z3.0 ; Pen up

G0 X94.420 Y138.280 F3000 ; Travel to line 20
G0 Z0.0 ; Pen down
G1 X187.327 Y61.320 F1000
G1 X187.327 Y61.320 F1000
G1 X94.767 Y138.280 F1000
G0 Z3.0 ; Pen up

G0 X95.113 Y138.627 F3000 ; Travel to line 21
G0 Z0.0 ; Pen down
G1 X188.367 Y62.013 F1000
G1 X188.367 Y62.013 F1000
G1 X95.460 Y138.627 F1000
G0 Z3.0 ; Pen up

G0 X95.460 Y138.973 F3000 ; Travel to line 22
G0 Z0.0 ; Pen down
G1 X188.713 Y62.360 F1000
G0 Z3.0 ; Pen up

G0 X189.060 Y62.360 F3000 ; Travel to line 23
G0 Z0.0 ; Pen down
G1 X95.460 Y138.973 F1000
G1 X95.460 Y138.973 F1000
G1 X189.407 Y62.707 F1000
G0 Z3.0 ; Pen up

G0 X190.100 Y63.053 F3000 ; Travel to line 24
G0 Z0.0 ; Pen down
G1 X96.153 Y139.320 F1000
G1 X96.153 Y139.320 F1000
G1 X190.447 Y63.400 F1000
G0 Z3.0 ; Pen up

G0 X191.140 Y63.747 F3000 ; Travel to line 25
G0 Z0.0 ; Pen down
G1 X96.500 Y139.667 F1000
G1 X96.500 Y139.667 F1000
G1 X191.487 Y64.093 F1000
G0 Z3.0 ; Pen up

G0 X192.873 Y65.133 F3000 ; Travel to line 26
G0 Z0.0 ; Pen down
G1 X97.540 Y140.360 F1000
G1 X97.540 Y140.360 F1000
G1 X193.220 Y65.133 F1000
G0 Z3.0 ; Pen up

G0 X193.913 Y65.827 F3000 ; Travel to line 27
G0 Z0.0 ; Pen down
G1 X97.887 Y140.360 F1000
G0 Z3.0 ; Pen up

G0 X98.233 Y140.360 F3000 ; Travel to line 28
G0 Z0.0 ; Pen down
G1 X194.260 Y65.827 F1000
G0 Z3.0 ; Pen up

G0 X194.953 Y66.520 F3000 ; Travel to line 29
G0 Z0.0 ; Pen down
G1 X98.233 Y140.707 F1000
G1 X98.233 Y140.707 F1000
G1 X194.607 Y66.173 F1000
G1 X194.607 Y66.173 F1000
G1 X98.233 Y140.707 F1000
G0 Z3.0 ; Pen up

G0 X98.580 Y141.053 F3000 ; Travel to line 30
G0 Z0.0 ; Pen down
G1 X195.647 Y66.867 F1000
G1 X195.647 Y66.867 F1000
G1 X98.580 Y141.053 F1000
G1 X98.580 Y141.053 F1000
G1 X195.300 Y66.520 F1000
G0 Z3.0 ; Pen up

G0 X197.727 Y68.253 F3000 ; Travel to line 31
G0 Z0.0 ; Pen down
G1 X100.313 Y142.093 F1000
G1 X100.313 Y142.093 F1000
G1 X198.073 Y68.600 F1000
G1 X198.073 Y68.600 F1000
G1 X101.353 Y142.787 F1000
G1 X101.353 Y142.787 F1000
G1 X198.420 Y68.600 F1000
G0 Z3.0 ; Pen up

G0 X199.113 Y69.293 F3000 ; Travel to line 32
G0 Z0.0 ; Pen down
G1 X102.740 Y143.827 F1000
G1 X102.740 Y143.827 F1000
G1 X199.113 Y69.293 F1000
G1 X199.113 Y69.293 F1000
G1 X103.087 Y143.827 F1000
G0 Z3.0 ; Pen up

G0 X103.433 Y144.173 F3000 ; Travel to line 33
G0 Z0.0 ; Pen down
G1 X199.460 Y69.293 F1000
G1 X199.460 Y69.293 F1000
G1 X103.780 Y144.520 F1000
G0 Z3.0 ; Pen up

G0 X104.127 Y144.520 F3000 ; Travel to line 34
G0 Z0.0 ; Pen down
G1 X199.807 Y69.640 F1000
G0 Z3.0 ; Pen up

G0 X200.153 Y69.987 F3000 ; Travel to line 35
G0 Z0.0 ; Pen down
G1 X105.513 Y145.560 F1000
G1 X105.513 Y145.560 F1000
G1 X200.500 Y69.987 F1000
G0 Z3.0 ; Pen up

G0 X200.847 Y69.987 F3000 ; Travel to line 36
G0 Z0.0 ; Pen down
G1 X105.860 Y145.907 F1000
G0 Z3.0 ; Pen up

G0 X106.207 Y145.907 F3000 ; Travel to line 37
G0 Z0.0 ; Pen down
G1 X200.847 Y70.333 F1000
G0 Z3.0 ; Pen up

G0 X201.193 Y70.680 F3000 ; Travel to line 38
G0 Z0.0 ; Pen down
G1 X106.900 Y146.600 F1000
G0 Z3.0 ; Pen up

G0 X107.247 Y146.600 F3000 ; Travel to line 39
G0 Z0.0 ; Pen down
G1 X201.193 Y70.680 F1000
G1 X201.193 Y70.680 F1000
G1 X107.593 Y146.947 F1000
G1 X107.593 Y146.947 F1000
G1 X201.540 Y70.680 F1000
G1 X201.540 Y70.680 F1000
G1 X107.940 Y147.293 F1000
G0 Z3.0 ; Pen up

G0 X108.287 Y147.293 F3000 ; Travel to line 40
G0 Z0.0 ; Pen down
G1 X201.887 Y71.027 F1000
G0 Z3.0 ; Pen up

G0 X202.233 Y71.373 F3000 ; Travel to line 41
G0 Z0.0 ; Pen down
G1 X108.980 Y147.987 F1000
G0 Z3.0 ; Pen up

G0 X109.327 Y147.987 F3000 ; Travel to line 42
G0 Z0.0 ; Pen down
G1 X202.233 Y71.373 F1000
G1 X202.233 Y71.373 F1000
G1 X109.673 Y148.333 F1000
G0 Z3.0 ; Pen up

G0 X110.020 Y148.680 F3000 ; Travel to line 43
G0 Z0.0 ; Pen down
G1 X202.580 Y71.373 F1000
G1 X202.580 Y71.373 F1000
G1 X110.020 Y148.680 F1000
G0 Z3.0 ; Pen up

G0 X110.367 Y148.680 F3000 ; Travel to line 44
G0 Z0.0 ; Pen down
G1 X202.927 Y71.720 F1000
G0 Z3.0 ; Pen up

G0 X203.273 Y72.067 F3000 ; Travel to line 45
G0 Z0.0 ; Pen down
G1 X112.100 Y150.067 F1000
G1 X112.100 Y150.067 F1000
G1 X203.620 Y72.067 F1000
G0 Z3.0 ; Pen up

G0 X203.967 Y72.413 F3000 ; Travel to line 46
G0 Z0.0 ; Pen down
G1 X112.447 Y150.067 F1000
G0 Z3.0 ; Pen up

G0 X112.793 Y150.413 F3000 ; Travel to line 47
G0 Z0.0 ; Pen down
G1 X203.967 Y72.413 F1000
G1 X203.967 Y72.413 F1000
G1 X113.140 Y150.760 F1000
G0 Z3.0 ; Pen up

G0 X113.487 Y150.760 F3000 ; Travel to line 48
G0 Z0.0 ; Pen down
G1 X204.313 Y72.760 F1000
G0 Z3.0 ; Pen up

G0 X205.007 Y73.107 F3000 ; Travel to line 49
G0 Z0.0 ; Pen down
G1 X113.833 Y151.107 F1000
G0 Z3.0 ; Pen up

G0 X114.180 Y151.453 F3000 ; Travel to line 50
G0 Z0.0 ; Pen down
G1 X205.353 Y73.453 F1000
G0 Z3.0 ; Pen up

G0 X205.700 Y73.453 F3000 ; Travel to line 51
G0 Z0.0 ; Pen down
G1 X114.873 Y151.800 F1000
G0 Z3.0 ; Pen up

G0 X115.220 Y152.147 F3000 ; Travel to line 52
G0 Z0.0 ; Pen down
G1 X206.047 Y73.800 F1000
G0 Z3.0 ; Pen up

G0 X206.393 Y74.147 F3000 ; Travel to line 53
G0 Z0.0 ; Pen down
G1 X115.567 Y152.147 F1000
G0 Z3.0 ; Pen up

G0 X115.913 Y152.493 F3000 ; Travel to line 54
G0 Z0.0 ; Pen down
G1 X207.087 Y74.493 F1000
G0 Z3.0 ; Pen up

G0 X207.433 Y74.840 F3000 ; Travel to line 55
G0 Z0.0 ; Pen down
G1 X116.260 Y152.840 F1000
G0 Z3.0 ; Pen up

G0 X116.953 Y153.187 F3000 ; Travel to line 56
G0 Z0.0 ; Pen down
G1 X208.127 Y75.187 F1000
G0 Z3.0 ; Pen up

G0 X208.473 Y75.533 F3000 ; Travel to line 57
G0 Z0.0 ; Pen down
G1 X117.300 Y153.533 F1000
G0 Z3.0 ; Pen up

G0 X117.647 Y153.533 F3000 ; Travel to line 58
G0 Z0.0 ; Pen down
G1 X208.820 Y75.533 F1000
G0 Z3.0 ; Pen up

G0 X209.167 Y75.880 F3000 ; Travel to line 59
G0 Z0.0 ; Pen down
G1 X117.993 Y153.880 F1000
G1 X117.993 Y153.880 F1000
G1 X209.167 Y75.880 F1000
G1 X209.167 Y75.880 F1000
G1 X117.993 Y153.880 F1000
G0 Z3.0 ; Pen up

G0 X118.340 Y154.227 F3000 ; Travel to line 60
G0 Z0.0 ; Pen down
G1 X209.513 Y76.227 F1000
G1 X209.513 Y76.227 F1000
G1 X118.340 Y154.227 F1000
G1 X118.340 Y154.227 F1000
G1 X209.513 Y76.227 F1000
G0 Z3.0 ; Pen up

G0 X210.207 Y76.573 F3000 ; Travel to line 61
G0 Z0.0 ; Pen down
G1 X119.033 Y154.573 F1000
G0 Z3.0 ; Pen up

G0 X111.753 Y149.720 F3000 ; Travel to line 62
G0 Z0.0 ; Pen down
G1 X203.273 Y72.067 F1000
G1 X203.273 Y72.067 F1000
G1 X111.407 Y149.373 F1000
G0 Z3.0 ; Pen up

G0 X111.060 Y149.373 F3000 ; Travel to line 63
G0 Z0.0 ; Pen down
G1 X202.927 Y71.720 F1000
G1 X202.927 Y71.720 F1000
G1 X110.713 Y149.027 F1000
G0 Z3.0 ; Pen up

G0 X108.980 Y147.640 F3000 ; Travel to line 64
G0 Z0.0 ; Pen down
G1 X201.887 Y71.027 F1000
G1 X201.887 Y71.027 F1000
G1 X108.633 Y147.640 F1000
G0 Z3.0 ; Pen up

G0 X106.553 Y146.253 F3000 ; Travel to line 65
G0 Z0.0 ; Pen down
G1 X200.847 Y70.333 F1000
G1 X200.847 Y70.333 F1000
G1 X106.553 Y146.253 F1000
G0 Z3.0 ; Pen up

G0 X105.167 Y145.213 F3000 ; Travel to line 66
G0 Z0.0 ; Pen down
G1 X200.153 Y69.987 F1000
G1 X200.153 Y69.987 F1000
G1 X104.820 Y145.213 F1000
G0 Z3.0 ; Pen up

G0 X104.473 Y144.867 F3000 ; Travel to line 67
G0 Z0.0 ; Pen down
G1 X199.807 Y69.640 F1000
G1 X199.807 Y69.640 F1000
G1 X104.473 Y144.867 F1000
G0 Z3.0 ; Pen up

G0 X102.393 Y143.480 F3000 ; Travel to line 68
G0 Z0.0 ; Pen down
G1 X198.767 Y68.947 F1000
G1 X198.767 Y68.947 F1000
G1 X102.047 Y143.133 F1000
G0 Z3.0 ; Pen up

G0 X101.700 Y143.133 F3000 ; Travel to line 69
G0 Z0.0 ; Pen down
G1 X198.767 Y68.947 F1000
G1 X198.767 Y68.947 F1000
G1 X101.700 Y143.133 F1000
G0 Z3.0 ; Pen up

G0 X100.660 Y142.440 F3000 ; Travel to line 70
G0 Z0.0 ; Pen down
G1 X198.073 Y68.600 F1000
G1 X198.073 Y68.600 F1000
G1 X100.660 Y142.440 F1000
G0 Z3.0 ; Pen up

G0 X99.620 Y141.747 F3000 ; Travel to line 71
G0 Z0.0 ; Pen down
G1 X197.727 Y68.253 F1000
G1 X197.727 Y68.253 F1000
G1 X99.620 Y141.747 F1000
G1 X99.620 Y141.747 F1000
G1 X197.727 Y68.253 F1000
G1 X197.727 Y68.253 F1000
G1 X99.620 Y141.747 F1000
G1 X99.620 Y141.747 F1000
G1 X197.727 Y68.253 F1000
G1 X197.727 Y68.253 F1000
G1 X99.620 Y141.747 F1000
G1 X99.620 Y141.747 F1000
G1 X197.727 Y68.253 F1000
G1 X197.727 Y68.253 F1000
G1 X99.620 Y141.747 F1000
G1 X99.620 Y141.747 F1000
G1 X197.727 Y68.253 F1000
G1 X197.727 Y68.253 F1000
G1 X99.620 Y141.747 F1000
G1 X99.620 Y141.747 F1000
G1 X197.727 Y68.253 F1000
G1 X197.727 Y68.253 F1000
G1 X99.620 Y141.747 F1000
G1 X99.620 Y141.747 F1000
G1 X197.727 Y68.253 F1000
G1 X197.727 Y68.253 F1000
G1 X99.620 Y141.747 F1000
G1 X99.620 Y141.747 F1000
G1 X197.727 Y68.253 F1000
G1 X197.727 Y68.253 F1000
G1 X99.620 Y141.747 F1000
G1 X99.620 Y141.747 F1000
G1 X197.727 Y68.253 F1000
G1 X197.727 Y68.253 F1000
G1 X99.620 Y141.747 F1000
G1 X99.620 Y141.747 F1000
G1 X197.727 Y68.253 F1000
G1 X197.727 Y68.253 F1000
G1 X99.620 Y141.747 F1000
G1 X99.620 Y141.747 F1000
G1 X197.727 Y68.253 F1000
G1 X197.727 Y68.253 F1000
G1 X99.620 Y141.747 F1000
G1 X99.620 Y141.747 F1000
G1 X197.727 Y68.253 F1000
G1 X197.727 Y68.253 F1000
G1 X99.620 Y141.747 F1000
G1 X99.620 Y141.747 F1000
G1 X197.727 Y68.253 F1000
G1 X197.727 Y68.253 F1000
G1 X99.620 Y141.747 F1000
G1 X99.620 Y141.747 F1000
G1 X197.727 Y68.253 F1000
G1 X197.727 Y68.253 F1000
G1 X99.620 Y141.747 F1000
G1 X99.620 Y141.747 F1000
G1 X197.727 Y68.253 F1000
G1 X197.727 Y68.253 F1000
G1 X99.620 Y141.747 F1000
G1 X99.620 Y141.747 F1000
G1 X197.727 Y68.253 F1000
G1 X197.727 Y68.253 F1000
G1 X99.620 Y141.747 F1000
G1 X99.620 Y141.747 F1000
G1 X197.727 Y68.253 F1000
G1 X197.727 Y68.253 F1000
G1 X99.620 Y141.747 F1000
G1 X99.620 Y141.747 F1000
G1 X197.727 Y68.253 F1000
G1 X197.727 Y68.253 F1000
G1 X99.620 Y141.747 F1000
G1 X99.620 Y141.747 F1000
G1 X197.727 Y68.253 F1000
G1 X197.727 Y68.253 F1000
G1 X99.620 Y141.747 F1000
G1 X99.620 Y141.747 F1000
G1 X197.727 Y68.253 F1000
G1 X197.727 Y68.253 F1000
G1 X99.620 Y141.747 F1000
G1 X99.620 Y141.747 F1000
G1 X197.727 Y68.253 F1000
G1 X197.727 Y68.253 F1000
G1 X99.620 Y141.747 F1000
G1 X99.620 Y141.747 F1000
G1 X197.727 Y68.253 F1000
G1 X197.727 Y68.253 F1000
G1 X99.620 Y141.747 F1000
G1 X99.620 Y141.747 F1000
G1 X197.727 Y68.253 F1000
G1 X197.727 Y68.253 F1000
G1 X99.620 Y141.747 F1000
G1 X99.620 Y141.747 F1000
G1 X197.727 Y68.253 F1000
G1 X197.727 Y68.253 F1000
G1 X99.620 Y141.747 F1000
G1 X99.620 Y141.747 F1000
G1 X197.727 Y68.253 F1000
G1 X197.727 Y68.253 F1000
G1 X99.620 Y141.747 F1000
G1 X99.620 Y141.747 F1000
G1 X197.727 Y68.253 F1000
G1 X197.727 Y68.253 F1000
G1 X99.620 Y141.747 F1000
G1 X99.620 Y141.747 F1000
G1 X197.727 Y68.253 F1000
G1 X197.727 Y68.253 F1000
G1 X99.620 Y141.747 F1000
G1 X99.620 Y141.747 F1000
G1 X197.727 Y68.253 F1000
G1 X197.727 Y68.253 F1000
G1 X99.620 Y141.747 F1000
G1 X99.620 Y141.747 F1000
G1 X197.727 Y68.253 F1000
G1 X197.727 Y68.253 F1000
G1 X99.620 Y141.747 F1000
G1 X99.620 Y141.747 F1000
G1 X197.727 Y68.253 F1000
G1 X197.727 Y68.253 F1000
G1 X99.620 Y141.747 F1000
G1 X99.620 Y141.747 F1000
G1 X197.727 Y68.253 F1000
G1 X197.727 Y68.253 F1000
G1 X99.620 Y141.747 F1000
G1 X99.620 Y141.747 F1000
G1 X197.727 Y68.253 F1000
G1 X197.727 Y68.253 F1000
G1 X99.620 Y141.747 F1000
G1 X99.620 Y141.747 F1000
G1 X197.727 Y68.253 F1000
G1 X197.727 Y68.253 F1000
G1 X99.620 Y141.747 F1000
G1 X99.620 Y141.747 F1000
G1 X197.727 Y68.253 F1000
G1 X197.727 Y68.253 F1000
G1 X99.620 Y141.747 F1000
G1 X99.620 Y141.747 F1000
G1 X197.727 Y68.253 F1000
G1 X197.727 Y68.253 F1000
G1 X99.620 Y141.747 F1000
G1 X99.620 Y141.747 F1000
G1 X197.727 Y68.253 F1000
G1 X197.727 Y68.253 F1000
G1 X99.620 Y141.747 F1000
G1 X99.620 Y141.747 F1000
G1 X197.727 Y68.253 F1000
G1 X197.727 Y68.253 F1000
G1 X99.620 Y141.747 F1000
G1 X99.620 Y141.747 F1000
G1 X197.727 Y68.253 F1000
G1 X197.727 Y68.253 F1000
G1 X99.620 Y141.747 F1000
G1 X99.620 Y141.747 F1000
G1 X197.727 Y68.253 F1000
G1 X197.727 Y68.253 F1000
G1 X99.620 Y141.747 F1000
G1 X99.620 Y141.747 F1000
G1 X197.727 Y68.253 F1000
G1 X197.727 Y68.253 F1000
G1 X99.620 Y141.747 F1000
G1 X99.620 Y141.747 F1000
G1 X197.727 Y68.253 F1000
G1 X197.727 Y68.253 F1000
G1 X99.620 Y141.747 F1000
G1 X99.620 Y141.747 F1000
G1 X197.727 Y68.253 F1000
G1 X197.727 Y68.253 F1000
G1 X99.620 Y141.747 F1000
G1 X99.620 Y141.747 F1000
G1 X197.727 Y68.253 F1000
G1 X197.727 Y68.253 F1000
G1 X99.620 Y141.747 F1000
G1 X99.620 Y141.747 F1000
G1 X197.727 Y68.253 F1000
G1 X197.727 Y68.253 F1000
G1 X99.620 Y141.747 F1000
G1 X99.620 Y141.747 F1000
G1 X197.727 Y68.253 F1000
G1 X197.727 Y68.253 F1000
G1 X99.620 Y141.747 F1000
G1 X99.620 Y141.747 F1000
G1 X197.727 Y68.253 F1000
G1 X197.727 Y68.253 F1000
G1 X99.620 Y141.747 F1000
G1 X99.620 Y141.747 F1000
G1 X197.727 Y68.253 F1000
G1 X197.727 Y68.253 F1000
G1 X99.620 Y141.747 F1000
G1 X99.620 Y141.747 F1000
G1 X197.727 Y68.253 F1000
G1 X197.727 Y68.253 F1000
G1 X99.620 Y141.747 F1000
G1 X99.620 Y141.747 F1000
G1 X197.727 Y68.253 F1000
G1 X197.727 Y68.253 F1000
G1 X99.620 Y141.747 F1000
G1 X99.620 Y141.747 F1000
G1 X197.727 Y68.253 F1000
G1 X197.727 Y68.253 F1000
G1 X99.620 Y141.747 F1000
G1 X99.620 Y141.747 F1000
G1 X197.727 Y68.253 F1000
G1 X197.727 Y68.253 F1000
G1 X99.620 Y141.747 F1000
G1 X99.620 Y141.747 F1000
G1 X197.727 Y68.253 F1000
G1 X197.727 Y68.253 F1000
G1 X99.620 Y141.747 F1000
G1 X99.620 Y141.747 F1000
G1 X197.727 Y68.253 F1000
G1 X197.727 Y68.253 F1000
G1 X99.620 Y141.747 F1000
G1 X99.620 Y141.747 F1000
G1 X197.727 Y68.253 F1000
G1 X197.727 Y68.253 F1000
G1 X99.620 Y141.747 F1000
G1 X99.620 Y141.747 F1000
G1 X197.727 Y68.253 F1000
G1 X197.727 Y68.253 F1000
G1 X99.620 Y141.747 F1000
G1 X99.620 Y141.747 F1000
G1 X197.727 Y68.253 F1000
G1 X197.727 Y68.253 F1000
G1 X99.620 Y141.747 F1000
G1 X99.620 Y141.747 F1000
G1 X197.727 Y68.253 F1000
G1 X197.727 Y68.253 F1000
G1 X99.620 Y141.747 F1000
G1 X99.620 Y141.747 F1000
G1 X197.727 Y68.253 F1000
G1 X197.727 Y68.253 F1000
G1 X99.620 Y141.747 F1000
G1 X99.620 Y141.747 F1000
G1 X197.727 Y68.253 F1000
G1 X197.727 Y68.253 F1000
G1 X99.620 Y141.747 F1000
G1 X99.620 Y141.747 F1000
G1 X197.727 Y68.253 F1000
G1 X197.727 Y68.253 F1000
G1 X99.620 Y141.747 F1000
G1 X99.620 Y141.747 F1000
G1 X197.727 Y68.253 F1000
G1 X197.727 Y68.253 F1000
G1 X99.620 Y141.747 F1000
G1 X99.620 Y141.747 F1000
G1 X197.727 Y68.253 F1000
G1 X197.727 Y68.253 F1000
G1 X99.620 Y141.747 F1000
G1 X99.620 Y141.747 F1000
G1 X197.727 Y68.253 F1000
G1 X197.727 Y68.253 F1000
G1 X99.620 Y141.747 F1000
G1 X99.620 Y141.747 F1000
G1 X197.727 Y68.253 F1000
G1 X197.727 Y68.253 F1000
G1 X99.620 Y141.747 F1000
G1 X99.620 Y141.747 F1000
G1 X197.727 Y68.253 F1000
G1 X197.727 Y68.253 F1000
G1 X99.620 Y141.747 F1000
G1 X99.620 Y141.747 F1000
G1 X197.727 Y68.253 F1000
G1 X197.727 Y68.253 F1000
G1 X99.620 Y141.747 F1000
G1 X99.620 Y141.747 F1000
G1 X197.727 Y68.253 F1000
G1 X197.727 Y68.253 F1000
G1 X99.620 Y141.747 F1000
G0 Z3.0 ; Pen up

G0 X99.273 Y141.400 F3000 ; Travel to line 72
G0 Z0.0 ; Pen down
G1 X197.033 Y67.907 F1000
G1 X197.033 Y67.907 F1000
G1 X99.273 Y141.400 F1000
G1 X99.273 Y141.400 F1000
G1 X196.687 Y67.560 F1000
G1 X196.687 Y67.560 F1000
G1 X99.273 Y141.400 F1000
G0 Z3.0 ; Pen up

G0 X98.927 Y141.053 F3000 ; Travel to line 73
G0 Z0.0 ; Pen down
G1 X195.993 Y67.213 F1000
G1 X195.993 Y67.213 F1000
G1 X98.927 Y141.053 F1000
G0 Z3.0 ; Pen up

G0 X97.540 Y140.360 F3000 ; Travel to line 74
G0 Z0.0 ; Pen down
G1 X193.567 Y65.480 F1000
G1 X193.567 Y65.480 F1000
G1 X97.540 Y140.360 F1000
G0 Z3.0 ; Pen up

G0 X97.193 Y140.013 F3000 ; Travel to line 75
G0 Z0.0 ; Pen down
G1 X192.527 Y64.787 F1000
G1 X192.527 Y64.787 F1000
G1 X97.193 Y140.013 F1000
G0 Z3.0 ; Pen up

G0 X96.847 Y139.667 F3000 ; Travel to line 76
G0 Z0.0 ; Pen down
G1 X191.833 Y64.440 F1000
G1 X191.833 Y64.440 F1000
G1 X96.847 Y139.667 F1000
G0 Z3.0 ; Pen up

G0 X96.500 Y139.667 F3000 ; Travel to line 77
G0 Z0.0 ; Pen down
G1 X190.793 Y63.747 F1000
G1 X190.793 Y63.747 F1000
G1 X96.153 Y139.320 F1000
G1 X96.153 Y139.320 F1000
G1 X189.753 Y63.053 F1000
G1 X189.753 Y63.053 F1000
G1 X95.807 Y138.973 F1000
G0 Z3.0 ; Pen up

G0 X186.633 Y60.973 F3000 ; Travel to line 78
G0 Z0.0 ; Pen down
G1 X94.420 Y138.280 F1000
G1 X94.420 Y138.280 F1000
G1 X186.980 Y60.973 F1000
G0 Z3.0 ; Pen up

G0 X187.673 Y61.667 F3000 ; Travel to line 79
G0 Z0.0 ; Pen down
G1 X95.113 Y138.627 F1000
G1 X95.113 Y138.627 F1000
G1 X188.020 Y61.667 F1000
G0 Z3.0 ; Pen up

; Return to origin
G0 X0 Y0
G0 Z3.0

; Total drawing distance: 32795.26 mm
; Total travel distance: 338.68 mm
; Total lines: 79
; Estimated time: 1974.5 seconds (32.9 minutes)
M2 ; End program