; Blueprint to G-code
; Input: test_images_corners/test2_square_100x100.png
; Generated with blueprint2gcode.py

G21 ; Set units to millimeters
G90 ; Absolute positioning
G0 Z3.0 ; Pen up
G0 X0 Y0 ; Move to origin

G0 X131.167 Y88.360 F3000 ; Travel to line 1
G0 Z0.0 ; Pen down
G1 X131.860 Y87.667 F1000
G0 Z3.0 ; Pen up

G0 X133.247 Y87.667 F3000 ; Travel to line 2
G0 Z0.0 ; Pen down
G1 X131.167 Y89.747 F1000
G0 Z3.0 ; Pen up

G0 X131.167 Y90.440 F3000 ; Travel to line 3
G0 Z0.0 ; Pen down
G1 X131.167 Y87.667 F1000
G1 X131.167 Y87.667 F1000
G1 X133.940 Y87.667 F1000
G0 Z3.0 ; Pen up

G0 X134.980 Y87.667 F3000 ; Travel to line 4
G0 Z0.0 ; Pen down
G1 X131.167 Y91.480 F1000
G0 Z3.0 ; Pen up

G0 X131.167 Y92.867 F3000 ; Travel to line 5
G0 Z0.0 ; Pen down
G1 X136.367 Y87.667 F1000
G0 Z3.0 ; Pen up

G0 X137.753 Y87.667 F3000 ; Travel to line 6
G0 Z0.0 ; Pen down
G1 X131.167 Y94.253 F1000
G0 Z3.0 ; Pen up

G0 X131.167 Y95.987 F3000 ; Travel to line 7
G0 Z0.0 ; Pen down
G1 X139.487 Y87.667 F1000
G0 Z3.0 ; Pen up

G0 X140.873 Y87.667 F3000 ; Travel to line 8
G0 Z0.0 ; Pen down
G1 X131.167 Y97.373 F1000
G0 Z3.0 ; Pen up

G0 X131.167 Y98.760 F3000 ; Travel to line 9
G0 Z0.0 ; Pen down
G1 X142.260 Y87.667 F1000
G0 Z3.0 ; Pen up

G0 X143.647 Y87.667 F3000 ; Travel to line 10
G0 Z0.0 ; Pen down
G1 X131.167 Y100.147 F1000
G0 Z3.0 ; Pen up

G0 X131.167 Y101.533 F3000 ; Travel to line 11
G0 Z0.0 ; Pen down
G1 X145.033 Y87.667 F1000
G0 Z3.0 ; Pen up

G0 X146.420 Y87.667 F3000 ; Travel to line 12
G0 Z0.0 ; Pen down
G1 X131.167 Y102.920 F1000
G0 Z3.0 ; Pen up

G0 X131.167 Y104.307 F3000 ; Travel to line 13
G0 Z0.0 ; Pen down
G1 X147.807 Y87.667 F1000
G0 Z3.0 ; Pen up

G0 X149.193 Y87.667 F3000 ; Travel to line 14
G0 Z0.0 ; Pen down
G1 X131.167 Y105.693 F1000
G0 Z3.0 ; Pen up

G0 X131.167 Y107.080 F3000 ; Travel to line 15
G0 Z0.0 ; Pen down
G1 X150.580 Y87.667 F1000
G0 Z3.0 ; Pen up

G0 X151.967 Y87.667 F3000 ; Travel to line 16
G0 Z0.0 ; Pen down
G1 X131.167 Y108.467 F1000
G0 Z3.0 ; Pen up

G0 X131.167 Y109.853 F3000 ; Travel to line 17
G0 Z0.0 ; Pen down
G1 X153.353 Y87.667 F1000
G0 Z3.0 ; Pen up

G0 X154.740 Y87.667 F3000 ; Travel to line 18
G0 Z0.0 ; Pen down
G1 X131.167 Y111.240 F1000
G0 Z3.0 ; Pen up

G0 X131.167 Y112.627 F3000 ; Travel to line 19
G0 Z0.0 ; Pen down
G1 X156.127 Y87.667 F1000
G0 Z3.0 ; Pen up

G0 X157.513 Y87.667 F3000 ; Travel to line 20
G0 Z0.0 ; Pen down
G1 X131.167 Y114.013 F1000
G0 Z3.0 ; Pen up

G0 X131.167 Y115.400 F3000 ; Travel to line 21
G0 Z0.0 ; Pen down
G1 X158.900 Y87.667 F1000
G0 Z3.0 ; Pen up

G0 X160.287 Y87.667 F3000 ; Travel to line 22
G0 Z0.0 ; Pen down
G1 X131.167 Y116.787 F1000
G0 Z3.0 ; Pen up

G0 X131.167 Y118.173 F3000 ; Travel to line 23
G0 Z0.0 ; Pen down
G1 X161.673 Y87.667 F1000
G0 Z3.0 ; Pen up

G0 X164.447 Y87.667 F3000 ; Travel to line 24
G0 Z0.0 ; Pen down
G1 X131.167 Y120.947 F1000
G0 Z3.0 ; Pen up

G0 X131.167 Y122.333 F3000 ; Travel to line 25
G0 Z0.0 ; Pen down
G1 X133.940 Y122.333 F1000
G1 X133.940 Y122.333 F1000
G1 X165.833 Y90.440 F1000
G1 X165.833 Y90.440 F1000
G1 X165.833 Y87.667 F1000
G1 X165.833 Y87.667 F1000
G1 X131.167 Y122.333 F1000
G1 X131.167 Y122.333 F1000
G1 X131.167 Y119.560 F1000
G1 X131.167 Y119.560 F1000
G1 X163.060 Y87.667 F1000
G1 X163.060 Y87.667 F1000
G1 X165.833 Y87.667 F1000
G0 Z3.0 ; Pen up

G0 X165.833 Y89.053 F3000 ; Travel to line 26
G0 Z0.0 ; Pen down
G1 X132.553 Y122.333 F1000
G0 Z3.0 ; Pen up

G0 X135.327 Y122.333 F3000 ; Travel to line 27
G0 Z0.0 ; Pen down
G1 X165.833 Y91.827 F1000
G0 Z3.0 ; Pen up

G0 X165.833 Y93.560 F3000 ; Travel to line 28
G0 Z0.0 ; Pen down
G1 X137.060 Y122.333 F1000
G0 Z3.0 ; Pen up

G0 X138.447 Y122.333 F3000 ; Travel to line 29
G0 Z0.0 ; Pen down
G1 X165.833 Y94.947 F1000
G0 Z3.0 ; Pen up

G0 X165.833 Y96.680 F3000 ; Travel to line 30
G0 Z0.0 ; Pen down
G1 X140.180 Y122.333 F1000
G0 Z3.0 ; Pen up

G0 X141.567 Y122.333 F3000 ; Travel to line 31
G0 Z0.0 ; Pen down
G1 X165.833 Y98.067 F1000
G0 Z3.0 ; Pen up

G0 X165.833 Y99.453 F3000 ; Travel to line 32
G0 Z0.0 ; Pen down
G1 X142.953 Y122.333 F1000
G0 Z3.0 ; Pen up

G0 X144.340 Y122.333 F3000 ; Travel to line 33
G0 Z0.0 ; Pen down
G1 X165.833 Y100.840 F1000
G0 Z3.0 ; Pen up

G0 X165.833 Y102.227 F3000 ; Travel to line 34
G0 Z0.0 ; Pen down
G1 X145.727 Y122.333 F1000
G0 Z3.0 ; Pen up

G0 X147.113 Y122.333 F3000 ; Travel to line 35
G0 Z0.0 ; Pen down
G1 X165.833 Y103.613 F1000
G0 Z3.0 ; Pen up

G0 X165.833 Y105.000 F3000 ; Travel to line 36
G0 Z0.0 ; Pen down
G1 X148.500 Y122.333 F1000
G0 Z3.0 ; Pen up

G0 X149.887 Y122.333 F3000 ; Travel to line 37
G0 Z0.0 ; Pen down
G1 X165.833 Y106.387 F1000
G0 Z3.0 ; Pen up

G0 X165.833 Y107.773 F3000 ; Travel to line 38
G0 Z0.0 ; Pen down
G1 X151.273 Y122.333 F1000
G0 Z3.0 ; Pen up

G0 X152.660 Y122.333 F3000 ; Travel to line 39
G0 Z0.0 ; Pen down
G1 X165.833 Y109.160 F1000
G0 Z3.0 ; Pen up

G0 X165.833 Y110.547 F3000 ; Travel to line 40
G0 Z0.0 ; Pen down
G1 X154.047 Y122.333 F1000
G0 Z3.0 ; Pen up

G0 X155.433 Y122.333 F3000 ; Travel to line 41
G0 Z0.0 ; Pen down
G1 X165.833 Y111.933 F1000
G0 Z3.0 ; Pen up

G0 X165.833 Y113.320 F3000 ; Travel to line 42
G0 Z0.0 ; Pen down
G1 X156.820 Y122.333 F1000
G0 Z3.0 ; Pen up

G0 X158.207 Y122.333 F3000 ; Travel to line 43
G0 Z0.0 ; Pen down
G1 X165.833 Y114.707 F1000
G0 Z3.0 ; Pen up

G0 X165.833 Y116.093 F3000 ; Travel to line 44
G0 Z0.0 ; Pen down
G1 X159.593 Y122.333 F1000
G0 Z3.0 ; Pen up

G0 X160.980 Y122.333 F3000 ; Travel to line 45
G0 Z0.0 ; Pen down
G1 X165.833 Y117.480 F1000
G0 Z3.0 ; Pen up

G0 X165.833 Y118.867 F3000 ; Travel to line 46
G0 Z0.0 ; Pen down
G1 X162.367 Y122.333 F1000
G0 Z3.0 ; Pen up

G0 X163.060 Y122.333 F3000 ; Travel to line 47
G0 Z0.0 ; Pen down
G1 X165.833 Y122.333 F1000
G1 X165.833 Y122.333 F1000
G1 X165.833 Y119.560 F1000
G0 Z3.0 ; Pen up

G0 X165.833 Y120.253 F3000 ; Travel to line 48
G0 Z0.0 ; Pen down
G1 X163.753 Y122.333 F1000
G0 Z3.0 ; Pen up

G0 X165.140 Y122.333 F3000 ; Travel to line 49
G0 Z0.0 ; Pen down
G1 X165.833 Y121.640 F1000
G0 Z3.0 ; Pen up

; Return to origin
G0 X0 Y0
G0 Z3.0

; Total drawing distance: 1385.18 mm
; Total travel distance: 226.10 mm
; Total lines: 49
; Estimated time: 87.6 seconds (1.5 minutes)
M2 ; End program