; Blueprint to G-code
; Input: /home/david/code/blueprint2gcode/test_data/test_images_corners/test2_square_100x100.png
; Generated with blueprint2gcode.py

G21 ; Set units to millimeters
G90 ; Absolute positioning
G0 Z3.0 ; Pen up
G0 X0 Y0 ; Move to origin

G0 X131.167 Y87.667 F3000 ; Travel to line 1
G0 Z0.0 ; Pen down
G1 X131.513 Y87.320 F1000
G1 X131.513 Y87.320 F1000
G1 X131.167 Y87.667 F1000
G1 X131.167 Y87.667 F1000
G1 X131.513 Y87.320 F1000
G0 Z3.0 ; Pen up

G0 X131.167 Y88.360 F3000 ; Travel to line 2
G0 Z0.0 ; Pen down
G1 X132.207 Y87.320 F1000
G1 X132.207 Y87.320 F1000
G1 X131.167 Y88.360 F1000
G0 Z3.0 ; Pen up

G0 X131.167 Y89.053 F3000 ; Travel to line 3
G0 Z0.0 ; Pen down
G1 X132.900 Y87.320 F1000
G0 Z3.0 ; Pen up

G0 X133.593 Y87.320 F3000 ; Travel to line 4
G0 Z0.0 ; Pen down
G1 X131.167 Y89.747 F1000
G0 Z3.0 ; Pen up

G0 X131.167 Y91.133 F3000 ; Travel to line 5
G0 Z0.0 ; Pen down
G1 X134.980 Y87.320 F1000
G0 Z3.0 ; Pen up

G0 X136.367 Y87.320 F3000 ; Travel to line 6
G0 Z0.0 ; Pen down
G1 X131.167 Y92.520 F1000
G0 Z3.0 ; Pen up

G0 X131.167 Y93.907 F3000 ; Travel to line 7
G0 Z0.0 ; Pen down
G1 X137.753 Y87.320 F1000
G0 Z3.0 ; Pen up

G0 X139.140 Y87.320 F3000 ; Travel to line 8
G0 Z0.0 ; Pen down
G1 X131.167 Y95.293 F1000
G0 Z3.0 ; Pen up

G0 X131.167 Y96.680 F3000 ; Travel to line 9
G0 Z0.0 ; Pen down
G1 X140.527 Y87.320 F1000
G0 Z3.0 ; Pen up

G0 X141.913 Y87.320 F3000 ; Travel to line 10
G0 Z0.0 ; Pen down
G1 X131.167 Y98.067 F1000
G0 Z3.0 ; Pen up

G0 X131.167 Y99.453 F3000 ; Travel to line 11
G0 Z0.0 ; Pen down
G1 X143.300 Y87.320 F1000
G0 Z3.0 ; Pen up

G0 X144.687 Y87.320 F3000 ; Travel to line 12
G0 Z0.0 ; Pen down
G1 X131.167 Y100.840 F1000
G0 Z3.0 ; Pen up

G0 X131.167 Y102.227 F3000 ; Travel to line 13
G0 Z0.0 ; Pen down
G1 X146.073 Y87.320 F1000
G0 Z3.0 ; Pen up

G0 X147.460 Y87.320 F3000 ; Travel to line 14
G0 Z0.0 ; Pen down
G1 X131.167 Y103.613 F1000
G0 Z3.0 ; Pen up

G0 X131.167 Y105.000 F3000 ; Travel to line 15
G0 Z0.0 ; Pen down
G1 X148.847 Y87.320 F1000
G0 Z3.0 ; Pen up

G0 X150.233 Y87.320 F3000 ; Travel to line 16
G0 Z0.0 ; Pen down
G1 X131.167 Y106.387 F1000
G0 Z3.0 ; Pen up

G0 X131.167 Y107.773 F3000 ; Travel to line 17
G0 Z0.0 ; Pen down
G1 X151.620 Y87.320 F1000
G0 Z3.0 ; Pen up

G0 X153.007 Y87.320 F3000 ; Travel to line 18
G0 Z0.0 ; Pen down
G1 X131.167 Y109.160 F1000
G0 Z3.0 ; Pen up

G0 X131.167 Y110.547 F3000 ; Travel to line 19
G0 Z0.0 ; Pen down
G1 X154.393 Y87.320 F1000
G0 Z3.0 ; Pen up

G0 X155.780 Y87.320 F3000 ; Travel to line 20
G0 Z0.0 ; Pen down
G1 X131.167 Y111.933 F1000
G0 Z3.0 ; Pen up

G0 X131.167 Y113.320 F3000 ; Travel to line 21
G0 Z0.0 ; Pen down
G1 X157.167 Y87.320 F1000
G0 Z3.0 ; Pen up

G0 X158.553 Y87.320 F3000 ; Travel to line 22
G0 Z0.0 ; Pen down
G1 X131.167 Y114.707 F1000
G0 Z3.0 ; Pen up

G0 X131.167 Y116.093 F3000 ; Travel to line 23
G0 Z0.0 ; Pen down
G1 X159.940 Y87.320 F1000
G0 Z3.0 ; Pen up

G0 X161.327 Y87.320 F3000 ; Travel to line 24
G0 Z0.0 ; Pen down
G1 X131.167 Y117.480 F1000
G0 Z3.0 ; Pen up

G0 X131.167 Y118.867 F3000 ; Travel to line 25
G0 Z0.0 ; Pen down
G1 X162.713 Y87.320 F1000
G0 Z3.0 ; Pen up

G0 X164.447 Y87.320 F3000 ; Travel to line 26
G0 Z0.0 ; Pen down
G1 X131.167 Y120.600 F1000
G0 Z3.0 ; Pen up

G0 X131.167 Y121.640 F3000 ; Travel to line 27
G0 Z0.0 ; Pen down
G1 X165.487 Y87.320 F1000
G0 Z3.0 ; Pen up

G0 X165.833 Y87.320 F3000 ; Travel to line 28
G0 Z0.0 ; Pen down
G1 X131.167 Y121.987 F1000
G0 Z3.0 ; Pen up

G0 X131.167 Y122.333 F3000 ; Travel to line 29
G0 Z0.0 ; Pen down
G1 X166.180 Y87.320 F1000
G1 X166.180 Y87.320 F1000
G1 X131.167 Y122.333 F1000
G1 X131.167 Y122.333 F1000
G1 X166.180 Y87.320 F1000
G0 Z3.0 ; Pen up

G0 X166.180 Y88.013 F3000 ; Travel to line 30
G0 Z0.0 ; Pen down
G1 X131.860 Y122.333 F1000
G0 Z3.0 ; Pen up

G0 X132.207 Y122.333 F3000 ; Travel to line 31
G0 Z0.0 ; Pen down
G1 X166.180 Y88.360 F1000
G0 Z3.0 ; Pen up

G0 X166.180 Y90.093 F3000 ; Travel to line 32
G0 Z0.0 ; Pen down
G1 X133.940 Y122.333 F1000
G0 Z3.0 ; Pen up

G0 X135.327 Y122.333 F3000 ; Travel to line 33
G0 Z0.0 ; Pen down
G1 X166.180 Y91.480 F1000
G0 Z3.0 ; Pen up

G0 X166.180 Y92.867 F3000 ; Travel to line 34
G0 Z0.0 ; Pen down
G1 X136.713 Y122.333 F1000
G0 Z3.0 ; Pen up

G0 X138.100 Y122.333 F3000 ; Travel to line 35
G0 Z0.0 ; Pen down
G1 X166.180 Y94.253 F1000
G0 Z3.0 ; Pen up

G0 X166.180 Y95.640 F3000 ; Travel to line 36
G0 Z0.0 ; Pen down
G1 X139.487 Y122.333 F1000
G0 Z3.0 ; Pen up

G0 X140.873 Y122.333 F3000 ; Travel to line 37
G0 Z0.0 ; Pen down
G1 X166.180 Y97.027 F1000
G0 Z3.0 ; Pen up

G0 X166.180 Y98.413 F3000 ; Travel to line 38
G0 Z0.0 ; Pen down
G1 X142.260 Y122.333 F1000
G0 Z3.0 ; Pen up

G0 X143.647 Y122.333 F3000 ; Travel to line 39
G0 Z0.0 ; Pen down
G1 X166.180 Y99.800 F1000
G0 Z3.0 ; Pen up

G0 X166.180 Y101.187 F3000 ; Travel to line 40
G0 Z0.0 ; Pen down
G1 X145.033 Y122.333 F1000
G0 Z3.0 ; Pen up

G0 X146.420 Y122.333 F3000 ; Travel to line 41
G0 Z0.0 ; Pen down
G1 X166.180 Y102.573 F1000
G0 Z3.0 ; Pen up

G0 X166.180 Y103.960 F3000 ; Travel to line 42
G0 Z0.0 ; Pen down
G1 X147.807 Y122.333 F1000
G0 Z3.0 ; Pen up

G0 X149.193 Y122.333 F3000 ; Travel to line 43
G0 Z0.0 ; Pen down
G1 X166.180 Y105.347 F1000
G0 Z3.0 ; Pen up

G0 X166.180 Y106.733 F3000 ; Travel to line 44
G0 Z0.0 ; Pen down
G1 X150.580 Y122.333 F1000
G0 Z3.0 ; Pen up

G0 X151.967 Y122.333 F3000 ; Travel to line 45
G0 Z0.0 ; Pen down
G1 X166.180 Y108.120 F1000
G0 Z3.0 ; Pen up

G0 X166.180 Y109.507 F3000 ; Travel to line 46
G0 Z0.0 ; Pen down
G1 X153.353 Y122.333 F1000
G0 Z3.0 ; Pen up

G0 X154.740 Y122.333 F3000 ; Travel to line 47
G0 Z0.0 ; Pen down
G1 X166.180 Y110.893 F1000
G0 Z3.0 ; Pen up

G0 X166.180 Y112.280 F3000 ; Travel to line 48
G0 Z0.0 ; Pen down
G1 X156.127 Y122.333 F1000
G0 Z3.0 ; Pen up

G0 X157.513 Y122.333 F3000 ; Travel to line 49
G0 Z0.0 ; Pen down
G1 X166.180 Y113.667 F1000
G0 Z3.0 ; Pen up

G0 X166.180 Y115.053 F3000 ; Travel to line 50
G0 Z0.0 ; Pen down
G1 X158.900 Y122.333 F1000
G0 Z3.0 ; Pen up

G0 X160.287 Y122.333 F3000 ; Travel to line 51
G0 Z0.0 ; Pen down
G1 X166.180 Y116.440 F1000
G0 Z3.0 ; Pen up

G0 X166.180 Y117.827 F3000 ; Travel to line 52
G0 Z0.0 ; Pen down
G1 X161.673 Y122.333 F1000
G0 Z3.0 ; Pen up

G0 X163.060 Y122.333 F3000 ; Travel to line 53
G0 Z0.0 ; Pen down
G1 X166.180 Y119.213 F1000
G0 Z3.0 ; Pen up

G0 X166.180 Y120.600 F3000 ; Travel to line 54
G0 Z0.0 ; Pen down
G1 X164.447 Y122.333 F1000
G0 Z3.0 ; Pen up

G0 X164.793 Y122.333 F3000 ; Travel to line 55
G0 Z0.0 ; Pen down
G1 X166.180 Y120.947 F1000
G0 Z3.0 ; Pen up

G0 X166.180 Y121.293 F3000 ; Travel to line 56
G0 Z0.0 ; Pen down
G1 X165.140 Y122.333 F1000
G0 Z3.0 ; Pen up

G0 X165.833 Y122.333 F3000 ; Travel to line 57
G0 Z0.0 ; Pen down
G1 X166.180 Y121.987 F1000
G1 X166.180 Y121.987 F1000
G1 X165.833 Y122.333 F1000
G1 X165.833 Y122.333 F1000
G1 X166.180 Y121.987 F1000
G0 Z3.0 ; Pen up

; Return to origin
G0 X0 Y0
G0 Z3.0

; Total drawing distance: 1641.25 mm
; Total travel distance: 227.50 mm
; Total lines: 57
; Estimated time: 103.0 seconds (1.7 minutes)
M2 ; End program