; Blueprint to G-code
; Input: /home/david/code/blueprint2gcode/test_data/test_images_corners/test6_grid_6squares_100x100.png
; Generated with blueprint2gcode.py
;
; Generation Parameters:
;   Paper size: A4 (210x297mm)
;   Orientation: auto
;   Margin: 1.0mm
;   Z up: 3.0mm
;   Z down: 0.0mm
;   Feed rate: 1000mm/min
;   Travel rate: 3000mm/min
;   Join tolerance: 0.02mm
;   Min line length: 0.01mm
;   Simplify epsilon: 0.000001
;   Fill solid areas: True
;   Hatch spacing: 1.0px
;   Hatch angle: 45.0°
;   Crosshatch: False
;   Min solid area: 100.0px²
;   Invert colors: False

G21 ; Set units to millimeters
G90 ; Absolute positioning
G0 Z3.0 ; Pen up
G0 X0 Y0 ; Move to origin

G0 X44.847 Y69.987 F3000 ; Travel to line 1
G0 Z0.0 ; Pen down
G1 X44.500 Y70.680 F1000
G0 Z3.0 ; Pen up

G0 X44.500 Y72.067 F3000 ; Travel to line 2
G0 Z0.0 ; Pen down
G1 X46.233 Y69.987 F1000
G0 Z3.0 ; Pen up

G0 X46.233 Y69.987 F3000 ; Travel to line 3
G0 Z0.0 ; Pen down
G1 X44.500 Y72.067 F1000
G0 Z3.0 ; Pen up

G0 X44.500 Y72.413 F3000 ; Travel to line 4
G0 Z0.0 ; Pen down
G1 X46.580 Y69.987 F1000
G0 Z3.0 ; Pen up

G0 X47.273 Y69.987 F3000 ; Travel to line 5
G0 Z0.0 ; Pen down
G1 X44.500 Y73.107 F1000
G0 Z3.0 ; Pen up

G0 X44.500 Y73.453 F3000 ; Travel to line 6
G0 Z0.0 ; Pen down
G1 X47.620 Y69.987 F1000
G0 Z3.0 ; Pen up

G0 X47.620 Y69.987 F3000 ; Travel to line 7
G0 Z0.0 ; Pen down
G1 X44.500 Y73.453 F1000
G0 Z3.0 ; Pen up

G0 X44.500 Y74.147 F3000 ; Travel to line 8
G0 Z0.0 ; Pen down
G1 X48.313 Y69.987 F1000
G0 Z3.0 ; Pen up

G0 X49.007 Y69.987 F3000 ; Travel to line 9
G0 Z0.0 ; Pen down
G1 X44.500 Y74.840 F1000
G0 Z3.0 ; Pen up

G0 X44.500 Y76.227 F3000 ; Travel to line 10
G0 Z0.0 ; Pen down
G1 X50.393 Y69.987 F1000
G0 Z3.0 ; Pen up

G0 X51.780 Y69.987 F3000 ; Travel to line 11
G0 Z0.0 ; Pen down
G1 X44.500 Y77.613 F1000
G0 Z3.0 ; Pen up

G0 X44.500 Y79.000 F3000 ; Travel to line 12
G0 Z0.0 ; Pen down
G1 X53.167 Y69.987 F1000
G0 Z3.0 ; Pen up

G0 X54.553 Y69.987 F3000 ; Travel to line 13
G0 Z0.0 ; Pen down
G1 X44.500 Y80.387 F1000
G0 Z3.0 ; Pen up

G0 X44.500 Y81.773 F3000 ; Travel to line 14
G0 Z0.0 ; Pen down
G1 X55.940 Y69.987 F1000
G0 Z3.0 ; Pen up

G0 X57.327 Y69.987 F3000 ; Travel to line 15
G0 Z0.0 ; Pen down
G1 X44.500 Y83.160 F1000
G0 Z3.0 ; Pen up

G0 X44.500 Y84.547 F3000 ; Travel to line 16
G0 Z0.0 ; Pen down
G1 X58.713 Y69.987 F1000
G0 Z3.0 ; Pen up

G0 X60.100 Y69.987 F3000 ; Travel to line 17
G0 Z0.0 ; Pen down
G1 X44.500 Y85.933 F1000
G0 Z3.0 ; Pen up

G0 X44.500 Y87.667 F3000 ; Travel to line 18
G0 Z0.0 ; Pen down
G1 X61.833 Y69.987 F1000
G0 Z3.0 ; Pen up

G0 X63.220 Y69.987 F3000 ; Travel to line 19
G0 Z0.0 ; Pen down
G1 X44.500 Y89.053 F1000
G0 Z3.0 ; Pen up

G0 X44.500 Y90.440 F3000 ; Travel to line 20
G0 Z0.0 ; Pen down
G1 X64.607 Y69.987 F1000
G0 Z3.0 ; Pen up

G0 X65.993 Y69.987 F3000 ; Travel to line 21
G0 Z0.0 ; Pen down
G1 X44.500 Y91.827 F1000
G0 Z3.0 ; Pen up

G0 X44.500 Y93.213 F3000 ; Travel to line 22
G0 Z0.0 ; Pen down
G1 X67.380 Y69.987 F1000
G0 Z3.0 ; Pen up

G0 X68.767 Y69.987 F3000 ; Travel to line 23
G0 Z0.0 ; Pen down
G1 X44.500 Y94.600 F1000
G0 Z3.0 ; Pen up

G0 X44.500 Y95.987 F3000 ; Travel to line 24
G0 Z0.0 ; Pen down
G1 X70.153 Y69.987 F1000
G0 Z3.0 ; Pen up

G0 X71.540 Y69.987 F3000 ; Travel to line 25
G0 Z0.0 ; Pen down
G1 X44.500 Y97.373 F1000
G0 Z3.0 ; Pen up

G0 X44.500 Y98.760 F3000 ; Travel to line 26
G0 Z0.0 ; Pen down
G1 X72.927 Y69.987 F1000
G0 Z3.0 ; Pen up

G0 X74.313 Y69.987 F3000 ; Travel to line 27
G0 Z0.0 ; Pen down
G1 X44.500 Y100.147 F1000
G0 Z3.0 ; Pen up

G0 X44.500 Y101.533 F3000 ; Travel to line 28
G0 Z0.0 ; Pen down
G1 X75.700 Y69.987 F1000
G0 Z3.0 ; Pen up

G0 X77.087 Y69.987 F3000 ; Travel to line 29
G0 Z0.0 ; Pen down
G1 X44.500 Y102.920 F1000
G0 Z3.0 ; Pen up

G0 X44.500 Y104.307 F3000 ; Travel to line 30
G0 Z0.0 ; Pen down
G1 X78.820 Y69.987 F1000
G0 Z3.0 ; Pen up

G0 X79.513 Y71.027 F3000 ; Travel to line 31
G0 Z0.0 ; Pen down
G1 X45.193 Y105.000 F1000
G0 Z3.0 ; Pen up

G0 X44.500 Y105.000 F3000 ; Travel to line 32
G0 Z0.0 ; Pen down
G1 X44.500 Y70.333 F1000
G1 X79.167 Y70.333 F1000
G1 X79.167 Y105.000 F1000
G1 X44.500 Y105.000 F1000
G0 Z3.0 ; Pen up

G0 X46.580 Y105.000 F3000 ; Travel to line 33
G0 Z0.0 ; Pen down
G1 X79.513 Y72.413 F1000
G0 Z3.0 ; Pen up

G0 X79.513 Y73.800 F3000 ; Travel to line 34
G0 Z0.0 ; Pen down
G1 X47.967 Y105.000 F1000
G0 Z3.0 ; Pen up

G0 X49.353 Y105.000 F3000 ; Travel to line 35
G0 Z0.0 ; Pen down
G1 X79.513 Y75.187 F1000
G0 Z3.0 ; Pen up

G0 X79.513 Y76.573 F3000 ; Travel to line 36
G0 Z0.0 ; Pen down
G1 X50.740 Y105.000 F1000
G0 Z3.0 ; Pen up

G0 X52.127 Y105.000 F3000 ; Travel to line 37
G0 Z0.0 ; Pen down
G1 X79.513 Y77.960 F1000
G0 Z3.0 ; Pen up

G0 X79.513 Y79.347 F3000 ; Travel to line 38
G0 Z0.0 ; Pen down
G1 X53.513 Y105.000 F1000
G0 Z3.0 ; Pen up

G0 X54.900 Y105.000 F3000 ; Travel to line 39
G0 Z0.0 ; Pen down
G1 X79.513 Y80.733 F1000
G0 Z3.0 ; Pen up

G0 X79.513 Y82.120 F3000 ; Travel to line 40
G0 Z0.0 ; Pen down
G1 X56.287 Y105.000 F1000
G0 Z3.0 ; Pen up

G0 X57.673 Y105.000 F3000 ; Travel to line 41
G0 Z0.0 ; Pen down
G1 X79.513 Y83.507 F1000
G0 Z3.0 ; Pen up

G0 X79.513 Y84.893 F3000 ; Travel to line 42
G0 Z0.0 ; Pen down
G1 X59.060 Y105.000 F1000
G0 Z3.0 ; Pen up

G0 X60.793 Y105.000 F3000 ; Travel to line 43
G0 Z0.0 ; Pen down
G1 X79.513 Y86.280 F1000
G0 Z3.0 ; Pen up

G0 X79.513 Y88.013 F3000 ; Travel to line 44
G0 Z0.0 ; Pen down
G1 X62.180 Y105.000 F1000
G0 Z3.0 ; Pen up

G0 X63.567 Y105.000 F3000 ; Travel to line 45
G0 Z0.0 ; Pen down
G1 X79.513 Y89.400 F1000
G0 Z3.0 ; Pen up

G0 X79.513 Y90.787 F3000 ; Travel to line 46
G0 Z0.0 ; Pen down
G1 X64.953 Y105.000 F1000
G0 Z3.0 ; Pen up

G0 X66.340 Y105.000 F3000 ; Travel to line 47
G0 Z0.0 ; Pen down
G1 X79.513 Y92.173 F1000
G0 Z3.0 ; Pen up

G0 X79.513 Y93.560 F3000 ; Travel to line 48
G0 Z0.0 ; Pen down
G1 X67.727 Y105.000 F1000
G0 Z3.0 ; Pen up

G0 X69.113 Y105.000 F3000 ; Travel to line 49
G0 Z0.0 ; Pen down
G1 X79.513 Y94.947 F1000
G0 Z3.0 ; Pen up

G0 X79.513 Y96.333 F3000 ; Travel to line 50
G0 Z0.0 ; Pen down
G1 X70.500 Y105.000 F1000
G0 Z3.0 ; Pen up

G0 X71.887 Y105.000 F3000 ; Travel to line 51
G0 Z0.0 ; Pen down
G1 X79.513 Y97.720 F1000
G0 Z3.0 ; Pen up

G0 X79.513 Y99.107 F3000 ; Travel to line 52
G0 Z0.0 ; Pen down
G1 X73.273 Y105.000 F1000
G0 Z3.0 ; Pen up

G0 X74.660 Y105.000 F3000 ; Travel to line 53
G0 Z0.0 ; Pen down
G1 X79.513 Y100.493 F1000
G0 Z3.0 ; Pen up

G0 X79.513 Y101.880 F3000 ; Travel to line 54
G0 Z0.0 ; Pen down
G1 X76.047 Y105.000 F1000
G0 Z3.0 ; Pen up

G0 X77.433 Y105.000 F3000 ; Travel to line 55
G0 Z0.0 ; Pen down
G1 X79.513 Y103.267 F1000
G0 Z3.0 ; Pen up

G0 X79.513 Y103.267 F3000 ; Travel to line 56
G0 Z0.0 ; Pen down
G1 X77.780 Y105.000 F1000
G0 Z3.0 ; Pen up

G0 X78.473 Y105.000 F3000 ; Travel to line 57
G0 Z0.0 ; Pen down
G1 X79.513 Y103.960 F1000
G0 Z3.0 ; Pen up

G0 X79.513 Y104.653 F3000 ; Travel to line 58
G0 Z0.0 ; Pen down
G1 X79.167 Y105.000 F1000
G0 Z3.0 ; Pen up

G0 X79.167 Y105.000 F3000 ; Travel to line 59
G0 Z0.0 ; Pen down
G1 X79.513 Y104.653 F1000
G0 Z3.0 ; Pen up

G0 X113.833 Y104.307 F3000 ; Travel to line 60
G0 Z0.0 ; Pen down
G1 X148.153 Y69.987 F1000
G0 Z3.0 ; Pen up

G0 X148.847 Y71.027 F3000 ; Travel to line 61
G0 Z0.0 ; Pen down
G1 X114.527 Y105.000 F1000
G0 Z3.0 ; Pen up

G0 X113.833 Y105.000 F3000 ; Travel to line 62
G0 Z0.0 ; Pen down
G1 X113.833 Y70.333 F1000
G1 X148.500 Y70.333 F1000
G1 X148.500 Y105.000 F1000
G1 X113.833 Y105.000 F1000
G0 Z3.0 ; Pen up

G0 X115.913 Y105.000 F3000 ; Travel to line 63
G0 Z0.0 ; Pen down
G1 X148.847 Y72.413 F1000
G0 Z3.0 ; Pen up

G0 X148.847 Y73.800 F3000 ; Travel to line 64
G0 Z0.0 ; Pen down
G1 X117.300 Y105.000 F1000
G0 Z3.0 ; Pen up

G0 X118.687 Y105.000 F3000 ; Travel to line 65
G0 Z0.0 ; Pen down
G1 X148.847 Y75.187 F1000
G0 Z3.0 ; Pen up

G0 X148.847 Y76.573 F3000 ; Travel to line 66
G0 Z0.0 ; Pen down
G1 X120.073 Y105.000 F1000
G0 Z3.0 ; Pen up

G0 X121.460 Y105.000 F3000 ; Travel to line 67
G0 Z0.0 ; Pen down
G1 X148.847 Y77.960 F1000
G0 Z3.0 ; Pen up

G0 X148.847 Y79.347 F3000 ; Travel to line 68
G0 Z0.0 ; Pen down
G1 X122.847 Y105.000 F1000
G0 Z3.0 ; Pen up

G0 X124.233 Y105.000 F3000 ; Travel to line 69
G0 Z0.0 ; Pen down
G1 X148.847 Y80.733 F1000
G0 Z3.0 ; Pen up

G0 X148.847 Y82.120 F3000 ; Travel to line 70
G0 Z0.0 ; Pen down
G1 X125.620 Y105.000 F1000
G0 Z3.0 ; Pen up

G0 X127.007 Y105.000 F3000 ; Travel to line 71
G0 Z0.0 ; Pen down
G1 X148.847 Y83.507 F1000
G0 Z3.0 ; Pen up

G0 X148.847 Y84.893 F3000 ; Travel to line 72
G0 Z0.0 ; Pen down
G1 X128.393 Y105.000 F1000
G0 Z3.0 ; Pen up

G0 X130.127 Y105.000 F3000 ; Travel to line 73
G0 Z0.0 ; Pen down
G1 X148.847 Y86.280 F1000
G0 Z3.0 ; Pen up

G0 X148.847 Y88.013 F3000 ; Travel to line 74
G0 Z0.0 ; Pen down
G1 X131.513 Y105.000 F1000
G0 Z3.0 ; Pen up

G0 X132.900 Y105.000 F3000 ; Travel to line 75
G0 Z0.0 ; Pen down
G1 X148.847 Y89.400 F1000
G0 Z3.0 ; Pen up

G0 X148.847 Y90.787 F3000 ; Travel to line 76
G0 Z0.0 ; Pen down
G1 X134.287 Y105.000 F1000
G0 Z3.0 ; Pen up

G0 X135.673 Y105.000 F3000 ; Travel to line 77
G0 Z0.0 ; Pen down
G1 X148.847 Y92.173 F1000
G0 Z3.0 ; Pen up

G0 X148.847 Y93.560 F3000 ; Travel to line 78
G0 Z0.0 ; Pen down
G1 X137.060 Y105.000 F1000
G0 Z3.0 ; Pen up

G0 X138.447 Y105.000 F3000 ; Travel to line 79
G0 Z0.0 ; Pen down
G1 X148.847 Y94.947 F1000
G0 Z3.0 ; Pen up

G0 X148.847 Y96.333 F3000 ; Travel to line 80
G0 Z0.0 ; Pen down
G1 X139.833 Y105.000 F1000
G0 Z3.0 ; Pen up

G0 X141.220 Y105.000 F3000 ; Travel to line 81
G0 Z0.0 ; Pen down
G1 X148.847 Y97.720 F1000
G0 Z3.0 ; Pen up

G0 X148.847 Y99.107 F3000 ; Travel to line 82
G0 Z0.0 ; Pen down
G1 X142.607 Y105.000 F1000
G0 Z3.0 ; Pen up

G0 X143.993 Y105.000 F3000 ; Travel to line 83
G0 Z0.0 ; Pen down
G1 X148.847 Y100.493 F1000
G0 Z3.0 ; Pen up

G0 X148.847 Y101.880 F3000 ; Travel to line 84
G0 Z0.0 ; Pen down
G1 X145.380 Y105.000 F1000
G0 Z3.0 ; Pen up

G0 X146.767 Y105.000 F3000 ; Travel to line 85
G0 Z0.0 ; Pen down
G1 X148.847 Y103.267 F1000
G0 Z3.0 ; Pen up

G0 X148.847 Y103.267 F3000 ; Travel to line 86
G0 Z0.0 ; Pen down
G1 X147.113 Y105.000 F1000
G0 Z3.0 ; Pen up

G0 X147.807 Y105.000 F3000 ; Travel to line 87
G0 Z0.0 ; Pen down
G1 X148.847 Y103.960 F1000
G0 Z3.0 ; Pen up

G0 X148.847 Y104.653 F3000 ; Travel to line 88
G0 Z0.0 ; Pen down
G1 X148.500 Y105.000 F1000
G0 Z3.0 ; Pen up

G0 X148.500 Y105.000 F3000 ; Travel to line 89
G0 Z0.0 ; Pen down
G1 X148.847 Y104.653 F1000
G0 Z3.0 ; Pen up

G0 X183.167 Y104.307 F3000 ; Travel to line 90
G0 Z0.0 ; Pen down
G1 X217.487 Y69.987 F1000
G0 Z3.0 ; Pen up

G0 X218.180 Y71.027 F3000 ; Travel to line 91
G0 Z0.0 ; Pen down
G1 X183.860 Y105.000 F1000
G0 Z3.0 ; Pen up

G0 X183.167 Y105.000 F3000 ; Travel to line 92
G0 Z0.0 ; Pen down
G1 X183.167 Y70.333 F1000
G1 X217.833 Y70.333 F1000
G1 X217.833 Y105.000 F1000
G1 X183.167 Y105.000 F1000
G0 Z3.0 ; Pen up

G0 X185.247 Y105.000 F3000 ; Travel to line 93
G0 Z0.0 ; Pen down
G1 X218.180 Y72.413 F1000
G0 Z3.0 ; Pen up

G0 X218.180 Y73.800 F3000 ; Travel to line 94
G0 Z0.0 ; Pen down
G1 X186.633 Y105.000 F1000
G0 Z3.0 ; Pen up

G0 X188.020 Y105.000 F3000 ; Travel to line 95
G0 Z0.0 ; Pen down
G1 X218.180 Y75.187 F1000
G0 Z3.0 ; Pen up

G0 X218.180 Y76.573 F3000 ; Travel to line 96
G0 Z0.0 ; Pen down
G1 X189.407 Y105.000 F1000
G0 Z3.0 ; Pen up

G0 X190.793 Y105.000 F3000 ; Travel to line 97
G0 Z0.0 ; Pen down
G1 X218.180 Y77.960 F1000
G0 Z3.0 ; Pen up

G0 X218.180 Y79.347 F3000 ; Travel to line 98
G0 Z0.0 ; Pen down
G1 X192.180 Y105.000 F1000
G0 Z3.0 ; Pen up

G0 X193.567 Y105.000 F3000 ; Travel to line 99
G0 Z0.0 ; Pen down
G1 X218.180 Y80.733 F1000
G0 Z3.0 ; Pen up

G0 X218.180 Y82.120 F3000 ; Travel to line 100
G0 Z0.0 ; Pen down
G1 X194.953 Y105.000 F1000
G0 Z3.0 ; Pen up

G0 X196.340 Y105.000 F3000 ; Travel to line 101
G0 Z0.0 ; Pen down
G1 X218.180 Y83.507 F1000
G0 Z3.0 ; Pen up

G0 X218.180 Y84.893 F3000 ; Travel to line 102
G0 Z0.0 ; Pen down
G1 X197.727 Y105.000 F1000
G0 Z3.0 ; Pen up

G0 X199.460 Y105.000 F3000 ; Travel to line 103
G0 Z0.0 ; Pen down
G1 X218.180 Y86.280 F1000
G0 Z3.0 ; Pen up

G0 X218.180 Y88.013 F3000 ; Travel to line 104
G0 Z0.0 ; Pen down
G1 X200.847 Y105.000 F1000
G0 Z3.0 ; Pen up

G0 X202.233 Y105.000 F3000 ; Travel to line 105
G0 Z0.0 ; Pen down
G1 X218.180 Y89.400 F1000
G0 Z3.0 ; Pen up

G0 X218.180 Y90.787 F3000 ; Travel to line 106
G0 Z0.0 ; Pen down
G1 X203.620 Y105.000 F1000
G0 Z3.0 ; Pen up

G0 X205.007 Y105.000 F3000 ; Travel to line 107
G0 Z0.0 ; Pen down
G1 X218.180 Y92.173 F1000
G0 Z3.0 ; Pen up

G0 X218.180 Y93.560 F3000 ; Travel to line 108
G0 Z0.0 ; Pen down
G1 X206.393 Y105.000 F1000
G0 Z3.0 ; Pen up

G0 X207.780 Y105.000 F3000 ; Travel to line 109
G0 Z0.0 ; Pen down
G1 X218.180 Y94.947 F1000
G0 Z3.0 ; Pen up

G0 X218.180 Y96.333 F3000 ; Travel to line 110
G0 Z0.0 ; Pen down
G1 X209.167 Y105.000 F1000
G0 Z3.0 ; Pen up

G0 X210.553 Y105.000 F3000 ; Travel to line 111
G0 Z0.0 ; Pen down
G1 X218.180 Y97.720 F1000
G0 Z3.0 ; Pen up

G0 X218.180 Y99.107 F3000 ; Travel to line 112
G0 Z0.0 ; Pen down
G1 X211.940 Y105.000 F1000
G0 Z3.0 ; Pen up

G0 X213.327 Y105.000 F3000 ; Travel to line 113
G0 Z0.0 ; Pen down
G1 X218.180 Y100.493 F1000
G0 Z3.0 ; Pen up

G0 X218.180 Y101.880 F3000 ; Travel to line 114
G0 Z0.0 ; Pen down
G1 X214.713 Y105.000 F1000
G0 Z3.0 ; Pen up

G0 X216.100 Y105.000 F3000 ; Travel to line 115
G0 Z0.0 ; Pen down
G1 X218.180 Y103.267 F1000
G0 Z3.0 ; Pen up

G0 X218.180 Y103.267 F3000 ; Travel to line 116
G0 Z0.0 ; Pen down
G1 X216.447 Y105.000 F1000
G0 Z3.0 ; Pen up

G0 X217.140 Y105.000 F3000 ; Travel to line 117
G0 Z0.0 ; Pen down
G1 X218.180 Y103.960 F1000
G0 Z3.0 ; Pen up

G0 X218.180 Y104.653 F3000 ; Travel to line 118
G0 Z0.0 ; Pen down
G1 X217.833 Y105.000 F1000
G0 Z3.0 ; Pen up

G0 X217.833 Y105.000 F3000 ; Travel to line 119
G0 Z0.0 ; Pen down
G1 X218.180 Y104.653 F1000
G0 Z3.0 ; Pen up

G0 X217.487 Y139.320 F3000 ; Travel to line 120
G0 Z0.0 ; Pen down
G1 X183.167 Y173.640 F1000
G0 Z3.0 ; Pen up

G0 X183.167 Y174.333 F3000 ; Travel to line 121
G0 Z0.0 ; Pen down
G1 X183.167 Y139.667 F1000
G1 X217.833 Y139.667 F1000
G1 X217.833 Y174.333 F1000
G1 X183.167 Y174.333 F1000
G0 Z3.0 ; Pen up

G0 X183.860 Y174.333 F3000 ; Travel to line 122
G0 Z0.0 ; Pen down
G1 X218.180 Y140.360 F1000
G0 Z3.0 ; Pen up

G0 X218.180 Y141.747 F3000 ; Travel to line 123
G0 Z0.0 ; Pen down
G1 X185.247 Y174.333 F1000
G0 Z3.0 ; Pen up

G0 X186.633 Y174.333 F3000 ; Travel to line 124
G0 Z0.0 ; Pen down
G1 X218.180 Y143.133 F1000
G0 Z3.0 ; Pen up

G0 X218.180 Y144.520 F3000 ; Travel to line 125
G0 Z0.0 ; Pen down
G1 X188.020 Y174.333 F1000
G0 Z3.0 ; Pen up

G0 X189.407 Y174.333 F3000 ; Travel to line 126
G0 Z0.0 ; Pen down
G1 X218.180 Y145.907 F1000
G0 Z3.0 ; Pen up

G0 X218.180 Y147.293 F3000 ; Travel to line 127
G0 Z0.0 ; Pen down
G1 X190.793 Y174.333 F1000
G0 Z3.0 ; Pen up

G0 X192.180 Y174.333 F3000 ; Travel to line 128
G0 Z0.0 ; Pen down
G1 X218.180 Y148.680 F1000
G0 Z3.0 ; Pen up

G0 X218.180 Y150.067 F3000 ; Travel to line 129
G0 Z0.0 ; Pen down
G1 X193.567 Y174.333 F1000
G0 Z3.0 ; Pen up

G0 X194.953 Y174.333 F3000 ; Travel to line 130
G0 Z0.0 ; Pen down
G1 X218.180 Y151.453 F1000
G0 Z3.0 ; Pen up

G0 X218.180 Y152.840 F3000 ; Travel to line 131
G0 Z0.0 ; Pen down
G1 X196.340 Y174.333 F1000
G0 Z3.0 ; Pen up

G0 X197.727 Y174.333 F3000 ; Travel to line 132
G0 Z0.0 ; Pen down
G1 X218.180 Y154.227 F1000
G0 Z3.0 ; Pen up

G0 X218.180 Y155.613 F3000 ; Travel to line 133
G0 Z0.0 ; Pen down
G1 X199.460 Y174.333 F1000
G0 Z3.0 ; Pen up

G0 X200.847 Y174.333 F3000 ; Travel to line 134
G0 Z0.0 ; Pen down
G1 X218.180 Y157.347 F1000
G0 Z3.0 ; Pen up

G0 X218.180 Y158.733 F3000 ; Travel to line 135
G0 Z0.0 ; Pen down
G1 X202.233 Y174.333 F1000
G0 Z3.0 ; Pen up

G0 X203.620 Y174.333 F3000 ; Travel to line 136
G0 Z0.0 ; Pen down
G1 X218.180 Y160.120 F1000
G0 Z3.0 ; Pen up

G0 X218.180 Y161.507 F3000 ; Travel to line 137
G0 Z0.0 ; Pen down
G1 X205.007 Y174.333 F1000
G0 Z3.0 ; Pen up

G0 X206.393 Y174.333 F3000 ; Travel to line 138
G0 Z0.0 ; Pen down
G1 X218.180 Y162.893 F1000
G0 Z3.0 ; Pen up

G0 X218.180 Y164.280 F3000 ; Travel to line 139
G0 Z0.0 ; Pen down
G1 X207.780 Y174.333 F1000
G0 Z3.0 ; Pen up

G0 X209.167 Y174.333 F3000 ; Travel to line 140
G0 Z0.0 ; Pen down
G1 X218.180 Y165.667 F1000
G0 Z3.0 ; Pen up

G0 X218.180 Y167.053 F3000 ; Travel to line 141
G0 Z0.0 ; Pen down
G1 X210.553 Y174.333 F1000
G0 Z3.0 ; Pen up

G0 X211.940 Y174.333 F3000 ; Travel to line 142
G0 Z0.0 ; Pen down
G1 X218.180 Y168.440 F1000
G0 Z3.0 ; Pen up

G0 X218.180 Y169.827 F3000 ; Travel to line 143
G0 Z0.0 ; Pen down
G1 X213.327 Y174.333 F1000
G0 Z3.0 ; Pen up

G0 X214.020 Y174.333 F3000 ; Travel to line 144
G0 Z0.0 ; Pen down
G1 X218.180 Y170.520 F1000
G0 Z3.0 ; Pen up

G0 X218.180 Y171.213 F3000 ; Travel to line 145
G0 Z0.0 ; Pen down
G1 X214.713 Y174.333 F1000
G0 Z3.0 ; Pen up

G0 X214.713 Y174.333 F3000 ; Travel to line 146
G0 Z0.0 ; Pen down
G1 X218.180 Y171.213 F1000
G0 Z3.0 ; Pen up

G0 X218.180 Y171.560 F3000 ; Travel to line 147
G0 Z0.0 ; Pen down
G1 X215.060 Y174.333 F1000
G0 Z3.0 ; Pen up

G0 X215.753 Y174.333 F3000 ; Travel to line 148
G0 Z0.0 ; Pen down
G1 X218.180 Y172.253 F1000
G0 Z3.0 ; Pen up

G0 X218.180 Y172.600 F3000 ; Travel to line 149
G0 Z0.0 ; Pen down
G1 X216.100 Y174.333 F1000
G0 Z3.0 ; Pen up

G0 X216.100 Y174.333 F3000 ; Travel to line 150
G0 Z0.0 ; Pen down
G1 X218.180 Y172.600 F1000
G0 Z3.0 ; Pen up

G0 X218.180 Y173.987 F3000 ; Travel to line 151
G0 Z0.0 ; Pen down
G1 X217.833 Y174.333 F1000
G0 Z3.0 ; Pen up

G0 X183.167 Y172.253 F3000 ; Travel to line 152
G0 Z0.0 ; Pen down
G1 X215.753 Y139.320 F1000
G0 Z3.0 ; Pen up

G0 X214.367 Y139.320 F3000 ; Travel to line 153
G0 Z0.0 ; Pen down
G1 X183.167 Y170.867 F1000
G0 Z3.0 ; Pen up

G0 X183.167 Y169.480 F3000 ; Travel to line 154
G0 Z0.0 ; Pen down
G1 X212.980 Y139.320 F1000
G0 Z3.0 ; Pen up

G0 X211.593 Y139.320 F3000 ; Travel to line 155
G0 Z0.0 ; Pen down
G1 X183.167 Y168.093 F1000
G0 Z3.0 ; Pen up

G0 X183.167 Y166.707 F3000 ; Travel to line 156
G0 Z0.0 ; Pen down
G1 X210.207 Y139.320 F1000
G0 Z3.0 ; Pen up

G0 X208.820 Y139.320 F3000 ; Travel to line 157
G0 Z0.0 ; Pen down
G1 X183.167 Y165.320 F1000
G0 Z3.0 ; Pen up

G0 X183.167 Y163.933 F3000 ; Travel to line 158
G0 Z0.0 ; Pen down
G1 X207.433 Y139.320 F1000
G0 Z3.0 ; Pen up

G0 X206.047 Y139.320 F3000 ; Travel to line 159
G0 Z0.0 ; Pen down
G1 X183.167 Y162.547 F1000
G0 Z3.0 ; Pen up

G0 X183.167 Y161.160 F3000 ; Travel to line 160
G0 Z0.0 ; Pen down
G1 X204.660 Y139.320 F1000
G0 Z3.0 ; Pen up

G0 X203.273 Y139.320 F3000 ; Travel to line 161
G0 Z0.0 ; Pen down
G1 X183.167 Y159.773 F1000
G0 Z3.0 ; Pen up

G0 X183.167 Y158.387 F3000 ; Travel to line 162
G0 Z0.0 ; Pen down
G1 X201.887 Y139.320 F1000
G0 Z3.0 ; Pen up

G0 X200.500 Y139.320 F3000 ; Travel to line 163
G0 Z0.0 ; Pen down
G1 X183.167 Y157.000 F1000
G0 Z3.0 ; Pen up

G0 X183.167 Y155.267 F3000 ; Travel to line 164
G0 Z0.0 ; Pen down
G1 X199.113 Y139.320 F1000
G0 Z3.0 ; Pen up

G0 X197.380 Y139.320 F3000 ; Travel to line 165
G0 Z0.0 ; Pen down
G1 X183.167 Y153.880 F1000
G0 Z3.0 ; Pen up

G0 X183.167 Y152.493 F3000 ; Travel to line 166
G0 Z0.0 ; Pen down
G1 X195.993 Y139.320 F1000
G0 Z3.0 ; Pen up

G0 X194.607 Y139.320 F3000 ; Travel to line 167
G0 Z0.0 ; Pen down
G1 X183.167 Y151.107 F1000
G0 Z3.0 ; Pen up

G0 X183.167 Y149.720 F3000 ; Travel to line 168
G0 Z0.0 ; Pen down
G1 X193.220 Y139.320 F1000
G0 Z3.0 ; Pen up

G0 X191.833 Y139.320 F3000 ; Travel to line 169
G0 Z0.0 ; Pen down
G1 X183.167 Y148.333 F1000
G0 Z3.0 ; Pen up

G0 X183.167 Y146.947 F3000 ; Travel to line 170
G0 Z0.0 ; Pen down
G1 X190.447 Y139.320 F1000
G0 Z3.0 ; Pen up

G0 X189.060 Y139.320 F3000 ; Travel to line 171
G0 Z0.0 ; Pen down
G1 X183.167 Y145.560 F1000
G0 Z3.0 ; Pen up

G0 X183.167 Y144.173 F3000 ; Travel to line 172
G0 Z0.0 ; Pen down
G1 X187.673 Y139.320 F1000
G0 Z3.0 ; Pen up

G0 X186.287 Y139.320 F3000 ; Travel to line 173
G0 Z0.0 ; Pen down
G1 X183.167 Y142.787 F1000
G0 Z3.0 ; Pen up

G0 X183.167 Y141.400 F3000 ; Travel to line 174
G0 Z0.0 ; Pen down
G1 X184.900 Y139.320 F1000
G0 Z3.0 ; Pen up

G0 X184.900 Y139.320 F3000 ; Travel to line 175
G0 Z0.0 ; Pen down
G1 X183.167 Y141.053 F1000
G0 Z3.0 ; Pen up

G0 X183.167 Y140.360 F3000 ; Travel to line 176
G0 Z0.0 ; Pen down
G1 X184.207 Y139.320 F1000
G0 Z3.0 ; Pen up

G0 X183.513 Y139.320 F3000 ; Travel to line 177
G0 Z0.0 ; Pen down
G1 X183.167 Y140.013 F1000
G0 Z3.0 ; Pen up

G0 X183.167 Y139.667 F3000 ; Travel to line 178
G0 Z0.0 ; Pen down
G1 X183.513 Y139.320 F1000
G0 Z3.0 ; Pen up

G0 X148.847 Y140.360 F3000 ; Travel to line 179
G0 Z0.0 ; Pen down
G1 X114.527 Y174.333 F1000
G0 Z3.0 ; Pen up

G0 X113.833 Y174.333 F3000 ; Travel to line 180
G0 Z0.0 ; Pen down
G1 X113.833 Y139.667 F1000
G1 X148.500 Y139.667 F1000
G1 X148.500 Y174.333 F1000
G1 X113.833 Y174.333 F1000
G0 Z3.0 ; Pen up

G0 X113.833 Y173.640 F3000 ; Travel to line 181
G0 Z0.0 ; Pen down
G1 X148.153 Y139.320 F1000
G0 Z3.0 ; Pen up

G0 X146.420 Y139.320 F3000 ; Travel to line 182
G0 Z0.0 ; Pen down
G1 X113.833 Y172.253 F1000
G0 Z3.0 ; Pen up

G0 X113.833 Y170.867 F3000 ; Travel to line 183
G0 Z0.0 ; Pen down
G1 X145.033 Y139.320 F1000
G0 Z3.0 ; Pen up

G0 X143.647 Y139.320 F3000 ; Travel to line 184
G0 Z0.0 ; Pen down
G1 X113.833 Y169.480 F1000
G0 Z3.0 ; Pen up

G0 X113.833 Y168.093 F3000 ; Travel to line 185
G0 Z0.0 ; Pen down
G1 X142.260 Y139.320 F1000
G0 Z3.0 ; Pen up

G0 X140.873 Y139.320 F3000 ; Travel to line 186
G0 Z0.0 ; Pen down
G1 X113.833 Y166.707 F1000
G0 Z3.0 ; Pen up

G0 X113.833 Y165.320 F3000 ; Travel to line 187
G0 Z0.0 ; Pen down
G1 X139.487 Y139.320 F1000
G0 Z3.0 ; Pen up

G0 X138.100 Y139.320 F3000 ; Travel to line 188
G0 Z0.0 ; Pen down
G1 X113.833 Y163.933 F1000
G0 Z3.0 ; Pen up

G0 X113.833 Y162.547 F3000 ; Travel to line 189
G0 Z0.0 ; Pen down
G1 X136.713 Y139.320 F1000
G0 Z3.0 ; Pen up

G0 X135.327 Y139.320 F3000 ; Travel to line 190
G0 Z0.0 ; Pen down
G1 X113.833 Y161.160 F1000
G0 Z3.0 ; Pen up

G0 X113.833 Y159.773 F3000 ; Travel to line 191
G0 Z0.0 ; Pen down
G1 X133.940 Y139.320 F1000
G0 Z3.0 ; Pen up

G0 X132.553 Y139.320 F3000 ; Travel to line 192
G0 Z0.0 ; Pen down
G1 X113.833 Y158.387 F1000
G0 Z3.0 ; Pen up

G0 X113.833 Y157.000 F3000 ; Travel to line 193
G0 Z0.0 ; Pen down
G1 X131.167 Y139.320 F1000
G0 Z3.0 ; Pen up

G0 X129.780 Y139.320 F3000 ; Travel to line 194
G0 Z0.0 ; Pen down
G1 X113.833 Y155.267 F1000
G0 Z3.0 ; Pen up

G0 X113.833 Y153.880 F3000 ; Travel to line 195
G0 Z0.0 ; Pen down
G1 X128.047 Y139.320 F1000
G0 Z3.0 ; Pen up

G0 X126.660 Y139.320 F3000 ; Travel to line 196
G0 Z0.0 ; Pen down
G1 X113.833 Y152.493 F1000
G0 Z3.0 ; Pen up

G0 X113.833 Y151.107 F3000 ; Travel to line 197
G0 Z0.0 ; Pen down
G1 X125.273 Y139.320 F1000
G0 Z3.0 ; Pen up

G0 X123.887 Y139.320 F3000 ; Travel to line 198
G0 Z0.0 ; Pen down
G1 X113.833 Y149.720 F1000
G0 Z3.0 ; Pen up

G0 X113.833 Y148.333 F3000 ; Travel to line 199
G0 Z0.0 ; Pen down
G1 X122.500 Y139.320 F1000
G0 Z3.0 ; Pen up

G0 X121.113 Y139.320 F3000 ; Travel to line 200
G0 Z0.0 ; Pen down
G1 X113.833 Y146.947 F1000
G0 Z3.0 ; Pen up

G0 X113.833 Y145.560 F3000 ; Travel to line 201
G0 Z0.0 ; Pen down
G1 X119.727 Y139.320 F1000
G0 Z3.0 ; Pen up

G0 X118.340 Y139.320 F3000 ; Travel to line 202
G0 Z0.0 ; Pen down
G1 X113.833 Y144.173 F1000
G0 Z3.0 ; Pen up

G0 X113.833 Y142.787 F3000 ; Travel to line 203
G0 Z0.0 ; Pen down
G1 X116.953 Y139.320 F1000
G0 Z3.0 ; Pen up

G0 X115.567 Y139.320 F3000 ; Travel to line 204
G0 Z0.0 ; Pen down
G1 X113.833 Y141.400 F1000
G0 Z3.0 ; Pen up

G0 X113.833 Y141.053 F3000 ; Travel to line 205
G0 Z0.0 ; Pen down
G1 X115.567 Y139.320 F1000
G0 Z3.0 ; Pen up

G0 X114.873 Y139.320 F3000 ; Travel to line 206
G0 Z0.0 ; Pen down
G1 X113.833 Y140.360 F1000
G0 Z3.0 ; Pen up

G0 X113.833 Y140.013 F3000 ; Travel to line 207
G0 Z0.0 ; Pen down
G1 X114.180 Y139.320 F1000
G0 Z3.0 ; Pen up

G0 X114.180 Y139.320 F3000 ; Travel to line 208
G0 Z0.0 ; Pen down
G1 X113.833 Y139.667 F1000
G0 Z3.0 ; Pen up

G0 X79.513 Y140.360 F3000 ; Travel to line 209
G0 Z0.0 ; Pen down
G1 X45.193 Y174.333 F1000
G0 Z3.0 ; Pen up

G0 X44.500 Y174.333 F3000 ; Travel to line 210
G0 Z0.0 ; Pen down
G1 X44.500 Y139.667 F1000
G1 X79.167 Y139.667 F1000
G1 X79.167 Y174.333 F1000
G1 X44.500 Y174.333 F1000
G0 Z3.0 ; Pen up

G0 X44.500 Y173.640 F3000 ; Travel to line 211
G0 Z0.0 ; Pen down
G1 X78.820 Y139.320 F1000
G0 Z3.0 ; Pen up

G0 X77.087 Y139.320 F3000 ; Travel to line 212
G0 Z0.0 ; Pen down
G1 X44.500 Y172.253 F1000
G0 Z3.0 ; Pen up

G0 X44.500 Y170.867 F3000 ; Travel to line 213
G0 Z0.0 ; Pen down
G1 X75.700 Y139.320 F1000
G0 Z3.0 ; Pen up

G0 X74.313 Y139.320 F3000 ; Travel to line 214
G0 Z0.0 ; Pen down
G1 X44.500 Y169.480 F1000
G0 Z3.0 ; Pen up

G0 X44.500 Y168.093 F3000 ; Travel to line 215
G0 Z0.0 ; Pen down
G1 X72.927 Y139.320 F1000
G0 Z3.0 ; Pen up

G0 X71.540 Y139.320 F3000 ; Travel to line 216
G0 Z0.0 ; Pen down
G1 X44.500 Y166.707 F1000
G0 Z3.0 ; Pen up

G0 X44.500 Y165.320 F3000 ; Travel to line 217
G0 Z0.0 ; Pen down
G1 X70.153 Y139.320 F1000
G0 Z3.0 ; Pen up

G0 X68.767 Y139.320 F3000 ; Travel to line 218
G0 Z0.0 ; Pen down
G1 X44.500 Y163.933 F1000
G0 Z3.0 ; Pen up

G0 X44.500 Y162.547 F3000 ; Travel to line 219
G0 Z0.0 ; Pen down
G1 X67.380 Y139.320 F1000
G0 Z3.0 ; Pen up

G0 X65.993 Y139.320 F3000 ; Travel to line 220
G0 Z0.0 ; Pen down
G1 X44.500 Y161.160 F1000
G0 Z3.0 ; Pen up

G0 X44.500 Y159.773 F3000 ; Travel to line 221
G0 Z0.0 ; Pen down
G1 X64.607 Y139.320 F1000
G0 Z3.0 ; Pen up

G0 X63.220 Y139.320 F3000 ; Travel to line 222
G0 Z0.0 ; Pen down
G1 X44.500 Y158.387 F1000
G0 Z3.0 ; Pen up

G0 X44.500 Y157.000 F3000 ; Travel to line 223
G0 Z0.0 ; Pen down
G1 X61.833 Y139.320 F1000
G0 Z3.0 ; Pen up

G0 X60.100 Y139.320 F3000 ; Travel to line 224
G0 Z0.0 ; Pen down
G1 X44.500 Y155.267 F1000
G0 Z3.0 ; Pen up

G0 X44.500 Y153.880 F3000 ; Travel to line 225
G0 Z0.0 ; Pen down
G1 X58.713 Y139.320 F1000
G0 Z3.0 ; Pen up

G0 X57.327 Y139.320 F3000 ; Travel to line 226
G0 Z0.0 ; Pen down
G1 X44.500 Y152.493 F1000
G0 Z3.0 ; Pen up

G0 X44.500 Y151.107 F3000 ; Travel to line 227
G0 Z0.0 ; Pen down
G1 X55.940 Y139.320 F1000
G0 Z3.0 ; Pen up

G0 X54.553 Y139.320 F3000 ; Travel to line 228
G0 Z0.0 ; Pen down
G1 X44.500 Y149.720 F1000
G0 Z3.0 ; Pen up

G0 X44.500 Y148.333 F3000 ; Travel to line 229
G0 Z0.0 ; Pen down
G1 X53.167 Y139.320 F1000
G0 Z3.0 ; Pen up

G0 X51.780 Y139.320 F3000 ; Travel to line 230
G0 Z0.0 ; Pen down
G1 X44.500 Y146.947 F1000
G0 Z3.0 ; Pen up

G0 X44.500 Y145.560 F3000 ; Travel to line 231
G0 Z0.0 ; Pen down
G1 X50.393 Y139.320 F1000
G0 Z3.0 ; Pen up

G0 X49.007 Y139.320 F3000 ; Travel to line 232
G0 Z0.0 ; Pen down
G1 X44.500 Y144.173 F1000
G0 Z3.0 ; Pen up

G0 X44.500 Y143.480 F3000 ; Travel to line 233
G0 Z0.0 ; Pen down
G1 X48.313 Y139.320 F1000
G0 Z3.0 ; Pen up

G0 X47.620 Y139.320 F3000 ; Travel to line 234
G0 Z0.0 ; Pen down
G1 X44.500 Y142.787 F1000
G0 Z3.0 ; Pen up

G0 X44.500 Y142.787 F3000 ; Travel to line 235
G0 Z0.0 ; Pen down
G1 X47.620 Y139.320 F1000
G0 Z3.0 ; Pen up

G0 X47.273 Y139.320 F3000 ; Travel to line 236
G0 Z0.0 ; Pen down
G1 X44.500 Y142.440 F1000
G0 Z3.0 ; Pen up

G0 X44.500 Y141.747 F3000 ; Travel to line 237
G0 Z0.0 ; Pen down
G1 X46.580 Y139.320 F1000
G0 Z3.0 ; Pen up

G0 X46.233 Y139.320 F3000 ; Travel to line 238
G0 Z0.0 ; Pen down
G1 X44.500 Y141.400 F1000
G0 Z3.0 ; Pen up

G0 X44.500 Y141.400 F3000 ; Travel to line 239
G0 Z0.0 ; Pen down
G1 X46.233 Y139.320 F1000
G0 Z3.0 ; Pen up

G0 X44.847 Y139.320 F3000 ; Travel to line 240
G0 Z0.0 ; Pen down
G1 X44.500 Y140.013 F1000
G0 Z3.0 ; Pen up

G0 X46.580 Y174.333 F3000 ; Travel to line 241
G0 Z0.0 ; Pen down
G1 X79.513 Y141.747 F1000
G0 Z3.0 ; Pen up

G0 X79.513 Y143.133 F3000 ; Travel to line 242
G0 Z0.0 ; Pen down
G1 X47.967 Y174.333 F1000
G0 Z3.0 ; Pen up

G0 X49.353 Y174.333 F3000 ; Travel to line 243
G0 Z0.0 ; Pen down
G1 X79.513 Y144.520 F1000
G0 Z3.0 ; Pen up

G0 X79.513 Y145.907 F3000 ; Travel to line 244
G0 Z0.0 ; Pen down
G1 X50.740 Y174.333 F1000
G0 Z3.0 ; Pen up

G0 X52.127 Y174.333 F3000 ; Travel to line 245
G0 Z0.0 ; Pen down
G1 X79.513 Y147.293 F1000
G0 Z3.0 ; Pen up

G0 X79.513 Y148.680 F3000 ; Travel to line 246
G0 Z0.0 ; Pen down
G1 X53.513 Y174.333 F1000
G0 Z3.0 ; Pen up

G0 X54.900 Y174.333 F3000 ; Travel to line 247
G0 Z0.0 ; Pen down
G1 X79.513 Y150.067 F1000
G0 Z3.0 ; Pen up

G0 X79.513 Y151.453 F3000 ; Travel to line 248
G0 Z0.0 ; Pen down
G1 X56.287 Y174.333 F1000
G0 Z3.0 ; Pen up

G0 X57.673 Y174.333 F3000 ; Travel to line 249
G0 Z0.0 ; Pen down
G1 X79.513 Y152.840 F1000
G0 Z3.0 ; Pen up

G0 X79.513 Y154.227 F3000 ; Travel to line 250
G0 Z0.0 ; Pen down
G1 X59.060 Y174.333 F1000
G0 Z3.0 ; Pen up

G0 X60.793 Y174.333 F3000 ; Travel to line 251
G0 Z0.0 ; Pen down
G1 X79.513 Y155.613 F1000
G0 Z3.0 ; Pen up

G0 X79.513 Y157.347 F3000 ; Travel to line 252
G0 Z0.0 ; Pen down
G1 X62.180 Y174.333 F1000
G0 Z3.0 ; Pen up

G0 X63.567 Y174.333 F3000 ; Travel to line 253
G0 Z0.0 ; Pen down
G1 X79.513 Y158.733 F1000
G0 Z3.0 ; Pen up

G0 X79.513 Y160.120 F3000 ; Travel to line 254
G0 Z0.0 ; Pen down
G1 X64.953 Y174.333 F1000
G0 Z3.0 ; Pen up

G0 X66.340 Y174.333 F3000 ; Travel to line 255
G0 Z0.0 ; Pen down
G1 X79.513 Y161.507 F1000
G0 Z3.0 ; Pen up

G0 X79.513 Y162.893 F3000 ; Travel to line 256
G0 Z0.0 ; Pen down
G1 X67.727 Y174.333 F1000
G0 Z3.0 ; Pen up

G0 X69.113 Y174.333 F3000 ; Travel to line 257
G0 Z0.0 ; Pen down
G1 X79.513 Y164.280 F1000
G0 Z3.0 ; Pen up

G0 X79.513 Y165.667 F3000 ; Travel to line 258
G0 Z0.0 ; Pen down
G1 X70.500 Y174.333 F1000
G0 Z3.0 ; Pen up

G0 X71.887 Y174.333 F3000 ; Travel to line 259
G0 Z0.0 ; Pen down
G1 X79.513 Y167.053 F1000
G0 Z3.0 ; Pen up

G0 X79.513 Y168.440 F3000 ; Travel to line 260
G0 Z0.0 ; Pen down
G1 X73.273 Y174.333 F1000
G0 Z3.0 ; Pen up

G0 X74.660 Y174.333 F3000 ; Travel to line 261
G0 Z0.0 ; Pen down
G1 X79.513 Y169.827 F1000
G0 Z3.0 ; Pen up

G0 X79.513 Y170.520 F3000 ; Travel to line 262
G0 Z0.0 ; Pen down
G1 X75.353 Y174.333 F1000
G0 Z3.0 ; Pen up

G0 X76.047 Y174.333 F3000 ; Travel to line 263
G0 Z0.0 ; Pen down
G1 X79.513 Y171.213 F1000
G0 Z3.0 ; Pen up

G0 X79.513 Y171.213 F3000 ; Travel to line 264
G0 Z0.0 ; Pen down
G1 X76.047 Y174.333 F1000
G0 Z3.0 ; Pen up

G0 X76.393 Y174.333 F3000 ; Travel to line 265
G0 Z0.0 ; Pen down
G1 X79.513 Y171.560 F1000
G0 Z3.0 ; Pen up

G0 X79.513 Y172.253 F3000 ; Travel to line 266
G0 Z0.0 ; Pen down
G1 X77.087 Y174.333 F1000
G0 Z3.0 ; Pen up

G0 X77.433 Y174.333 F3000 ; Travel to line 267
G0 Z0.0 ; Pen down
G1 X79.513 Y172.600 F1000
G0 Z3.0 ; Pen up

G0 X79.513 Y172.600 F3000 ; Travel to line 268
G0 Z0.0 ; Pen down
G1 X77.433 Y174.333 F1000
G0 Z3.0 ; Pen up

G0 X79.167 Y174.333 F3000 ; Travel to line 269
G0 Z0.0 ; Pen down
G1 X79.513 Y173.987 F1000
G0 Z3.0 ; Pen up

G0 X115.913 Y174.333 F3000 ; Travel to line 270
G0 Z0.0 ; Pen down
G1 X148.847 Y141.747 F1000
G0 Z3.0 ; Pen up

G0 X148.847 Y143.133 F3000 ; Travel to line 271
G0 Z0.0 ; Pen down
G1 X117.300 Y174.333 F1000
G0 Z3.0 ; Pen up

G0 X118.687 Y174.333 F3000 ; Travel to line 272
G0 Z0.0 ; Pen down
G1 X148.847 Y144.520 F1000
G0 Z3.0 ; Pen up

G0 X148.847 Y145.907 F3000 ; Travel to line 273
G0 Z0.0 ; Pen down
G1 X120.073 Y174.333 F1000
G0 Z3.0 ; Pen up

G0 X121.460 Y174.333 F3000 ; Travel to line 274
G0 Z0.0 ; Pen down
G1 X148.847 Y147.293 F1000
G0 Z3.0 ; Pen up

G0 X148.847 Y148.680 F3000 ; Travel to line 275
G0 Z0.0 ; Pen down
G1 X122.847 Y174.333 F1000
G0 Z3.0 ; Pen up

G0 X124.233 Y174.333 F3000 ; Travel to line 276
G0 Z0.0 ; Pen down
G1 X148.847 Y150.067 F1000
G0 Z3.0 ; Pen up

G0 X148.847 Y151.453 F3000 ; Travel to line 277
G0 Z0.0 ; Pen down
G1 X125.620 Y174.333 F1000
G0 Z3.0 ; Pen up

G0 X127.007 Y174.333 F3000 ; Travel to line 278
G0 Z0.0 ; Pen down
G1 X148.847 Y152.840 F1000
G0 Z3.0 ; Pen up

G0 X148.847 Y154.227 F3000 ; Travel to line 279
G0 Z0.0 ; Pen down
G1 X128.393 Y174.333 F1000
G0 Z3.0 ; Pen up

G0 X130.127 Y174.333 F3000 ; Travel to line 280
G0 Z0.0 ; Pen down
G1 X148.847 Y155.613 F1000
G0 Z3.0 ; Pen up

G0 X148.847 Y157.347 F3000 ; Travel to line 281
G0 Z0.0 ; Pen down
G1 X131.513 Y174.333 F1000
G0 Z3.0 ; Pen up

G0 X132.900 Y174.333 F3000 ; Travel to line 282
G0 Z0.0 ; Pen down
G1 X148.847 Y158.733 F1000
G0 Z3.0 ; Pen up

G0 X148.847 Y160.120 F3000 ; Travel to line 283
G0 Z0.0 ; Pen down
G1 X134.287 Y174.333 F1000
G0 Z3.0 ; Pen up

G0 X135.673 Y174.333 F3000 ; Travel to line 284
G0 Z0.0 ; Pen down
G1 X148.847 Y161.507 F1000
G0 Z3.0 ; Pen up

G0 X148.847 Y162.893 F3000 ; Travel to line 285
G0 Z0.0 ; Pen down
G1 X137.060 Y174.333 F1000
G0 Z3.0 ; Pen up

G0 X138.447 Y174.333 F3000 ; Travel to line 286
G0 Z0.0 ; Pen down
G1 X148.847 Y164.280 F1000
G0 Z3.0 ; Pen up

G0 X148.847 Y165.667 F3000 ; Travel to line 287
G0 Z0.0 ; Pen down
G1 X139.833 Y174.333 F1000
G0 Z3.0 ; Pen up

G0 X141.220 Y174.333 F3000 ; Travel to line 288
G0 Z0.0 ; Pen down
G1 X148.847 Y167.053 F1000
G0 Z3.0 ; Pen up

G0 X148.847 Y168.440 F3000 ; Travel to line 289
G0 Z0.0 ; Pen down
G1 X142.607 Y174.333 F1000
G0 Z3.0 ; Pen up

G0 X143.993 Y174.333 F3000 ; Travel to line 290
G0 Z0.0 ; Pen down
G1 X148.847 Y169.827 F1000
G0 Z3.0 ; Pen up

G0 X148.847 Y170.520 F3000 ; Travel to line 291
G0 Z0.0 ; Pen down
G1 X144.687 Y174.333 F1000
G0 Z3.0 ; Pen up

G0 X145.380 Y174.333 F3000 ; Travel to line 292
G0 Z0.0 ; Pen down
G1 X148.847 Y171.213 F1000
G0 Z3.0 ; Pen up

G0 X148.847 Y171.213 F3000 ; Travel to line 293
G0 Z0.0 ; Pen down
G1 X145.380 Y174.333 F1000
G0 Z3.0 ; Pen up

G0 X145.727 Y174.333 F3000 ; Travel to line 294
G0 Z0.0 ; Pen down
G1 X148.847 Y171.560 F1000
G0 Z3.0 ; Pen up

G0 X148.847 Y172.253 F3000 ; Travel to line 295
G0 Z0.0 ; Pen down
G1 X146.420 Y174.333 F1000
G0 Z3.0 ; Pen up

G0 X146.767 Y174.333 F3000 ; Travel to line 296
G0 Z0.0 ; Pen down
G1 X148.847 Y172.600 F1000
G0 Z3.0 ; Pen up

G0 X148.847 Y172.600 F3000 ; Travel to line 297
G0 Z0.0 ; Pen down
G1 X146.767 Y174.333 F1000
G0 Z3.0 ; Pen up

G0 X148.500 Y174.333 F3000 ; Travel to line 298
G0 Z0.0 ; Pen down
G1 X148.847 Y173.987 F1000
G0 Z3.0 ; Pen up

G0 X183.167 Y102.920 F3000 ; Travel to line 299
G0 Z0.0 ; Pen down
G1 X215.753 Y69.987 F1000
G0 Z3.0 ; Pen up

G0 X214.367 Y69.987 F3000 ; Travel to line 300
G0 Z0.0 ; Pen down
G1 X183.167 Y101.533 F1000
G0 Z3.0 ; Pen up

G0 X183.167 Y100.147 F3000 ; Travel to line 301
G0 Z0.0 ; Pen down
G1 X212.980 Y69.987 F1000
G0 Z3.0 ; Pen up

G0 X211.593 Y69.987 F3000 ; Travel to line 302
G0 Z0.0 ; Pen down
G1 X183.167 Y98.760 F1000
G0 Z3.0 ; Pen up

G0 X183.167 Y97.373 F3000 ; Travel to line 303
G0 Z0.0 ; Pen down
G1 X210.207 Y69.987 F1000
G0 Z3.0 ; Pen up

G0 X208.820 Y69.987 F3000 ; Travel to line 304
G0 Z0.0 ; Pen down
G1 X183.167 Y95.987 F1000
G0 Z3.0 ; Pen up

G0 X183.167 Y94.600 F3000 ; Travel to line 305
G0 Z0.0 ; Pen down
G1 X207.433 Y69.987 F1000
G0 Z3.0 ; Pen up

G0 X206.047 Y69.987 F3000 ; Travel to line 306
G0 Z0.0 ; Pen down
G1 X183.167 Y93.213 F1000
G0 Z3.0 ; Pen up

G0 X183.167 Y91.827 F3000 ; Travel to line 307
G0 Z0.0 ; Pen down
G1 X204.660 Y69.987 F1000
G0 Z3.0 ; Pen up

G0 X203.273 Y69.987 F3000 ; Travel to line 308
G0 Z0.0 ; Pen down
G1 X183.167 Y90.440 F1000
G0 Z3.0 ; Pen up

G0 X183.167 Y89.053 F3000 ; Travel to line 309
G0 Z0.0 ; Pen down
G1 X201.887 Y69.987 F1000
G0 Z3.0 ; Pen up

G0 X200.500 Y69.987 F3000 ; Travel to line 310
G0 Z0.0 ; Pen down
G1 X183.167 Y87.667 F1000
G0 Z3.0 ; Pen up

G0 X183.167 Y85.933 F3000 ; Travel to line 311
G0 Z0.0 ; Pen down
G1 X198.767 Y69.987 F1000
G0 Z3.0 ; Pen up

G0 X197.380 Y69.987 F3000 ; Travel to line 312
G0 Z0.0 ; Pen down
G1 X183.167 Y84.547 F1000
G0 Z3.0 ; Pen up

G0 X183.167 Y83.160 F3000 ; Travel to line 313
G0 Z0.0 ; Pen down
G1 X195.993 Y69.987 F1000
G0 Z3.0 ; Pen up

G0 X194.607 Y69.987 F3000 ; Travel to line 314
G0 Z0.0 ; Pen down
G1 X183.167 Y81.773 F1000
G0 Z3.0 ; Pen up

G0 X183.167 Y80.387 F3000 ; Travel to line 315
G0 Z0.0 ; Pen down
G1 X193.220 Y69.987 F1000
G0 Z3.0 ; Pen up

G0 X191.833 Y69.987 F3000 ; Travel to line 316
G0 Z0.0 ; Pen down
G1 X183.167 Y79.000 F1000
G0 Z3.0 ; Pen up

G0 X183.167 Y77.613 F3000 ; Travel to line 317
G0 Z0.0 ; Pen down
G1 X190.447 Y69.987 F1000
G0 Z3.0 ; Pen up

G0 X189.060 Y69.987 F3000 ; Travel to line 318
G0 Z0.0 ; Pen down
G1 X183.167 Y76.227 F1000
G0 Z3.0 ; Pen up

G0 X183.167 Y74.840 F3000 ; Travel to line 319
G0 Z0.0 ; Pen down
G1 X187.673 Y69.987 F1000
G0 Z3.0 ; Pen up

G0 X186.287 Y69.987 F3000 ; Travel to line 320
G0 Z0.0 ; Pen down
G1 X183.167 Y73.453 F1000
G0 Z3.0 ; Pen up

G0 X183.167 Y72.067 F3000 ; Travel to line 321
G0 Z0.0 ; Pen down
G1 X184.900 Y69.987 F1000
G0 Z3.0 ; Pen up

G0 X184.900 Y69.987 F3000 ; Travel to line 322
G0 Z0.0 ; Pen down
G1 X183.167 Y71.720 F1000
G0 Z3.0 ; Pen up

G0 X183.167 Y71.027 F3000 ; Travel to line 323
G0 Z0.0 ; Pen down
G1 X184.207 Y69.987 F1000
G0 Z3.0 ; Pen up

G0 X183.513 Y69.987 F3000 ; Travel to line 324
G0 Z0.0 ; Pen down
G1 X183.167 Y70.680 F1000
G0 Z3.0 ; Pen up

G0 X183.167 Y70.333 F3000 ; Travel to line 325
G0 Z0.0 ; Pen down
G1 X183.513 Y69.987 F1000
G0 Z3.0 ; Pen up

G0 X146.420 Y69.987 F3000 ; Travel to line 326
G0 Z0.0 ; Pen down
G1 X113.833 Y102.920 F1000
G0 Z3.0 ; Pen up

G0 X113.833 Y101.533 F3000 ; Travel to line 327
G0 Z0.0 ; Pen down
G1 X145.033 Y69.987 F1000
G0 Z3.0 ; Pen up

G0 X143.647 Y69.987 F3000 ; Travel to line 328
G0 Z0.0 ; Pen down
G1 X113.833 Y100.147 F1000
G0 Z3.0 ; Pen up

G0 X113.833 Y98.760 F3000 ; Travel to line 329
G0 Z0.0 ; Pen down
G1 X142.260 Y69.987 F1000
G0 Z3.0 ; Pen up

G0 X140.873 Y69.987 F3000 ; Travel to line 330
G0 Z0.0 ; Pen down
G1 X113.833 Y97.373 F1000
G0 Z3.0 ; Pen up

G0 X113.833 Y95.987 F3000 ; Travel to line 331
G0 Z0.0 ; Pen down
G1 X139.487 Y69.987 F1000
G0 Z3.0 ; Pen up

G0 X138.100 Y69.987 F3000 ; Travel to line 332
G0 Z0.0 ; Pen down
G1 X113.833 Y94.600 F1000
G0 Z3.0 ; Pen up

G0 X113.833 Y93.213 F3000 ; Travel to line 333
G0 Z0.0 ; Pen down
G1 X136.713 Y69.987 F1000
G0 Z3.0 ; Pen up

G0 X135.327 Y69.987 F3000 ; Travel to line 334
G0 Z0.0 ; Pen down
G1 X113.833 Y91.827 F1000
G0 Z3.0 ; Pen up

G0 X113.833 Y90.440 F3000 ; Travel to line 335
G0 Z0.0 ; Pen down
G1 X133.940 Y69.987 F1000
G0 Z3.0 ; Pen up

G0 X132.553 Y69.987 F3000 ; Travel to line 336
G0 Z0.0 ; Pen down
G1 X113.833 Y89.053 F1000
G0 Z3.0 ; Pen up

G0 X113.833 Y87.667 F3000 ; Travel to line 337
G0 Z0.0 ; Pen down
G1 X131.167 Y69.987 F1000
G0 Z3.0 ; Pen up

G0 X129.433 Y69.987 F3000 ; Travel to line 338
G0 Z0.0 ; Pen down
G1 X113.833 Y85.933 F1000
G0 Z3.0 ; Pen up

G0 X113.833 Y84.547 F3000 ; Travel to line 339
G0 Z0.0 ; Pen down
G1 X128.047 Y69.987 F1000
G0 Z3.0 ; Pen up

G0 X126.660 Y69.987 F3000 ; Travel to line 340
G0 Z0.0 ; Pen down
G1 X113.833 Y83.160 F1000
G0 Z3.0 ; Pen up

G0 X113.833 Y81.773 F3000 ; Travel to line 341
G0 Z0.0 ; Pen down
G1 X125.273 Y69.987 F1000
G0 Z3.0 ; Pen up

G0 X123.887 Y69.987 F3000 ; Travel to line 342
G0 Z0.0 ; Pen down
G1 X113.833 Y80.387 F1000
G0 Z3.0 ; Pen up

G0 X113.833 Y79.000 F3000 ; Travel to line 343
G0 Z0.0 ; Pen down
G1 X122.500 Y69.987 F1000
G0 Z3.0 ; Pen up

G0 X121.113 Y69.987 F3000 ; Travel to line 344
G0 Z0.0 ; Pen down
G1 X113.833 Y77.613 F1000
G0 Z3.0 ; Pen up

G0 X113.833 Y76.227 F3000 ; Travel to line 345
G0 Z0.0 ; Pen down
G1 X119.727 Y69.987 F1000
G0 Z3.0 ; Pen up

G0 X118.340 Y69.987 F3000 ; Travel to line 346
G0 Z0.0 ; Pen down
G1 X113.833 Y74.840 F1000
G0 Z3.0 ; Pen up

G0 X113.833 Y73.453 F3000 ; Travel to line 347
G0 Z0.0 ; Pen down
G1 X116.953 Y69.987 F1000
G0 Z3.0 ; Pen up

G0 X115.567 Y69.987 F3000 ; Travel to line 348
G0 Z0.0 ; Pen down
G1 X113.833 Y72.067 F1000
G0 Z3.0 ; Pen up

G0 X113.833 Y71.720 F3000 ; Travel to line 349
G0 Z0.0 ; Pen down
G1 X115.567 Y69.987 F1000
G0 Z3.0 ; Pen up

G0 X114.873 Y69.987 F3000 ; Travel to line 350
G0 Z0.0 ; Pen down
G1 X113.833 Y71.027 F1000
G0 Z3.0 ; Pen up

G0 X113.833 Y70.680 F3000 ; Travel to line 351
G0 Z0.0 ; Pen down
G1 X114.180 Y69.987 F1000
G0 Z3.0 ; Pen up

G0 X114.180 Y69.987 F3000 ; Travel to line 352
G0 Z0.0 ; Pen down
G1 X113.833 Y70.333 F1000
G0 Z3.0 ; Pen up

; Return to origin
G0 X0 Y0
G0 Z3.0

; Total drawing distance: 8908.79 mm
; Total travel distance: 889.10 mm
; Total lines: 352
; Estimated time: 552.3 seconds (9.2 minutes)
M2 ; End program