; Blueprint to G-code
; Input: /home/david/code/blueprint2gcode/test_data/test_images_corners/test1_square_300x300.png
; Generated with blueprint2gcode.py

G21 ; Set units to millimeters
G90 ; Absolute positioning
G0 Z3.0 ; Pen up
G0 X0 Y0 ; Move to origin

G0 X96.500 Y88.707 F3000 ; Travel to line 1
G0 Z0.0 ; Pen down
G1 X140.180 Y52.653 F1000
G0 Z3.0 ; Pen up

G0 X140.873 Y52.653 F3000 ; Travel to line 2
G0 Z0.0 ; Pen down
G1 X96.500 Y89.400 F1000
G0 Z3.0 ; Pen up

G0 X96.500 Y90.093 F3000 ; Travel to line 3
G0 Z0.0 ; Pen down
G1 X141.913 Y52.653 F1000
G0 Z3.0 ; Pen up

G0 X142.607 Y52.653 F3000 ; Travel to line 4
G0 Z0.0 ; Pen down
G1 X96.500 Y90.787 F1000
G1 X96.500 Y90.787 F1000
G1 X142.607 Y52.653 F1000
G1 X142.607 Y52.653 F1000
G1 X96.500 Y90.787 F1000
G0 Z3.0 ; Pen up

G0 X96.500 Y91.133 F3000 ; Travel to line 5
G0 Z0.0 ; Pen down
G1 X142.953 Y52.653 F1000
G1 X142.953 Y52.653 F1000
G1 X96.500 Y91.133 F1000
G0 Z3.0 ; Pen up

G0 X96.500 Y91.827 F3000 ; Travel to line 6
G0 Z0.0 ; Pen down
G1 X143.993 Y52.653 F1000
G0 Z3.0 ; Pen up

G0 X144.687 Y52.653 F3000 ; Travel to line 7
G0 Z0.0 ; Pen down
G1 X96.500 Y92.520 F1000
G0 Z3.0 ; Pen up

G0 X96.500 Y93.213 F3000 ; Travel to line 8
G0 Z0.0 ; Pen down
G1 X145.380 Y52.653 F1000
G0 Z3.0 ; Pen up

G0 X146.073 Y52.653 F3000 ; Travel to line 9
G0 Z0.0 ; Pen down
G1 X96.500 Y93.907 F1000
G0 Z3.0 ; Pen up

G0 X96.500 Y94.600 F3000 ; Travel to line 10
G0 Z0.0 ; Pen down
G1 X147.113 Y52.653 F1000
G0 Z3.0 ; Pen up

G0 X147.807 Y52.653 F3000 ; Travel to line 11
G0 Z0.0 ; Pen down
G1 X96.500 Y94.947 F1000
G0 Z3.0 ; Pen up

G0 X96.500 Y95.640 F3000 ; Travel to line 12
G0 Z0.0 ; Pen down
G1 X148.500 Y52.653 F1000
G0 Z3.0 ; Pen up

G0 X149.193 Y52.653 F3000 ; Travel to line 13
G0 Z0.0 ; Pen down
G1 X96.500 Y96.333 F1000
G0 Z3.0 ; Pen up

G0 X96.500 Y97.027 F3000 ; Travel to line 14
G0 Z0.0 ; Pen down
G1 X149.887 Y52.653 F1000
G0 Z3.0 ; Pen up

G0 X150.580 Y52.653 F3000 ; Travel to line 15
G0 Z0.0 ; Pen down
G1 X96.500 Y97.720 F1000
G0 Z3.0 ; Pen up

G0 X96.500 Y98.413 F3000 ; Travel to line 16
G0 Z0.0 ; Pen down
G1 X151.273 Y52.653 F1000
G0 Z3.0 ; Pen up

G0 X152.313 Y52.653 F3000 ; Travel to line 17
G0 Z0.0 ; Pen down
G1 X96.500 Y99.107 F1000
G0 Z3.0 ; Pen up

G0 X96.500 Y99.453 F3000 ; Travel to line 18
G0 Z0.0 ; Pen down
G1 X153.007 Y52.653 F1000
G0 Z3.0 ; Pen up

G0 X153.700 Y52.653 F3000 ; Travel to line 19
G0 Z0.0 ; Pen down
G1 X96.500 Y100.147 F1000
G0 Z3.0 ; Pen up

G0 X96.500 Y100.840 F3000 ; Travel to line 20
G0 Z0.0 ; Pen down
G1 X154.393 Y52.653 F1000
G0 Z3.0 ; Pen up

G0 X155.087 Y52.653 F3000 ; Travel to line 21
G0 Z0.0 ; Pen down
G1 X96.500 Y101.533 F1000
G0 Z3.0 ; Pen up

G0 X96.500 Y102.227 F3000 ; Travel to line 22
G0 Z0.0 ; Pen down
G1 X155.780 Y52.653 F1000
G0 Z3.0 ; Pen up

G0 X156.820 Y52.653 F3000 ; Travel to line 23
G0 Z0.0 ; Pen down
G1 X96.500 Y103.267 F1000
G0 Z3.0 ; Pen up

G0 X96.500 Y103.960 F3000 ; Travel to line 24
G0 Z0.0 ; Pen down
G1 X157.513 Y52.653 F1000
G0 Z3.0 ; Pen up

G0 X158.553 Y52.653 F3000 ; Travel to line 25
G0 Z0.0 ; Pen down
G1 X96.500 Y104.307 F1000
G0 Z3.0 ; Pen up

G0 X96.500 Y105.000 F3000 ; Travel to line 26
G0 Z0.0 ; Pen down
G1 X159.247 Y52.653 F1000
G0 Z3.0 ; Pen up

G0 X159.940 Y52.653 F3000 ; Travel to line 27
G0 Z0.0 ; Pen down
G1 X96.500 Y105.693 F1000
G0 Z3.0 ; Pen up

G0 X96.500 Y106.387 F3000 ; Travel to line 28
G0 Z0.0 ; Pen down
G1 X160.633 Y52.653 F1000
G0 Z3.0 ; Pen up

G0 X161.327 Y52.653 F3000 ; Travel to line 29
G0 Z0.0 ; Pen down
G1 X96.500 Y107.080 F1000
G0 Z3.0 ; Pen up

G0 X96.500 Y107.773 F3000 ; Travel to line 30
G0 Z0.0 ; Pen down
G1 X162.020 Y52.653 F1000
G0 Z3.0 ; Pen up

G0 X162.713 Y52.653 F3000 ; Travel to line 31
G0 Z0.0 ; Pen down
G1 X96.500 Y108.467 F1000
G0 Z3.0 ; Pen up

G0 X96.500 Y108.813 F3000 ; Travel to line 32
G0 Z0.0 ; Pen down
G1 X163.407 Y52.653 F1000
G0 Z3.0 ; Pen up

G0 X164.100 Y52.653 F3000 ; Travel to line 33
G0 Z0.0 ; Pen down
G1 X96.500 Y109.507 F1000
G0 Z3.0 ; Pen up

G0 X96.500 Y110.200 F3000 ; Travel to line 34
G0 Z0.0 ; Pen down
G1 X165.140 Y52.653 F1000
G0 Z3.0 ; Pen up

G0 X165.833 Y52.653 F3000 ; Travel to line 35
G0 Z0.0 ; Pen down
G1 X96.500 Y110.893 F1000
G0 Z3.0 ; Pen up

G0 X96.500 Y111.587 F3000 ; Travel to line 36
G0 Z0.0 ; Pen down
G1 X166.527 Y52.653 F1000
G0 Z3.0 ; Pen up

G0 X167.220 Y52.653 F3000 ; Travel to line 37
G0 Z0.0 ; Pen down
G1 X96.500 Y112.627 F1000
G0 Z3.0 ; Pen up

G0 X96.500 Y113.667 F3000 ; Travel to line 38
G0 Z0.0 ; Pen down
G1 X168.260 Y52.653 F1000
G0 Z3.0 ; Pen up

G0 X169.300 Y52.653 F3000 ; Travel to line 39
G0 Z0.0 ; Pen down
G1 X96.500 Y114.707 F1000
G0 Z3.0 ; Pen up

G0 X96.500 Y115.747 F3000 ; Travel to line 40
G0 Z0.0 ; Pen down
G1 X169.993 Y52.653 F1000
G0 Z3.0 ; Pen up

G0 X171.033 Y52.653 F3000 ; Travel to line 41
G0 Z0.0 ; Pen down
G1 X96.500 Y116.440 F1000
G0 Z3.0 ; Pen up

G0 X96.500 Y117.480 F3000 ; Travel to line 42
G0 Z0.0 ; Pen down
G1 X172.073 Y52.653 F1000
G0 Z3.0 ; Pen up

G0 X172.767 Y52.653 F3000 ; Travel to line 43
G0 Z0.0 ; Pen down
G1 X96.500 Y118.520 F1000
G0 Z3.0 ; Pen up

G0 X96.500 Y119.560 F3000 ; Travel to line 44
G0 Z0.0 ; Pen down
G1 X173.807 Y52.653 F1000
G0 Z3.0 ; Pen up

G0 X174.847 Y52.653 F3000 ; Travel to line 45
G0 Z0.0 ; Pen down
G1 X96.500 Y120.600 F1000
G0 Z3.0 ; Pen up

G0 X96.500 Y121.640 F3000 ; Travel to line 46
G0 Z0.0 ; Pen down
G1 X175.540 Y52.653 F1000
G0 Z3.0 ; Pen up

G0 X176.580 Y52.653 F3000 ; Travel to line 47
G0 Z0.0 ; Pen down
G1 X96.500 Y122.680 F1000
G0 Z3.0 ; Pen up

G0 X96.500 Y124.067 F3000 ; Travel to line 48
G0 Z0.0 ; Pen down
G1 X177.967 Y52.653 F1000
G0 Z3.0 ; Pen up

G0 X178.660 Y52.653 F3000 ; Travel to line 49
G0 Z0.0 ; Pen down
G1 X96.500 Y125.107 F1000
G0 Z3.0 ; Pen up

G0 X96.500 Y126.147 F3000 ; Travel to line 50
G0 Z0.0 ; Pen down
G1 X179.700 Y52.653 F1000
G0 Z3.0 ; Pen up

G0 X180.393 Y52.653 F3000 ; Travel to line 51
G0 Z0.0 ; Pen down
G1 X96.500 Y127.533 F1000
G0 Z3.0 ; Pen up

G0 X96.500 Y128.573 F3000 ; Travel to line 52
G0 Z0.0 ; Pen down
G1 X181.433 Y52.653 F1000
G0 Z3.0 ; Pen up

G0 X182.473 Y52.653 F3000 ; Travel to line 53
G0 Z0.0 ; Pen down
G1 X96.500 Y129.613 F1000
G0 Z3.0 ; Pen up

G0 X96.500 Y130.653 F3000 ; Travel to line 54
G0 Z0.0 ; Pen down
G1 X183.167 Y52.653 F1000
G0 Z3.0 ; Pen up

G0 X184.207 Y52.653 F3000 ; Travel to line 55
G0 Z0.0 ; Pen down
G1 X96.500 Y131.693 F1000
G0 Z3.0 ; Pen up

G0 X96.500 Y133.080 F3000 ; Travel to line 56
G0 Z0.0 ; Pen down
G1 X185.247 Y52.653 F1000
G0 Z3.0 ; Pen up

G0 X185.940 Y52.653 F3000 ; Travel to line 57
G0 Z0.0 ; Pen down
G1 X96.500 Y134.120 F1000
G0 Z3.0 ; Pen up

G0 X96.500 Y135.160 F3000 ; Travel to line 58
G0 Z0.0 ; Pen down
G1 X186.980 Y52.653 F1000
G0 Z3.0 ; Pen up

G0 X187.673 Y52.653 F3000 ; Travel to line 59
G0 Z0.0 ; Pen down
G1 X96.500 Y136.200 F1000
G0 Z3.0 ; Pen up

G0 X96.500 Y137.240 F3000 ; Travel to line 60
G0 Z0.0 ; Pen down
G1 X188.713 Y52.653 F1000
G0 Z3.0 ; Pen up

G0 X189.407 Y52.653 F3000 ; Travel to line 61
G0 Z0.0 ; Pen down
G1 X96.500 Y138.627 F1000
G0 Z3.0 ; Pen up

G0 X96.500 Y139.667 F3000 ; Travel to line 62
G0 Z0.0 ; Pen down
G1 X190.447 Y52.653 F1000
G0 Z3.0 ; Pen up

G0 X191.487 Y52.653 F3000 ; Travel to line 63
G0 Z0.0 ; Pen down
G1 X96.500 Y140.707 F1000
G0 Z3.0 ; Pen up

G0 X96.500 Y141.747 F3000 ; Travel to line 64
G0 Z0.0 ; Pen down
G1 X192.180 Y52.653 F1000
G0 Z3.0 ; Pen up

G0 X193.220 Y52.653 F3000 ; Travel to line 65
G0 Z0.0 ; Pen down
G1 X96.500 Y142.787 F1000
G0 Z3.0 ; Pen up

G0 X96.500 Y144.173 F3000 ; Travel to line 66
G0 Z0.0 ; Pen down
G1 X193.913 Y52.653 F1000
G0 Z3.0 ; Pen up

G0 X194.953 Y52.653 F3000 ; Travel to line 67
G0 Z0.0 ; Pen down
G1 X96.500 Y145.213 F1000
G0 Z3.0 ; Pen up

G0 X96.500 Y146.253 F3000 ; Travel to line 68
G0 Z0.0 ; Pen down
G1 X195.647 Y52.653 F1000
G0 Z3.0 ; Pen up

G0 X196.687 Y52.653 F3000 ; Travel to line 69
G0 Z0.0 ; Pen down
G1 X96.500 Y147.640 F1000
G0 Z3.0 ; Pen up

G0 X96.500 Y148.680 F3000 ; Travel to line 70
G0 Z0.0 ; Pen down
G1 X197.380 Y52.653 F1000
G0 Z3.0 ; Pen up

G0 X198.420 Y52.653 F3000 ; Travel to line 71
G0 Z0.0 ; Pen down
G1 X96.500 Y149.720 F1000
G0 Z3.0 ; Pen up

G0 X96.500 Y150.760 F3000 ; Travel to line 72
G0 Z0.0 ; Pen down
G1 X199.113 Y52.653 F1000
G0 Z3.0 ; Pen up

G0 X200.153 Y52.653 F3000 ; Travel to line 73
G0 Z0.0 ; Pen down
G1 X96.500 Y151.453 F1000
G0 Z3.0 ; Pen up

G0 X96.500 Y152.147 F3000 ; Travel to line 74
G0 Z0.0 ; Pen down
G1 X200.847 Y53.000 F1000
G0 Z3.0 ; Pen up

G0 X200.847 Y53.693 F3000 ; Travel to line 75
G0 Z0.0 ; Pen down
G1 X96.500 Y152.840 F1000
G0 Z3.0 ; Pen up

G0 X96.500 Y153.533 F3000 ; Travel to line 76
G0 Z0.0 ; Pen down
G1 X200.847 Y54.387 F1000
G0 Z3.0 ; Pen up

G0 X200.847 Y54.733 F3000 ; Travel to line 77
G0 Z0.0 ; Pen down
G1 X96.500 Y154.227 F1000
G0 Z3.0 ; Pen up

G0 X96.500 Y154.920 F3000 ; Travel to line 78
G0 Z0.0 ; Pen down
G1 X200.847 Y55.773 F1000
G1 X200.847 Y55.773 F1000
G1 X96.500 Y154.920 F1000
G1 X96.500 Y154.920 F1000
G1 X200.847 Y55.427 F1000
G1 X200.847 Y55.427 F1000
G1 X96.500 Y154.920 F1000
G1 X96.500 Y154.920 F1000
G1 X200.847 Y55.773 F1000
G1 X200.847 Y55.773 F1000
G1 X96.500 Y155.267 F1000
G1 X96.500 Y155.267 F1000
G1 X200.847 Y56.120 F1000
G0 Z3.0 ; Pen up

G0 X200.847 Y56.813 F3000 ; Travel to line 79
G0 Z0.0 ; Pen down
G1 X96.500 Y155.960 F1000
G0 Z3.0 ; Pen up

G0 X96.500 Y157.000 F3000 ; Travel to line 80
G0 Z0.0 ; Pen down
G1 X200.847 Y57.507 F1000
G0 Z3.0 ; Pen up

G0 X200.847 Y58.200 F3000 ; Travel to line 81
G0 Z0.0 ; Pen down
G1 X96.847 Y157.000 F1000
G0 Z3.0 ; Pen up

G0 X97.540 Y157.000 F3000 ; Travel to line 82
G0 Z0.0 ; Pen down
G1 X200.847 Y58.893 F1000
G0 Z3.0 ; Pen up

G0 X200.847 Y59.587 F3000 ; Travel to line 83
G0 Z0.0 ; Pen down
G1 X98.233 Y157.000 F1000
G0 Z3.0 ; Pen up

G0 X98.927 Y157.000 F3000 ; Travel to line 84
G0 Z0.0 ; Pen down
G1 X200.847 Y60.280 F1000
G0 Z3.0 ; Pen up

G0 X200.847 Y60.973 F3000 ; Travel to line 85
G0 Z0.0 ; Pen down
G1 X99.620 Y157.000 F1000
G0 Z3.0 ; Pen up

G0 X100.660 Y157.000 F3000 ; Travel to line 86
G0 Z0.0 ; Pen down
G1 X200.847 Y62.013 F1000
G0 Z3.0 ; Pen up

G0 X200.847 Y63.400 F3000 ; Travel to line 87
G0 Z0.0 ; Pen down
G1 X101.353 Y157.000 F1000
G0 Z3.0 ; Pen up

G0 X102.393 Y157.000 F3000 ; Travel to line 88
G0 Z0.0 ; Pen down
G1 X200.847 Y64.440 F1000
G0 Z3.0 ; Pen up

G0 X200.847 Y65.480 F3000 ; Travel to line 89
G0 Z0.0 ; Pen down
G1 X103.087 Y157.000 F1000
G0 Z3.0 ; Pen up

G0 X104.127 Y157.000 F3000 ; Travel to line 90
G0 Z0.0 ; Pen down
G1 X200.847 Y66.520 F1000
G0 Z3.0 ; Pen up

G0 X200.847 Y67.907 F3000 ; Travel to line 91
G0 Z0.0 ; Pen down
G1 X104.820 Y157.000 F1000
G0 Z3.0 ; Pen up

G0 X105.860 Y157.000 F3000 ; Travel to line 92
G0 Z0.0 ; Pen down
G1 X200.847 Y68.947 F1000
G0 Z3.0 ; Pen up

G0 X200.847 Y69.987 F3000 ; Travel to line 93
G0 Z0.0 ; Pen down
G1 X106.553 Y157.000 F1000
G0 Z3.0 ; Pen up

G0 X107.593 Y157.000 F3000 ; Travel to line 94
G0 Z0.0 ; Pen down
G1 X200.847 Y71.027 F1000
G0 Z3.0 ; Pen up

G0 X200.847 Y72.413 F3000 ; Travel to line 95
G0 Z0.0 ; Pen down
G1 X108.287 Y157.000 F1000
G0 Z3.0 ; Pen up

G0 X109.327 Y157.000 F3000 ; Travel to line 96
G0 Z0.0 ; Pen down
G1 X200.847 Y73.453 F1000
G0 Z3.0 ; Pen up

G0 X200.847 Y74.840 F3000 ; Travel to line 97
G0 Z0.0 ; Pen down
G1 X110.367 Y157.000 F1000
G0 Z3.0 ; Pen up

G0 X111.060 Y157.000 F3000 ; Travel to line 98
G0 Z0.0 ; Pen down
G1 X200.847 Y75.880 F1000
G0 Z3.0 ; Pen up

G0 X200.847 Y76.920 F3000 ; Travel to line 99
G0 Z0.0 ; Pen down
G1 X112.100 Y157.000 F1000
G0 Z3.0 ; Pen up

G0 X113.140 Y157.000 F3000 ; Travel to line 100
G0 Z0.0 ; Pen down
G1 X200.847 Y77.960 F1000
G0 Z3.0 ; Pen up

G0 X200.847 Y79.000 F3000 ; Travel to line 101
G0 Z0.0 ; Pen down
G1 X113.833 Y157.000 F1000
G0 Z3.0 ; Pen up

G0 X114.873 Y157.000 F3000 ; Travel to line 102
G0 Z0.0 ; Pen down
G1 X200.847 Y80.040 F1000
G0 Z3.0 ; Pen up

G0 X200.847 Y81.080 F3000 ; Travel to line 103
G0 Z0.0 ; Pen down
G1 X115.567 Y157.000 F1000
G0 Z3.0 ; Pen up

G0 X116.607 Y157.000 F3000 ; Travel to line 104
G0 Z0.0 ; Pen down
G1 X200.847 Y82.120 F1000
G0 Z3.0 ; Pen up

G0 X200.847 Y83.507 F3000 ; Travel to line 105
G0 Z0.0 ; Pen down
G1 X117.993 Y157.000 F1000
G0 Z3.0 ; Pen up

G0 X118.687 Y157.000 F3000 ; Travel to line 106
G0 Z0.0 ; Pen down
G1 X200.847 Y84.893 F1000
G0 Z3.0 ; Pen up

G0 X200.847 Y85.933 F3000 ; Travel to line 107
G0 Z0.0 ; Pen down
G1 X119.727 Y157.000 F1000
G0 Z3.0 ; Pen up

G0 X120.420 Y157.000 F3000 ; Travel to line 108
G0 Z0.0 ; Pen down
G1 X200.847 Y86.973 F1000
G0 Z3.0 ; Pen up

G0 X200.847 Y88.013 F3000 ; Travel to line 109
G0 Z0.0 ; Pen down
G1 X121.460 Y157.000 F1000
G0 Z3.0 ; Pen up

G0 X122.500 Y157.000 F3000 ; Travel to line 110
G0 Z0.0 ; Pen down
G1 X200.847 Y89.053 F1000
G0 Z3.0 ; Pen up

G0 X200.847 Y90.093 F3000 ; Travel to line 111
G0 Z0.0 ; Pen down
G1 X123.193 Y157.000 F1000
G0 Z3.0 ; Pen up

G0 X124.233 Y157.000 F3000 ; Travel to line 112
G0 Z0.0 ; Pen down
G1 X200.847 Y91.133 F1000
G0 Z3.0 ; Pen up

G0 X200.847 Y92.173 F3000 ; Travel to line 113
G0 Z0.0 ; Pen down
G1 X125.273 Y157.000 F1000
G0 Z3.0 ; Pen up

G0 X125.967 Y157.000 F3000 ; Travel to line 114
G0 Z0.0 ; Pen down
G1 X200.847 Y93.213 F1000
G0 Z3.0 ; Pen up

G0 X200.847 Y94.253 F3000 ; Travel to line 115
G0 Z0.0 ; Pen down
G1 X127.007 Y157.000 F1000
G0 Z3.0 ; Pen up

G0 X127.700 Y157.000 F3000 ; Travel to line 116
G0 Z0.0 ; Pen down
G1 X200.847 Y94.947 F1000
G0 Z3.0 ; Pen up

G0 X200.847 Y95.987 F3000 ; Travel to line 117
G0 Z0.0 ; Pen down
G1 X128.740 Y157.000 F1000
G0 Z3.0 ; Pen up

G0 X129.780 Y157.000 F3000 ; Travel to line 118
G0 Z0.0 ; Pen down
G1 X200.847 Y97.027 F1000
G0 Z3.0 ; Pen up

G0 X200.847 Y98.067 F3000 ; Travel to line 119
G0 Z0.0 ; Pen down
G1 X130.473 Y157.000 F1000
G0 Z3.0 ; Pen up

G0 X131.167 Y157.000 F3000 ; Travel to line 120
G0 Z0.0 ; Pen down
G1 X200.847 Y98.760 F1000
G0 Z3.0 ; Pen up

G0 X200.847 Y99.107 F3000 ; Travel to line 121
G0 Z0.0 ; Pen down
G1 X131.860 Y157.000 F1000
G0 Z3.0 ; Pen up

G0 X132.553 Y157.000 F3000 ; Travel to line 122
G0 Z0.0 ; Pen down
G1 X200.847 Y99.800 F1000
G0 Z3.0 ; Pen up

G0 X200.847 Y100.493 F3000 ; Travel to line 123
G0 Z0.0 ; Pen down
G1 X133.593 Y157.000 F1000
G0 Z3.0 ; Pen up

G0 X134.287 Y157.000 F3000 ; Travel to line 124
G0 Z0.0 ; Pen down
G1 X200.847 Y101.187 F1000
G0 Z3.0 ; Pen up

G0 X200.847 Y101.880 F3000 ; Travel to line 125
G0 Z0.0 ; Pen down
G1 X134.980 Y157.000 F1000
G0 Z3.0 ; Pen up

G0 X135.673 Y157.000 F3000 ; Travel to line 126
G0 Z0.0 ; Pen down
G1 X200.847 Y102.573 F1000
G0 Z3.0 ; Pen up

G0 X200.847 Y103.267 F3000 ; Travel to line 127
G0 Z0.0 ; Pen down
G1 X136.367 Y157.000 F1000
G0 Z3.0 ; Pen up

G0 X137.060 Y157.000 F3000 ; Travel to line 128
G0 Z0.0 ; Pen down
G1 X200.847 Y103.960 F1000
G0 Z3.0 ; Pen up

G0 X200.847 Y104.307 F3000 ; Travel to line 129
G0 Z0.0 ; Pen down
G1 X137.753 Y157.000 F1000
G0 Z3.0 ; Pen up

G0 X138.793 Y157.000 F3000 ; Travel to line 130
G0 Z0.0 ; Pen down
G1 X200.847 Y105.347 F1000
G0 Z3.0 ; Pen up

G0 X200.847 Y106.040 F3000 ; Travel to line 131
G0 Z0.0 ; Pen down
G1 X139.833 Y157.000 F1000
G0 Z3.0 ; Pen up

G0 X140.527 Y157.000 F3000 ; Travel to line 132
G0 Z0.0 ; Pen down
G1 X200.847 Y106.733 F1000
G0 Z3.0 ; Pen up

G0 X200.847 Y107.427 F3000 ; Travel to line 133
G0 Z0.0 ; Pen down
G1 X141.220 Y157.000 F1000
G0 Z3.0 ; Pen up

G0 X141.913 Y157.000 F3000 ; Travel to line 134
G0 Z0.0 ; Pen down
G1 X200.847 Y108.120 F1000
G0 Z3.0 ; Pen up

G0 X200.847 Y108.813 F3000 ; Travel to line 135
G0 Z0.0 ; Pen down
G1 X142.607 Y157.000 F1000
G0 Z3.0 ; Pen up

G0 X143.300 Y157.000 F3000 ; Travel to line 136
G0 Z0.0 ; Pen down
G1 X200.847 Y109.160 F1000
G0 Z3.0 ; Pen up

G0 X200.847 Y109.853 F3000 ; Travel to line 137
G0 Z0.0 ; Pen down
G1 X143.993 Y157.000 F1000
G0 Z3.0 ; Pen up

G0 X144.687 Y157.000 F3000 ; Travel to line 138
G0 Z0.0 ; Pen down
G1 X200.847 Y110.547 F1000
G0 Z3.0 ; Pen up

G0 X200.847 Y111.240 F3000 ; Travel to line 139
G0 Z0.0 ; Pen down
G1 X145.727 Y157.000 F1000
G0 Z3.0 ; Pen up

G0 X146.420 Y157.000 F3000 ; Travel to line 140
G0 Z0.0 ; Pen down
G1 X200.847 Y111.933 F1000
G0 Z3.0 ; Pen up

G0 X200.847 Y112.627 F3000 ; Travel to line 141
G0 Z0.0 ; Pen down
G1 X147.113 Y157.000 F1000
G0 Z3.0 ; Pen up

G0 X147.807 Y157.000 F3000 ; Travel to line 142
G0 Z0.0 ; Pen down
G1 X200.847 Y113.320 F1000
G0 Z3.0 ; Pen up

G0 X200.847 Y113.667 F3000 ; Travel to line 143
G0 Z0.0 ; Pen down
G1 X148.500 Y157.000 F1000
G0 Z3.0 ; Pen up

G0 X149.193 Y157.000 F3000 ; Travel to line 144
G0 Z0.0 ; Pen down
G1 X200.847 Y114.360 F1000
G0 Z3.0 ; Pen up

G0 X200.847 Y115.053 F3000 ; Travel to line 145
G0 Z0.0 ; Pen down
G1 X149.887 Y157.000 F1000
G0 Z3.0 ; Pen up

G0 X150.580 Y157.000 F3000 ; Travel to line 146
G0 Z0.0 ; Pen down
G1 X200.847 Y115.747 F1000
G0 Z3.0 ; Pen up

G0 X200.847 Y116.440 F3000 ; Travel to line 147
G0 Z0.0 ; Pen down
G1 X151.620 Y157.000 F1000
G0 Z3.0 ; Pen up

G0 X152.313 Y157.000 F3000 ; Travel to line 148
G0 Z0.0 ; Pen down
G1 X200.847 Y117.133 F1000
G0 Z3.0 ; Pen up

G0 X200.847 Y117.827 F3000 ; Travel to line 149
G0 Z0.0 ; Pen down
G1 X153.007 Y157.000 F1000
G0 Z3.0 ; Pen up

G0 X153.700 Y157.000 F3000 ; Travel to line 150
G0 Z0.0 ; Pen down
G1 X200.847 Y118.173 F1000
G0 Z3.0 ; Pen up

G0 X200.847 Y118.867 F3000 ; Travel to line 151
G0 Z0.0 ; Pen down
G1 X154.393 Y157.000 F1000
G1 X154.393 Y157.000 F1000
G1 X200.847 Y118.867 F1000
G1 X200.847 Y118.867 F1000
G1 X154.393 Y157.000 F1000
G0 Z3.0 ; Pen up

G0 X154.740 Y157.000 F3000 ; Travel to line 152
G0 Z0.0 ; Pen down
G1 X200.847 Y119.213 F1000
G1 X200.847 Y119.213 F1000
G1 X154.740 Y157.000 F1000
G0 Z3.0 ; Pen up

G0 X155.087 Y157.000 F3000 ; Travel to line 153
G0 Z0.0 ; Pen down
G1 X200.847 Y119.560 F1000
G0 Z3.0 ; Pen up

G0 X200.847 Y120.253 F3000 ; Travel to line 154
G0 Z0.0 ; Pen down
G1 X155.780 Y157.000 F1000
G0 Z3.0 ; Pen up

G0 X143.300 Y52.653 F3000 ; Travel to line 155
G0 Z0.0 ; Pen down
G1 X96.500 Y91.133 F1000
G1 X96.500 Y91.133 F1000
G1 X142.953 Y52.653 F1000
G0 Z3.0 ; Pen up

; Return to origin
G0 X0 Y0
G0 Z3.0

; Total drawing distance: 16700.24 mm
; Total travel distance: 364.09 mm
; Total lines: 155
; Estimated time: 1009.3 seconds (16.8 minutes)
M2 ; End program