; Blueprint to G-code
; Input: /home/david/code/blueprint2gcode/test_data/test_images_corners/test2_square_100x100.png
; Generated with blueprint2gcode.py
;
; Generation Parameters:
;   Paper size: A4 (210x297mm)
;   Orientation: auto
;   Margin: 1.0mm
;   Z up: 3.0mm
;   Z down: 0.0mm
;   Feed rate: 1000mm/min
;   Travel rate: 3000mm/min
;   Join tolerance: 0.02mm
;   Min line length: 0.01mm
;   Simplify epsilon: 0.000001
;   Fill solid areas: True
;   Hatch spacing: 1.0px
;   Hatch angle: 45.0°
;   Crosshatch: False
;   Min solid area: 100.0px²
;   Invert colors: False

G21 ; Set units to millimeters
G90 ; Absolute positioning
G0 Z3.0 ; Pen up
G0 X0 Y0 ; Move to origin

G0 X131.167 Y87.667 F3000 ; Travel to line 1
G0 Z0.0 ; Pen down
G1 X131.513 Y87.320 F1000
G0 Z3.0 ; Pen up

G0 X131.513 Y87.320 F3000 ; Travel to line 2
G0 Z0.0 ; Pen down
G1 X131.167 Y88.013 F1000
G0 Z3.0 ; Pen up

G0 X131.167 Y88.360 F3000 ; Travel to line 3
G0 Z0.0 ; Pen down
G1 X132.207 Y87.320 F1000
G0 Z3.0 ; Pen up

G0 X132.900 Y87.320 F3000 ; Travel to line 4
G0 Z0.0 ; Pen down
G1 X131.167 Y89.400 F1000
G0 Z3.0 ; Pen up

G0 X131.167 Y89.053 F3000 ; Travel to line 5
G0 Z0.0 ; Pen down
G1 X132.900 Y87.320 F1000
G0 Z3.0 ; Pen up

G0 X134.287 Y87.320 F3000 ; Travel to line 6
G0 Z0.0 ; Pen down
G1 X131.167 Y90.787 F1000
G0 Z3.0 ; Pen up

G0 X131.167 Y92.173 F3000 ; Travel to line 7
G0 Z0.0 ; Pen down
G1 X135.673 Y87.320 F1000
G0 Z3.0 ; Pen up

G0 X137.060 Y87.320 F3000 ; Travel to line 8
G0 Z0.0 ; Pen down
G1 X131.167 Y93.560 F1000
G0 Z3.0 ; Pen up

G0 X131.167 Y94.947 F3000 ; Travel to line 9
G0 Z0.0 ; Pen down
G1 X138.447 Y87.320 F1000
G0 Z3.0 ; Pen up

G0 X139.833 Y87.320 F3000 ; Travel to line 10
G0 Z0.0 ; Pen down
G1 X131.167 Y96.333 F1000
G0 Z3.0 ; Pen up

G0 X131.167 Y97.720 F3000 ; Travel to line 11
G0 Z0.0 ; Pen down
G1 X141.220 Y87.320 F1000
G0 Z3.0 ; Pen up

G0 X142.607 Y87.320 F3000 ; Travel to line 12
G0 Z0.0 ; Pen down
G1 X131.167 Y99.107 F1000
G0 Z3.0 ; Pen up

G0 X131.167 Y100.493 F3000 ; Travel to line 13
G0 Z0.0 ; Pen down
G1 X143.993 Y87.320 F1000
G0 Z3.0 ; Pen up

G0 X145.380 Y87.320 F3000 ; Travel to line 14
G0 Z0.0 ; Pen down
G1 X131.167 Y101.880 F1000
G0 Z3.0 ; Pen up

G0 X131.167 Y103.267 F3000 ; Travel to line 15
G0 Z0.0 ; Pen down
G1 X147.113 Y87.320 F1000
G0 Z3.0 ; Pen up

G0 X148.500 Y87.320 F3000 ; Travel to line 16
G0 Z0.0 ; Pen down
G1 X131.167 Y105.000 F1000
G0 Z3.0 ; Pen up

G0 X131.167 Y106.387 F3000 ; Travel to line 17
G0 Z0.0 ; Pen down
G1 X149.887 Y87.320 F1000
G0 Z3.0 ; Pen up

G0 X151.273 Y87.320 F3000 ; Travel to line 18
G0 Z0.0 ; Pen down
G1 X131.167 Y107.773 F1000
G0 Z3.0 ; Pen up

G0 X131.167 Y109.160 F3000 ; Travel to line 19
G0 Z0.0 ; Pen down
G1 X152.660 Y87.320 F1000
G0 Z3.0 ; Pen up

G0 X154.047 Y87.320 F3000 ; Travel to line 20
G0 Z0.0 ; Pen down
G1 X131.167 Y110.547 F1000
G0 Z3.0 ; Pen up

G0 X131.167 Y111.933 F3000 ; Travel to line 21
G0 Z0.0 ; Pen down
G1 X155.433 Y87.320 F1000
G0 Z3.0 ; Pen up

G0 X156.820 Y87.320 F3000 ; Travel to line 22
G0 Z0.0 ; Pen down
G1 X131.167 Y113.320 F1000
G0 Z3.0 ; Pen up

G0 X131.167 Y114.707 F3000 ; Travel to line 23
G0 Z0.0 ; Pen down
G1 X158.207 Y87.320 F1000
G0 Z3.0 ; Pen up

G0 X159.593 Y87.320 F3000 ; Travel to line 24
G0 Z0.0 ; Pen down
G1 X131.167 Y116.093 F1000
G0 Z3.0 ; Pen up

G0 X131.167 Y117.480 F3000 ; Travel to line 25
G0 Z0.0 ; Pen down
G1 X160.980 Y87.320 F1000
G0 Z3.0 ; Pen up

G0 X162.367 Y87.320 F3000 ; Travel to line 26
G0 Z0.0 ; Pen down
G1 X131.167 Y118.867 F1000
G0 Z3.0 ; Pen up

G0 X131.167 Y120.253 F3000 ; Travel to line 27
G0 Z0.0 ; Pen down
G1 X163.753 Y87.320 F1000
G0 Z3.0 ; Pen up

G0 X165.487 Y87.320 F3000 ; Travel to line 28
G0 Z0.0 ; Pen down
G1 X131.167 Y121.640 F1000
G0 Z3.0 ; Pen up

G0 X131.167 Y122.333 F3000 ; Travel to line 29
G0 Z0.0 ; Pen down
G1 X131.167 Y87.667 F1000
G1 X165.833 Y87.667 F1000
G1 X165.833 Y122.333 F1000
G1 X131.167 Y122.333 F1000
G0 Z3.0 ; Pen up

G0 X131.860 Y122.333 F3000 ; Travel to line 30
G0 Z0.0 ; Pen down
G1 X166.180 Y88.360 F1000
G0 Z3.0 ; Pen up

G0 X166.180 Y89.747 F3000 ; Travel to line 31
G0 Z0.0 ; Pen down
G1 X133.247 Y122.333 F1000
G0 Z3.0 ; Pen up

G0 X134.633 Y122.333 F3000 ; Travel to line 32
G0 Z0.0 ; Pen down
G1 X166.180 Y91.133 F1000
G0 Z3.0 ; Pen up

G0 X166.180 Y92.520 F3000 ; Travel to line 33
G0 Z0.0 ; Pen down
G1 X136.020 Y122.333 F1000
G0 Z3.0 ; Pen up

G0 X137.407 Y122.333 F3000 ; Travel to line 34
G0 Z0.0 ; Pen down
G1 X166.180 Y93.907 F1000
G0 Z3.0 ; Pen up

G0 X166.180 Y95.293 F3000 ; Travel to line 35
G0 Z0.0 ; Pen down
G1 X138.793 Y122.333 F1000
G0 Z3.0 ; Pen up

G0 X140.180 Y122.333 F3000 ; Travel to line 36
G0 Z0.0 ; Pen down
G1 X166.180 Y96.680 F1000
G0 Z3.0 ; Pen up

G0 X166.180 Y98.067 F3000 ; Travel to line 37
G0 Z0.0 ; Pen down
G1 X141.567 Y122.333 F1000
G0 Z3.0 ; Pen up

G0 X142.953 Y122.333 F3000 ; Travel to line 38
G0 Z0.0 ; Pen down
G1 X166.180 Y99.453 F1000
G0 Z3.0 ; Pen up

G0 X166.180 Y100.840 F3000 ; Travel to line 39
G0 Z0.0 ; Pen down
G1 X144.340 Y122.333 F1000
G0 Z3.0 ; Pen up

G0 X145.727 Y122.333 F3000 ; Travel to line 40
G0 Z0.0 ; Pen down
G1 X166.180 Y102.227 F1000
G0 Z3.0 ; Pen up

G0 X166.180 Y103.613 F3000 ; Travel to line 41
G0 Z0.0 ; Pen down
G1 X147.113 Y122.333 F1000
G0 Z3.0 ; Pen up

G0 X148.847 Y122.333 F3000 ; Travel to line 42
G0 Z0.0 ; Pen down
G1 X166.180 Y105.000 F1000
G0 Z3.0 ; Pen up

G0 X166.180 Y106.733 F3000 ; Travel to line 43
G0 Z0.0 ; Pen down
G1 X150.233 Y122.333 F1000
G0 Z3.0 ; Pen up

G0 X151.620 Y122.333 F3000 ; Travel to line 44
G0 Z0.0 ; Pen down
G1 X166.180 Y108.120 F1000
G0 Z3.0 ; Pen up

G0 X166.180 Y109.507 F3000 ; Travel to line 45
G0 Z0.0 ; Pen down
G1 X153.007 Y122.333 F1000
G0 Z3.0 ; Pen up

G0 X154.393 Y122.333 F3000 ; Travel to line 46
G0 Z0.0 ; Pen down
G1 X166.180 Y110.893 F1000
G0 Z3.0 ; Pen up

G0 X166.180 Y112.280 F3000 ; Travel to line 47
G0 Z0.0 ; Pen down
G1 X155.780 Y122.333 F1000
G0 Z3.0 ; Pen up

G0 X157.167 Y122.333 F3000 ; Travel to line 48
G0 Z0.0 ; Pen down
G1 X166.180 Y113.667 F1000
G0 Z3.0 ; Pen up

G0 X166.180 Y115.053 F3000 ; Travel to line 49
G0 Z0.0 ; Pen down
G1 X158.553 Y122.333 F1000
G0 Z3.0 ; Pen up

G0 X159.940 Y122.333 F3000 ; Travel to line 50
G0 Z0.0 ; Pen down
G1 X166.180 Y116.440 F1000
G0 Z3.0 ; Pen up

G0 X166.180 Y117.827 F3000 ; Travel to line 51
G0 Z0.0 ; Pen down
G1 X161.327 Y122.333 F1000
G0 Z3.0 ; Pen up

G0 X162.713 Y122.333 F3000 ; Travel to line 52
G0 Z0.0 ; Pen down
G1 X166.180 Y119.213 F1000
G0 Z3.0 ; Pen up

G0 X166.180 Y120.600 F3000 ; Travel to line 53
G0 Z0.0 ; Pen down
G1 X164.100 Y122.333 F1000
G0 Z3.0 ; Pen up

G0 X164.447 Y122.333 F3000 ; Travel to line 54
G0 Z0.0 ; Pen down
G1 X166.180 Y120.600 F1000
G0 Z3.0 ; Pen up

G0 X166.180 Y121.293 F3000 ; Travel to line 55
G0 Z0.0 ; Pen down
G1 X165.140 Y122.333 F1000
G0 Z3.0 ; Pen up

G0 X165.833 Y122.333 F3000 ; Travel to line 56
G0 Z0.0 ; Pen down
G1 X166.180 Y121.987 F1000
G0 Z3.0 ; Pen up

G0 X166.180 Y121.987 F3000 ; Travel to line 57
G0 Z0.0 ; Pen down
G1 X165.833 Y122.333 F1000
G0 Z3.0 ; Pen up

; Return to origin
G0 X0 Y0
G0 Z3.0

; Total drawing distance: 1533.66 mm
; Total travel distance: 227.10 mm
; Total lines: 57
; Estimated time: 96.6 seconds (1.6 minutes)
M2 ; End program