; Blueprint to G-code
; Input: test_images_corners/test9_diamond.png
; Generated with blueprint2gcode.py

G21 ; Set units to millimeters
G90 ; Absolute positioning
G0 Z3.0 ; Pen up
G0 X0 Y0 ; Move to origin

G0 X64.260 Y91.827 F3000 ; Travel to line 1
G0 Z0.0 ; Pen down
G1 X46.233 Y106.040 F1000
G0 Z3.0 ; Pen up

G0 X45.887 Y105.693 F3000 ; Travel to line 2
G0 Z0.0 ; Pen down
G1 X59.060 Y95.293 F1000
G0 Z3.0 ; Pen up

G0 X53.860 Y98.760 F3000 ; Travel to line 3
G0 Z0.0 ; Pen down
G1 X45.540 Y105.347 F1000
G0 Z3.0 ; Pen up

G0 X44.847 Y105.000 F3000 ; Travel to line 4
G0 Z0.0 ; Pen down
G1 X48.660 Y102.227 F1000
G0 Z3.0 ; Pen up

G0 X47.273 Y106.387 F3000 ; Travel to line 5
G0 Z0.0 ; Pen down
G1 X74.660 Y84.893 F1000
G0 Z3.0 ; Pen up

G0 X79.860 Y81.427 F3000 ; Travel to line 6
G0 Z0.0 ; Pen down
G1 X47.620 Y107.080 F1000
G0 Z3.0 ; Pen up

G0 X48.313 Y107.080 F3000 ; Travel to line 7
G0 Z0.0 ; Pen down
G1 X85.060 Y77.960 F1000
G0 Z3.0 ; Pen up

G0 X89.220 Y75.187 F3000 ; Travel to line 8
G0 Z0.0 ; Pen down
G1 X48.660 Y107.427 F1000
G0 Z3.0 ; Pen up

G0 X49.007 Y107.773 F3000 ; Travel to line 9
G0 Z0.0 ; Pen down
G1 X94.420 Y71.720 F1000
G0 Z3.0 ; Pen up

G0 X99.620 Y68.253 F3000 ; Travel to line 10
G0 Z0.0 ; Pen down
G1 X49.353 Y108.120 F1000
G0 Z3.0 ; Pen up

G0 X49.700 Y108.467 F3000 ; Travel to line 11
G0 Z0.0 ; Pen down
G1 X103.780 Y65.480 F1000
G0 Z3.0 ; Pen up

G0 X108.980 Y62.013 F3000 ; Travel to line 12
G0 Z0.0 ; Pen down
G1 X50.393 Y108.813 F1000
G0 Z3.0 ; Pen up

G0 X50.740 Y109.160 F3000 ; Travel to line 13
G0 Z0.0 ; Pen down
G1 X113.140 Y59.240 F1000
G0 Z3.0 ; Pen up

G0 X120.420 Y54.387 F3000 ; Travel to line 14
G0 Z0.0 ; Pen down
G1 X51.433 Y109.507 F1000
G0 Z3.0 ; Pen up

G0 X51.780 Y109.853 F3000 ; Travel to line 15
G0 Z0.0 ; Pen down
G1 X124.580 Y51.613 F1000
G0 Z3.0 ; Pen up

G0 X128.740 Y48.840 F3000 ; Travel to line 16
G0 Z0.0 ; Pen down
G1 X52.473 Y109.853 F1000
G0 Z3.0 ; Pen up

G0 X52.820 Y110.547 F3000 ; Travel to line 17
G0 Z0.0 ; Pen down
G1 X133.940 Y45.373 F1000
G0 Z3.0 ; Pen up

G0 X138.100 Y42.600 F3000 ; Travel to line 18
G0 Z0.0 ; Pen down
G1 X53.513 Y110.547 F1000
G0 Z3.0 ; Pen up

G0 X53.860 Y110.893 F3000 ; Travel to line 19
G0 Z0.0 ; Pen down
G1 X142.260 Y39.827 F1000
G0 Z3.0 ; Pen up

G0 X146.420 Y37.053 F3000 ; Travel to line 20
G0 Z0.0 ; Pen down
G1 X54.207 Y111.240 F1000
G0 Z3.0 ; Pen up

G0 X54.553 Y111.587 F3000 ; Travel to line 21
G0 Z0.0 ; Pen down
G1 X148.500 Y36.013 F1000
G0 Z3.0 ; Pen up

G0 X148.847 Y36.360 F3000 ; Travel to line 22
G0 Z0.0 ; Pen down
G1 X54.900 Y111.933 F1000
G0 Z3.0 ; Pen up

G0 X55.593 Y112.280 F3000 ; Travel to line 23
G0 Z0.0 ; Pen down
G1 X149.540 Y36.360 F1000
G0 Z3.0 ; Pen up

G0 X149.887 Y36.707 F3000 ; Travel to line 24
G0 Z0.0 ; Pen down
G1 X55.940 Y112.627 F1000
G0 Z3.0 ; Pen up

G0 X56.633 Y112.627 F3000 ; Travel to line 25
G0 Z0.0 ; Pen down
G1 X150.233 Y37.053 F1000
G0 Z3.0 ; Pen up

G0 X150.580 Y37.400 F3000 ; Travel to line 26
G0 Z0.0 ; Pen down
G1 X56.980 Y112.973 F1000
G0 Z3.0 ; Pen up

G0 X57.327 Y113.320 F3000 ; Travel to line 27
G0 Z0.0 ; Pen down
G1 X150.927 Y37.400 F1000
G0 Z3.0 ; Pen up

G0 X151.620 Y37.747 F3000 ; Travel to line 28
G0 Z0.0 ; Pen down
G1 X57.673 Y113.667 F1000
G0 Z3.0 ; Pen up

G0 X58.020 Y114.013 F3000 ; Travel to line 29
G0 Z0.0 ; Pen down
G1 X151.620 Y38.093 F1000
G0 Z3.0 ; Pen up

G0 X151.967 Y38.440 F3000 ; Travel to line 30
G0 Z0.0 ; Pen down
G1 X58.713 Y114.360 F1000
G0 Z3.0 ; Pen up

G0 X59.060 Y114.707 F3000 ; Travel to line 31
G0 Z0.0 ; Pen down
G1 X152.660 Y38.440 F1000
G0 Z3.0 ; Pen up

G0 X153.007 Y38.787 F3000 ; Travel to line 32
G0 Z0.0 ; Pen down
G1 X59.753 Y114.707 F1000
G0 Z3.0 ; Pen up

G0 X60.100 Y115.053 F3000 ; Travel to line 33
G0 Z0.0 ; Pen down
G1 X153.353 Y39.133 F1000
G0 Z3.0 ; Pen up

G0 X153.700 Y39.480 F3000 ; Travel to line 34
G0 Z0.0 ; Pen down
G1 X60.447 Y115.400 F1000
G0 Z3.0 ; Pen up

G0 X60.793 Y115.747 F3000 ; Travel to line 35
G0 Z0.0 ; Pen down
G1 X154.047 Y39.827 F1000
G0 Z3.0 ; Pen up

G0 X154.740 Y39.827 F3000 ; Travel to line 36
G0 Z0.0 ; Pen down
G1 X61.140 Y116.093 F1000
G0 Z3.0 ; Pen up

G0 X61.833 Y116.440 F3000 ; Travel to line 37
G0 Z0.0 ; Pen down
G1 X155.087 Y40.173 F1000
G0 Z3.0 ; Pen up

G0 X155.433 Y40.520 F3000 ; Travel to line 38
G0 Z0.0 ; Pen down
G1 X62.180 Y116.787 F1000
G0 Z3.0 ; Pen up

G0 X62.873 Y117.133 F3000 ; Travel to line 39
G0 Z0.0 ; Pen down
G1 X156.127 Y40.867 F1000
G0 Z3.0 ; Pen up

G0 X156.473 Y41.213 F3000 ; Travel to line 40
G0 Z0.0 ; Pen down
G1 X63.220 Y117.480 F1000
G0 Z3.0 ; Pen up

G0 X63.913 Y117.480 F3000 ; Travel to line 41
G0 Z0.0 ; Pen down
G1 X156.820 Y41.560 F1000
G0 Z3.0 ; Pen up

G0 X157.167 Y41.560 F3000 ; Travel to line 42
G0 Z0.0 ; Pen down
G1 X64.260 Y117.827 F1000
G0 Z3.0 ; Pen up

G0 X64.607 Y118.173 F3000 ; Travel to line 43
G0 Z0.0 ; Pen down
G1 X157.860 Y41.907 F1000
G0 Z3.0 ; Pen up

G0 X157.860 Y42.253 F3000 ; Travel to line 44
G0 Z0.0 ; Pen down
G1 X64.953 Y118.520 F1000
G0 Z3.0 ; Pen up

G0 X65.300 Y118.867 F3000 ; Travel to line 45
G0 Z0.0 ; Pen down
G1 X158.207 Y42.600 F1000
G0 Z3.0 ; Pen up

G0 X158.900 Y42.600 F3000 ; Travel to line 46
G0 Z0.0 ; Pen down
G1 X65.993 Y119.213 F1000
G0 Z3.0 ; Pen up

G0 X66.340 Y119.560 F3000 ; Travel to line 47
G0 Z0.0 ; Pen down
G1 X159.247 Y42.947 F1000
G0 Z3.0 ; Pen up

G0 X159.593 Y43.293 F3000 ; Travel to line 48
G0 Z0.0 ; Pen down
G1 X67.033 Y119.560 F1000
G0 Z3.0 ; Pen up

G0 X67.380 Y119.907 F3000 ; Travel to line 49
G0 Z0.0 ; Pen down
G1 X159.940 Y43.640 F1000
G0 Z3.0 ; Pen up

G0 X160.287 Y43.987 F3000 ; Travel to line 50
G0 Z0.0 ; Pen down
G1 X67.727 Y120.253 F1000
G0 Z3.0 ; Pen up

G0 X68.073 Y120.600 F3000 ; Travel to line 51
G0 Z0.0 ; Pen down
G1 X160.980 Y43.987 F1000
G0 Z3.0 ; Pen up

G0 X161.327 Y44.333 F3000 ; Travel to line 52
G0 Z0.0 ; Pen down
G1 X68.420 Y120.947 F1000
G0 Z3.0 ; Pen up

G0 X69.113 Y121.293 F3000 ; Travel to line 53
G0 Z0.0 ; Pen down
G1 X161.673 Y44.680 F1000
G0 Z3.0 ; Pen up

G0 X162.020 Y45.027 F3000 ; Travel to line 54
G0 Z0.0 ; Pen down
G1 X69.460 Y121.640 F1000
G0 Z3.0 ; Pen up

G0 X70.153 Y121.640 F3000 ; Travel to line 55
G0 Z0.0 ; Pen down
G1 X162.367 Y45.373 F1000
G0 Z3.0 ; Pen up

G0 X163.060 Y45.373 F3000 ; Travel to line 56
G0 Z0.0 ; Pen down
G1 X70.500 Y121.987 F1000
G0 Z3.0 ; Pen up

G0 X70.847 Y122.333 F3000 ; Travel to line 57
G0 Z0.0 ; Pen down
G1 X163.407 Y45.720 F1000
G0 Z3.0 ; Pen up

G0 X163.753 Y46.067 F3000 ; Travel to line 58
G0 Z0.0 ; Pen down
G1 X71.193 Y122.680 F1000
G0 Z3.0 ; Pen up

G0 X71.540 Y123.027 F3000 ; Travel to line 59
G0 Z0.0 ; Pen down
G1 X164.100 Y46.413 F1000
G0 Z3.0 ; Pen up

G0 X164.447 Y46.413 F3000 ; Travel to line 60
G0 Z0.0 ; Pen down
G1 X72.233 Y123.027 F1000
G0 Z3.0 ; Pen up

G0 X72.580 Y123.720 F3000 ; Travel to line 61
G0 Z0.0 ; Pen down
G1 X165.140 Y46.760 F1000
G0 Z3.0 ; Pen up

G0 X165.140 Y47.107 F3000 ; Travel to line 62
G0 Z0.0 ; Pen down
G1 X73.273 Y123.720 F1000
G0 Z3.0 ; Pen up

G0 X73.620 Y124.067 F3000 ; Travel to line 63
G0 Z0.0 ; Pen down
G1 X165.487 Y47.453 F1000
G0 Z3.0 ; Pen up

G0 X166.180 Y47.800 F3000 ; Travel to line 64
G0 Z0.0 ; Pen down
G1 X74.313 Y124.413 F1000
G0 Z3.0 ; Pen up

G0 X74.660 Y124.760 F3000 ; Travel to line 65
G0 Z0.0 ; Pen down
G1 X166.527 Y48.147 F1000
G0 Z3.0 ; Pen up

G0 X167.220 Y48.147 F3000 ; Travel to line 66
G0 Z0.0 ; Pen down
G1 X75.007 Y125.107 F1000
G0 Z3.0 ; Pen up

G0 X75.353 Y125.453 F3000 ; Travel to line 67
G0 Z0.0 ; Pen down
G1 X167.567 Y48.493 F1000
G0 Z3.0 ; Pen up

G0 X167.913 Y48.840 F3000 ; Travel to line 68
G0 Z0.0 ; Pen down
G1 X75.700 Y125.800 F1000
G0 Z3.0 ; Pen up

G0 X76.393 Y125.800 F3000 ; Travel to line 69
G0 Z0.0 ; Pen down
G1 X168.260 Y49.187 F1000
G0 Z3.0 ; Pen up

G0 X168.607 Y49.533 F3000 ; Travel to line 70
G0 Z0.0 ; Pen down
G1 X76.740 Y126.493 F1000
G0 Z3.0 ; Pen up

G0 X77.433 Y126.493 F3000 ; Travel to line 71
G0 Z0.0 ; Pen down
G1 X169.300 Y49.533 F1000
G0 Z3.0 ; Pen up

G0 X169.647 Y49.880 F3000 ; Travel to line 72
G0 Z0.0 ; Pen down
G1 X77.780 Y126.840 F1000
G0 Z3.0 ; Pen up

G0 X78.127 Y127.187 F3000 ; Travel to line 73
G0 Z0.0 ; Pen down
G1 X169.993 Y50.227 F1000
G0 Z3.0 ; Pen up

G0 X170.340 Y50.573 F3000 ; Travel to line 74
G0 Z0.0 ; Pen down
G1 X78.473 Y127.533 F1000
G0 Z3.0 ; Pen up

G0 X78.820 Y127.880 F3000 ; Travel to line 75
G0 Z0.0 ; Pen down
G1 X170.687 Y50.920 F1000
G0 Z3.0 ; Pen up

G0 X171.380 Y50.920 F3000 ; Travel to line 76
G0 Z0.0 ; Pen down
G1 X79.513 Y127.880 F1000
G0 Z3.0 ; Pen up

G0 X79.860 Y128.227 F3000 ; Travel to line 77
G0 Z0.0 ; Pen down
G1 X171.727 Y51.267 F1000
G0 Z3.0 ; Pen up

G0 X172.073 Y51.613 F3000 ; Travel to line 78
G0 Z0.0 ; Pen down
G1 X80.207 Y128.573 F1000
G0 Z3.0 ; Pen up

G0 X80.553 Y128.920 F3000 ; Travel to line 79
G0 Z0.0 ; Pen down
G1 X172.420 Y51.960 F1000
G0 Z3.0 ; Pen up

G0 X172.767 Y51.960 F3000 ; Travel to line 80
G0 Z0.0 ; Pen down
G1 X80.900 Y129.267 F1000
G0 Z3.0 ; Pen up

G0 X81.593 Y129.613 F3000 ; Travel to line 81
G0 Z0.0 ; Pen down
G1 X173.460 Y52.307 F1000
G0 Z3.0 ; Pen up

G0 X173.460 Y52.653 F3000 ; Travel to line 82
G0 Z0.0 ; Pen down
G1 X81.940 Y129.960 F1000
G0 Z3.0 ; Pen up

G0 X82.633 Y129.960 F3000 ; Travel to line 83
G0 Z0.0 ; Pen down
G1 X173.807 Y53.000 F1000
G0 Z3.0 ; Pen up

G0 X174.500 Y53.000 F3000 ; Travel to line 84
G0 Z0.0 ; Pen down
G1 X82.980 Y130.307 F1000
G0 Z3.0 ; Pen up

G0 X83.327 Y130.653 F3000 ; Travel to line 85
G0 Z0.0 ; Pen down
G1 X174.847 Y53.347 F1000
G0 Z3.0 ; Pen up

G0 X175.193 Y53.693 F3000 ; Travel to line 86
G0 Z0.0 ; Pen down
G1 X83.673 Y131.000 F1000
G0 Z3.0 ; Pen up

G0 X84.020 Y131.347 F3000 ; Travel to line 87
G0 Z0.0 ; Pen down
G1 X175.540 Y54.040 F1000
G0 Z3.0 ; Pen up

G0 X175.887 Y54.387 F3000 ; Travel to line 88
G0 Z0.0 ; Pen down
G1 X84.713 Y131.347 F1000
G0 Z3.0 ; Pen up

G0 X85.060 Y132.040 F3000 ; Travel to line 89
G0 Z0.0 ; Pen down
G1 X176.580 Y54.733 F1000
G0 Z3.0 ; Pen up

G0 X176.927 Y55.080 F3000 ; Travel to line 90
G0 Z0.0 ; Pen down
G1 X85.753 Y132.387 F1000
G0 Z3.0 ; Pen up

G0 X86.100 Y132.733 F3000 ; Travel to line 91
G0 Z0.0 ; Pen down
G1 X177.620 Y55.080 F1000
G0 Z3.0 ; Pen up

G0 X177.967 Y55.427 F3000 ; Travel to line 92
G0 Z0.0 ; Pen down
G1 X86.793 Y132.733 F1000
G0 Z3.0 ; Pen up

G0 X87.140 Y133.080 F3000 ; Travel to line 93
G0 Z0.0 ; Pen down
G1 X178.313 Y55.773 F1000
G0 Z3.0 ; Pen up

G0 X178.660 Y56.120 F3000 ; Travel to line 94
G0 Z0.0 ; Pen down
G1 X87.487 Y133.427 F1000
G0 Z3.0 ; Pen up

G0 X87.833 Y133.773 F3000 ; Travel to line 95
G0 Z0.0 ; Pen down
G1 X179.007 Y56.467 F1000
G0 Z3.0 ; Pen up

G0 X179.700 Y56.467 F3000 ; Travel to line 96
G0 Z0.0 ; Pen down
G1 X88.180 Y134.120 F1000
G0 Z3.0 ; Pen up

G0 X88.873 Y134.120 F3000 ; Travel to line 97
G0 Z0.0 ; Pen down
G1 X180.047 Y56.813 F1000
G0 Z3.0 ; Pen up

G0 X180.393 Y57.160 F3000 ; Travel to line 98
G0 Z0.0 ; Pen down
G1 X89.220 Y134.467 F1000
G0 Z3.0 ; Pen up

G0 X89.567 Y134.813 F3000 ; Travel to line 99
G0 Z0.0 ; Pen down
G1 X180.740 Y57.507 F1000
G0 Z3.0 ; Pen up

G0 X181.087 Y57.853 F3000 ; Travel to line 100
G0 Z0.0 ; Pen down
G1 X89.913 Y135.160 F1000
G0 Z3.0 ; Pen up

G0 X90.260 Y135.507 F3000 ; Travel to line 101
G0 Z0.0 ; Pen down
G1 X181.780 Y57.853 F1000
G0 Z3.0 ; Pen up

G0 X182.127 Y58.200 F3000 ; Travel to line 102
G0 Z0.0 ; Pen down
G1 X90.953 Y135.853 F1000
G0 Z3.0 ; Pen up

G0 X91.300 Y136.200 F3000 ; Travel to line 103
G0 Z0.0 ; Pen down
G1 X182.473 Y58.547 F1000
G0 Z3.0 ; Pen up

G0 X182.820 Y58.547 F3000 ; Travel to line 104
G0 Z0.0 ; Pen down
G1 X91.993 Y136.200 F1000
G0 Z3.0 ; Pen up

G0 X92.340 Y136.547 F3000 ; Travel to line 105
G0 Z0.0 ; Pen down
G1 X183.167 Y58.893 F1000
G0 Z3.0 ; Pen up

G0 X183.513 Y59.240 F3000 ; Travel to line 106
G0 Z0.0 ; Pen down
G1 X92.687 Y136.893 F1000
G0 Z3.0 ; Pen up

G0 X93.033 Y137.240 F3000 ; Travel to line 107
G0 Z0.0 ; Pen down
G1 X183.860 Y59.587 F1000
G0 Z3.0 ; Pen up

G0 X184.207 Y59.933 F3000 ; Travel to line 108
G0 Z0.0 ; Pen down
G1 X93.380 Y137.587 F1000
G0 Z3.0 ; Pen up

G0 X94.073 Y137.587 F3000 ; Travel to line 109
G0 Z0.0 ; Pen down
G1 X185.247 Y60.280 F1000
G0 Z3.0 ; Pen up

G0 X184.900 Y60.280 F3000 ; Travel to line 110
G0 Z0.0 ; Pen down
G1 X93.727 Y137.587 F1000
G1 X93.727 Y137.587 F1000
G1 X184.900 Y59.933 F1000
G0 Z3.0 ; Pen up

G0 X185.593 Y60.627 F3000 ; Travel to line 111
G0 Z0.0 ; Pen down
G1 X94.073 Y137.933 F1000
G1 X94.073 Y137.933 F1000
G1 X185.940 Y60.627 F1000
G0 Z3.0 ; Pen up

G0 X186.287 Y60.973 F3000 ; Travel to line 112
G0 Z0.0 ; Pen down
G1 X94.420 Y137.933 F1000
G0 Z3.0 ; Pen up

G0 X94.767 Y138.280 F3000 ; Travel to line 113
G0 Z0.0 ; Pen down
G1 X186.980 Y61.667 F1000
G0 Z3.0 ; Pen up

G0 X187.327 Y61.667 F3000 ; Travel to line 114
G0 Z0.0 ; Pen down
G1 X95.113 Y138.280 F1000
G1 X95.113 Y138.280 F1000
G1 X187.673 Y62.013 F1000
G0 Z3.0 ; Pen up

G0 X188.020 Y62.013 F3000 ; Travel to line 115
G0 Z0.0 ; Pen down
G1 X95.113 Y138.627 F1000
G0 Z3.0 ; Pen up

G0 X95.807 Y138.973 F3000 ; Travel to line 116
G0 Z0.0 ; Pen down
G1 X189.060 Y63.053 F1000
G0 Z3.0 ; Pen up

G0 X189.060 Y62.707 F3000 ; Travel to line 117
G0 Z0.0 ; Pen down
G1 X95.460 Y138.973 F1000
G1 X95.460 Y138.973 F1000
G1 X188.713 Y62.707 F1000
G0 Z3.0 ; Pen up

G0 X188.367 Y62.360 F3000 ; Travel to line 118
G0 Z0.0 ; Pen down
G1 X95.460 Y138.627 F1000
G1 X95.460 Y138.627 F1000
G1 X188.020 Y62.360 F1000
G0 Z3.0 ; Pen up

G0 X186.980 Y61.320 F3000 ; Travel to line 119
G0 Z0.0 ; Pen down
G1 X94.420 Y138.280 F1000
G1 X94.420 Y138.280 F1000
G1 X186.287 Y61.320 F1000
G0 Z3.0 ; Pen up

G0 X189.407 Y63.400 F3000 ; Travel to line 120
G0 Z0.0 ; Pen down
G1 X96.153 Y138.973 F1000
G1 X96.153 Y138.973 F1000
G1 X189.753 Y63.400 F1000
G0 Z3.0 ; Pen up

G0 X190.100 Y63.400 F3000 ; Travel to line 121
G0 Z0.0 ; Pen down
G1 X96.153 Y139.320 F1000
G0 Z3.0 ; Pen up

G0 X96.847 Y139.667 F3000 ; Travel to line 122
G0 Z0.0 ; Pen down
G1 X191.487 Y64.440 F1000
G0 Z3.0 ; Pen up

G0 X191.487 Y64.787 F3000 ; Travel to line 123
G0 Z0.0 ; Pen down
G1 X97.193 Y139.667 F1000
G1 X97.193 Y139.667 F1000
G1 X191.833 Y64.787 F1000
G0 Z3.0 ; Pen up

G0 X192.180 Y64.787 F3000 ; Travel to line 124
G0 Z0.0 ; Pen down
G1 X97.193 Y140.013 F1000
G1 X97.193 Y140.013 F1000
G1 X192.527 Y65.133 F1000
G0 Z3.0 ; Pen up

G0 X192.527 Y65.480 F3000 ; Travel to line 125
G0 Z0.0 ; Pen down
G1 X97.540 Y140.013 F1000
G0 Z3.0 ; Pen up

G0 X97.887 Y140.360 F3000 ; Travel to line 126
G0 Z0.0 ; Pen down
G1 X193.567 Y65.827 F1000
G0 Z3.0 ; Pen up

G0 X193.567 Y66.173 F3000 ; Travel to line 127
G0 Z0.0 ; Pen down
G1 X98.233 Y140.360 F1000
G1 X98.233 Y140.360 F1000
G1 X194.260 Y66.173 F1000
G0 Z3.0 ; Pen up

G0 X194.260 Y66.520 F3000 ; Travel to line 128
G0 Z0.0 ; Pen down
G1 X98.233 Y140.707 F1000
G1 X98.233 Y140.707 F1000
G1 X194.607 Y66.520 F1000
G0 Z3.0 ; Pen up

G0 X194.607 Y66.867 F3000 ; Travel to line 129
G0 Z0.0 ; Pen down
G1 X98.580 Y140.707 F1000
G0 Z3.0 ; Pen up

G0 X99.273 Y141.053 F3000 ; Travel to line 130
G0 Z0.0 ; Pen down
G1 X196.340 Y67.560 F1000
G0 Z3.0 ; Pen up

G0 X196.340 Y67.907 F3000 ; Travel to line 131
G0 Z0.0 ; Pen down
G1 X99.273 Y141.400 F1000
G1 X99.273 Y141.400 F1000
G1 X196.687 Y67.907 F1000
G0 Z3.0 ; Pen up

G0 X196.687 Y68.253 F3000 ; Travel to line 132
G0 Z0.0 ; Pen down
G1 X99.620 Y141.400 F1000
G1 X99.620 Y141.400 F1000
G1 X197.033 Y68.253 F1000
G0 Z3.0 ; Pen up

G0 X197.380 Y68.253 F3000 ; Travel to line 133
G0 Z0.0 ; Pen down
G1 X99.620 Y141.747 F1000
G1 X99.620 Y141.747 F1000
G1 X197.380 Y68.253 F1000
G1 X197.380 Y68.253 F1000
G1 X99.620 Y141.747 F1000
G1 X99.620 Y141.747 F1000
G1 X197.380 Y68.253 F1000
G1 X197.380 Y68.253 F1000
G1 X99.620 Y141.747 F1000
G1 X99.620 Y141.747 F1000
G1 X197.380 Y68.253 F1000
G1 X197.380 Y68.253 F1000
G1 X99.620 Y141.747 F1000
G1 X99.620 Y141.747 F1000
G1 X197.380 Y68.253 F1000
G1 X197.380 Y68.253 F1000
G1 X99.620 Y141.747 F1000
G1 X99.620 Y141.747 F1000
G1 X197.380 Y68.253 F1000
G1 X197.380 Y68.253 F1000
G1 X99.620 Y141.747 F1000
G1 X99.620 Y141.747 F1000
G1 X197.380 Y68.253 F1000
G1 X197.380 Y68.253 F1000
G1 X99.620 Y141.747 F1000
G1 X99.620 Y141.747 F1000
G1 X197.380 Y68.253 F1000
G1 X197.380 Y68.253 F1000
G1 X99.620 Y141.747 F1000
G1 X99.620 Y141.747 F1000
G1 X197.380 Y68.253 F1000
G1 X197.380 Y68.253 F1000
G1 X99.620 Y141.747 F1000
G1 X99.620 Y141.747 F1000
G1 X197.380 Y68.253 F1000
G1 X197.380 Y68.253 F1000
G1 X99.620 Y141.747 F1000
G1 X99.620 Y141.747 F1000
G1 X197.380 Y68.253 F1000
G1 X197.380 Y68.253 F1000
G1 X99.620 Y141.747 F1000
G1 X99.620 Y141.747 F1000
G1 X197.380 Y68.253 F1000
G1 X197.380 Y68.253 F1000
G1 X99.620 Y141.747 F1000
G1 X99.620 Y141.747 F1000
G1 X197.380 Y68.253 F1000
G1 X197.380 Y68.253 F1000
G1 X99.620 Y141.747 F1000
G1 X99.620 Y141.747 F1000
G1 X197.380 Y68.253 F1000
G1 X197.380 Y68.253 F1000
G1 X99.620 Y141.747 F1000
G1 X99.620 Y141.747 F1000
G1 X197.380 Y68.253 F1000
G1 X197.380 Y68.253 F1000
G1 X99.620 Y141.747 F1000
G1 X99.620 Y141.747 F1000
G1 X197.380 Y68.253 F1000
G1 X197.380 Y68.253 F1000
G1 X99.620 Y141.747 F1000
G1 X99.620 Y141.747 F1000
G1 X197.380 Y68.253 F1000
G1 X197.380 Y68.253 F1000
G1 X99.620 Y141.747 F1000
G1 X99.620 Y141.747 F1000
G1 X197.380 Y68.253 F1000
G1 X197.380 Y68.253 F1000
G1 X99.620 Y141.747 F1000
G1 X99.620 Y141.747 F1000
G1 X197.380 Y68.253 F1000
G1 X197.380 Y68.253 F1000
G1 X99.620 Y141.747 F1000
G1 X99.620 Y141.747 F1000
G1 X197.380 Y68.253 F1000
G1 X197.380 Y68.253 F1000
G1 X99.620 Y141.747 F1000
G1 X99.620 Y141.747 F1000
G1 X197.380 Y68.253 F1000
G1 X197.380 Y68.253 F1000
G1 X99.620 Y141.747 F1000
G1 X99.620 Y141.747 F1000
G1 X197.380 Y68.253 F1000
G1 X197.380 Y68.253 F1000
G1 X99.620 Y141.747 F1000
G1 X99.620 Y141.747 F1000
G1 X197.380 Y68.253 F1000
G1 X197.380 Y68.253 F1000
G1 X99.620 Y141.747 F1000
G1 X99.620 Y141.747 F1000
G1 X197.380 Y68.253 F1000
G1 X197.380 Y68.253 F1000
G1 X99.620 Y141.747 F1000
G1 X99.620 Y141.747 F1000
G1 X197.380 Y68.253 F1000
G1 X197.380 Y68.253 F1000
G1 X99.620 Y141.747 F1000
G1 X99.620 Y141.747 F1000
G1 X197.380 Y68.253 F1000
G1 X197.380 Y68.253 F1000
G1 X99.620 Y141.747 F1000
G1 X99.620 Y141.747 F1000
G1 X197.380 Y68.253 F1000
G1 X197.380 Y68.253 F1000
G1 X99.620 Y141.747 F1000
G1 X99.620 Y141.747 F1000
G1 X197.380 Y68.253 F1000
G1 X197.380 Y68.253 F1000
G1 X99.620 Y141.747 F1000
G1 X99.620 Y141.747 F1000
G1 X197.380 Y68.253 F1000
G1 X197.380 Y68.253 F1000
G1 X99.620 Y141.747 F1000
G1 X99.620 Y141.747 F1000
G1 X197.380 Y68.253 F1000
G1 X197.380 Y68.253 F1000
G1 X99.620 Y141.747 F1000
G1 X99.620 Y141.747 F1000
G1 X197.380 Y68.253 F1000
G1 X197.380 Y68.253 F1000
G1 X99.620 Y141.747 F1000
G1 X99.620 Y141.747 F1000
G1 X197.380 Y68.253 F1000
G1 X197.380 Y68.253 F1000
G1 X99.620 Y141.747 F1000
G1 X99.620 Y141.747 F1000
G1 X197.380 Y68.253 F1000
G1 X197.380 Y68.253 F1000
G1 X99.620 Y141.747 F1000
G1 X99.620 Y141.747 F1000
G1 X197.380 Y68.253 F1000
G1 X197.380 Y68.253 F1000
G1 X99.620 Y141.747 F1000
G1 X99.620 Y141.747 F1000
G1 X197.380 Y68.253 F1000
G1 X197.380 Y68.253 F1000
G1 X99.620 Y141.747 F1000
G1 X99.620 Y141.747 F1000
G1 X197.380 Y68.253 F1000
G1 X197.380 Y68.253 F1000
G1 X99.620 Y141.747 F1000
G1 X99.620 Y141.747 F1000
G1 X197.380 Y68.253 F1000
G1 X197.380 Y68.253 F1000
G1 X99.620 Y141.747 F1000
G1 X99.620 Y141.747 F1000
G1 X197.380 Y68.253 F1000
G1 X197.380 Y68.253 F1000
G1 X99.620 Y141.747 F1000
G1 X99.620 Y141.747 F1000
G1 X197.380 Y68.253 F1000
G1 X197.380 Y68.253 F1000
G1 X99.620 Y141.747 F1000
G1 X99.620 Y141.747 F1000
G1 X197.380 Y68.253 F1000
G1 X197.380 Y68.253 F1000
G1 X99.620 Y141.747 F1000
G1 X99.620 Y141.747 F1000
G1 X197.380 Y68.253 F1000
G1 X197.380 Y68.253 F1000
G1 X99.620 Y141.747 F1000
G1 X99.620 Y141.747 F1000
G1 X197.380 Y68.253 F1000
G1 X197.380 Y68.253 F1000
G1 X99.620 Y141.747 F1000
G1 X99.620 Y141.747 F1000
G1 X197.380 Y68.253 F1000
G1 X197.380 Y68.253 F1000
G1 X99.620 Y141.747 F1000
G1 X99.620 Y141.747 F1000
G1 X197.380 Y68.253 F1000
G1 X197.380 Y68.253 F1000
G1 X99.620 Y141.747 F1000
G1 X99.620 Y141.747 F1000
G1 X197.380 Y68.253 F1000
G1 X197.380 Y68.253 F1000
G1 X99.620 Y141.747 F1000
G1 X99.620 Y141.747 F1000
G1 X197.380 Y68.253 F1000
G1 X197.380 Y68.253 F1000
G1 X99.620 Y141.747 F1000
G1 X99.620 Y141.747 F1000
G1 X197.380 Y68.253 F1000
G1 X197.380 Y68.253 F1000
G1 X99.620 Y141.747 F1000
G1 X99.620 Y141.747 F1000
G1 X197.380 Y68.253 F1000
G1 X197.380 Y68.253 F1000
G1 X99.620 Y141.747 F1000
G1 X99.620 Y141.747 F1000
G1 X197.380 Y68.253 F1000
G1 X197.380 Y68.253 F1000
G1 X99.620 Y141.747 F1000
G1 X99.620 Y141.747 F1000
G1 X197.380 Y68.253 F1000
G1 X197.380 Y68.253 F1000
G1 X99.620 Y141.747 F1000
G1 X99.620 Y141.747 F1000
G1 X197.380 Y68.253 F1000
G1 X197.380 Y68.253 F1000
G1 X99.620 Y141.747 F1000
G1 X99.620 Y141.747 F1000
G1 X197.380 Y68.253 F1000
G1 X197.380 Y68.253 F1000
G1 X99.620 Y141.747 F1000
G1 X99.620 Y141.747 F1000
G1 X197.380 Y68.253 F1000
G1 X197.380 Y68.253 F1000
G1 X99.620 Y141.747 F1000
G1 X99.620 Y141.747 F1000
G1 X197.380 Y68.253 F1000
G1 X197.380 Y68.253 F1000
G1 X99.620 Y141.747 F1000
G1 X99.620 Y141.747 F1000
G1 X197.380 Y68.253 F1000
G1 X197.380 Y68.253 F1000
G1 X99.620 Y141.747 F1000
G1 X99.620 Y141.747 F1000
G1 X197.380 Y68.253 F1000
G1 X197.380 Y68.253 F1000
G1 X99.620 Y141.747 F1000
G1 X99.620 Y141.747 F1000
G1 X197.380 Y68.253 F1000
G1 X197.380 Y68.253 F1000
G1 X99.620 Y141.747 F1000
G1 X99.620 Y141.747 F1000
G1 X197.380 Y68.253 F1000
G1 X197.380 Y68.253 F1000
G1 X99.620 Y141.747 F1000
G1 X99.620 Y141.747 F1000
G1 X197.380 Y68.253 F1000
G1 X197.380 Y68.253 F1000
G1 X99.620 Y141.747 F1000
G1 X99.620 Y141.747 F1000
G1 X197.380 Y68.253 F1000
G1 X197.380 Y68.253 F1000
G1 X99.620 Y141.747 F1000
G1 X99.620 Y141.747 F1000
G1 X197.380 Y68.253 F1000
G1 X197.380 Y68.253 F1000
G1 X99.620 Y141.747 F1000
G1 X99.620 Y141.747 F1000
G1 X197.380 Y68.253 F1000
G1 X197.380 Y68.253 F1000
G1 X99.620 Y141.747 F1000
G1 X99.620 Y141.747 F1000
G1 X197.380 Y68.600 F1000
G1 X197.380 Y68.600 F1000
G1 X100.313 Y141.747 F1000
G0 Z3.0 ; Pen up

G0 X100.313 Y142.093 F3000 ; Travel to line 134
G0 Z0.0 ; Pen down
G1 X197.727 Y68.600 F1000
G1 X197.727 Y68.600 F1000
G1 X100.660 Y142.093 F1000
G0 Z3.0 ; Pen up

G0 X100.660 Y142.440 F3000 ; Travel to line 135
G0 Z0.0 ; Pen down
G1 X197.727 Y68.947 F1000
G0 Z3.0 ; Pen up

G0 X198.420 Y69.293 F3000 ; Travel to line 136
G0 Z0.0 ; Pen down
G1 X102.047 Y143.133 F1000
G0 Z3.0 ; Pen up

G0 X101.700 Y143.133 F3000 ; Travel to line 137
G0 Z0.0 ; Pen down
G1 X198.420 Y68.947 F1000
G1 X198.420 Y68.947 F1000
G1 X101.700 Y142.787 F1000
G0 Z3.0 ; Pen up

G0 X101.353 Y142.787 F3000 ; Travel to line 138
G0 Z0.0 ; Pen down
G1 X198.073 Y68.947 F1000
G1 X198.073 Y68.947 F1000
G1 X101.007 Y142.440 F1000
G0 Z3.0 ; Pen up

G0 X102.393 Y143.480 F3000 ; Travel to line 139
G0 Z0.0 ; Pen down
G1 X198.767 Y69.293 F1000
G1 X198.767 Y69.293 F1000
G1 X102.740 Y143.480 F1000
G0 Z3.0 ; Pen up

G0 X102.740 Y143.827 F3000 ; Travel to line 140
G0 Z0.0 ; Pen down
G1 X198.767 Y69.640 F1000
G1 X198.767 Y69.640 F1000
G1 X103.087 Y143.827 F1000
G0 Z3.0 ; Pen up

G0 X103.433 Y144.173 F3000 ; Travel to line 141
G0 Z0.0 ; Pen down
G1 X199.113 Y69.640 F1000
G0 Z3.0 ; Pen up

G0 X199.807 Y69.987 F3000 ; Travel to line 142
G0 Z0.0 ; Pen down
G1 X104.820 Y144.867 F1000
G0 Z3.0 ; Pen up

G0 X104.820 Y145.213 F3000 ; Travel to line 143
G0 Z0.0 ; Pen down
G1 X199.807 Y70.333 F1000
G1 X199.807 Y70.333 F1000
G1 X105.513 Y145.213 F1000
G0 Z3.0 ; Pen up

G0 X105.513 Y145.560 F3000 ; Travel to line 144
G0 Z0.0 ; Pen down
G1 X200.153 Y70.333 F1000
G0 Z3.0 ; Pen up

G0 X200.847 Y71.027 F3000 ; Travel to line 145
G0 Z0.0 ; Pen down
G1 X107.593 Y146.600 F1000
G0 Z3.0 ; Pen up

G0 X107.593 Y146.947 F3000 ; Travel to line 146
G0 Z0.0 ; Pen down
G1 X201.193 Y71.027 F1000
G1 X201.193 Y71.027 F1000
G1 X107.940 Y147.293 F1000
G0 Z3.0 ; Pen up

G0 X108.287 Y147.293 F3000 ; Travel to line 147
G0 Z0.0 ; Pen down
G1 X201.540 Y71.027 F1000
G0 Z3.0 ; Pen up

G0 X201.887 Y71.720 F3000 ; Travel to line 148
G0 Z0.0 ; Pen down
G1 X109.673 Y147.987 F1000
G0 Z3.0 ; Pen up

G0 X109.327 Y147.987 F3000 ; Travel to line 149
G0 Z0.0 ; Pen down
G1 X201.887 Y71.373 F1000
G1 X201.887 Y71.373 F1000
G1 X108.980 Y147.987 F1000
G0 Z3.0 ; Pen up

G0 X108.633 Y147.640 F3000 ; Travel to line 150
G0 Z0.0 ; Pen down
G1 X201.540 Y71.373 F1000
G1 X201.540 Y71.373 F1000
G1 X108.633 Y147.293 F1000
G0 Z3.0 ; Pen up

G0 X107.247 Y146.600 F3000 ; Travel to line 151
G0 Z0.0 ; Pen down
G1 X200.847 Y70.680 F1000
G1 X200.847 Y70.680 F1000
G1 X106.900 Y146.253 F1000
G0 Z3.0 ; Pen up

G0 X106.553 Y146.253 F3000 ; Travel to line 152
G0 Z0.0 ; Pen down
G1 X200.500 Y70.680 F1000
G1 X200.500 Y70.680 F1000
G1 X106.553 Y145.907 F1000
G0 Z3.0 ; Pen up

G0 X105.860 Y145.907 F3000 ; Travel to line 153
G0 Z0.0 ; Pen down
G1 X200.500 Y70.333 F1000
G1 X200.500 Y70.333 F1000
G1 X105.860 Y145.560 F1000
G0 Z3.0 ; Pen up

G0 X104.473 Y144.520 F3000 ; Travel to line 154
G0 Z0.0 ; Pen down
G1 X199.460 Y69.987 F1000
G1 X199.460 Y69.987 F1000
G1 X104.127 Y144.520 F1000
G0 Z3.0 ; Pen up

G0 X103.780 Y144.520 F3000 ; Travel to line 155
G0 Z0.0 ; Pen down
G1 X199.460 Y69.640 F1000
G1 X199.460 Y69.640 F1000
G1 X103.780 Y144.173 F1000
G0 Z3.0 ; Pen up

G0 X110.020 Y148.333 F3000 ; Travel to line 156
G0 Z0.0 ; Pen down
G1 X202.233 Y71.720 F1000
G1 X202.233 Y71.720 F1000
G1 X110.020 Y148.680 F1000
G0 Z3.0 ; Pen up

G0 X110.367 Y148.680 F3000 ; Travel to line 157
G0 Z0.0 ; Pen down
G1 X202.580 Y71.720 F1000
G0 Z3.0 ; Pen up

G0 X202.927 Y72.413 F3000 ; Travel to line 158
G0 Z0.0 ; Pen down
G1 X111.753 Y149.720 F1000
G0 Z3.0 ; Pen up

G0 X112.100 Y150.067 F3000 ; Travel to line 159
G0 Z0.0 ; Pen down
G1 X203.273 Y72.413 F1000
G0 Z3.0 ; Pen up

G0 X203.620 Y72.760 F3000 ; Travel to line 160
G0 Z0.0 ; Pen down
G1 X113.140 Y150.413 F1000
G0 Z3.0 ; Pen up

G0 X113.140 Y150.760 F3000 ; Travel to line 161
G0 Z0.0 ; Pen down
G1 X203.967 Y72.760 F1000
G0 Z3.0 ; Pen up

G0 X204.660 Y73.107 F3000 ; Travel to line 162
G0 Z0.0 ; Pen down
G1 X113.833 Y151.107 F1000
G0 Z3.0 ; Pen up

G0 X114.180 Y151.107 F3000 ; Travel to line 163
G0 Z0.0 ; Pen down
G1 X205.007 Y73.453 F1000
G0 Z3.0 ; Pen up

G0 X205.353 Y73.800 F3000 ; Travel to line 164
G0 Z0.0 ; Pen down
G1 X114.527 Y151.453 F1000
G0 Z3.0 ; Pen up

G0 X114.873 Y151.800 F3000 ; Travel to line 165
G0 Z0.0 ; Pen down
G1 X205.700 Y74.147 F1000
G0 Z3.0 ; Pen up

G0 X206.047 Y74.493 F3000 ; Travel to line 166
G0 Z0.0 ; Pen down
G1 X115.220 Y152.147 F1000
G0 Z3.0 ; Pen up

G0 X115.913 Y152.147 F3000 ; Travel to line 167
G0 Z0.0 ; Pen down
G1 X206.740 Y74.493 F1000
G0 Z3.0 ; Pen up

G0 X207.087 Y74.840 F3000 ; Travel to line 168
G0 Z0.0 ; Pen down
G1 X116.260 Y152.493 F1000
G0 Z3.0 ; Pen up

G0 X116.607 Y152.840 F3000 ; Travel to line 169
G0 Z0.0 ; Pen down
G1 X207.433 Y75.187 F1000
G0 Z3.0 ; Pen up

G0 X207.780 Y75.533 F3000 ; Travel to line 170
G0 Z0.0 ; Pen down
G1 X116.953 Y153.187 F1000
G0 Z3.0 ; Pen up

G0 X117.300 Y153.533 F3000 ; Travel to line 171
G0 Z0.0 ; Pen down
G1 X208.127 Y75.880 F1000
G0 Z3.0 ; Pen up

G0 X208.820 Y75.880 F3000 ; Travel to line 172
G0 Z0.0 ; Pen down
G1 X117.993 Y153.533 F1000
G0 Z3.0 ; Pen up

G0 X118.340 Y153.880 F3000 ; Travel to line 173
G0 Z0.0 ; Pen down
G1 X209.167 Y76.227 F1000
G0 Z3.0 ; Pen up

G0 X209.860 Y76.573 F3000 ; Travel to line 174
G0 Z0.0 ; Pen down
G1 X118.687 Y154.227 F1000
G0 Z3.0 ; Pen up

G0 X119.033 Y154.573 F3000 ; Travel to line 175
G0 Z0.0 ; Pen down
G1 X210.207 Y76.920 F1000
G0 Z3.0 ; Pen up

G0 X210.553 Y77.267 F3000 ; Travel to line 176
G0 Z0.0 ; Pen down
G1 X119.380 Y154.920 F1000
G0 Z3.0 ; Pen up

G0 X120.073 Y154.920 F3000 ; Travel to line 177
G0 Z0.0 ; Pen down
G1 X210.900 Y77.613 F1000
G0 Z3.0 ; Pen up

G0 X211.247 Y77.960 F3000 ; Travel to line 178
G0 Z0.0 ; Pen down
G1 X120.420 Y155.267 F1000
G0 Z3.0 ; Pen up

G0 X120.767 Y155.613 F3000 ; Travel to line 179
G0 Z0.0 ; Pen down
G1 X211.940 Y77.960 F1000
G0 Z3.0 ; Pen up

G0 X212.287 Y78.307 F3000 ; Travel to line 180
G0 Z0.0 ; Pen down
G1 X121.113 Y155.960 F1000
G0 Z3.0 ; Pen up

G0 X121.460 Y156.307 F3000 ; Travel to line 181
G0 Z0.0 ; Pen down
G1 X212.633 Y78.653 F1000
G0 Z3.0 ; Pen up

G0 X213.327 Y79.000 F3000 ; Travel to line 182
G0 Z0.0 ; Pen down
G1 X122.153 Y156.653 F1000
G0 Z3.0 ; Pen up

G0 X122.500 Y157.000 F3000 ; Travel to line 183
G0 Z0.0 ; Pen down
G1 X213.673 Y79.347 F1000
G0 Z3.0 ; Pen up

G0 X214.020 Y79.693 F3000 ; Travel to line 184
G0 Z0.0 ; Pen down
G1 X123.193 Y157.000 F1000
G0 Z3.0 ; Pen up

G0 X123.540 Y157.347 F3000 ; Travel to line 185
G0 Z0.0 ; Pen down
G1 X214.367 Y80.040 F1000
G0 Z3.0 ; Pen up

G0 X215.060 Y80.387 F3000 ; Travel to line 186
G0 Z0.0 ; Pen down
G1 X123.540 Y157.693 F1000
G0 Z3.0 ; Pen up

G0 X124.233 Y158.040 F3000 ; Travel to line 187
G0 Z0.0 ; Pen down
G1 X215.407 Y80.733 F1000
G0 Z3.0 ; Pen up

G0 X216.100 Y80.733 F3000 ; Travel to line 188
G0 Z0.0 ; Pen down
G1 X124.580 Y158.040 F1000
G0 Z3.0 ; Pen up

G0 X124.927 Y158.387 F3000 ; Travel to line 189
G0 Z0.0 ; Pen down
G1 X216.447 Y81.080 F1000
G0 Z3.0 ; Pen up

G0 X216.793 Y81.427 F3000 ; Travel to line 190
G0 Z0.0 ; Pen down
G1 X125.273 Y158.733 F1000
G0 Z3.0 ; Pen up

G0 X125.620 Y159.080 F3000 ; Travel to line 191
G0 Z0.0 ; Pen down
G1 X217.140 Y81.773 F1000
G0 Z3.0 ; Pen up

G0 X217.487 Y82.120 F3000 ; Travel to line 192
G0 Z0.0 ; Pen down
G1 X126.313 Y159.080 F1000
G0 Z3.0 ; Pen up

G0 X126.660 Y159.427 F3000 ; Travel to line 193
G0 Z0.0 ; Pen down
G1 X218.180 Y82.120 F1000
G0 Z3.0 ; Pen up

G0 X218.527 Y82.467 F3000 ; Travel to line 194
G0 Z0.0 ; Pen down
G1 X127.007 Y159.773 F1000
G0 Z3.0 ; Pen up

G0 X127.353 Y160.120 F3000 ; Travel to line 195
G0 Z0.0 ; Pen down
G1 X219.220 Y82.813 F1000
G0 Z3.0 ; Pen up

G0 X219.567 Y83.160 F3000 ; Travel to line 196
G0 Z0.0 ; Pen down
G1 X127.700 Y160.467 F1000
G0 Z3.0 ; Pen up

G0 X128.393 Y160.467 F3000 ; Travel to line 197
G0 Z0.0 ; Pen down
G1 X219.913 Y83.507 F1000
G0 Z3.0 ; Pen up

G0 X220.260 Y83.853 F3000 ; Travel to line 198
G0 Z0.0 ; Pen down
G1 X128.740 Y160.813 F1000
G0 Z3.0 ; Pen up

G0 X129.087 Y161.160 F3000 ; Travel to line 199
G0 Z0.0 ; Pen down
G1 X220.607 Y84.200 F1000
G0 Z3.0 ; Pen up

G0 X221.300 Y84.200 F3000 ; Travel to line 200
G0 Z0.0 ; Pen down
G1 X129.433 Y161.507 F1000
G0 Z3.0 ; Pen up

G0 X129.780 Y161.853 F3000 ; Travel to line 201
G0 Z0.0 ; Pen down
G1 X221.647 Y84.547 F1000
G0 Z3.0 ; Pen up

G0 X221.993 Y84.893 F3000 ; Travel to line 202
G0 Z0.0 ; Pen down
G1 X130.473 Y161.853 F1000
G0 Z3.0 ; Pen up

G0 X130.820 Y162.200 F3000 ; Travel to line 203
G0 Z0.0 ; Pen down
G1 X222.340 Y85.240 F1000
G0 Z3.0 ; Pen up

G0 X222.687 Y85.587 F3000 ; Travel to line 204
G0 Z0.0 ; Pen down
G1 X131.167 Y162.547 F1000
G0 Z3.0 ; Pen up

G0 X131.513 Y162.893 F3000 ; Travel to line 205
G0 Z0.0 ; Pen down
G1 X223.380 Y85.587 F1000
G0 Z3.0 ; Pen up

G0 X223.727 Y86.280 F3000 ; Travel to line 206
G0 Z0.0 ; Pen down
G1 X131.860 Y163.240 F1000
G0 Z3.0 ; Pen up

G0 X132.553 Y163.587 F3000 ; Travel to line 207
G0 Z0.0 ; Pen down
G1 X224.420 Y86.627 F1000
G0 Z3.0 ; Pen up

G0 X224.767 Y86.973 F3000 ; Travel to line 208
G0 Z0.0 ; Pen down
G1 X132.900 Y163.587 F1000
G0 Z3.0 ; Pen up

G0 X133.247 Y163.933 F3000 ; Travel to line 209
G0 Z0.0 ; Pen down
G1 X225.460 Y86.973 F1000
G0 Z3.0 ; Pen up

G0 X225.807 Y87.320 F3000 ; Travel to line 210
G0 Z0.0 ; Pen down
G1 X133.593 Y164.280 F1000
G0 Z3.0 ; Pen up

G0 X133.940 Y164.627 F3000 ; Travel to line 211
G0 Z0.0 ; Pen down
G1 X226.153 Y87.667 F1000
G0 Z3.0 ; Pen up

G0 X226.500 Y88.013 F3000 ; Travel to line 212
G0 Z0.0 ; Pen down
G1 X134.633 Y164.627 F1000
G0 Z3.0 ; Pen up

G0 X134.980 Y164.973 F3000 ; Travel to line 213
G0 Z0.0 ; Pen down
G1 X226.847 Y88.360 F1000
G0 Z3.0 ; Pen up

G0 X227.540 Y88.707 F3000 ; Travel to line 214
G0 Z0.0 ; Pen down
G1 X135.327 Y165.320 F1000
G0 Z3.0 ; Pen up

G0 X135.673 Y165.667 F3000 ; Travel to line 215
G0 Z0.0 ; Pen down
G1 X227.887 Y89.053 F1000
G0 Z3.0 ; Pen up

G0 X228.580 Y89.053 F3000 ; Travel to line 216
G0 Z0.0 ; Pen down
G1 X136.020 Y166.013 F1000
G0 Z3.0 ; Pen up

G0 X136.713 Y166.013 F3000 ; Travel to line 217
G0 Z0.0 ; Pen down
G1 X228.927 Y89.400 F1000
G0 Z3.0 ; Pen up

G0 X229.273 Y89.747 F3000 ; Travel to line 218
G0 Z0.0 ; Pen down
G1 X137.060 Y166.360 F1000
G0 Z3.0 ; Pen up

G0 X137.407 Y166.707 F3000 ; Travel to line 219
G0 Z0.0 ; Pen down
G1 X229.620 Y90.093 F1000
G0 Z3.0 ; Pen up

G0 X229.967 Y90.440 F3000 ; Travel to line 220
G0 Z0.0 ; Pen down
G1 X137.753 Y167.053 F1000
G0 Z3.0 ; Pen up

G0 X138.100 Y167.400 F3000 ; Travel to line 221
G0 Z0.0 ; Pen down
G1 X230.660 Y90.440 F1000
G0 Z3.0 ; Pen up

G0 X231.007 Y90.787 F3000 ; Travel to line 222
G0 Z0.0 ; Pen down
G1 X138.793 Y167.400 F1000
G0 Z3.0 ; Pen up

G0 X139.140 Y167.747 F3000 ; Travel to line 223
G0 Z0.0 ; Pen down
G1 X231.700 Y91.133 F1000
G0 Z3.0 ; Pen up

G0 X232.047 Y91.480 F3000 ; Travel to line 224
G0 Z0.0 ; Pen down
G1 X139.487 Y168.093 F1000
G0 Z3.0 ; Pen up

G0 X139.833 Y168.440 F3000 ; Travel to line 225
G0 Z0.0 ; Pen down
G1 X232.393 Y91.827 F1000
G0 Z3.0 ; Pen up

G0 X232.740 Y92.173 F3000 ; Travel to line 226
G0 Z0.0 ; Pen down
G1 X140.180 Y168.787 F1000
G0 Z3.0 ; Pen up

G0 X140.527 Y168.787 F3000 ; Travel to line 227
G0 Z0.0 ; Pen down
G1 X233.087 Y92.520 F1000
G0 Z3.0 ; Pen up

G0 X233.780 Y92.520 F3000 ; Travel to line 228
G0 Z0.0 ; Pen down
G1 X140.873 Y169.133 F1000
G0 Z3.0 ; Pen up

G0 X141.220 Y169.480 F3000 ; Travel to line 229
G0 Z0.0 ; Pen down
G1 X234.127 Y92.867 F1000
G0 Z3.0 ; Pen up

G0 X234.820 Y93.213 F3000 ; Travel to line 230
G0 Z0.0 ; Pen down
G1 X141.913 Y169.480 F1000
G0 Z3.0 ; Pen up

G0 X142.260 Y169.827 F3000 ; Travel to line 231
G0 Z0.0 ; Pen down
G1 X235.167 Y93.560 F1000
G0 Z3.0 ; Pen up

G0 X235.860 Y93.907 F3000 ; Travel to line 232
G0 Z0.0 ; Pen down
G1 X142.953 Y170.173 F1000
G0 Z3.0 ; Pen up

G0 X143.300 Y170.520 F3000 ; Travel to line 233
G0 Z0.0 ; Pen down
G1 X236.207 Y94.253 F1000
G0 Z3.0 ; Pen up

G0 X236.553 Y94.600 F3000 ; Travel to line 234
G0 Z0.0 ; Pen down
G1 X143.647 Y170.867 F1000
G0 Z3.0 ; Pen up

G0 X143.993 Y171.213 F3000 ; Travel to line 235
G0 Z0.0 ; Pen down
G1 X236.900 Y94.947 F1000
G0 Z3.0 ; Pen up

G0 X237.247 Y95.293 F3000 ; Travel to line 236
G0 Z0.0 ; Pen down
G1 X144.340 Y171.560 F1000
G0 Z3.0 ; Pen up

G0 X145.033 Y171.560 F3000 ; Travel to line 237
G0 Z0.0 ; Pen down
G1 X237.940 Y95.293 F1000
G0 Z3.0 ; Pen up

G0 X238.287 Y95.987 F3000 ; Travel to line 238
G0 Z0.0 ; Pen down
G1 X145.380 Y171.907 F1000
G0 Z3.0 ; Pen up

G0 X145.727 Y172.253 F3000 ; Travel to line 239
G0 Z0.0 ; Pen down
G1 X238.980 Y95.987 F1000
G0 Z3.0 ; Pen up

G0 X239.327 Y96.333 F3000 ; Travel to line 240
G0 Z0.0 ; Pen down
G1 X146.073 Y172.600 F1000
G0 Z3.0 ; Pen up

G0 X146.420 Y172.947 F3000 ; Travel to line 241
G0 Z0.0 ; Pen down
G1 X239.673 Y96.680 F1000
G0 Z3.0 ; Pen up

G0 X240.020 Y97.027 F3000 ; Travel to line 242
G0 Z0.0 ; Pen down
G1 X146.767 Y172.947 F1000
G0 Z3.0 ; Pen up

G0 X147.113 Y173.293 F3000 ; Travel to line 243
G0 Z0.0 ; Pen down
G1 X240.367 Y97.373 F1000
G0 Z3.0 ; Pen up

G0 X241.060 Y97.373 F3000 ; Travel to line 244
G0 Z0.0 ; Pen down
G1 X147.460 Y173.640 F1000
G0 Z3.0 ; Pen up

G0 X148.153 Y173.640 F3000 ; Travel to line 245
G0 Z0.0 ; Pen down
G1 X241.407 Y98.067 F1000
G0 Z3.0 ; Pen up

G0 X242.100 Y98.067 F3000 ; Travel to line 246
G0 Z0.0 ; Pen down
G1 X148.500 Y173.987 F1000
G0 Z3.0 ; Pen up

G0 X150.580 Y172.947 F3000 ; Travel to line 247
G0 Z0.0 ; Pen down
G1 X242.447 Y98.413 F1000
G0 Z3.0 ; Pen up

G0 X242.793 Y98.760 F3000 ; Travel to line 248
G0 Z0.0 ; Pen down
G1 X154.740 Y170.173 F1000
G0 Z3.0 ; Pen up

G0 X158.900 Y167.400 F3000 ; Travel to line 249
G0 Z0.0 ; Pen down
G1 X243.140 Y99.107 F1000
G0 Z3.0 ; Pen up

G0 X243.487 Y99.453 F3000 ; Travel to line 250
G0 Z0.0 ; Pen down
G1 X163.060 Y164.627 F1000
G0 Z3.0 ; Pen up

G0 X167.220 Y161.853 F3000 ; Travel to line 251
G0 Z0.0 ; Pen down
G1 X244.180 Y99.800 F1000
G0 Z3.0 ; Pen up

G0 X244.527 Y100.147 F3000 ; Travel to line 252
G0 Z0.0 ; Pen down
G1 X171.380 Y159.080 F1000
G0 Z3.0 ; Pen up

G0 X175.540 Y156.307 F3000 ; Travel to line 253
G0 Z0.0 ; Pen down
G1 X245.220 Y100.147 F1000
G0 Z3.0 ; Pen up

G0 X245.567 Y100.493 F3000 ; Travel to line 254
G0 Z0.0 ; Pen down
G1 X179.700 Y153.533 F1000
G0 Z3.0 ; Pen up

G0 X184.900 Y150.067 F3000 ; Travel to line 255
G0 Z0.0 ; Pen down
G1 X245.913 Y100.840 F1000
G0 Z3.0 ; Pen up

G0 X246.260 Y101.187 F3000 ; Travel to line 256
G0 Z0.0 ; Pen down
G1 X189.060 Y147.293 F1000
G0 Z3.0 ; Pen up

G0 X195.300 Y143.133 F3000 ; Travel to line 257
G0 Z0.0 ; Pen down
G1 X247.300 Y101.533 F1000
G0 Z3.0 ; Pen up

G0 X247.647 Y101.880 F3000 ; Travel to line 258
G0 Z0.0 ; Pen down
G1 X200.500 Y139.667 F1000
G0 Z3.0 ; Pen up

G0 X204.660 Y136.893 F3000 ; Travel to line 259
G0 Z0.0 ; Pen down
G1 X247.993 Y102.227 F1000
G0 Z3.0 ; Pen up

G0 X248.340 Y102.573 F3000 ; Travel to line 260
G0 Z0.0 ; Pen down
G1 X209.860 Y133.427 F1000
G0 Z3.0 ; Pen up

G0 X214.020 Y130.653 F3000 ; Travel to line 261
G0 Z0.0 ; Pen down
G1 X248.687 Y102.920 F1000
G0 Z3.0 ; Pen up

G0 X249.380 Y102.920 F3000 ; Travel to line 262
G0 Z0.0 ; Pen down
G1 X219.220 Y127.187 F1000
G0 Z3.0 ; Pen up

G0 X223.380 Y124.413 F3000 ; Travel to line 263
G0 Z0.0 ; Pen down
G1 X249.727 Y103.613 F1000
G0 Z3.0 ; Pen up

G0 X250.420 Y103.613 F3000 ; Travel to line 264
G0 Z0.0 ; Pen down
G1 X228.580 Y120.947 F1000
G0 Z3.0 ; Pen up

G0 X233.780 Y117.480 F3000 ; Travel to line 265
G0 Z0.0 ; Pen down
G1 X250.767 Y103.960 F1000
G0 Z3.0 ; Pen up

G0 X251.113 Y104.307 F3000 ; Travel to line 266
G0 Z0.0 ; Pen down
G1 X238.980 Y114.013 F1000
G0 Z3.0 ; Pen up

G0 X243.140 Y111.240 F3000 ; Travel to line 267
G0 Z0.0 ; Pen down
G1 X251.460 Y104.653 F1000
G0 Z3.0 ; Pen up

G0 X251.807 Y105.000 F3000 ; Travel to line 268
G0 Z0.0 ; Pen down
G1 X248.340 Y107.773 F1000
G0 Z3.0 ; Pen up

G0 X195.647 Y67.560 F3000 ; Travel to line 269
G0 Z0.0 ; Pen down
G1 X98.927 Y141.053 F1000
G1 X98.927 Y141.053 F1000
G1 X195.647 Y67.213 F1000
G0 Z3.0 ; Pen up

G0 X195.300 Y67.213 F3000 ; Travel to line 270
G0 Z0.0 ; Pen down
G1 X98.580 Y141.053 F1000
G1 X98.580 Y141.053 F1000
G1 X195.300 Y66.867 F1000
G0 Z3.0 ; Pen up

G0 X193.220 Y65.827 F3000 ; Travel to line 271
G0 Z0.0 ; Pen down
G1 X97.540 Y140.360 F1000
G1 X97.540 Y140.360 F1000
G1 X192.873 Y65.480 F1000
G0 Z3.0 ; Pen up

G0 X191.140 Y64.093 F3000 ; Travel to line 272
G0 Z0.0 ; Pen down
G1 X96.500 Y139.667 F1000
G1 X96.500 Y139.667 F1000
G1 X190.793 Y64.093 F1000
G0 Z3.0 ; Pen up

G0 X190.447 Y64.093 F3000 ; Travel to line 273
G0 Z0.0 ; Pen down
G1 X96.500 Y139.320 F1000
G1 X96.500 Y139.320 F1000
G1 X190.447 Y63.747 F1000
G0 Z3.0 ; Pen up

G0 X112.447 Y150.067 F3000 ; Travel to line 274
G0 Z0.0 ; Pen down
G1 X203.620 Y72.413 F1000
G1 X203.620 Y72.413 F1000
G1 X112.793 Y150.413 F1000
G0 Z3.0 ; Pen up

G0 X111.407 Y149.373 F3000 ; Travel to line 275
G0 Z0.0 ; Pen down
G1 X202.927 Y72.067 F1000
G1 X202.927 Y72.067 F1000
G1 X111.060 Y149.373 F1000
G0 Z3.0 ; Pen up

G0 X111.060 Y149.027 F3000 ; Travel to line 276
G0 Z0.0 ; Pen down
G1 X202.580 Y72.067 F1000
G1 X202.580 Y72.067 F1000
G1 X110.713 Y149.027 F1000
G0 Z3.0 ; Pen up

G0 X69.460 Y88.360 F3000 ; Travel to line 277
G0 Z0.0 ; Pen down
G1 X46.580 Y106.387 F1000
G0 Z3.0 ; Pen up

; Return to origin
G0 X0 Y0
G0 Z3.0

; Total drawing distance: 50423.61 mm
; Total travel distance: 636.67 mm
; Total lines: 277
; Estimated time: 3038.1 seconds (50.6 minutes)
M2 ; End program