; Blueprint to G-code
; Input: test_images/test1_simple_box.png
; Generated with blueprint2gcode.py

G21 ; Set units to millimeters
G90 ; Absolute positioning
G0 Z3.0 ; Pen up
G0 X0 Y0 ; Move to origin

G0 X18.682 Y22.672 F3000 ; Travel to line 1
G0 Z0.0 ; Pen down
G1 X18.510 Y22.843 F1000
G1 X18.510 Y23.358 F1000
G1 X18.853 Y23.702 F1000
G1 X19.025 Y23.702 F1000
G1 X19.025 Y23.873 F1000
G1 X19.368 Y24.217 F1000
G1 X19.368 Y24.388 F1000
G1 X19.712 Y24.732 F1000
G1 X19.712 Y24.903 F1000
G1 X20.055 Y25.247 F1000
G1 X20.055 Y25.418 F1000
G1 X20.398 Y25.762 F1000
G1 X20.398 Y25.933 F1000
G1 X20.742 Y26.277 F1000
G1 X20.742 Y26.448 F1000
G1 X21.085 Y26.792 F1000
G1 X21.085 Y26.963 F1000
G1 X21.428 Y27.307 F1000
G1 X21.428 Y27.478 F1000
G1 X21.772 Y27.822 F1000
G1 X21.772 Y27.993 F1000
G1 X22.115 Y28.337 F1000
G1 X22.115 Y28.508 F1000
G1 X22.458 Y28.852 F1000
G1 X22.458 Y29.023 F1000
G1 X22.802 Y29.367 F1000
G1 X22.802 Y29.538 F1000
G1 X23.145 Y29.882 F1000
G1 X23.145 Y30.053 F1000
G1 X23.488 Y30.397 F1000
G1 X23.488 Y30.568 F1000
G1 X23.832 Y30.912 F1000
G1 X23.832 Y31.083 F1000
G1 X24.175 Y31.427 F1000
G1 X24.175 Y31.598 F1000
G1 X24.518 Y31.942 F1000
G1 X24.518 Y32.113 F1000
G1 X24.862 Y32.457 F1000
G1 X24.862 Y32.628 F1000
G1 X25.205 Y32.972 F1000
G1 X25.205 Y33.143 F1000
G1 X25.548 Y33.487 F1000
G1 X25.548 Y33.658 F1000
G1 X25.892 Y34.002 F1000
G1 X25.892 Y34.173 F1000
G1 X26.235 Y34.517 F1000
G1 X26.235 Y34.688 F1000
G1 X26.578 Y35.032 F1000
G1 X26.578 Y35.203 F1000
G1 X26.922 Y35.547 F1000
G1 X26.922 Y35.718 F1000
G1 X27.265 Y36.062 F1000
G1 X27.265 Y36.233 F1000
G1 X27.608 Y36.577 F1000
G1 X27.608 Y36.748 F1000
G1 X27.952 Y37.092 F1000
G1 X27.952 Y37.263 F1000
G1 X28.295 Y37.607 F1000
G1 X28.295 Y37.778 F1000
G1 X28.638 Y38.122 F1000
G1 X28.638 Y38.293 F1000
G1 X28.982 Y38.637 F1000
G1 X28.982 Y38.808 F1000
G1 X29.325 Y39.152 F1000
G1 X29.325 Y39.323 F1000
G1 X29.668 Y39.667 F1000
G1 X29.668 Y39.838 F1000
G1 X30.012 Y40.182 F1000
G1 X30.012 Y40.353 F1000
G1 X30.355 Y40.697 F1000
G1 X30.355 Y40.868 F1000
G1 X30.698 Y41.212 F1000
G1 X30.698 Y41.383 F1000
G1 X31.042 Y41.727 F1000
G1 X31.042 Y41.898 F1000
G1 X31.385 Y42.242 F1000
G1 X31.385 Y42.413 F1000
G1 X31.728 Y42.757 F1000
G1 X31.728 Y42.928 F1000
G1 X32.072 Y43.272 F1000
G1 X32.072 Y43.443 F1000
G1 X32.415 Y43.787 F1000
G1 X32.415 Y43.958 F1000
G1 X32.758 Y44.302 F1000
G1 X32.758 Y44.473 F1000
G1 X33.102 Y44.817 F1000
G1 X33.102 Y44.988 F1000
G1 X33.445 Y45.332 F1000
G1 X33.445 Y45.503 F1000
G1 X33.788 Y45.847 F1000
G1 X33.788 Y46.018 F1000
G1 X34.132 Y46.362 F1000
G1 X34.132 Y46.533 F1000
G1 X34.475 Y46.877 F1000
G1 X34.475 Y47.048 F1000
G1 X34.818 Y47.392 F1000
G1 X34.818 Y47.563 F1000
G1 X35.162 Y47.907 F1000
G1 X35.162 Y48.078 F1000
G1 X35.505 Y48.422 F1000
G1 X35.505 Y48.593 F1000
G1 X35.848 Y48.937 F1000
G1 X35.848 Y49.108 F1000
G1 X36.192 Y49.452 F1000
G1 X36.192 Y49.623 F1000
G1 X36.535 Y49.967 F1000
G1 X36.535 Y50.138 F1000
G1 X36.878 Y50.482 F1000
G1 X36.878 Y50.653 F1000
G1 X37.222 Y50.997 F1000
G1 X37.222 Y51.168 F1000
G1 X37.565 Y51.512 F1000
G1 X37.565 Y51.683 F1000
G1 X37.908 Y52.027 F1000
G1 X37.908 Y52.198 F1000
G1 X38.252 Y52.542 F1000
G1 X38.252 Y52.713 F1000
G1 X38.595 Y53.057 F1000
G1 X38.595 Y53.228 F1000
G1 X38.938 Y53.572 F1000
G1 X38.938 Y53.743 F1000
G1 X39.282 Y54.087 F1000
G1 X39.282 Y54.258 F1000
G1 X39.625 Y54.602 F1000
G1 X39.625 Y54.773 F1000
G1 X39.968 Y55.117 F1000
G1 X39.968 Y55.288 F1000
G1 X40.312 Y55.632 F1000
G1 X40.312 Y55.803 F1000
G1 X40.655 Y56.147 F1000
G1 X40.655 Y56.318 F1000
G1 X40.998 Y56.662 F1000
G1 X40.998 Y56.833 F1000
G1 X41.342 Y57.177 F1000
G1 X41.342 Y57.348 F1000
G1 X41.685 Y57.692 F1000
G1 X41.685 Y57.863 F1000
G1 X42.028 Y58.207 F1000
G1 X42.028 Y58.378 F1000
G1 X42.372 Y58.722 F1000
G1 X42.372 Y58.893 F1000
G1 X42.715 Y59.237 F1000
G1 X42.715 Y59.408 F1000
G1 X43.058 Y59.752 F1000
G1 X43.058 Y59.923 F1000
G1 X43.402 Y60.267 F1000
G1 X43.402 Y60.438 F1000
G1 X43.745 Y60.782 F1000
G1 X43.745 Y60.953 F1000
G1 X44.088 Y61.297 F1000
G1 X44.088 Y61.468 F1000
G1 X44.432 Y61.812 F1000
G1 X44.432 Y61.983 F1000
G1 X44.775 Y62.327 F1000
G1 X44.775 Y62.498 F1000
G1 X45.118 Y62.842 F1000
G1 X45.118 Y63.013 F1000
G1 X45.462 Y63.357 F1000
G1 X45.462 Y63.528 F1000
G1 X45.805 Y63.872 F1000
G1 X45.805 Y64.043 F1000
G1 X46.148 Y64.387 F1000
G1 X46.148 Y64.558 F1000
G1 X46.492 Y64.902 F1000
G1 X46.492 Y65.073 F1000
G1 X46.835 Y65.417 F1000
G1 X46.835 Y65.588 F1000
G1 X47.178 Y65.932 F1000
G1 X47.178 Y66.103 F1000
G1 X47.522 Y66.447 F1000
G1 X47.522 Y66.618 F1000
G1 X47.865 Y66.962 F1000
G1 X47.865 Y67.133 F1000
G1 X48.208 Y67.477 F1000
G1 X48.208 Y67.648 F1000
G1 X48.552 Y67.992 F1000
G1 X48.552 Y68.163 F1000
G1 X48.895 Y68.507 F1000
G1 X48.895 Y68.678 F1000
G1 X49.238 Y69.022 F1000
G1 X49.238 Y69.193 F1000
G1 X49.582 Y69.537 F1000
G1 X49.582 Y69.708 F1000
G1 X49.925 Y70.052 F1000
G1 X49.925 Y70.223 F1000
G1 X50.268 Y70.567 F1000
G1 X50.268 Y70.738 F1000
G1 X50.612 Y71.082 F1000
G1 X50.612 Y71.253 F1000
G1 X50.955 Y71.597 F1000
G1 X50.955 Y71.768 F1000
G1 X51.298 Y72.112 F1000
G1 X51.298 Y72.283 F1000
G1 X51.642 Y72.627 F1000
G1 X51.642 Y72.798 F1000
G1 X51.985 Y73.142 F1000
G1 X51.985 Y73.313 F1000
G1 X52.157 Y73.485 F1000
G1 X52.328 Y73.485 F1000
G1 X52.500 Y73.313 F1000
G1 X52.500 Y57.005 F1000
G1 X52.500 Y73.485 F1000
G1 X52.328 Y73.657 F1000
G1 X52.328 Y73.828 F1000
G1 X52.672 Y74.172 F1000
G1 X52.843 Y74.172 F1000
G1 X53.015 Y74.000 F1000
G1 X69.495 Y74.000 F1000
G1 X53.015 Y74.000 F1000
G1 X52.672 Y74.343 F1000
G1 X52.672 Y74.687 F1000
G1 X52.843 Y74.858 F1000
G1 X53.015 Y74.858 F1000
G1 X53.358 Y75.202 F1000
G1 X53.358 Y75.373 F1000
G1 X53.702 Y75.717 F1000
G1 X53.702 Y75.888 F1000
G1 X54.045 Y76.232 F1000
G1 X54.045 Y76.403 F1000
G1 X54.388 Y76.747 F1000
G1 X54.388 Y76.918 F1000
G1 X54.732 Y77.262 F1000
G1 X54.732 Y77.433 F1000
G1 X55.075 Y77.777 F1000
G1 X55.075 Y77.948 F1000
G1 X55.418 Y78.292 F1000
G1 X55.418 Y78.463 F1000
G1 X55.762 Y78.807 F1000
G1 X55.762 Y78.978 F1000
G1 X56.105 Y79.322 F1000
G1 X56.105 Y79.493 F1000
G1 X56.448 Y79.837 F1000
G1 X56.448 Y80.008 F1000
G1 X56.792 Y80.352 F1000
G1 X56.792 Y80.523 F1000
G1 X57.135 Y80.867 F1000
G1 X57.135 Y81.038 F1000
G1 X57.478 Y81.382 F1000
G1 X57.478 Y81.553 F1000
G1 X57.822 Y81.897 F1000
G1 X57.822 Y82.068 F1000
G1 X58.165 Y82.412 F1000
G1 X58.165 Y82.583 F1000
G1 X58.508 Y82.927 F1000
G1 X58.508 Y83.098 F1000
G1 X58.852 Y83.442 F1000
G1 X58.852 Y83.613 F1000
G1 X59.195 Y83.957 F1000
G1 X59.195 Y84.128 F1000
G1 X59.538 Y84.472 F1000
G1 X59.538 Y84.643 F1000
G1 X59.882 Y84.987 F1000
G1 X59.882 Y85.158 F1000
G1 X60.225 Y85.502 F1000
G1 X60.225 Y85.673 F1000
G1 X60.568 Y86.017 F1000
G1 X60.568 Y86.188 F1000
G1 X60.912 Y86.532 F1000
G1 X60.912 Y86.703 F1000
G1 X61.255 Y87.047 F1000
G1 X61.255 Y87.218 F1000
G1 X61.598 Y87.562 F1000
G1 X61.598 Y87.733 F1000
G1 X61.942 Y88.077 F1000
G1 X61.942 Y88.248 F1000
G1 X62.285 Y88.592 F1000
G1 X62.285 Y88.763 F1000
G1 X62.628 Y89.107 F1000
G1 X62.628 Y89.278 F1000
G1 X62.972 Y89.622 F1000
G1 X62.972 Y89.793 F1000
G1 X63.315 Y90.137 F1000
G1 X63.315 Y90.308 F1000
G1 X63.658 Y90.652 F1000
G1 X63.658 Y90.823 F1000
G1 X64.002 Y91.167 F1000
G1 X64.002 Y91.338 F1000
G1 X64.345 Y91.682 F1000
G1 X64.345 Y91.853 F1000
G1 X64.688 Y92.197 F1000
G1 X64.688 Y92.368 F1000
G1 X65.032 Y92.712 F1000
G1 X65.032 Y92.883 F1000
G1 X65.375 Y93.227 F1000
G1 X65.375 Y93.398 F1000
G1 X65.718 Y93.742 F1000
G1 X65.718 Y93.913 F1000
G1 X66.062 Y94.257 F1000
G1 X66.062 Y94.428 F1000
G1 X66.405 Y94.772 F1000
G1 X66.405 Y94.943 F1000
G1 X66.748 Y95.287 F1000
G1 X66.748 Y95.458 F1000
G1 X67.092 Y95.802 F1000
G1 X67.092 Y95.973 F1000
G1 X67.435 Y96.317 F1000
G1 X67.435 Y96.488 F1000
G1 X67.778 Y96.832 F1000
G1 X67.778 Y97.003 F1000
G1 X68.122 Y97.347 F1000
G1 X68.122 Y97.518 F1000
G1 X68.465 Y97.862 F1000
G1 X68.465 Y98.033 F1000
G1 X68.808 Y98.377 F1000
G1 X68.808 Y98.548 F1000
G1 X69.152 Y98.892 F1000
G1 X69.152 Y99.063 F1000
G1 X69.495 Y99.407 F1000
G1 X69.495 Y99.578 F1000
G1 X69.838 Y99.922 F1000
G1 X69.838 Y100.093 F1000
G1 X70.182 Y100.437 F1000
G1 X70.182 Y100.608 F1000
G1 X70.525 Y100.952 F1000
G1 X70.525 Y101.123 F1000
G1 X70.868 Y101.467 F1000
G1 X70.868 Y101.638 F1000
G1 X71.212 Y101.982 F1000
G1 X71.212 Y102.153 F1000
G1 X71.555 Y102.497 F1000
G1 X71.555 Y102.668 F1000
G1 X71.898 Y103.012 F1000
G1 X71.898 Y103.183 F1000
G1 X72.242 Y103.527 F1000
G1 X72.242 Y103.698 F1000
G1 X72.585 Y104.042 F1000
G1 X72.585 Y104.213 F1000
G1 X72.928 Y104.557 F1000
G1 X72.928 Y104.728 F1000
G1 X73.272 Y105.072 F1000
G1 X73.272 Y105.243 F1000
G1 X73.615 Y105.587 F1000
G1 X73.615 Y105.758 F1000
G1 X73.958 Y106.102 F1000
G1 X73.958 Y106.273 F1000
G1 X74.302 Y106.617 F1000
G1 X74.302 Y106.788 F1000
G1 X74.645 Y107.132 F1000
G1 X74.645 Y107.303 F1000
G1 X74.988 Y107.647 F1000
G1 X74.988 Y107.818 F1000
G1 X75.332 Y108.162 F1000
G1 X75.332 Y108.333 F1000
G1 X75.675 Y108.677 F1000
G1 X75.675 Y108.848 F1000
G1 X76.018 Y109.192 F1000
G1 X76.018 Y109.363 F1000
G1 X76.362 Y109.707 F1000
G1 X76.362 Y109.878 F1000
G1 X76.705 Y110.222 F1000
G1 X76.705 Y110.393 F1000
G1 X77.048 Y110.737 F1000
G1 X77.048 Y110.908 F1000
G1 X77.392 Y111.252 F1000
G1 X77.392 Y111.423 F1000
G1 X77.735 Y111.767 F1000
G1 X77.735 Y111.938 F1000
G1 X78.078 Y112.282 F1000
G1 X78.078 Y112.453 F1000
G1 X78.422 Y112.797 F1000
G1 X78.422 Y112.968 F1000
G1 X78.765 Y113.312 F1000
G1 X78.765 Y113.483 F1000
G1 X79.108 Y113.827 F1000
G1 X79.108 Y113.998 F1000
G1 X79.452 Y114.342 F1000
G1 X79.452 Y114.513 F1000
G1 X79.795 Y114.857 F1000
G1 X79.795 Y115.028 F1000
G1 X80.138 Y115.372 F1000
G1 X80.138 Y115.543 F1000
G1 X80.482 Y115.887 F1000
G1 X80.482 Y116.058 F1000
G1 X80.825 Y116.402 F1000
G1 X80.825 Y116.573 F1000
G1 X81.168 Y116.917 F1000
G1 X81.168 Y117.088 F1000
G1 X81.512 Y117.432 F1000
G1 X81.512 Y117.603 F1000
G1 X81.855 Y117.947 F1000
G1 X81.855 Y118.118 F1000
G1 X82.198 Y118.462 F1000
G1 X82.198 Y118.633 F1000
G1 X82.542 Y118.977 F1000
G1 X82.542 Y119.148 F1000
G1 X82.885 Y119.492 F1000
G1 X82.885 Y119.663 F1000
G1 X83.228 Y120.007 F1000
G1 X83.228 Y120.178 F1000
G1 X83.572 Y120.522 F1000
G1 X83.572 Y120.693 F1000
G1 X83.915 Y121.037 F1000
G1 X83.915 Y121.208 F1000
G1 X84.258 Y121.552 F1000
G1 X84.258 Y121.723 F1000
G1 X84.602 Y122.067 F1000
G1 X84.602 Y122.238 F1000
G1 X84.945 Y122.582 F1000
G1 X84.945 Y122.753 F1000
G1 X85.288 Y123.097 F1000
G1 X85.288 Y123.268 F1000
G1 X85.632 Y123.612 F1000
G1 X85.632 Y123.783 F1000
G1 X85.975 Y124.127 F1000
G1 X85.975 Y124.298 F1000
G1 X86.147 Y124.470 F1000
G1 X86.490 Y124.470 F1000
G1 X86.662 Y124.298 F1000
G1 X86.662 Y22.843 F1000
G1 X86.490 Y22.672 F1000
G0 Z3.0 ; Pen up

G0 X18.682 Y23.530 F3000 ; Travel to line 2
G0 Z0.0 ; Pen down
G1 X19.197 Y24.045 F1000
G1 X19.197 Y24.217 F1000
G1 X19.540 Y24.560 F1000
G1 X19.540 Y24.732 F1000
G1 X19.883 Y25.075 F1000
G1 X19.883 Y25.247 F1000
G1 X20.227 Y25.590 F1000
G1 X20.227 Y25.762 F1000
G1 X20.570 Y26.105 F1000
G1 X20.570 Y26.277 F1000
G1 X20.913 Y26.620 F1000
G1 X20.913 Y26.792 F1000
G1 X21.257 Y27.135 F1000
G1 X21.257 Y27.307 F1000
G1 X21.600 Y27.650 F1000
G1 X21.600 Y27.822 F1000
G1 X21.943 Y28.165 F1000
G1 X21.943 Y28.337 F1000
G1 X22.287 Y28.680 F1000
G1 X22.287 Y28.852 F1000
G1 X22.630 Y29.195 F1000
G1 X22.630 Y29.367 F1000
G1 X22.973 Y29.710 F1000
G1 X22.973 Y29.882 F1000
G1 X23.317 Y30.225 F1000
G1 X23.317 Y30.397 F1000
G1 X23.660 Y30.740 F1000
G1 X23.660 Y30.912 F1000
G1 X24.003 Y31.255 F1000
G1 X24.003 Y31.427 F1000
G1 X24.347 Y31.770 F1000
G1 X24.347 Y31.942 F1000
G1 X24.690 Y32.285 F1000
G1 X24.690 Y32.457 F1000
G1 X25.033 Y32.800 F1000
G1 X25.033 Y32.972 F1000
G1 X25.377 Y33.315 F1000
G1 X25.377 Y33.487 F1000
G1 X25.720 Y33.830 F1000
G1 X25.720 Y34.002 F1000
G1 X26.063 Y34.345 F1000
G1 X26.063 Y34.517 F1000
G1 X26.407 Y34.860 F1000
G1 X26.407 Y35.032 F1000
G1 X26.750 Y35.375 F1000
G1 X26.750 Y35.547 F1000
G1 X27.093 Y35.890 F1000
G1 X27.093 Y36.062 F1000
G1 X27.437 Y36.405 F1000
G1 X27.437 Y36.577 F1000
G1 X27.780 Y36.920 F1000
G1 X27.780 Y37.092 F1000
G1 X28.123 Y37.435 F1000
G1 X28.123 Y37.607 F1000
G1 X28.467 Y37.950 F1000
G1 X28.467 Y38.122 F1000
G1 X28.810 Y38.465 F1000
G1 X28.810 Y38.637 F1000
G1 X29.153 Y38.980 F1000
G1 X29.153 Y39.152 F1000
G1 X29.497 Y39.495 F1000
G1 X29.497 Y39.667 F1000
G1 X29.840 Y40.010 F1000
G1 X29.840 Y40.182 F1000
G1 X30.183 Y40.525 F1000
G1 X30.183 Y40.697 F1000
G1 X30.527 Y41.040 F1000
G1 X30.527 Y41.212 F1000
G1 X30.870 Y41.555 F1000
G1 X30.870 Y41.727 F1000
G1 X31.213 Y42.070 F1000
G1 X31.213 Y42.242 F1000
G1 X31.557 Y42.585 F1000
G1 X31.557 Y42.757 F1000
G1 X31.900 Y43.100 F1000
G1 X31.900 Y43.272 F1000
G1 X32.243 Y43.615 F1000
G1 X32.243 Y43.787 F1000
G1 X32.587 Y44.130 F1000
G1 X32.587 Y44.302 F1000
G1 X32.930 Y44.645 F1000
G1 X32.930 Y44.817 F1000
G1 X33.273 Y45.160 F1000
G1 X33.273 Y45.332 F1000
G1 X33.617 Y45.675 F1000
G1 X33.617 Y45.847 F1000
G1 X33.960 Y46.190 F1000
G1 X33.960 Y46.362 F1000
G1 X34.303 Y46.705 F1000
G1 X34.303 Y46.877 F1000
G1 X34.647 Y47.220 F1000
G1 X34.647 Y47.392 F1000
G1 X34.990 Y47.735 F1000
G1 X34.990 Y47.907 F1000
G1 X35.333 Y48.250 F1000
G1 X35.333 Y48.422 F1000
G1 X35.677 Y48.765 F1000
G1 X35.677 Y48.937 F1000
G1 X36.020 Y49.280 F1000
G1 X36.020 Y49.452 F1000
G1 X36.363 Y49.795 F1000
G1 X36.363 Y49.967 F1000
G1 X36.707 Y50.310 F1000
G1 X36.707 Y50.482 F1000
G1 X37.050 Y50.825 F1000
G1 X37.050 Y50.997 F1000
G1 X37.393 Y51.340 F1000
G1 X37.393 Y51.512 F1000
G1 X37.737 Y51.855 F1000
G1 X37.737 Y52.027 F1000
G1 X38.080 Y52.370 F1000
G1 X38.080 Y52.542 F1000
G1 X38.423 Y52.885 F1000
G1 X38.423 Y53.057 F1000
G1 X38.767 Y53.400 F1000
G1 X38.767 Y53.572 F1000
G1 X39.110 Y53.915 F1000
G1 X39.110 Y54.087 F1000
G1 X39.453 Y54.430 F1000
G1 X39.453 Y54.602 F1000
G1 X39.797 Y54.945 F1000
G1 X39.797 Y55.117 F1000
G1 X40.140 Y55.460 F1000
G1 X40.140 Y55.632 F1000
G1 X40.483 Y55.975 F1000
G1 X40.483 Y56.147 F1000
G1 X40.827 Y56.490 F1000
G1 X40.827 Y56.662 F1000
G1 X41.170 Y57.005 F1000
G1 X41.170 Y57.177 F1000
G1 X41.513 Y57.520 F1000
G1 X41.513 Y57.692 F1000
G1 X41.857 Y58.035 F1000
G1 X41.857 Y58.207 F1000
G1 X42.200 Y58.550 F1000
G1 X42.200 Y58.722 F1000
G1 X42.543 Y59.065 F1000
G1 X42.543 Y59.237 F1000
G1 X42.887 Y59.580 F1000
G1 X42.887 Y59.752 F1000
G1 X43.230 Y60.095 F1000
G1 X43.230 Y60.267 F1000
G1 X43.573 Y60.610 F1000
G1 X43.573 Y60.782 F1000
G1 X43.917 Y61.125 F1000
G1 X43.917 Y61.297 F1000
G1 X44.260 Y61.640 F1000
G1 X44.260 Y61.812 F1000
G1 X44.603 Y62.155 F1000
G1 X44.603 Y62.327 F1000
G1 X44.947 Y62.670 F1000
G1 X44.947 Y62.842 F1000
G1 X45.290 Y63.185 F1000
G1 X45.290 Y63.357 F1000
G1 X45.633 Y63.700 F1000
G1 X45.633 Y63.872 F1000
G1 X45.977 Y64.215 F1000
G1 X45.977 Y64.387 F1000
G1 X46.320 Y64.730 F1000
G1 X46.320 Y64.902 F1000
G1 X46.663 Y65.245 F1000
G1 X46.663 Y65.417 F1000
G1 X47.007 Y65.760 F1000
G1 X47.007 Y65.932 F1000
G1 X47.350 Y66.275 F1000
G1 X47.350 Y66.447 F1000
G1 X47.693 Y66.790 F1000
G1 X47.693 Y66.962 F1000
G1 X48.037 Y67.305 F1000
G1 X48.037 Y67.477 F1000
G1 X48.380 Y67.820 F1000
G1 X48.380 Y67.992 F1000
G1 X48.723 Y68.335 F1000
G1 X48.723 Y68.507 F1000
G1 X49.067 Y68.850 F1000
G1 X49.067 Y69.022 F1000
G1 X49.410 Y69.365 F1000
G1 X49.410 Y69.537 F1000
G1 X49.753 Y69.880 F1000
G1 X49.753 Y70.052 F1000
G1 X50.097 Y70.395 F1000
G1 X50.097 Y70.567 F1000
G1 X50.440 Y70.910 F1000
G1 X50.440 Y71.082 F1000
G1 X50.783 Y71.425 F1000
G1 X50.783 Y71.597 F1000
G1 X51.127 Y71.940 F1000
G1 X51.127 Y72.112 F1000
G1 X51.470 Y72.455 F1000
G1 X51.470 Y72.627 F1000
G1 X51.813 Y72.970 F1000
G1 X51.813 Y73.142 F1000
G1 X52.328 Y73.657 F1000
G1 X52.328 Y73.828 F1000
G1 X52.157 Y74.000 F1000
G1 X35.505 Y74.000 F1000
G1 X52.500 Y74.000 F1000
G1 X52.672 Y74.172 F1000
G1 X52.672 Y74.687 F1000
G1 X52.500 Y74.858 F1000
G1 X52.500 Y90.995 F1000
G1 X52.500 Y75.030 F1000
G1 X52.672 Y74.858 F1000
G1 X53.015 Y74.858 F1000
G1 X53.187 Y75.030 F1000
G1 X53.187 Y75.202 F1000
G1 X53.530 Y75.545 F1000
G1 X53.530 Y75.717 F1000
G1 X53.873 Y76.060 F1000
G1 X53.873 Y76.232 F1000
G1 X54.217 Y76.575 F1000
G1 X54.217 Y76.747 F1000
G1 X54.560 Y77.090 F1000
G1 X54.560 Y77.262 F1000
G1 X54.903 Y77.605 F1000
G1 X54.903 Y77.777 F1000
G1 X55.247 Y78.120 F1000
G1 X55.247 Y78.292 F1000
G1 X55.590 Y78.635 F1000
G1 X55.590 Y78.807 F1000
G1 X55.933 Y79.150 F1000
G1 X55.933 Y79.322 F1000
G1 X56.277 Y79.665 F1000
G1 X56.277 Y79.837 F1000
G1 X56.620 Y80.180 F1000
G1 X56.620 Y80.352 F1000
G1 X56.963 Y80.695 F1000
G1 X56.963 Y80.867 F1000
G1 X57.307 Y81.210 F1000
G1 X57.307 Y81.382 F1000
G1 X57.650 Y81.725 F1000
G1 X57.650 Y81.897 F1000
G1 X57.993 Y82.240 F1000
G1 X57.993 Y82.412 F1000
G1 X58.337 Y82.755 F1000
G1 X58.337 Y82.927 F1000
G1 X58.680 Y83.270 F1000
G1 X58.680 Y83.442 F1000
G1 X59.023 Y83.785 F1000
G1 X59.023 Y83.957 F1000
G1 X59.367 Y84.300 F1000
G1 X59.367 Y84.472 F1000
G1 X59.710 Y84.815 F1000
G1 X59.710 Y84.987 F1000
G1 X60.053 Y85.330 F1000
G1 X60.053 Y85.502 F1000
G1 X60.397 Y85.845 F1000
G1 X60.397 Y86.017 F1000
G1 X60.740 Y86.360 F1000
G1 X60.740 Y86.532 F1000
G1 X61.083 Y86.875 F1000
G1 X61.083 Y87.047 F1000
G1 X61.427 Y87.390 F1000
G1 X61.427 Y87.562 F1000
G1 X61.770 Y87.905 F1000
G1 X61.770 Y88.077 F1000
G1 X62.113 Y88.420 F1000
G1 X62.113 Y88.592 F1000
G1 X62.457 Y88.935 F1000
G1 X62.457 Y89.107 F1000
G1 X62.800 Y89.450 F1000
G1 X62.800 Y89.622 F1000
G1 X63.143 Y89.965 F1000
G1 X63.143 Y90.137 F1000
G1 X63.487 Y90.480 F1000
G1 X63.487 Y90.652 F1000
G1 X63.830 Y90.995 F1000
G1 X63.830 Y91.167 F1000
G1 X64.173 Y91.510 F1000
G1 X64.173 Y91.682 F1000
G1 X64.517 Y92.025 F1000
G1 X64.517 Y92.197 F1000
G1 X64.860 Y92.540 F1000
G1 X64.860 Y92.712 F1000
G1 X65.203 Y93.055 F1000
G1 X65.203 Y93.227 F1000
G1 X65.547 Y93.570 F1000
G1 X65.547 Y93.742 F1000
G1 X65.890 Y94.085 F1000
G1 X65.890 Y94.257 F1000
G1 X66.233 Y94.600 F1000
G1 X66.233 Y94.772 F1000
G1 X66.577 Y95.115 F1000
G1 X66.577 Y95.287 F1000
G1 X66.920 Y95.630 F1000
G1 X66.920 Y95.802 F1000
G1 X67.263 Y96.145 F1000
G1 X67.263 Y96.317 F1000
G1 X67.607 Y96.660 F1000
G1 X67.607 Y96.832 F1000
G1 X67.950 Y97.175 F1000
G1 X67.950 Y97.347 F1000
G1 X68.293 Y97.690 F1000
G1 X68.293 Y97.862 F1000
G1 X68.637 Y98.205 F1000
G1 X68.637 Y98.377 F1000
G1 X68.980 Y98.720 F1000
G1 X68.980 Y98.892 F1000
G1 X69.323 Y99.235 F1000
G1 X69.323 Y99.407 F1000
G1 X69.667 Y99.750 F1000
G1 X69.667 Y99.922 F1000
G1 X70.010 Y100.265 F1000
G1 X70.010 Y100.437 F1000
G1 X70.353 Y100.780 F1000
G1 X70.353 Y100.952 F1000
G1 X70.697 Y101.295 F1000
G1 X70.697 Y101.467 F1000
G1 X71.040 Y101.810 F1000
G1 X71.040 Y101.982 F1000
G1 X71.383 Y102.325 F1000
G1 X71.383 Y102.497 F1000
G1 X71.727 Y102.840 F1000
G1 X71.727 Y103.012 F1000
G1 X72.070 Y103.355 F1000
G1 X72.070 Y103.527 F1000
G1 X72.413 Y103.870 F1000
G1 X72.413 Y104.042 F1000
G1 X72.757 Y104.385 F1000
G1 X72.757 Y104.557 F1000
G1 X73.100 Y104.900 F1000
G1 X73.100 Y105.072 F1000
G1 X73.443 Y105.415 F1000
G1 X73.443 Y105.587 F1000
G1 X73.787 Y105.930 F1000
G1 X73.787 Y106.102 F1000
G1 X74.130 Y106.445 F1000
G1 X74.130 Y106.617 F1000
G1 X74.473 Y106.960 F1000
G1 X74.473 Y107.132 F1000
G1 X74.817 Y107.475 F1000
G1 X74.817 Y107.647 F1000
G1 X75.160 Y107.990 F1000
G1 X75.160 Y108.162 F1000
G1 X75.503 Y108.505 F1000
G1 X75.503 Y108.677 F1000
G1 X75.847 Y109.020 F1000
G1 X75.847 Y109.192 F1000
G1 X76.190 Y109.535 F1000
G1 X76.190 Y109.707 F1000
G1 X76.533 Y110.050 F1000
G1 X76.533 Y110.222 F1000
G1 X76.877 Y110.565 F1000
G1 X76.877 Y110.737 F1000
G1 X77.220 Y111.080 F1000
G1 X77.220 Y111.252 F1000
G1 X77.563 Y111.595 F1000
G1 X77.563 Y111.767 F1000
G1 X77.907 Y112.110 F1000
G1 X77.907 Y112.282 F1000
G1 X78.250 Y112.625 F1000
G1 X78.250 Y112.797 F1000
G1 X78.593 Y113.140 F1000
G1 X78.593 Y113.312 F1000
G1 X78.937 Y113.655 F1000
G1 X78.937 Y113.827 F1000
G1 X79.280 Y114.170 F1000
G1 X79.280 Y114.342 F1000
G1 X79.623 Y114.685 F1000
G1 X79.623 Y114.857 F1000
G1 X79.967 Y115.200 F1000
G1 X79.967 Y115.372 F1000
G1 X80.310 Y115.715 F1000
G1 X80.310 Y115.887 F1000
G1 X80.653 Y116.230 F1000
G1 X80.653 Y116.402 F1000
G1 X80.997 Y116.745 F1000
G1 X80.997 Y116.917 F1000
G1 X81.340 Y117.260 F1000
G1 X81.340 Y117.432 F1000
G1 X81.683 Y117.775 F1000
G1 X81.683 Y117.947 F1000
G1 X82.027 Y118.290 F1000
G1 X82.027 Y118.462 F1000
G1 X82.370 Y118.805 F1000
G1 X82.370 Y118.977 F1000
G1 X82.713 Y119.320 F1000
G1 X82.713 Y119.492 F1000
G1 X83.057 Y119.835 F1000
G1 X83.057 Y120.007 F1000
G1 X83.400 Y120.350 F1000
G1 X83.400 Y120.522 F1000
G1 X83.743 Y120.865 F1000
G1 X83.743 Y121.037 F1000
G1 X84.087 Y121.380 F1000
G1 X84.087 Y121.552 F1000
G1 X84.430 Y121.895 F1000
G1 X84.430 Y122.067 F1000
G1 X84.773 Y122.410 F1000
G1 X84.773 Y122.582 F1000
G1 X85.117 Y122.925 F1000
G1 X85.117 Y123.097 F1000
G1 X85.460 Y123.440 F1000
G1 X85.460 Y123.612 F1000
G1 X85.803 Y123.955 F1000
G1 X85.803 Y124.127 F1000
G1 X86.147 Y124.470 F1000
G1 X86.318 Y124.470 F1000
G1 X86.490 Y124.642 F1000
G1 X86.490 Y125.157 F1000
G1 X86.318 Y125.328 F1000
G1 X18.510 Y125.328 F1000
G1 X18.338 Y125.157 F1000
G1 X18.338 Y23.702 F1000
G1 X18.510 Y23.530 F1000
G0 Z3.0 ; Pen up

G0 X18.338 Y23.530 F3000 ; Travel to line 3
G0 Z0.0 ; Pen down
G1 X18.510 Y23.358 F1000
G1 X18.510 Y22.672 F1000
G1 X86.662 Y22.672 F1000
G1 X86.662 Y124.298 F1000
G1 X86.490 Y124.470 F1000
G1 X86.490 Y125.157 F1000
G1 X86.318 Y125.328 F1000
G1 X18.338 Y125.328 F1000
G0 Z3.0 ; Pen up

; Return to origin
G0 X0 Y0
G0 Z3.0

; Total drawing distance: 1000.86 mm
; Total travel distance: 97.36 mm
; Total lines: 3
; Estimated time: 62.0 seconds (1.0 minutes)
M2 ; End program