; Blueprint to G-code
; Input: test_images/test3_geometric.png
; Generated with blueprint2gcode.py

G21 ; Set units to millimeters
G90 ; Absolute positioning
G0 Z3.0 ; Pen up
G0 X0 Y0 ; Move to origin

G0 X20.055 Y64.215 F3000 ; Travel to line 1
G0 Z0.0 ; Pen down
G1 X19.926 Y64.086 F1000
G1 X19.926 Y63.958 F1000
G1 X19.797 Y63.829 F1000
G1 X19.797 Y63.700 F1000
G1 X19.669 Y63.571 F1000
G1 X19.669 Y63.443 F1000
G1 X19.540 Y63.314 F1000
G1 X19.540 Y63.185 F1000
G1 X19.411 Y63.056 F1000
G1 X19.411 Y62.928 F1000
G1 X19.282 Y62.799 F1000
G1 X19.282 Y62.670 F1000
G1 X19.154 Y62.541 F1000
G1 X19.154 Y62.413 F1000
G1 X19.025 Y62.284 F1000
G1 X19.025 Y62.155 F1000
G1 X18.896 Y62.026 F1000
G1 X18.896 Y61.898 F1000
G1 X18.768 Y61.769 F1000
G1 X18.768 Y61.640 F1000
G1 X18.639 Y61.511 F1000
G1 X18.639 Y61.383 F1000
G1 X18.510 Y61.254 F1000
G1 X18.510 Y61.125 F1000
G1 X18.381 Y60.996 F1000
G1 X18.381 Y60.867 F1000
G1 X18.253 Y60.739 F1000
G1 X18.253 Y60.610 F1000
G1 X18.124 Y60.481 F1000
G1 X18.124 Y60.352 F1000
G1 X17.995 Y60.224 F1000
G1 X17.995 Y60.095 F1000
G1 X17.866 Y59.966 F1000
G1 X17.866 Y59.837 F1000
G1 X17.738 Y59.709 F1000
G1 X17.738 Y59.580 F1000
G1 X17.609 Y59.451 F1000
G1 X17.609 Y59.322 F1000
G1 X17.480 Y59.194 F1000
G1 X17.480 Y59.065 F1000
G1 X17.223 Y58.807 F1000
G1 X16.450 Y58.807 F1000
G1 X16.321 Y58.679 F1000
G1 X15.678 Y58.679 F1000
G1 X15.549 Y58.550 F1000
G1 X14.776 Y58.550 F1000
G1 X14.648 Y58.421 F1000
G1 X14.004 Y58.421 F1000
G1 X13.875 Y58.293 F1000
G1 X13.103 Y58.293 F1000
G1 X12.974 Y58.164 F1000
G1 X12.201 Y58.164 F1000
G1 X12.072 Y58.035 F1000
G1 X11.429 Y58.035 F1000
G1 X11.300 Y57.906 F1000
G1 X11.043 Y57.906 F1000
G1 X10.914 Y57.778 F1000
G1 X10.914 Y57.520 F1000
G1 X12.845 Y55.589 F1000
G1 X12.974 Y55.589 F1000
G1 X15.291 Y53.271 F1000
G1 X15.291 Y53.142 F1000
G1 X15.420 Y53.014 F1000
G1 X15.291 Y52.885 F1000
G1 X15.291 Y52.241 F1000
G1 X15.162 Y52.112 F1000
G1 X15.162 Y51.469 F1000
G1 X15.034 Y51.340 F1000
G1 X15.034 Y50.696 F1000
G1 X14.905 Y50.567 F1000
G1 X14.905 Y50.053 F1000
G1 X14.776 Y49.924 F1000
G1 X14.776 Y49.280 F1000
G1 X14.648 Y49.151 F1000
G1 X14.648 Y48.508 F1000
G1 X14.519 Y48.379 F1000
G1 X14.519 Y47.735 F1000
G1 X14.390 Y47.606 F1000
G1 X14.390 Y46.963 F1000
G1 X14.519 Y46.834 F1000
G1 X14.648 Y46.963 F1000
G1 X14.776 Y46.963 F1000
G1 X14.905 Y47.091 F1000
G1 X15.034 Y47.091 F1000
G1 X15.162 Y47.220 F1000
G1 X15.291 Y47.220 F1000
G1 X15.420 Y47.349 F1000
G1 X15.549 Y47.349 F1000
G1 X15.678 Y47.477 F1000
G1 X15.806 Y47.477 F1000
G1 X15.935 Y47.606 F1000
G1 X16.064 Y47.606 F1000
G1 X16.193 Y47.735 F1000
G1 X16.321 Y47.735 F1000
G1 X16.450 Y47.864 F1000
G1 X16.579 Y47.864 F1000
G1 X16.707 Y47.992 F1000
G1 X16.836 Y47.992 F1000
G1 X16.965 Y48.121 F1000
G1 X17.094 Y48.121 F1000
G1 X17.223 Y48.250 F1000
G1 X17.351 Y48.250 F1000
G1 X17.480 Y48.379 F1000
G1 X17.609 Y48.379 F1000
G1 X17.738 Y48.508 F1000
G1 X17.866 Y48.508 F1000
G1 X17.995 Y48.636 F1000
G1 X18.124 Y48.636 F1000
G1 X18.253 Y48.765 F1000
G1 X18.381 Y48.765 F1000
G1 X18.510 Y48.894 F1000
G1 X18.639 Y48.894 F1000
G1 X18.768 Y49.023 F1000
G1 X18.896 Y49.023 F1000
G1 X19.025 Y49.151 F1000
G1 X19.154 Y49.151 F1000
G1 X19.282 Y49.280 F1000
G1 X19.411 Y49.280 F1000
G1 X19.540 Y49.409 F1000
G1 X19.669 Y49.409 F1000
G1 X19.797 Y49.538 F1000
G1 X20.828 Y49.538 F1000
G1 X20.956 Y49.409 F1000
G1 X21.085 Y49.409 F1000
G1 X21.214 Y49.280 F1000
G1 X21.343 Y49.280 F1000
G1 X21.471 Y49.151 F1000
G1 X21.600 Y49.151 F1000
G1 X21.729 Y49.023 F1000
G1 X21.858 Y49.023 F1000
G1 X21.986 Y48.894 F1000
G1 X22.115 Y48.894 F1000
G1 X22.244 Y48.765 F1000
G1 X22.373 Y48.765 F1000
G1 X22.501 Y48.636 F1000
G1 X22.630 Y48.636 F1000
G1 X22.759 Y48.508 F1000
G1 X22.887 Y48.508 F1000
G1 X23.016 Y48.379 F1000
G1 X23.145 Y48.379 F1000
G1 X23.402 Y48.121 F1000
G1 X23.531 Y48.121 F1000
G1 X23.660 Y47.992 F1000
G1 X23.789 Y47.992 F1000
G1 X23.918 Y47.864 F1000
G1 X24.046 Y47.864 F1000
G1 X24.175 Y47.735 F1000
G1 X24.304 Y47.735 F1000
G1 X24.433 Y47.606 F1000
G1 X24.561 Y47.606 F1000
G1 X24.690 Y47.477 F1000
G1 X24.819 Y47.477 F1000
G1 X24.948 Y47.349 F1000
G1 X25.076 Y47.349 F1000
G1 X25.205 Y47.220 F1000
G1 X25.334 Y47.220 F1000
G1 X25.463 Y47.091 F1000
G1 X25.591 Y47.091 F1000
G1 X25.720 Y46.963 F1000
G1 X25.977 Y46.963 F1000
G1 X26.106 Y47.091 F1000
G1 X26.106 Y47.349 F1000
G1 X25.977 Y47.477 F1000
G1 X25.977 Y48.121 F1000
G1 X25.849 Y48.250 F1000
G1 X25.849 Y48.894 F1000
G1 X25.720 Y49.023 F1000
G1 X25.720 Y49.538 F1000
G1 X25.591 Y49.666 F1000
G1 X25.591 Y50.310 F1000
G1 X25.463 Y50.439 F1000
G1 X25.463 Y51.082 F1000
G1 X25.334 Y51.211 F1000
G1 X25.334 Y51.855 F1000
G1 X25.205 Y51.984 F1000
G1 X25.205 Y52.627 F1000
G1 X25.076 Y52.756 F1000
G1 X25.076 Y53.142 F1000
G1 X27.523 Y55.589 F1000
G1 X27.651 Y55.589 F1000
G1 X29.582 Y57.520 F1000
G1 X29.582 Y57.649 F1000
G1 X29.711 Y57.778 F1000
G1 X29.582 Y57.906 F1000
G1 X29.196 Y57.906 F1000
G1 X29.067 Y58.035 F1000
G1 X28.424 Y58.035 F1000
G1 X28.295 Y58.164 F1000
G1 X27.523 Y58.164 F1000
G1 X27.394 Y58.293 F1000
G1 X26.621 Y58.293 F1000
G1 X26.492 Y58.421 F1000
G1 X25.849 Y58.421 F1000
G1 X25.720 Y58.550 F1000
G1 X24.948 Y58.550 F1000
G1 X24.819 Y58.679 F1000
G1 X24.175 Y58.679 F1000
G1 X24.046 Y58.807 F1000
G1 X23.274 Y58.807 F1000
G1 X23.016 Y59.065 F1000
G1 X23.016 Y59.194 F1000
G1 X22.887 Y59.322 F1000
G1 X22.887 Y59.451 F1000
G1 X22.759 Y59.580 F1000
G1 X22.759 Y59.709 F1000
G1 X22.630 Y59.837 F1000
G1 X22.630 Y59.966 F1000
G1 X22.501 Y60.095 F1000
G1 X22.501 Y60.224 F1000
G1 X22.373 Y60.352 F1000
G1 X22.373 Y60.481 F1000
G1 X22.244 Y60.610 F1000
G1 X22.244 Y60.739 F1000
G1 X22.115 Y60.867 F1000
G1 X22.115 Y60.996 F1000
G1 X21.986 Y61.125 F1000
G1 X21.986 Y61.254 F1000
G1 X21.858 Y61.383 F1000
G1 X21.858 Y61.511 F1000
G1 X21.729 Y61.640 F1000
G1 X21.729 Y61.769 F1000
G1 X21.600 Y61.898 F1000
G1 X21.600 Y62.026 F1000
G1 X21.471 Y62.155 F1000
G1 X21.471 Y62.284 F1000
G1 X21.343 Y62.413 F1000
G1 X21.343 Y62.541 F1000
G1 X21.214 Y62.670 F1000
G1 X21.214 Y62.799 F1000
G1 X21.085 Y62.928 F1000
G1 X21.085 Y63.056 F1000
G1 X20.956 Y63.185 F1000
G1 X20.956 Y63.314 F1000
G1 X20.828 Y63.443 F1000
G1 X20.828 Y63.571 F1000
G1 X20.699 Y63.700 F1000
G1 X20.699 Y63.829 F1000
G1 X20.570 Y63.958 F1000
G1 X20.570 Y64.086 F1000
G1 X20.312 Y64.344 F1000
G1 X20.184 Y64.215 F1000
G0 Z3.0 ; Pen up

G0 X20.312 Y64.344 F3000 ; Travel to line 2
G0 Z0.0 ; Pen down
G1 X20.570 Y64.086 F1000
G1 X20.570 Y63.958 F1000
G1 X20.699 Y63.829 F1000
G1 X20.699 Y63.700 F1000
G1 X20.828 Y63.571 F1000
G1 X20.828 Y63.443 F1000
G1 X20.956 Y63.314 F1000
G1 X20.956 Y63.185 F1000
G1 X21.085 Y63.056 F1000
G1 X21.085 Y62.928 F1000
G1 X21.214 Y62.799 F1000
G1 X21.214 Y62.670 F1000
G1 X21.343 Y62.541 F1000
G1 X21.343 Y62.413 F1000
G1 X21.471 Y62.284 F1000
G1 X21.471 Y62.155 F1000
G1 X21.600 Y62.026 F1000
G1 X21.600 Y61.898 F1000
G1 X21.729 Y61.769 F1000
G1 X21.729 Y61.640 F1000
G1 X21.858 Y61.511 F1000
G1 X21.858 Y61.383 F1000
G1 X21.986 Y61.254 F1000
G1 X21.986 Y61.125 F1000
G1 X22.115 Y60.996 F1000
G1 X22.115 Y60.867 F1000
G1 X22.244 Y60.739 F1000
G1 X22.244 Y60.610 F1000
G1 X22.373 Y60.481 F1000
G1 X22.373 Y60.352 F1000
G1 X22.501 Y60.224 F1000
G1 X22.501 Y60.095 F1000
G1 X22.630 Y59.966 F1000
G1 X22.630 Y59.837 F1000
G1 X22.759 Y59.709 F1000
G1 X22.759 Y59.580 F1000
G1 X22.887 Y59.451 F1000
G1 X22.887 Y59.322 F1000
G1 X23.016 Y59.194 F1000
G1 X23.016 Y59.065 F1000
G1 X23.145 Y58.936 F1000
G1 X23.274 Y58.936 F1000
G1 X23.402 Y58.807 F1000
G1 X24.046 Y58.807 F1000
G1 X24.175 Y58.679 F1000
G1 X24.819 Y58.679 F1000
G1 X24.948 Y58.550 F1000
G1 X25.720 Y58.550 F1000
G1 X25.849 Y58.421 F1000
G1 X26.492 Y58.421 F1000
G1 X26.621 Y58.293 F1000
G1 X27.394 Y58.293 F1000
G1 X27.523 Y58.164 F1000
G1 X28.295 Y58.164 F1000
G1 X28.424 Y58.035 F1000
G1 X29.067 Y58.035 F1000
G1 X29.196 Y57.906 F1000
G1 X29.582 Y57.906 F1000
G1 X29.711 Y57.778 F1000
G1 X29.840 Y57.906 F1000
G1 X29.582 Y57.649 F1000
G1 X29.582 Y57.520 F1000
G1 X27.651 Y55.589 F1000
G1 X27.523 Y55.589 F1000
G1 X25.076 Y53.142 F1000
G1 X25.076 Y52.756 F1000
G1 X25.205 Y52.627 F1000
G1 X25.205 Y51.984 F1000
G1 X25.334 Y51.855 F1000
G1 X25.334 Y51.211 F1000
G1 X25.463 Y51.082 F1000
G1 X25.463 Y50.439 F1000
G1 X25.591 Y50.310 F1000
G1 X25.591 Y49.666 F1000
G1 X25.720 Y49.538 F1000
G1 X25.720 Y49.023 F1000
G1 X25.849 Y48.894 F1000
G1 X25.849 Y48.250 F1000
G1 X25.977 Y48.121 F1000
G1 X25.977 Y47.477 F1000
G1 X26.106 Y47.349 F1000
G1 X26.106 Y46.834 F1000
G1 X26.364 Y46.576 F1000
G1 X26.235 Y46.705 F1000
G1 X26.106 Y46.705 F1000
G1 X26.106 Y46.834 F1000
G1 X25.977 Y46.963 F1000
G1 X25.591 Y46.963 F1000
G1 X25.463 Y47.091 F1000
G1 X25.334 Y47.091 F1000
G1 X25.205 Y47.220 F1000
G1 X25.076 Y47.220 F1000
G1 X24.948 Y47.349 F1000
G1 X24.819 Y47.349 F1000
G1 X24.690 Y47.477 F1000
G1 X24.561 Y47.477 F1000
G1 X24.433 Y47.606 F1000
G1 X24.304 Y47.606 F1000
G1 X24.175 Y47.735 F1000
G1 X24.046 Y47.735 F1000
G1 X23.918 Y47.864 F1000
G1 X23.789 Y47.864 F1000
G1 X23.660 Y47.992 F1000
G1 X23.531 Y47.992 F1000
G1 X23.274 Y48.250 F1000
G1 X23.145 Y48.250 F1000
G1 X23.016 Y48.379 F1000
G1 X22.887 Y48.379 F1000
G1 X22.759 Y48.508 F1000
G1 X22.630 Y48.508 F1000
G1 X22.501 Y48.636 F1000
G1 X22.373 Y48.636 F1000
G1 X22.244 Y48.765 F1000
G1 X22.115 Y48.765 F1000
G1 X21.986 Y48.894 F1000
G1 X21.858 Y48.894 F1000
G1 X21.729 Y49.023 F1000
G1 X21.600 Y49.023 F1000
G1 X21.471 Y49.151 F1000
G1 X21.343 Y49.151 F1000
G1 X21.214 Y49.280 F1000
G1 X21.085 Y49.280 F1000
G1 X20.956 Y49.409 F1000
G1 X20.828 Y49.409 F1000
G1 X20.699 Y49.538 F1000
G1 X19.926 Y49.538 F1000
G1 X19.797 Y49.409 F1000
G1 X19.669 Y49.409 F1000
G1 X19.540 Y49.280 F1000
G1 X19.411 Y49.280 F1000
G1 X19.282 Y49.151 F1000
G1 X19.154 Y49.151 F1000
G1 X19.025 Y49.023 F1000
G1 X18.896 Y49.023 F1000
G1 X18.768 Y48.894 F1000
G1 X18.639 Y48.894 F1000
G1 X18.510 Y48.765 F1000
G1 X18.381 Y48.765 F1000
G1 X18.253 Y48.636 F1000
G1 X18.124 Y48.636 F1000
G1 X17.995 Y48.508 F1000
G1 X17.866 Y48.508 F1000
G1 X17.738 Y48.379 F1000
G1 X17.609 Y48.379 F1000
G1 X17.480 Y48.250 F1000
G1 X17.351 Y48.250 F1000
G1 X17.223 Y48.121 F1000
G1 X17.094 Y48.121 F1000
G1 X16.965 Y47.992 F1000
G1 X16.836 Y47.992 F1000
G1 X16.707 Y47.864 F1000
G1 X16.579 Y47.864 F1000
G1 X16.450 Y47.735 F1000
G1 X16.321 Y47.735 F1000
G1 X16.193 Y47.606 F1000
G1 X16.064 Y47.606 F1000
G1 X15.935 Y47.477 F1000
G1 X15.806 Y47.477 F1000
G1 X15.678 Y47.349 F1000
G1 X15.549 Y47.349 F1000
G1 X15.420 Y47.220 F1000
G1 X15.291 Y47.220 F1000
G1 X15.162 Y47.091 F1000
G1 X15.034 Y47.091 F1000
G1 X14.905 Y46.963 F1000
G1 X14.648 Y46.963 F1000
G1 X14.519 Y46.834 F1000
G1 X14.390 Y46.834 F1000
G1 X14.133 Y46.576 F1000
G1 X14.390 Y46.834 F1000
G1 X14.390 Y47.606 F1000
G1 X14.519 Y47.735 F1000
G1 X14.519 Y48.379 F1000
G1 X14.648 Y48.508 F1000
G1 X14.648 Y49.151 F1000
G1 X14.776 Y49.280 F1000
G1 X14.776 Y49.924 F1000
G1 X14.905 Y50.053 F1000
G1 X14.905 Y50.567 F1000
G1 X15.034 Y50.696 F1000
G1 X15.034 Y51.340 F1000
G1 X15.162 Y51.469 F1000
G1 X15.162 Y52.112 F1000
G1 X15.291 Y52.241 F1000
G1 X15.291 Y52.885 F1000
G1 X15.420 Y53.014 F1000
G1 X15.291 Y53.142 F1000
G1 X15.291 Y53.271 F1000
G1 X12.974 Y55.589 F1000
G1 X12.845 Y55.589 F1000
G1 X10.914 Y57.520 F1000
G1 X10.914 Y57.649 F1000
G1 X10.656 Y57.906 F1000
G1 X10.785 Y57.778 F1000
G1 X10.914 Y57.906 F1000
G1 X11.300 Y57.906 F1000
G1 X11.429 Y58.035 F1000
G1 X12.072 Y58.035 F1000
G1 X12.201 Y58.164 F1000
G1 X12.974 Y58.164 F1000
G1 X13.103 Y58.293 F1000
G1 X13.875 Y58.293 F1000
G1 X14.004 Y58.421 F1000
G1 X14.648 Y58.421 F1000
G1 X14.776 Y58.550 F1000
G1 X15.549 Y58.550 F1000
G1 X15.678 Y58.679 F1000
G1 X16.321 Y58.679 F1000
G1 X16.450 Y58.807 F1000
G1 X17.094 Y58.807 F1000
G1 X17.223 Y58.936 F1000
G1 X17.351 Y58.936 F1000
G1 X17.480 Y59.065 F1000
G1 X17.480 Y59.194 F1000
G1 X17.609 Y59.322 F1000
G1 X17.609 Y59.451 F1000
G1 X17.738 Y59.580 F1000
G1 X17.738 Y59.709 F1000
G1 X17.866 Y59.837 F1000
G1 X17.866 Y59.966 F1000
G1 X17.995 Y60.095 F1000
G1 X17.995 Y60.224 F1000
G1 X18.124 Y60.352 F1000
G1 X18.124 Y60.481 F1000
G1 X18.253 Y60.610 F1000
G1 X18.253 Y60.739 F1000
G1 X18.381 Y60.867 F1000
G1 X18.381 Y60.996 F1000
G1 X18.510 Y61.125 F1000
G1 X18.510 Y61.254 F1000
G1 X18.639 Y61.383 F1000
G1 X18.639 Y61.511 F1000
G1 X18.768 Y61.640 F1000
G1 X18.768 Y61.769 F1000
G1 X18.896 Y61.898 F1000
G1 X18.896 Y62.026 F1000
G1 X19.025 Y62.155 F1000
G1 X19.025 Y62.284 F1000
G1 X19.154 Y62.413 F1000
G1 X19.154 Y62.541 F1000
G1 X19.282 Y62.670 F1000
G1 X19.282 Y62.799 F1000
G1 X19.411 Y62.928 F1000
G1 X19.411 Y63.056 F1000
G1 X19.540 Y63.185 F1000
G1 X19.540 Y63.314 F1000
G1 X19.669 Y63.443 F1000
G1 X19.669 Y63.571 F1000
G1 X19.797 Y63.700 F1000
G1 X19.797 Y63.829 F1000
G1 X19.926 Y63.958 F1000
G1 X19.926 Y64.086 F1000
G1 X20.312 Y64.472 F1000
G1 X20.312 Y64.730 F1000
G0 Z3.0 ; Pen up

G0 X42.586 Y77.476 F3000 ; Travel to line 3
G0 Z0.0 ; Pen down
G1 X42.586 Y77.347 F1000
G1 X42.458 Y77.219 F1000
G1 X42.458 Y77.090 F1000
G1 X42.329 Y76.961 F1000
G1 X42.329 Y76.833 F1000
G1 X42.071 Y76.575 F1000
G1 X42.071 Y76.446 F1000
G1 X41.943 Y76.317 F1000
G1 X41.943 Y76.189 F1000
G1 X41.814 Y76.060 F1000
G1 X41.814 Y75.931 F1000
G1 X41.556 Y75.674 F1000
G1 X41.556 Y75.545 F1000
G1 X41.428 Y75.416 F1000
G1 X41.428 Y75.287 F1000
G1 X41.299 Y75.159 F1000
G1 X41.299 Y75.030 F1000
G1 X41.041 Y74.773 F1000
G1 X41.041 Y74.644 F1000
G1 X40.913 Y74.515 F1000
G1 X40.913 Y74.386 F1000
G1 X40.784 Y74.257 F1000
G1 X40.784 Y74.129 F1000
G1 X40.526 Y73.871 F1000
G1 X40.526 Y73.743 F1000
G1 X40.398 Y73.614 F1000
G1 X40.398 Y73.485 F1000
G1 X40.269 Y73.356 F1000
G1 X40.269 Y73.227 F1000
G1 X40.140 Y73.099 F1000
G1 X40.140 Y72.970 F1000
G1 X39.883 Y72.713 F1000
G1 X39.883 Y72.584 F1000
G1 X39.754 Y72.455 F1000
G1 X39.754 Y72.326 F1000
G1 X39.625 Y72.197 F1000
G1 X39.625 Y72.069 F1000
G1 X39.367 Y71.811 F1000
G1 X39.367 Y71.683 F1000
G1 X39.239 Y71.554 F1000
G1 X39.239 Y71.425 F1000
G1 X39.110 Y71.296 F1000
G1 X39.110 Y71.168 F1000
G1 X38.852 Y70.910 F1000
G1 X38.852 Y70.781 F1000
G1 X38.724 Y70.653 F1000
G1 X38.724 Y70.524 F1000
G1 X38.595 Y70.395 F1000
G1 X38.595 Y70.266 F1000
G1 X38.337 Y70.009 F1000
G1 X38.337 Y69.880 F1000
G1 X38.209 Y69.751 F1000
G1 X38.209 Y69.623 F1000
G1 X38.080 Y69.494 F1000
G1 X38.080 Y69.365 F1000
G1 X37.822 Y69.108 F1000
G1 X37.822 Y68.979 F1000
G1 X37.694 Y68.850 F1000
G1 X37.694 Y68.721 F1000
G1 X37.565 Y68.593 F1000
G1 X37.565 Y68.464 F1000
G1 X37.307 Y68.206 F1000
G1 X37.307 Y68.078 F1000
G1 X37.179 Y67.949 F1000
G1 X37.179 Y67.820 F1000
G1 X37.050 Y67.691 F1000
G1 X37.050 Y67.562 F1000
G1 X36.793 Y67.305 F1000
G1 X36.793 Y67.176 F1000
G1 X36.664 Y67.047 F1000
G1 X36.664 Y66.919 F1000
G1 X36.535 Y66.790 F1000
G1 X36.535 Y66.661 F1000
G1 X36.278 Y66.404 F1000
G1 X36.278 Y66.275 F1000
G1 X36.149 Y66.146 F1000
G1 X36.149 Y66.017 F1000
G1 X36.020 Y65.889 F1000
G1 X36.020 Y65.760 F1000
G1 X35.763 Y65.502 F1000
G1 X35.763 Y65.374 F1000
G1 X35.634 Y65.245 F1000
G1 X35.634 Y65.116 F1000
G1 X35.505 Y64.988 F1000
G1 X35.505 Y64.859 F1000
G1 X35.376 Y64.730 F1000
G1 X35.376 Y64.601 F1000
G1 X35.119 Y64.344 F1000
G1 X35.119 Y64.215 F1000
G1 X34.990 Y64.086 F1000
G1 X34.990 Y63.958 F1000
G1 X34.861 Y63.829 F1000
G1 X34.861 Y63.700 F1000
G1 X34.604 Y63.443 F1000
G1 X34.604 Y63.314 F1000
G1 X34.475 Y63.185 F1000
G1 X34.475 Y63.056 F1000
G1 X34.346 Y62.928 F1000
G1 X34.346 Y62.799 F1000
G1 X34.089 Y62.541 F1000
G1 X34.089 Y62.413 F1000
G1 X33.960 Y62.284 F1000
G1 X33.960 Y62.155 F1000
G1 X33.831 Y62.026 F1000
G1 X33.831 Y61.898 F1000
G1 X33.574 Y61.640 F1000
G1 X33.574 Y61.511 F1000
G1 X33.445 Y61.383 F1000
G1 X33.445 Y60.867 F1000
G1 X33.574 Y60.739 F1000
G1 X33.574 Y60.610 F1000
G1 X33.831 Y60.352 F1000
G1 X33.831 Y60.224 F1000
G1 X33.960 Y60.095 F1000
G1 X33.960 Y59.966 F1000
G1 X34.218 Y59.709 F1000
G1 X34.218 Y59.580 F1000
G1 X34.346 Y59.451 F1000
G1 X34.346 Y59.322 F1000
G1 X34.475 Y59.194 F1000
G1 X34.475 Y59.065 F1000
G1 X34.733 Y58.807 F1000
G1 X34.733 Y58.679 F1000
G1 X34.861 Y58.550 F1000
G1 X34.861 Y58.421 F1000
G1 X35.119 Y58.164 F1000
G1 X35.119 Y58.035 F1000
G1 X35.248 Y57.906 F1000
G1 X35.248 Y57.778 F1000
G1 X35.376 Y57.649 F1000
G1 X35.376 Y57.520 F1000
G1 X35.634 Y57.263 F1000
G1 X35.634 Y57.134 F1000
G1 X35.763 Y57.005 F1000
G1 X35.763 Y56.876 F1000
G1 X36.020 Y56.619 F1000
G1 X36.020 Y56.490 F1000
G1 X36.149 Y56.361 F1000
G1 X36.149 Y56.233 F1000
G1 X36.278 Y56.104 F1000
G1 X36.278 Y55.975 F1000
G1 X36.535 Y55.718 F1000
G1 X36.535 Y55.589 F1000
G1 X36.664 Y55.460 F1000
G1 X36.664 Y55.331 F1000
G1 X36.793 Y55.203 F1000
G1 X36.793 Y55.074 F1000
G1 X37.050 Y54.816 F1000
G1 X37.050 Y54.688 F1000
G1 X37.179 Y54.559 F1000
G1 X37.179 Y54.430 F1000
G1 X37.436 Y54.172 F1000
G1 X37.436 Y54.044 F1000
G1 X37.565 Y53.915 F1000
G1 X37.565 Y53.786 F1000
G1 X37.694 Y53.657 F1000
G1 X37.694 Y53.529 F1000
G1 X37.951 Y53.271 F1000
G1 X37.951 Y53.142 F1000
G1 X38.080 Y53.014 F1000
G1 X38.080 Y52.885 F1000
G1 X38.337 Y52.627 F1000
G1 X38.337 Y52.499 F1000
G1 X38.466 Y52.370 F1000
G1 X38.466 Y52.241 F1000
G1 X38.595 Y52.112 F1000
G1 X38.595 Y51.984 F1000
G1 X38.852 Y51.726 F1000
G1 X38.852 Y51.597 F1000
G1 X38.981 Y51.469 F1000
G1 X38.981 Y51.340 F1000
G1 X39.239 Y51.082 F1000
G1 X39.239 Y50.954 F1000
G1 X39.367 Y50.825 F1000
G1 X39.367 Y50.696 F1000
G1 X39.496 Y50.567 F1000
G1 X39.496 Y50.439 F1000
G1 X39.754 Y50.181 F1000
G1 X39.754 Y50.053 F1000
G1 X39.883 Y49.924 F1000
G1 X39.883 Y49.795 F1000
G1 X40.011 Y49.666 F1000
G1 X40.011 Y49.538 F1000
G1 X40.269 Y49.280 F1000
G1 X40.269 Y49.151 F1000
G1 X40.398 Y49.023 F1000
G1 X40.398 Y48.894 F1000
G1 X40.655 Y48.636 F1000
G1 X40.655 Y48.508 F1000
G1 X40.784 Y48.379 F1000
G1 X40.784 Y48.250 F1000
G1 X40.913 Y48.121 F1000
G1 X40.913 Y47.992 F1000
G1 X41.170 Y47.735 F1000
G1 X41.170 Y47.606 F1000
G1 X41.299 Y47.477 F1000
G1 X41.299 Y47.349 F1000
G1 X41.556 Y47.091 F1000
G1 X41.556 Y46.963 F1000
G1 X41.685 Y46.834 F1000
G1 X41.685 Y46.705 F1000
G1 X41.814 Y46.576 F1000
G1 X41.814 Y46.448 F1000
G1 X42.071 Y46.190 F1000
G1 X42.071 Y46.061 F1000
G1 X42.200 Y45.933 F1000
G1 X42.200 Y45.804 F1000
G1 X42.458 Y45.546 F1000
G1 X42.458 Y45.418 F1000
G1 X42.586 Y45.289 F1000
G1 X42.586 Y45.160 F1000
G1 X42.715 Y45.031 F1000
G1 X42.715 Y44.903 F1000
G1 X42.973 Y44.645 F1000
G1 X62.028 Y44.645 F1000
G1 X62.156 Y44.774 F1000
G1 X62.156 Y44.903 F1000
G1 X62.285 Y45.031 F1000
G1 X62.285 Y45.160 F1000
G1 X62.414 Y45.289 F1000
G1 X62.414 Y45.418 F1000
G1 X62.671 Y45.675 F1000
G1 X62.671 Y45.804 F1000
G1 X62.800 Y45.933 F1000
G1 X62.800 Y46.061 F1000
G1 X63.058 Y46.319 F1000
G1 X63.058 Y46.448 F1000
G1 X63.186 Y46.576 F1000
G1 X63.186 Y46.705 F1000
G1 X63.315 Y46.834 F1000
G1 X63.315 Y46.963 F1000
G1 X63.573 Y47.220 F1000
G1 X63.573 Y47.349 F1000
G1 X63.701 Y47.477 F1000
G1 X63.701 Y47.606 F1000
G1 X63.959 Y47.864 F1000
G1 X63.959 Y47.992 F1000
G1 X64.088 Y48.121 F1000
G1 X64.088 Y48.250 F1000
G1 X64.216 Y48.379 F1000
G1 X64.216 Y48.508 F1000
G1 X64.474 Y48.765 F1000
G1 X64.474 Y48.894 F1000
G1 X64.602 Y49.023 F1000
G1 X64.602 Y49.151 F1000
G1 X64.860 Y49.409 F1000
G1 X64.860 Y49.538 F1000
G1 X64.989 Y49.666 F1000
G1 X64.989 Y49.795 F1000
G1 X65.118 Y49.924 F1000
G1 X65.118 Y50.053 F1000
G1 X65.375 Y50.310 F1000
G1 X65.375 Y50.439 F1000
G1 X65.504 Y50.567 F1000
G1 X65.504 Y50.696 F1000
G1 X65.633 Y50.825 F1000
G1 X65.633 Y50.954 F1000
G1 X65.890 Y51.211 F1000
G1 X65.890 Y51.340 F1000
G1 X66.019 Y51.469 F1000
G1 X66.019 Y51.597 F1000
G1 X66.276 Y51.855 F1000
G1 X66.276 Y51.984 F1000
G1 X66.405 Y52.112 F1000
G1 X66.405 Y52.241 F1000
G1 X66.534 Y52.370 F1000
G1 X66.534 Y52.499 F1000
G1 X66.791 Y52.756 F1000
G1 X66.791 Y52.885 F1000
G1 X66.920 Y53.014 F1000
G1 X66.920 Y53.142 F1000
G1 X67.177 Y53.400 F1000
G1 X67.177 Y53.529 F1000
G1 X67.306 Y53.657 F1000
G1 X67.306 Y53.786 F1000
G1 X67.435 Y53.915 F1000
G1 X67.435 Y54.044 F1000
G1 X67.692 Y54.301 F1000
G1 X67.692 Y54.430 F1000
G1 X67.821 Y54.559 F1000
G1 X67.821 Y54.688 F1000
G1 X68.079 Y54.945 F1000
G1 X68.079 Y55.074 F1000
G1 X68.207 Y55.203 F1000
G1 X68.207 Y55.331 F1000
G1 X68.336 Y55.460 F1000
G1 X68.336 Y55.589 F1000
G1 X68.594 Y55.846 F1000
G1 X68.594 Y55.975 F1000
G1 X68.722 Y56.104 F1000
G1 X68.722 Y56.233 F1000
G1 X68.851 Y56.361 F1000
G1 X68.851 Y56.490 F1000
G1 X69.109 Y56.748 F1000
G1 X69.109 Y56.876 F1000
G1 X69.237 Y57.005 F1000
G1 X69.237 Y57.134 F1000
G1 X69.495 Y57.391 F1000
G1 X69.495 Y57.520 F1000
G1 X69.624 Y57.649 F1000
G1 X69.624 Y57.778 F1000
G1 X69.752 Y57.906 F1000
G1 X69.752 Y58.035 F1000
G1 X70.010 Y58.293 F1000
G1 X70.010 Y58.421 F1000
G1 X70.139 Y58.550 F1000
G1 X70.139 Y58.679 F1000
G1 X70.396 Y58.936 F1000
G1 X70.396 Y59.065 F1000
G1 X70.525 Y59.194 F1000
G1 X70.525 Y59.322 F1000
G1 X70.654 Y59.451 F1000
G1 X70.654 Y59.580 F1000
G1 X70.911 Y59.837 F1000
G1 X70.911 Y59.966 F1000
G1 X71.040 Y60.095 F1000
G1 X71.040 Y60.224 F1000
G1 X71.297 Y60.481 F1000
G1 X71.297 Y60.610 F1000
G1 X71.426 Y60.739 F1000
G1 X71.426 Y60.867 F1000
G1 X71.555 Y60.996 F1000
G1 X71.555 Y61.254 F1000
G1 X71.426 Y61.383 F1000
G1 X71.426 Y61.511 F1000
G1 X71.169 Y61.769 F1000
G1 X71.169 Y61.898 F1000
G1 X71.040 Y62.026 F1000
G1 X71.040 Y62.155 F1000
G1 X70.911 Y62.284 F1000
G1 X70.911 Y62.413 F1000
G1 X70.654 Y62.670 F1000
G1 X70.654 Y62.799 F1000
G1 X70.525 Y62.928 F1000
G1 X70.525 Y63.056 F1000
G1 X70.267 Y63.314 F1000
G1 X70.267 Y63.443 F1000
G1 X70.139 Y63.571 F1000
G1 X70.139 Y63.700 F1000
G1 X70.010 Y63.829 F1000
G1 X70.010 Y63.958 F1000
G1 X69.752 Y64.215 F1000
G1 X69.752 Y64.344 F1000
G1 X69.624 Y64.472 F1000
G1 X69.624 Y64.601 F1000
G1 X69.366 Y64.859 F1000
G1 X69.366 Y64.988 F1000
G1 X69.237 Y65.116 F1000
G1 X69.237 Y65.245 F1000
G1 X69.109 Y65.374 F1000
G1 X69.109 Y65.502 F1000
G1 X68.851 Y65.760 F1000
G1 X68.851 Y65.889 F1000
G1 X68.722 Y66.017 F1000
G1 X68.722 Y66.146 F1000
G1 X68.465 Y66.404 F1000
G1 X68.465 Y66.532 F1000
G1 X68.336 Y66.661 F1000
G1 X68.336 Y66.790 F1000
G1 X68.207 Y66.919 F1000
G1 X68.207 Y67.047 F1000
G1 X67.950 Y67.305 F1000
G1 X67.950 Y67.434 F1000
G1 X67.821 Y67.562 F1000
G1 X67.821 Y67.691 F1000
G1 X67.564 Y67.949 F1000
G1 X67.564 Y68.078 F1000
G1 X67.435 Y68.206 F1000
G1 X67.435 Y68.335 F1000
G1 X67.306 Y68.464 F1000
G1 X67.306 Y68.593 F1000
G1 X67.049 Y68.850 F1000
G1 X67.049 Y68.979 F1000
G1 X66.920 Y69.108 F1000
G1 X66.920 Y69.236 F1000
G1 X66.663 Y69.494 F1000
G1 X66.663 Y69.623 F1000
G1 X66.534 Y69.751 F1000
G1 X66.534 Y69.880 F1000
G1 X66.276 Y70.138 F1000
G1 X66.276 Y70.266 F1000
G1 X66.148 Y70.395 F1000
G1 X66.148 Y70.524 F1000
G1 X66.019 Y70.653 F1000
G1 X66.019 Y70.781 F1000
G1 X65.761 Y71.039 F1000
G1 X65.761 Y71.168 F1000
G1 X65.633 Y71.296 F1000
G1 X65.633 Y71.425 F1000
G1 X65.375 Y71.683 F1000
G1 X65.375 Y71.811 F1000
G1 X65.246 Y71.940 F1000
G1 X65.246 Y72.069 F1000
G1 X65.118 Y72.197 F1000
G1 X65.118 Y72.326 F1000
G1 X64.860 Y72.584 F1000
G1 X64.860 Y72.713 F1000
G1 X64.731 Y72.841 F1000
G1 X64.731 Y72.970 F1000
G1 X64.474 Y73.227 F1000
G1 X64.474 Y73.356 F1000
G1 X64.345 Y73.485 F1000
G1 X64.345 Y73.614 F1000
G1 X64.216 Y73.743 F1000
G1 X64.216 Y73.871 F1000
G1 X63.959 Y74.129 F1000
G1 X63.959 Y74.257 F1000
G1 X63.830 Y74.386 F1000
G1 X63.830 Y74.515 F1000
G1 X63.573 Y74.773 F1000
G1 X63.573 Y74.901 F1000
G1 X63.444 Y75.030 F1000
G1 X63.444 Y75.159 F1000
G1 X63.315 Y75.287 F1000
G1 X63.315 Y75.416 F1000
G1 X63.058 Y75.674 F1000
G1 X63.058 Y75.803 F1000
G1 X62.929 Y75.931 F1000
G1 X62.929 Y76.060 F1000
G1 X62.671 Y76.317 F1000
G1 X62.671 Y76.446 F1000
G1 X62.543 Y76.575 F1000
G1 X62.543 Y76.704 F1000
G1 X62.414 Y76.833 F1000
G1 X62.414 Y76.961 F1000
G1 X62.156 Y77.219 F1000
G1 X62.156 Y77.347 F1000
G1 X62.028 Y77.476 F1000
G1 X62.028 Y77.605 F1000
G1 X61.899 Y77.734 F1000
G1 X42.844 Y77.734 F1000
G1 X42.844 Y77.734 F1000
G1 X42.586 Y77.476 F1000
G1 X42.586 Y77.347 F1000
G1 X42.458 Y77.219 F1000
G1 X42.458 Y77.090 F1000
G1 X42.200 Y76.833 F1000
G1 X42.200 Y76.704 F1000
G1 X42.071 Y76.575 F1000
G1 X42.071 Y76.446 F1000
G1 X41.943 Y76.317 F1000
G1 X41.943 Y76.189 F1000
G1 X41.685 Y75.931 F1000
G1 X41.685 Y75.803 F1000
G1 X41.556 Y75.674 F1000
G1 X41.556 Y75.545 F1000
G1 X41.428 Y75.416 F1000
G1 X41.428 Y75.287 F1000
G1 X41.170 Y75.030 F1000
G1 X41.170 Y74.901 F1000
G1 X41.041 Y74.773 F1000
G1 X41.041 Y74.644 F1000
G1 X40.913 Y74.515 F1000
G1 X40.913 Y74.386 F1000
G1 X40.655 Y74.129 F1000
G1 X40.655 Y74.000 F1000
G1 X40.526 Y73.871 F1000
G1 X40.526 Y73.743 F1000
G1 X40.398 Y73.614 F1000
G1 X40.398 Y73.485 F1000
G1 X40.269 Y73.356 F1000
G1 X40.269 Y73.227 F1000
G1 X40.011 Y72.970 F1000
G1 X40.011 Y72.841 F1000
G1 X39.883 Y72.713 F1000
G1 X39.883 Y72.584 F1000
G1 X39.754 Y72.455 F1000
G1 X39.754 Y72.326 F1000
G1 X39.496 Y72.069 F1000
G1 X39.496 Y71.940 F1000
G1 X39.367 Y71.811 F1000
G1 X39.367 Y71.683 F1000
G1 X39.239 Y71.554 F1000
G1 X39.239 Y71.425 F1000
G1 X38.981 Y71.168 F1000
G1 X38.981 Y71.039 F1000
G1 X38.852 Y70.910 F1000
G1 X38.852 Y70.781 F1000
G1 X38.724 Y70.653 F1000
G1 X38.724 Y70.524 F1000
G1 X38.466 Y70.266 F1000
G1 X38.466 Y70.138 F1000
G1 X38.337 Y70.009 F1000
G1 X38.337 Y69.880 F1000
G1 X38.209 Y69.751 F1000
G1 X38.209 Y69.623 F1000
G1 X37.951 Y69.365 F1000
G1 X37.951 Y69.236 F1000
G1 X37.822 Y69.108 F1000
G1 X37.822 Y68.979 F1000
G1 X37.694 Y68.850 F1000
G1 X37.694 Y68.721 F1000
G1 X37.436 Y68.464 F1000
G1 X37.436 Y68.335 F1000
G1 X37.307 Y68.206 F1000
G1 X37.307 Y68.078 F1000
G1 X37.179 Y67.949 F1000
G1 X37.179 Y67.820 F1000
G1 X36.921 Y67.562 F1000
G1 X36.921 Y67.434 F1000
G1 X36.793 Y67.305 F1000
G1 X36.793 Y67.176 F1000
G1 X36.664 Y67.047 F1000
G1 X36.664 Y66.919 F1000
G1 X36.406 Y66.661 F1000
G1 X36.406 Y66.532 F1000
G1 X36.278 Y66.404 F1000
G1 X36.278 Y66.275 F1000
G1 X36.149 Y66.146 F1000
G1 X36.149 Y66.017 F1000
G1 X35.891 Y65.760 F1000
G1 X35.891 Y65.631 F1000
G1 X35.763 Y65.502 F1000
G1 X35.763 Y65.374 F1000
G1 X35.634 Y65.245 F1000
G1 X35.634 Y65.116 F1000
G1 X35.505 Y64.988 F1000
G1 X35.505 Y64.859 F1000
G1 X35.248 Y64.601 F1000
G1 X35.248 Y64.472 F1000
G1 X35.119 Y64.344 F1000
G1 X35.119 Y64.215 F1000
G1 X34.990 Y64.086 F1000
G1 X34.990 Y63.958 F1000
G1 X34.733 Y63.700 F1000
G1 X34.733 Y63.571 F1000
G1 X34.604 Y63.443 F1000
G1 X34.604 Y63.314 F1000
G1 X34.475 Y63.185 F1000
G1 X34.475 Y63.056 F1000
G1 X34.218 Y62.799 F1000
G1 X34.218 Y62.670 F1000
G1 X34.089 Y62.541 F1000
G1 X34.089 Y62.413 F1000
G1 X33.960 Y62.284 F1000
G1 X33.960 Y62.155 F1000
G1 X33.703 Y61.898 F1000
G1 X33.703 Y61.769 F1000
G1 X33.574 Y61.640 F1000
G1 X33.574 Y61.511 F1000
G1 X33.445 Y61.383 F1000
G1 X33.445 Y60.867 F1000
G1 X33.574 Y60.739 F1000
G1 X33.574 Y60.610 F1000
G1 X33.703 Y60.481 F1000
G1 X33.703 Y60.352 F1000
G1 X33.960 Y60.095 F1000
G1 X33.960 Y59.966 F1000
G1 X34.089 Y59.837 F1000
G1 X34.089 Y59.709 F1000
G1 X34.346 Y59.451 F1000
G1 X34.346 Y59.322 F1000
G1 X34.475 Y59.194 F1000
G1 X34.475 Y59.065 F1000
G1 X34.604 Y58.936 F1000
G1 X34.604 Y58.807 F1000
G1 X34.861 Y58.550 F1000
G1 X34.861 Y58.421 F1000
G1 X34.990 Y58.293 F1000
G1 X34.990 Y58.164 F1000
G1 X35.248 Y57.906 F1000
G1 X35.248 Y57.778 F1000
G1 X35.376 Y57.649 F1000
G1 X35.376 Y57.520 F1000
G1 X35.505 Y57.391 F1000
G1 X35.505 Y57.263 F1000
G1 X35.763 Y57.005 F1000
G1 X35.763 Y56.876 F1000
G1 X35.891 Y56.748 F1000
G1 X35.891 Y56.619 F1000
G1 X36.149 Y56.361 F1000
G1 X36.149 Y56.233 F1000
G1 X36.278 Y56.104 F1000
G1 X36.278 Y55.975 F1000
G1 X36.406 Y55.846 F1000
G1 X36.406 Y55.718 F1000
G1 X36.664 Y55.460 F1000
G1 X36.664 Y55.331 F1000
G1 X36.793 Y55.203 F1000
G1 X36.793 Y55.074 F1000
G1 X36.921 Y54.945 F1000
G1 X36.921 Y54.816 F1000
G1 X37.179 Y54.559 F1000
G1 X37.179 Y54.430 F1000
G1 X37.307 Y54.301 F1000
G1 X37.307 Y54.172 F1000
G1 X37.565 Y53.915 F1000
G1 X37.565 Y53.786 F1000
G1 X37.694 Y53.657 F1000
G1 X37.694 Y53.529 F1000
G1 X37.822 Y53.400 F1000
G1 X37.822 Y53.271 F1000
G1 X38.080 Y53.014 F1000
G1 X38.080 Y52.885 F1000
G1 X38.209 Y52.756 F1000
G1 X38.209 Y52.627 F1000
G1 X38.466 Y52.370 F1000
G1 X38.466 Y52.241 F1000
G1 X38.595 Y52.112 F1000
G1 X38.595 Y51.984 F1000
G1 X38.724 Y51.855 F1000
G1 X38.724 Y51.726 F1000
G1 X38.981 Y51.469 F1000
G1 X38.981 Y51.340 F1000
G1 X39.110 Y51.211 F1000
G1 X39.110 Y51.082 F1000
G1 X39.367 Y50.825 F1000
G1 X39.367 Y50.696 F1000
G1 X39.496 Y50.567 F1000
G1 X39.496 Y50.439 F1000
G1 X39.625 Y50.310 F1000
G1 X39.625 Y50.181 F1000
G1 X39.883 Y49.924 F1000
G1 X39.883 Y49.795 F1000
G1 X40.011 Y49.666 F1000
G1 X40.011 Y49.538 F1000
G1 X40.140 Y49.409 F1000
G1 X40.140 Y49.280 F1000
G1 X40.398 Y49.023 F1000
G1 X40.398 Y48.894 F1000
G1 X40.526 Y48.765 F1000
G1 X40.526 Y48.636 F1000
G1 X40.784 Y48.379 F1000
G1 X40.784 Y48.250 F1000
G1 X40.913 Y48.121 F1000
G1 X40.913 Y47.992 F1000
G1 X41.041 Y47.864 F1000
G1 X41.041 Y47.735 F1000
G1 X41.299 Y47.477 F1000
G1 X41.299 Y47.349 F1000
G1 X41.428 Y47.220 F1000
G1 X41.428 Y47.091 F1000
G1 X41.685 Y46.834 F1000
G1 X41.685 Y46.705 F1000
G1 X41.814 Y46.576 F1000
G1 X41.814 Y46.448 F1000
G1 X41.943 Y46.319 F1000
G1 X41.943 Y46.190 F1000
G1 X42.200 Y45.933 F1000
G1 X42.200 Y45.804 F1000
G1 X42.329 Y45.675 F1000
G1 X42.329 Y45.546 F1000
G1 X42.586 Y45.289 F1000
G1 X42.586 Y45.160 F1000
G1 X42.715 Y45.031 F1000
G1 X42.715 Y44.903 F1000
G1 X42.973 Y44.645 F1000
G1 X62.028 Y44.645 F1000
G1 X62.156 Y44.774 F1000
G1 X62.156 Y44.903 F1000
G1 X62.285 Y45.031 F1000
G1 X62.285 Y45.160 F1000
G1 X62.543 Y45.418 F1000
G1 X62.543 Y45.546 F1000
G1 X62.671 Y45.675 F1000
G1 X62.671 Y45.804 F1000
G1 X62.929 Y46.061 F1000
G1 X62.929 Y46.190 F1000
G1 X63.058 Y46.319 F1000
G1 X63.058 Y46.448 F1000
G1 X63.186 Y46.576 F1000
G1 X63.186 Y46.705 F1000
G1 X63.444 Y46.963 F1000
G1 X63.444 Y47.091 F1000
G1 X63.573 Y47.220 F1000
G1 X63.573 Y47.349 F1000
G1 X63.830 Y47.606 F1000
G1 X63.830 Y47.735 F1000
G1 X63.959 Y47.864 F1000
G1 X63.959 Y47.992 F1000
G1 X64.088 Y48.121 F1000
G1 X64.088 Y48.250 F1000
G1 X64.345 Y48.508 F1000
G1 X64.345 Y48.636 F1000
G1 X64.474 Y48.765 F1000
G1 X64.474 Y48.894 F1000
G1 X64.731 Y49.151 F1000
G1 X64.731 Y49.280 F1000
G1 X64.860 Y49.409 F1000
G1 X64.860 Y49.538 F1000
G1 X64.989 Y49.666 F1000
G1 X64.989 Y49.795 F1000
G1 X65.246 Y50.053 F1000
G1 X65.246 Y50.181 F1000
G1 X65.375 Y50.310 F1000
G1 X65.375 Y50.439 F1000
G1 X65.504 Y50.567 F1000
G1 X65.504 Y50.696 F1000
G1 X65.761 Y50.954 F1000
G1 X65.761 Y51.082 F1000
G1 X65.890 Y51.211 F1000
G1 X65.890 Y51.340 F1000
G1 X66.148 Y51.597 F1000
G1 X66.148 Y51.726 F1000
G1 X66.276 Y51.855 F1000
G1 X66.276 Y51.984 F1000
G1 X66.405 Y52.112 F1000
G1 X66.405 Y52.241 F1000
G1 X66.663 Y52.499 F1000
G1 X66.663 Y52.627 F1000
G1 X66.791 Y52.756 F1000
G1 X66.791 Y52.885 F1000
G1 X67.049 Y53.142 F1000
G1 X67.049 Y53.271 F1000
G1 X67.177 Y53.400 F1000
G1 X67.177 Y53.529 F1000
G1 X67.306 Y53.657 F1000
G1 X67.306 Y53.786 F1000
G1 X67.564 Y54.044 F1000
G1 X67.564 Y54.172 F1000
G1 X67.692 Y54.301 F1000
G1 X67.692 Y54.430 F1000
G1 X67.950 Y54.688 F1000
G1 X67.950 Y54.816 F1000
G1 X68.079 Y54.945 F1000
G1 X68.079 Y55.074 F1000
G1 X68.207 Y55.203 F1000
G1 X68.207 Y55.331 F1000
G1 X68.465 Y55.589 F1000
G1 X68.465 Y55.718 F1000
G1 X68.594 Y55.846 F1000
G1 X68.594 Y55.975 F1000
G1 X68.722 Y56.104 F1000
G1 X68.722 Y56.233 F1000
G1 X68.980 Y56.490 F1000
G1 X68.980 Y56.619 F1000
G1 X69.109 Y56.748 F1000
G1 X69.109 Y56.876 F1000
G1 X69.366 Y57.134 F1000
G1 X69.366 Y57.263 F1000
G1 X69.495 Y57.391 F1000
G1 X69.495 Y57.520 F1000
G1 X69.624 Y57.649 F1000
G1 X69.624 Y57.778 F1000
G1 X69.881 Y58.035 F1000
G1 X69.881 Y58.164 F1000
G1 X70.010 Y58.293 F1000
G1 X70.010 Y58.421 F1000
G1 X70.267 Y58.679 F1000
G1 X70.267 Y58.807 F1000
G1 X70.396 Y58.936 F1000
G1 X70.396 Y59.065 F1000
G1 X70.525 Y59.194 F1000
G1 X70.525 Y59.322 F1000
G1 X70.782 Y59.580 F1000
G1 X70.782 Y59.709 F1000
G1 X70.911 Y59.837 F1000
G1 X70.911 Y59.966 F1000
G1 X71.169 Y60.224 F1000
G1 X71.169 Y60.352 F1000
G1 X71.297 Y60.481 F1000
G1 X71.297 Y60.610 F1000
G1 X71.426 Y60.739 F1000
G1 X71.426 Y60.867 F1000
G1 X71.555 Y60.996 F1000
G1 X71.555 Y61.254 F1000
G1 X71.426 Y61.383 F1000
G1 X71.426 Y61.511 F1000
G1 X71.297 Y61.640 F1000
G1 X71.297 Y61.769 F1000
G1 X71.040 Y62.026 F1000
G1 X71.040 Y62.155 F1000
G1 X70.911 Y62.284 F1000
G1 X70.911 Y62.413 F1000
G1 X70.782 Y62.541 F1000
G1 X70.782 Y62.670 F1000
G1 X70.525 Y62.928 F1000
G1 X70.525 Y63.056 F1000
G1 X70.396 Y63.185 F1000
G1 X70.396 Y63.314 F1000
G1 X70.139 Y63.571 F1000
G1 X70.139 Y63.700 F1000
G1 X70.010 Y63.829 F1000
G1 X70.010 Y63.958 F1000
G1 X69.881 Y64.086 F1000
G1 X69.881 Y64.215 F1000
G1 X69.624 Y64.472 F1000
G1 X69.624 Y64.601 F1000
G1 X69.495 Y64.730 F1000
G1 X69.495 Y64.859 F1000
G1 X69.237 Y65.116 F1000
G1 X69.237 Y65.245 F1000
G1 X69.109 Y65.374 F1000
G1 X69.109 Y65.502 F1000
G1 X68.980 Y65.631 F1000
G1 X68.980 Y65.760 F1000
G1 X68.722 Y66.017 F1000
G1 X68.722 Y66.146 F1000
G1 X68.594 Y66.275 F1000
G1 X68.594 Y66.404 F1000
G1 X68.336 Y66.661 F1000
G1 X68.336 Y66.790 F1000
G1 X68.207 Y66.919 F1000
G1 X68.207 Y67.047 F1000
G1 X68.079 Y67.176 F1000
G1 X68.079 Y67.305 F1000
G1 X67.821 Y67.562 F1000
G1 X67.821 Y67.691 F1000
G1 X67.692 Y67.820 F1000
G1 X67.692 Y67.949 F1000
G1 X67.435 Y68.206 F1000
G1 X67.435 Y68.335 F1000
G1 X67.306 Y68.464 F1000
G1 X67.306 Y68.593 F1000
G1 X67.177 Y68.721 F1000
G1 X67.177 Y68.850 F1000
G1 X66.920 Y69.108 F1000
G1 X66.920 Y69.236 F1000
G1 X66.791 Y69.365 F1000
G1 X66.791 Y69.494 F1000
G1 X66.534 Y69.751 F1000
G1 X66.534 Y69.880 F1000
G1 X66.405 Y70.009 F1000
G1 X66.405 Y70.138 F1000
G1 X66.148 Y70.395 F1000
G1 X66.148 Y70.524 F1000
G1 X66.019 Y70.653 F1000
G1 X66.019 Y70.781 F1000
G1 X65.890 Y70.910 F1000
G1 X65.890 Y71.039 F1000
G1 X65.633 Y71.296 F1000
G1 X65.633 Y71.425 F1000
G1 X65.504 Y71.554 F1000
G1 X65.504 Y71.683 F1000
G1 X65.246 Y71.940 F1000
G1 X65.246 Y72.069 F1000
G1 X65.118 Y72.197 F1000
G1 X65.118 Y72.326 F1000
G1 X64.989 Y72.455 F1000
G1 X64.989 Y72.584 F1000
G1 X64.731 Y72.841 F1000
G1 X64.731 Y72.970 F1000
G1 X64.602 Y73.099 F1000
G1 X64.602 Y73.227 F1000
G1 X64.345 Y73.485 F1000
G1 X64.345 Y73.614 F1000
G1 X64.216 Y73.743 F1000
G1 X64.216 Y73.871 F1000
G1 X64.088 Y74.000 F1000
G1 X64.088 Y74.129 F1000
G1 X63.830 Y74.386 F1000
G1 X63.830 Y74.515 F1000
G1 X63.701 Y74.644 F1000
G1 X63.701 Y74.773 F1000
G1 X63.444 Y75.030 F1000
G1 X63.444 Y75.159 F1000
G1 X63.315 Y75.287 F1000
G1 X63.315 Y75.416 F1000
G1 X63.186 Y75.545 F1000
G1 X63.186 Y75.674 F1000
G1 X62.929 Y75.931 F1000
G1 X62.929 Y76.060 F1000
G1 X62.800 Y76.189 F1000
G1 X62.800 Y76.317 F1000
G1 X62.543 Y76.575 F1000
G1 X62.543 Y76.704 F1000
G1 X62.414 Y76.833 F1000
G1 X62.414 Y76.961 F1000
G1 X62.285 Y77.090 F1000
G1 X62.285 Y77.219 F1000
G1 X62.028 Y77.476 F1000
G1 X62.028 Y77.605 F1000
G1 X61.899 Y77.734 F1000
G0 Z3.0 ; Pen up

G0 X82.627 Y65.374 F3000 ; Travel to line 4
G0 Z0.0 ; Pen down
G1 X82.499 Y65.245 F1000
G1 X82.241 Y65.245 F1000
G1 X82.112 Y65.116 F1000
G1 X81.855 Y65.116 F1000
G1 X81.726 Y64.988 F1000
G1 X81.597 Y64.988 F1000
G1 X81.469 Y64.859 F1000
G1 X81.211 Y64.859 F1000
G1 X81.082 Y64.730 F1000
G1 X80.825 Y64.730 F1000
G1 X80.696 Y64.601 F1000
G1 X80.439 Y64.601 F1000
G1 X80.310 Y64.472 F1000
G1 X80.053 Y64.472 F1000
G1 X79.795 Y64.215 F1000
G1 X79.666 Y64.215 F1000
G1 X79.409 Y63.958 F1000
G1 X79.280 Y63.958 F1000
G1 X78.894 Y63.571 F1000
G1 X78.765 Y63.571 F1000
G1 X78.508 Y63.314 F1000
G1 X78.379 Y63.314 F1000
G1 X77.993 Y62.928 F1000
G1 X77.864 Y62.928 F1000
G1 X77.606 Y62.670 F1000
G1 X77.478 Y62.670 F1000
G1 X77.091 Y62.284 F1000
G1 X77.091 Y62.155 F1000
G1 X76.705 Y61.769 F1000
G1 X76.705 Y61.640 F1000
G1 X76.319 Y61.254 F1000
G1 X76.319 Y61.125 F1000
G1 X75.933 Y60.739 F1000
G1 X75.933 Y60.610 F1000
G1 X75.546 Y60.224 F1000
G1 X75.546 Y60.095 F1000
G1 X75.418 Y59.966 F1000
G1 X75.418 Y59.837 F1000
G1 X75.289 Y59.709 F1000
G1 X75.289 Y59.451 F1000
G1 X75.160 Y59.322 F1000
G1 X75.160 Y59.065 F1000
G1 X75.031 Y58.936 F1000
G1 X75.031 Y58.679 F1000
G1 X74.903 Y58.550 F1000
G1 X74.903 Y58.421 F1000
G1 X74.774 Y58.293 F1000
G1 X74.774 Y58.035 F1000
G1 X74.645 Y57.906 F1000
G1 X74.645 Y57.649 F1000
G1 X74.516 Y57.520 F1000
G1 X74.516 Y57.263 F1000
G1 X74.388 Y57.134 F1000
G1 X74.388 Y55.460 F1000
G1 X74.259 Y55.331 F1000
G1 X74.259 Y54.044 F1000
G1 X74.388 Y53.915 F1000
G1 X74.388 Y53.529 F1000
G1 X74.516 Y53.400 F1000
G1 X74.516 Y53.014 F1000
G1 X74.645 Y52.885 F1000
G1 X74.645 Y52.499 F1000
G1 X74.774 Y52.370 F1000
G1 X74.774 Y51.984 F1000
G1 X74.903 Y51.855 F1000
G1 X74.903 Y51.469 F1000
G1 X75.031 Y51.340 F1000
G1 X75.031 Y51.082 F1000
G1 X75.160 Y50.954 F1000
G1 X75.160 Y50.825 F1000
G1 X75.289 Y50.696 F1000
G1 X75.289 Y50.567 F1000
G1 X75.546 Y50.310 F1000
G1 X75.546 Y50.181 F1000
G1 X75.675 Y50.053 F1000
G1 X75.675 Y49.924 F1000
G1 X75.933 Y49.666 F1000
G1 X75.933 Y49.538 F1000
G1 X76.061 Y49.409 F1000
G1 X76.061 Y49.280 F1000
G1 X76.319 Y49.023 F1000
G1 X76.319 Y48.894 F1000
G1 X76.448 Y48.765 F1000
G1 X76.448 Y48.636 F1000
G1 X76.963 Y48.121 F1000
G1 X77.091 Y48.121 F1000
G1 X77.735 Y47.477 F1000
G1 X77.864 Y47.477 F1000
G1 X78.508 Y46.834 F1000
G1 X78.636 Y46.834 F1000
G1 X79.023 Y46.448 F1000
G1 X79.151 Y46.448 F1000
G1 X79.280 Y46.319 F1000
G1 X79.538 Y46.319 F1000
G1 X79.666 Y46.190 F1000
G1 X79.795 Y46.190 F1000
G1 X79.924 Y46.061 F1000
G1 X80.053 Y46.061 F1000
G1 X80.181 Y45.933 F1000
G1 X80.439 Y45.933 F1000
G1 X80.567 Y45.804 F1000
G1 X80.696 Y45.804 F1000
G1 X80.825 Y45.675 F1000
G1 X80.954 Y45.675 F1000
G1 X81.082 Y45.546 F1000
G1 X81.340 Y45.546 F1000
G1 X81.469 Y45.418 F1000
G1 X81.597 Y45.418 F1000
G1 X81.726 Y45.289 F1000
G1 X82.627 Y45.289 F1000
G1 X82.756 Y45.160 F1000
G1 X83.529 Y45.160 F1000
G1 X83.657 Y45.031 F1000
G1 X85.203 Y45.031 F1000
G1 X85.331 Y45.160 F1000
G1 X85.846 Y45.160 F1000
G1 X85.975 Y45.289 F1000
G1 X86.361 Y45.289 F1000
G1 X86.490 Y45.418 F1000
G1 X87.005 Y45.418 F1000
G1 X87.134 Y45.546 F1000
G1 X87.520 Y45.546 F1000
G1 X87.649 Y45.675 F1000
G1 X87.778 Y45.675 F1000
G1 X87.906 Y45.804 F1000
G1 X88.035 Y45.804 F1000
G1 X88.164 Y45.933 F1000
G1 X88.293 Y45.933 F1000
G1 X88.421 Y46.061 F1000
G1 X88.550 Y46.061 F1000
G1 X88.679 Y46.190 F1000
G1 X88.808 Y46.190 F1000
G1 X88.936 Y46.319 F1000
G1 X89.065 Y46.319 F1000
G1 X89.194 Y46.448 F1000
G1 X89.323 Y46.448 F1000
G1 X89.451 Y46.576 F1000
G1 X89.580 Y46.576 F1000
G1 X89.709 Y46.705 F1000
G1 X89.838 Y46.705 F1000
G1 X89.966 Y46.834 F1000
G1 X90.095 Y46.834 F1000
G1 X91.125 Y47.864 F1000
G1 X91.125 Y47.992 F1000
G1 X92.155 Y49.023 F1000
G1 X92.155 Y49.151 F1000
G1 X92.284 Y49.280 F1000
G1 X92.284 Y49.409 F1000
G1 X92.413 Y49.538 F1000
G1 X92.413 Y49.666 F1000
G1 X92.670 Y49.924 F1000
G1 X92.670 Y50.053 F1000
G1 X92.799 Y50.181 F1000
G1 X92.799 Y50.310 F1000
G1 X93.056 Y50.567 F1000
G1 X93.056 Y50.696 F1000
G1 X93.185 Y50.825 F1000
G1 X93.185 Y50.954 F1000
G1 X93.314 Y51.082 F1000
G1 X93.314 Y51.211 F1000
G1 X93.442 Y51.340 F1000
G1 X93.442 Y51.469 F1000
G1 X93.571 Y51.597 F1000
G1 X93.571 Y52.241 F1000
G1 X93.700 Y52.370 F1000
G1 X93.700 Y52.885 F1000
G1 X93.829 Y53.014 F1000
G1 X93.829 Y53.657 F1000
G1 X93.957 Y53.786 F1000
G1 X93.957 Y54.688 F1000
G1 X93.829 Y54.816 F1000
G1 X93.829 Y55.589 F1000
G1 X93.700 Y55.718 F1000
G1 X93.700 Y56.490 F1000
G1 X93.571 Y56.619 F1000
G1 X93.571 Y57.134 F1000
G1 X93.442 Y57.263 F1000
G1 X93.442 Y57.391 F1000
G1 X93.314 Y57.520 F1000
G1 X93.314 Y57.649 F1000
G1 X93.185 Y57.778 F1000
G1 X93.185 Y57.906 F1000
G1 X93.056 Y58.035 F1000
G1 X93.056 Y58.164 F1000
G1 X92.928 Y58.293 F1000
G1 X92.928 Y58.421 F1000
G1 X92.799 Y58.550 F1000
G1 X92.799 Y58.679 F1000
G1 X92.670 Y58.807 F1000
G1 X92.670 Y58.936 F1000
G1 X92.541 Y59.065 F1000
G1 X92.541 Y59.194 F1000
G1 X92.026 Y59.709 F1000
G1 X92.026 Y59.837 F1000
G1 X91.125 Y60.739 F1000
G1 X91.125 Y60.867 F1000
G1 X90.610 Y61.383 F1000
G1 X90.481 Y61.383 F1000
G1 X90.224 Y61.640 F1000
G1 X90.095 Y61.640 F1000
G1 X89.838 Y61.898 F1000
G1 X89.709 Y61.898 F1000
G1 X89.451 Y62.155 F1000
G1 X89.323 Y62.155 F1000
G1 X89.065 Y62.413 F1000
G1 X88.936 Y62.413 F1000
G1 X88.679 Y62.670 F1000
G1 X88.550 Y62.670 F1000
G1 X88.421 Y62.799 F1000
G1 X88.035 Y62.799 F1000
G1 X87.906 Y62.928 F1000
G1 X87.520 Y62.928 F1000
G1 X87.391 Y63.056 F1000
G1 X87.005 Y63.056 F1000
G1 X86.876 Y63.185 F1000
G1 X86.490 Y63.185 F1000
G1 X86.361 Y63.314 F1000
G1 X83.271 Y63.314 F1000
G1 X83.142 Y63.185 F1000
G1 X82.885 Y63.185 F1000
G1 X82.756 Y63.056 F1000
G1 X82.627 Y63.056 F1000
G1 X82.499 Y62.928 F1000
G1 X82.241 Y62.928 F1000
G1 X82.112 Y62.799 F1000
G1 X81.855 Y62.799 F1000
G1 X81.726 Y62.670 F1000
G1 X81.469 Y62.670 F1000
G1 X81.340 Y62.541 F1000
G1 X81.211 Y62.541 F1000
G1 X81.082 Y62.413 F1000
G1 X80.825 Y62.413 F1000
G1 X80.567 Y62.155 F1000
G1 X80.439 Y62.155 F1000
G1 X80.053 Y61.769 F1000
G1 X79.924 Y61.769 F1000
G1 X79.538 Y61.383 F1000
G1 X79.409 Y61.383 F1000
G1 X79.023 Y60.996 F1000
G1 X78.894 Y60.996 F1000
G1 X78.508 Y60.610 F1000
G1 X78.508 Y60.481 F1000
G1 X78.250 Y60.224 F1000
G1 X78.250 Y60.095 F1000
G1 X77.993 Y59.837 F1000
G1 X77.993 Y59.709 F1000
G1 X77.606 Y59.322 F1000
G1 X77.606 Y59.194 F1000
G1 X77.349 Y58.936 F1000
G1 X77.349 Y58.807 F1000
G1 X77.220 Y58.679 F1000
G1 X77.220 Y58.550 F1000
G1 X77.091 Y58.421 F1000
G1 X77.091 Y58.164 F1000
G1 X76.963 Y58.035 F1000
G1 X76.963 Y57.778 F1000
G1 X76.834 Y57.649 F1000
G1 X76.834 Y57.391 F1000
G1 X76.705 Y57.263 F1000
G1 X76.705 Y57.005 F1000
G1 X76.576 Y56.876 F1000
G1 X76.576 Y56.619 F1000
G1 X76.448 Y56.490 F1000
G1 X76.448 Y55.203 F1000
G1 X76.319 Y55.074 F1000
G1 X76.319 Y54.044 F1000
G1 X76.448 Y53.915 F1000
G1 X76.448 Y53.657 F1000
G1 X76.576 Y53.529 F1000
G1 X76.576 Y53.271 F1000
G1 X76.705 Y53.142 F1000
G1 X76.705 Y52.885 F1000
G1 X76.834 Y52.756 F1000
G1 X76.834 Y52.499 F1000
G1 X76.963 Y52.370 F1000
G1 X76.963 Y52.112 F1000
G1 X77.091 Y51.984 F1000
G1 X77.091 Y51.855 F1000
G1 X77.220 Y51.726 F1000
G1 X77.220 Y51.597 F1000
G1 X77.478 Y51.340 F1000
G1 X77.478 Y51.211 F1000
G1 X77.606 Y51.082 F1000
G1 X77.606 Y50.954 F1000
G1 X77.864 Y50.696 F1000
G1 X77.864 Y50.567 F1000
G1 X78.121 Y50.310 F1000
G1 X78.121 Y50.181 F1000
G1 X78.250 Y50.053 F1000
G1 X78.250 Y49.924 F1000
G1 X78.894 Y49.280 F1000
G1 X79.023 Y49.280 F1000
G1 X79.795 Y48.508 F1000
G1 X79.924 Y48.508 F1000
G1 X80.310 Y48.121 F1000
G1 X80.567 Y48.121 F1000
G1 X80.696 Y47.992 F1000
G1 X80.954 Y47.992 F1000
G1 X81.082 Y47.864 F1000
G1 X81.340 Y47.864 F1000
G1 X81.469 Y47.735 F1000
G1 X81.597 Y47.735 F1000
G1 X81.726 Y47.606 F1000
G1 X81.984 Y47.606 F1000
G1 X82.112 Y47.477 F1000
G1 X82.370 Y47.477 F1000
G1 X82.499 Y47.349 F1000
G1 X83.529 Y47.349 F1000
G1 X83.657 Y47.220 F1000
G1 X85.331 Y47.220 F1000
G1 X85.460 Y47.349 F1000
G1 X85.846 Y47.349 F1000
G1 X85.975 Y47.477 F1000
G1 X86.490 Y47.477 F1000
G1 X86.619 Y47.606 F1000
G1 X87.005 Y47.606 F1000
G1 X87.134 Y47.735 F1000
G1 X87.263 Y47.735 F1000
G1 X87.391 Y47.864 F1000
G1 X87.520 Y47.864 F1000
G1 X87.649 Y47.992 F1000
G1 X87.778 Y47.992 F1000
G1 X88.035 Y48.250 F1000
G1 X88.164 Y48.250 F1000
G1 X88.293 Y48.379 F1000
G1 X88.421 Y48.379 F1000
G1 X88.550 Y48.508 F1000
G1 X88.679 Y48.508 F1000
G1 X88.808 Y48.636 F1000
G1 X88.936 Y48.636 F1000
G1 X89.709 Y49.409 F1000
G1 X89.709 Y49.538 F1000
G1 X90.610 Y50.439 F1000
G1 X90.610 Y50.567 F1000
G1 X90.739 Y50.696 F1000
G1 X90.739 Y50.825 F1000
G1 X90.868 Y50.954 F1000
G1 X90.868 Y51.082 F1000
G1 X90.996 Y51.211 F1000
G1 X90.996 Y51.340 F1000
G1 X91.125 Y51.469 F1000
G1 X91.125 Y51.597 F1000
G1 X91.254 Y51.726 F1000
G1 X91.254 Y51.855 F1000
G1 X91.383 Y51.984 F1000
G1 X91.383 Y52.370 F1000
G1 X91.511 Y52.499 F1000
G1 X91.511 Y53.142 F1000
G1 X91.640 Y53.271 F1000
G1 X91.640 Y53.915 F1000
G1 X91.769 Y54.044 F1000
G1 X91.769 Y54.816 F1000
G1 X91.640 Y54.945 F1000
G1 X91.640 Y55.589 F1000
G1 X91.511 Y55.718 F1000
G1 X91.511 Y56.233 F1000
G1 X91.383 Y56.361 F1000
G1 X91.383 Y56.748 F1000
G1 X91.254 Y56.876 F1000
G1 X91.254 Y57.005 F1000
G1 X91.125 Y57.134 F1000
G1 X91.125 Y57.263 F1000
G1 X90.996 Y57.391 F1000
G1 X90.996 Y57.520 F1000
G1 X90.868 Y57.649 F1000
G1 X90.868 Y57.778 F1000
G1 X90.739 Y57.906 F1000
G1 X90.739 Y58.035 F1000
G1 X90.610 Y58.164 F1000
G1 X90.610 Y58.293 F1000
G1 X89.065 Y59.837 F1000
G1 X88.936 Y59.837 F1000
G1 X88.679 Y60.095 F1000
G1 X88.550 Y60.095 F1000
G1 X88.293 Y60.352 F1000
G1 X88.164 Y60.352 F1000
G1 X88.035 Y60.481 F1000
G1 X87.906 Y60.481 F1000
G1 X87.649 Y60.739 F1000
G1 X87.520 Y60.739 F1000
G1 X87.391 Y60.867 F1000
G1 X87.005 Y60.867 F1000
G1 X86.876 Y60.996 F1000
G1 X86.490 Y60.996 F1000
G1 X86.361 Y61.125 F1000
G1 X86.104 Y61.125 F1000
G1 X85.975 Y61.254 F1000
G1 X84.559 Y61.254 F1000
G1 X84.430 Y61.125 F1000
G1 X83.529 Y61.125 F1000
G1 X83.400 Y60.996 F1000
G1 X83.142 Y60.996 F1000
G1 X83.014 Y60.867 F1000
G1 X82.756 Y60.867 F1000
G1 X82.627 Y60.739 F1000
G1 X82.499 Y60.739 F1000
G1 X82.370 Y60.610 F1000
G1 X82.112 Y60.610 F1000
G1 X81.984 Y60.481 F1000
G1 X81.726 Y60.481 F1000
G1 X81.340 Y60.095 F1000
G1 X81.211 Y60.095 F1000
G1 X80.567 Y59.451 F1000
G1 X80.439 Y59.451 F1000
G1 X79.924 Y58.936 F1000
G1 X79.924 Y58.807 F1000
G1 X79.666 Y58.550 F1000
G1 X79.666 Y58.421 F1000
G1 X79.409 Y58.164 F1000
G1 X79.409 Y58.035 F1000
G1 X79.151 Y57.778 F1000
G1 X79.151 Y57.649 F1000
G1 X79.023 Y57.520 F1000
G1 X79.023 Y57.391 F1000
G1 X78.894 Y57.263 F1000
G1 X78.894 Y57.005 F1000
G1 X78.765 Y56.876 F1000
G1 X78.765 Y56.490 F1000
G1 X78.636 Y56.361 F1000
G1 X78.636 Y56.104 F1000
G1 X78.508 Y55.975 F1000
G1 X78.508 Y54.044 F1000
G1 X78.636 Y53.915 F1000
G1 X78.636 Y53.657 F1000
G1 X78.765 Y53.529 F1000
G1 X78.765 Y53.142 F1000
G1 X78.894 Y53.014 F1000
G1 X78.894 Y52.756 F1000
G1 X79.023 Y52.627 F1000
G1 X79.023 Y52.499 F1000
G1 X79.151 Y52.370 F1000
G1 X79.151 Y52.241 F1000
G1 X79.538 Y51.855 F1000
G1 X79.538 Y51.726 F1000
G1 X79.924 Y51.340 F1000
G1 X79.924 Y51.211 F1000
G1 X80.310 Y50.825 F1000
G1 X80.439 Y50.825 F1000
G1 X80.825 Y50.439 F1000
G1 X80.954 Y50.439 F1000
G1 X81.211 Y50.181 F1000
G1 X81.340 Y50.181 F1000
G1 X81.597 Y49.924 F1000
G1 X81.855 Y49.924 F1000
G1 X81.984 Y49.795 F1000
G1 X82.241 Y49.795 F1000
G1 X82.370 Y49.666 F1000
G1 X82.627 Y49.666 F1000
G1 X82.756 Y49.538 F1000
G1 X83.014 Y49.538 F1000
G1 X83.142 Y49.409 F1000
G1 X85.331 Y49.409 F1000
G1 X85.460 Y49.538 F1000
G1 X85.846 Y49.538 F1000
G1 X85.975 Y49.666 F1000
G1 X86.361 Y49.666 F1000
G1 X86.490 Y49.795 F1000
G1 X86.619 Y49.795 F1000
G1 X86.876 Y50.053 F1000
G1 X87.005 Y50.053 F1000
G1 X87.263 Y50.310 F1000
G1 X87.391 Y50.310 F1000
G1 X87.649 Y50.567 F1000
G1 X87.778 Y50.567 F1000
G1 X88.293 Y51.082 F1000
G1 X88.293 Y51.211 F1000
G1 X88.936 Y51.855 F1000
G1 X88.936 Y51.984 F1000
G1 X89.065 Y52.112 F1000
G1 X89.065 Y52.241 F1000
G1 X89.194 Y52.370 F1000
G1 X89.194 Y52.499 F1000
G1 X89.323 Y52.627 F1000
G1 X89.323 Y52.756 F1000
G1 X89.451 Y52.885 F1000
G1 X89.451 Y53.657 F1000
G1 X89.580 Y53.786 F1000
G1 X89.580 Y54.945 F1000
G1 X89.451 Y55.074 F1000
G1 X89.451 Y55.718 F1000
G1 X89.323 Y55.846 F1000
G1 X89.323 Y56.233 F1000
G1 X89.194 Y56.361 F1000
G1 X89.194 Y56.490 F1000
G1 X89.065 Y56.619 F1000
G1 X89.065 Y56.748 F1000
G1 X88.936 Y56.876 F1000
G1 X88.936 Y57.005 F1000
G1 X87.649 Y58.293 F1000
G1 X87.520 Y58.293 F1000
G1 X87.391 Y58.421 F1000
G1 X87.263 Y58.421 F1000
G1 X87.134 Y58.550 F1000
G1 X87.005 Y58.550 F1000
G1 X86.876 Y58.679 F1000
G1 X86.748 Y58.679 F1000
G1 X86.619 Y58.807 F1000
G1 X86.490 Y58.807 F1000
G1 X86.361 Y58.936 F1000
G1 X85.846 Y58.936 F1000
G1 X85.718 Y59.065 F1000
G1 X83.786 Y59.065 F1000
G1 X83.657 Y58.936 F1000
G1 X83.529 Y58.936 F1000
G1 X83.400 Y58.807 F1000
G1 X83.271 Y58.807 F1000
G1 X83.142 Y58.679 F1000
G1 X82.885 Y58.679 F1000
G1 X82.756 Y58.550 F1000
G1 X82.627 Y58.550 F1000
G1 X81.469 Y57.391 F1000
G1 X81.469 Y57.263 F1000
G1 X81.340 Y57.134 F1000
G1 X81.340 Y57.005 F1000
G1 X81.082 Y56.748 F1000
G1 X81.082 Y56.619 F1000
G1 X80.954 Y56.490 F1000
G1 X80.954 Y56.361 F1000
G1 X80.825 Y56.233 F1000
G1 X80.825 Y55.975 F1000
G1 X80.696 Y55.846 F1000
G1 X80.696 Y55.589 F1000
G1 X80.567 Y55.460 F1000
G1 X80.567 Y55.074 F1000
G1 X80.696 Y54.945 F1000
G1 X80.696 Y54.301 F1000
G1 X80.825 Y54.172 F1000
G1 X80.825 Y54.044 F1000
G1 X80.954 Y53.915 F1000
G1 X80.954 Y53.657 F1000
G1 X81.082 Y53.529 F1000
G1 X81.082 Y53.400 F1000
G1 X81.211 Y53.271 F1000
G1 X81.211 Y53.142 F1000
G1 X81.597 Y52.756 F1000
G1 X81.597 Y52.627 F1000
G1 X81.984 Y52.241 F1000
G1 X82.112 Y52.241 F1000
G1 X82.370 Y51.984 F1000
G1 X82.499 Y51.984 F1000
G1 X82.756 Y51.726 F1000
G1 X83.142 Y51.726 F1000
G1 X83.271 Y51.597 F1000
G1 X85.203 Y51.597 F1000
G1 X85.331 Y51.726 F1000
G1 X85.718 Y51.726 F1000
G1 X85.846 Y51.855 F1000
G1 X85.975 Y51.855 F1000
G1 X86.233 Y52.112 F1000
G1 X86.361 Y52.112 F1000
G1 X86.876 Y52.627 F1000
G1 X86.876 Y52.756 F1000
G1 X87.263 Y53.142 F1000
G1 X87.263 Y53.400 F1000
G1 X87.391 Y53.529 F1000
G1 X87.391 Y55.203 F1000
G1 X87.263 Y55.331 F1000
G1 X87.263 Y55.460 F1000
G1 X87.134 Y55.589 F1000
G1 X87.134 Y55.718 F1000
G1 X86.876 Y55.975 F1000
G1 X86.876 Y56.104 F1000
G1 X86.619 Y56.361 F1000
G1 X86.490 Y56.361 F1000
G1 X86.233 Y56.619 F1000
G1 X86.104 Y56.619 F1000
G1 X85.846 Y56.876 F1000
G1 X85.718 Y56.876 F1000
G1 X85.589 Y57.005 F1000
G1 X84.945 Y57.005 F1000
G1 X84.816 Y56.876 F1000
G1 X84.172 Y56.876 F1000
G1 X84.044 Y56.748 F1000
G1 X83.915 Y56.748 F1000
G1 X83.786 Y56.619 F1000
G1 X83.657 Y56.619 F1000
G1 X82.885 Y55.846 F1000
G1 X82.885 Y55.589 F1000
G1 X82.756 Y55.460 F1000
G1 X82.756 Y55.074 F1000
G1 X82.885 Y54.945 F1000
G1 X82.885 Y54.559 F1000
G1 X83.014 Y54.430 F1000
G1 X83.014 Y54.172 F1000
G1 X83.271 Y53.915 F1000
G1 X83.400 Y53.915 F1000
G1 X83.657 Y53.657 F1000
G1 X84.688 Y53.657 F1000
G1 X84.816 Y53.786 F1000
G1 X84.945 Y53.786 F1000
G1 X85.331 Y54.172 F1000
G1 X85.331 Y54.559 F1000
G1 X85.331 Y54.172 F1000
G1 X84.945 Y53.786 F1000
G1 X84.688 Y53.786 F1000
G1 X84.559 Y53.657 F1000
G1 X83.786 Y53.657 F1000
G1 X83.657 Y53.786 F1000
G1 X83.529 Y53.786 F1000
G1 X83.271 Y54.044 F1000
G1 X83.142 Y54.044 F1000
G1 X83.014 Y54.172 F1000
G1 X83.014 Y54.430 F1000
G1 X82.885 Y54.559 F1000
G1 X82.885 Y54.945 F1000
G1 X82.756 Y55.074 F1000
G1 X82.756 Y55.460 F1000
G1 X82.885 Y55.589 F1000
G1 X82.885 Y55.718 F1000
G1 X83.014 Y55.846 F1000
G1 X83.014 Y55.975 F1000
G1 X83.657 Y56.619 F1000
G1 X83.915 Y56.619 F1000
G1 X84.044 Y56.748 F1000
G1 X84.172 Y56.748 F1000
G1 X84.301 Y56.876 F1000
G1 X84.816 Y56.876 F1000
G1 X84.945 Y57.005 F1000
G1 X85.589 Y57.005 F1000
G1 X85.718 Y56.876 F1000
G1 X85.846 Y56.876 F1000
G1 X86.104 Y56.619 F1000
G1 X86.233 Y56.619 F1000
G1 X86.490 Y56.361 F1000
G1 X86.619 Y56.361 F1000
G1 X86.876 Y56.104 F1000
G1 X86.876 Y55.975 F1000
G1 X87.134 Y55.718 F1000
G1 X87.134 Y55.589 F1000
G1 X87.263 Y55.460 F1000
G1 X87.263 Y55.331 F1000
G1 X87.391 Y55.203 F1000
G1 X87.391 Y53.529 F1000
G1 X87.263 Y53.400 F1000
G1 X87.263 Y53.142 F1000
G1 X86.876 Y52.756 F1000
G1 X86.876 Y52.627 F1000
G1 X86.490 Y52.241 F1000
G1 X86.361 Y52.241 F1000
G1 X86.104 Y51.984 F1000
G1 X85.975 Y51.984 F1000
G1 X85.718 Y51.726 F1000
G1 X85.331 Y51.726 F1000
G1 X85.203 Y51.597 F1000
G1 X83.400 Y51.597 F1000
G1 X83.271 Y51.726 F1000
G1 X82.756 Y51.726 F1000
G1 X82.499 Y51.984 F1000
G1 X82.370 Y51.984 F1000
G1 X82.112 Y52.241 F1000
G1 X81.984 Y52.241 F1000
G1 X81.597 Y52.627 F1000
G1 X81.597 Y52.756 F1000
G1 X81.211 Y53.142 F1000
G1 X81.211 Y53.271 F1000
G1 X81.082 Y53.400 F1000
G1 X81.082 Y53.529 F1000
G1 X80.954 Y53.657 F1000
G1 X80.954 Y53.915 F1000
G1 X80.825 Y54.044 F1000
G1 X80.825 Y54.172 F1000
G1 X80.696 Y54.301 F1000
G1 X80.696 Y54.945 F1000
G1 X80.567 Y55.074 F1000
G1 X80.567 Y55.460 F1000
G1 X80.696 Y55.589 F1000
G1 X80.696 Y55.846 F1000
G1 X80.825 Y55.975 F1000
G1 X80.825 Y56.233 F1000
G1 X80.954 Y56.361 F1000
G1 X80.954 Y56.490 F1000
G1 X81.082 Y56.619 F1000
G1 X81.082 Y56.748 F1000
G1 X81.340 Y57.005 F1000
G1 X81.340 Y57.134 F1000
G1 X81.469 Y57.263 F1000
G1 X81.469 Y57.391 F1000
G1 X82.627 Y58.550 F1000
G1 X82.885 Y58.550 F1000
G1 X83.014 Y58.679 F1000
G1 X83.142 Y58.679 F1000
G1 X83.271 Y58.807 F1000
G1 X83.529 Y58.807 F1000
G1 X83.657 Y58.936 F1000
G1 X83.786 Y58.936 F1000
G1 X83.915 Y59.065 F1000
G1 X85.589 Y59.065 F1000
G1 X85.718 Y58.936 F1000
G1 X86.233 Y58.936 F1000
G1 X86.361 Y58.807 F1000
G1 X86.490 Y58.807 F1000
G1 X86.619 Y58.679 F1000
G1 X86.748 Y58.679 F1000
G1 X86.876 Y58.550 F1000
G1 X87.005 Y58.550 F1000
G1 X87.134 Y58.421 F1000
G1 X87.263 Y58.421 F1000
G1 X87.391 Y58.293 F1000
G1 X87.649 Y58.293 F1000
G1 X88.808 Y57.134 F1000
G1 X88.808 Y57.005 F1000
G1 X88.936 Y56.876 F1000
G1 X88.936 Y56.748 F1000
G1 X89.065 Y56.619 F1000
G1 X89.065 Y56.490 F1000
G1 X89.194 Y56.361 F1000
G1 X89.194 Y56.233 F1000
G1 X89.323 Y56.104 F1000
G1 X89.323 Y55.846 F1000
G1 X89.451 Y55.718 F1000
G1 X89.451 Y55.074 F1000
G1 X89.580 Y54.945 F1000
G1 X89.580 Y53.786 F1000
G1 X89.451 Y53.657 F1000
G1 X89.451 Y52.885 F1000
G1 X89.323 Y52.756 F1000
G1 X89.323 Y52.627 F1000
G1 X89.194 Y52.499 F1000
G1 X89.194 Y52.370 F1000
G1 X89.065 Y52.241 F1000
G1 X89.065 Y52.112 F1000
G1 X88.936 Y51.984 F1000
G1 X88.936 Y51.855 F1000
G1 X88.293 Y51.211 F1000
G1 X88.293 Y51.082 F1000
G1 X87.778 Y50.567 F1000
G1 X87.649 Y50.567 F1000
G1 X87.391 Y50.310 F1000
G1 X87.263 Y50.310 F1000
G1 X87.005 Y50.053 F1000
G1 X86.876 Y50.053 F1000
G1 X86.619 Y49.795 F1000
G1 X86.490 Y49.795 F1000
G1 X86.361 Y49.666 F1000
G1 X85.846 Y49.666 F1000
G1 X85.718 Y49.538 F1000
G1 X85.331 Y49.538 F1000
G1 X85.203 Y49.409 F1000
G1 X83.271 Y49.409 F1000
G1 X83.142 Y49.538 F1000
G1 X82.885 Y49.538 F1000
G1 X82.756 Y49.666 F1000
G1 X82.499 Y49.666 F1000
G1 X82.370 Y49.795 F1000
G1 X82.112 Y49.795 F1000
G1 X81.984 Y49.924 F1000
G1 X81.597 Y49.924 F1000
G1 X81.340 Y50.181 F1000
G1 X81.211 Y50.181 F1000
G1 X80.825 Y50.567 F1000
G1 X80.696 Y50.567 F1000
G1 X80.439 Y50.825 F1000
G1 X80.310 Y50.825 F1000
G1 X79.924 Y51.211 F1000
G1 X79.924 Y51.340 F1000
G1 X79.538 Y51.726 F1000
G1 X79.538 Y51.855 F1000
G1 X79.151 Y52.241 F1000
G1 X79.151 Y52.370 F1000
G1 X79.023 Y52.499 F1000
G1 X79.023 Y52.627 F1000
G1 X78.894 Y52.756 F1000
G1 X78.894 Y53.014 F1000
G1 X78.765 Y53.142 F1000
G1 X78.765 Y53.529 F1000
G1 X78.636 Y53.657 F1000
G1 X78.636 Y53.915 F1000
G1 X78.508 Y54.044 F1000
G1 X78.508 Y55.975 F1000
G1 X78.636 Y56.104 F1000
G1 X78.636 Y56.361 F1000
G1 X78.765 Y56.490 F1000
G1 X78.765 Y56.876 F1000
G1 X78.894 Y57.005 F1000
G1 X78.894 Y57.263 F1000
G1 X79.023 Y57.391 F1000
G1 X79.023 Y57.520 F1000
G1 X79.151 Y57.649 F1000
G1 X79.151 Y57.778 F1000
G1 X79.409 Y58.035 F1000
G1 X79.409 Y58.164 F1000
G1 X79.666 Y58.421 F1000
G1 X79.666 Y58.550 F1000
G1 X79.924 Y58.807 F1000
G1 X79.924 Y58.936 F1000
G1 X80.439 Y59.451 F1000
G1 X80.567 Y59.451 F1000
G1 X81.211 Y60.095 F1000
G1 X81.340 Y60.095 F1000
G1 X81.726 Y60.481 F1000
G1 X82.112 Y60.481 F1000
G1 X82.241 Y60.610 F1000
G1 X82.499 Y60.610 F1000
G1 X82.627 Y60.739 F1000
G1 X82.756 Y60.739 F1000
G1 X82.885 Y60.867 F1000
G1 X83.142 Y60.867 F1000
G1 X83.271 Y60.996 F1000
G1 X83.529 Y60.996 F1000
G1 X83.657 Y61.125 F1000
G1 X84.430 Y61.125 F1000
G1 X84.559 Y61.254 F1000
G1 X85.846 Y61.254 F1000
G1 X85.975 Y61.125 F1000
G1 X86.361 Y61.125 F1000
G1 X86.490 Y60.996 F1000
G1 X86.748 Y60.996 F1000
G1 X86.876 Y60.867 F1000
G1 X87.391 Y60.867 F1000
G1 X87.520 Y60.739 F1000
G1 X87.649 Y60.739 F1000
G1 X87.906 Y60.481 F1000
G1 X88.035 Y60.481 F1000
G1 X88.293 Y60.224 F1000
G1 X88.421 Y60.224 F1000
G1 X88.550 Y60.095 F1000
G1 X88.679 Y60.095 F1000
G1 X88.936 Y59.837 F1000
G1 X89.065 Y59.837 F1000
G1 X90.610 Y58.293 F1000
G1 X90.610 Y58.164 F1000
G1 X90.739 Y58.035 F1000
G1 X90.739 Y57.906 F1000
G1 X90.868 Y57.778 F1000
G1 X90.868 Y57.649 F1000
G1 X90.996 Y57.520 F1000
G1 X90.996 Y57.391 F1000
G1 X91.125 Y57.263 F1000
G1 X91.125 Y57.134 F1000
G1 X91.254 Y57.005 F1000
G1 X91.254 Y56.876 F1000
G1 X91.383 Y56.748 F1000
G1 X91.383 Y56.361 F1000
G1 X91.511 Y56.233 F1000
G1 X91.511 Y55.718 F1000
G1 X91.640 Y55.589 F1000
G1 X91.640 Y54.945 F1000
G1 X91.769 Y54.816 F1000
G1 X91.769 Y54.044 F1000
G1 X91.640 Y53.915 F1000
G1 X91.640 Y53.271 F1000
G1 X91.511 Y53.142 F1000
G1 X91.511 Y52.499 F1000
G1 X91.383 Y52.370 F1000
G1 X91.383 Y51.984 F1000
G1 X91.254 Y51.855 F1000
G1 X91.254 Y51.726 F1000
G1 X91.125 Y51.597 F1000
G1 X91.125 Y51.469 F1000
G1 X90.996 Y51.340 F1000
G1 X90.996 Y51.211 F1000
G1 X90.868 Y51.082 F1000
G1 X90.868 Y50.954 F1000
G1 X90.739 Y50.825 F1000
G1 X90.739 Y50.696 F1000
G1 X90.610 Y50.567 F1000
G1 X90.610 Y50.439 F1000
G1 X89.709 Y49.538 F1000
G1 X89.709 Y49.409 F1000
G1 X88.936 Y48.636 F1000
G1 X88.679 Y48.636 F1000
G1 X88.550 Y48.508 F1000
G1 X88.421 Y48.508 F1000
G1 X88.293 Y48.379 F1000
G1 X88.164 Y48.379 F1000
G1 X87.906 Y48.121 F1000
G1 X87.778 Y48.121 F1000
G1 X87.649 Y47.992 F1000
G1 X87.520 Y47.992 F1000
G1 X87.391 Y47.864 F1000
G1 X87.263 Y47.864 F1000
G1 X87.134 Y47.735 F1000
G1 X87.005 Y47.735 F1000
G1 X86.876 Y47.606 F1000
G1 X86.490 Y47.606 F1000
G1 X86.361 Y47.477 F1000
G1 X85.975 Y47.477 F1000
G1 X85.846 Y47.349 F1000
G1 X85.331 Y47.349 F1000
G1 X85.203 Y47.220 F1000
G1 X83.786 Y47.220 F1000
G1 X83.657 Y47.349 F1000
G1 X82.627 Y47.349 F1000
G1 X82.499 Y47.477 F1000
G1 X82.241 Y47.477 F1000
G1 X82.112 Y47.606 F1000
G1 X81.855 Y47.606 F1000
G1 X81.726 Y47.735 F1000
G1 X81.469 Y47.735 F1000
G1 X81.340 Y47.864 F1000
G1 X81.211 Y47.864 F1000
G1 X81.082 Y47.992 F1000
G1 X80.825 Y47.992 F1000
G1 X80.696 Y48.121 F1000
G1 X80.310 Y48.121 F1000
G1 X79.795 Y48.636 F1000
G1 X79.666 Y48.636 F1000
G1 X78.894 Y49.409 F1000
G1 X78.765 Y49.409 F1000
G1 X78.250 Y49.924 F1000
G1 X78.250 Y50.053 F1000
G1 X78.121 Y50.181 F1000
G1 X78.121 Y50.310 F1000
G1 X77.864 Y50.567 F1000
G1 X77.864 Y50.696 F1000
G1 X77.606 Y50.954 F1000
G1 X77.606 Y51.082 F1000
G1 X77.478 Y51.211 F1000
G1 X77.478 Y51.340 F1000
G1 X77.220 Y51.597 F1000
G1 X77.220 Y51.726 F1000
G1 X77.091 Y51.855 F1000
G1 X77.091 Y51.984 F1000
G1 X76.963 Y52.112 F1000
G1 X76.963 Y52.370 F1000
G1 X76.834 Y52.499 F1000
G1 X76.834 Y52.756 F1000
G1 X76.705 Y52.885 F1000
G1 X76.705 Y53.142 F1000
G1 X76.576 Y53.271 F1000
G1 X76.576 Y53.529 F1000
G1 X76.448 Y53.657 F1000
G1 X76.448 Y53.915 F1000
G1 X76.319 Y54.044 F1000
G1 X76.319 Y55.074 F1000
G1 X76.448 Y55.203 F1000
G1 X76.448 Y56.490 F1000
G1 X76.576 Y56.619 F1000
G1 X76.576 Y56.876 F1000
G1 X76.705 Y57.005 F1000
G1 X76.705 Y57.263 F1000
G1 X76.834 Y57.391 F1000
G1 X76.834 Y57.649 F1000
G1 X76.963 Y57.778 F1000
G1 X76.963 Y58.035 F1000
G1 X77.091 Y58.164 F1000
G1 X77.091 Y58.421 F1000
G1 X77.220 Y58.550 F1000
G1 X77.220 Y58.679 F1000
G1 X77.349 Y58.807 F1000
G1 X77.349 Y58.936 F1000
G1 X77.606 Y59.194 F1000
G1 X77.606 Y59.322 F1000
G1 X77.993 Y59.709 F1000
G1 X77.993 Y59.837 F1000
G1 X78.250 Y60.095 F1000
G1 X78.250 Y60.224 F1000
G1 X78.508 Y60.481 F1000
G1 X78.508 Y60.610 F1000
G1 X78.894 Y60.996 F1000
G1 X79.023 Y60.996 F1000
G1 X79.409 Y61.383 F1000
G1 X79.538 Y61.383 F1000
G1 X79.924 Y61.769 F1000
G1 X80.053 Y61.769 F1000
G1 X80.439 Y62.155 F1000
G1 X80.567 Y62.155 F1000
G1 X80.825 Y62.413 F1000
G1 X81.211 Y62.413 F1000
G1 X81.340 Y62.541 F1000
G1 X81.469 Y62.541 F1000
G1 X81.597 Y62.670 F1000
G1 X81.855 Y62.670 F1000
G1 X81.984 Y62.799 F1000
G1 X82.241 Y62.799 F1000
G1 X82.370 Y62.928 F1000
G1 X82.627 Y62.928 F1000
G1 X82.756 Y63.056 F1000
G1 X82.885 Y63.056 F1000
G1 X83.014 Y63.185 F1000
G1 X83.271 Y63.185 F1000
G1 X83.400 Y63.314 F1000
G1 X86.233 Y63.314 F1000
G1 X86.361 Y63.185 F1000
G1 X86.748 Y63.185 F1000
G1 X86.876 Y63.056 F1000
G1 X87.263 Y63.056 F1000
G1 X87.391 Y62.928 F1000
G1 X87.778 Y62.928 F1000
G1 X87.906 Y62.799 F1000
G1 X88.421 Y62.799 F1000
G1 X88.550 Y62.670 F1000
G1 X88.679 Y62.670 F1000
G1 X88.936 Y62.413 F1000
G1 X89.065 Y62.413 F1000
G1 X89.323 Y62.155 F1000
G1 X89.451 Y62.155 F1000
G1 X89.709 Y61.898 F1000
G1 X89.838 Y61.898 F1000
G1 X90.095 Y61.640 F1000
G1 X90.224 Y61.640 F1000
G1 X90.481 Y61.383 F1000
G1 X90.610 Y61.383 F1000
G1 X91.125 Y60.867 F1000
G1 X91.125 Y60.739 F1000
G1 X92.026 Y59.837 F1000
G1 X92.026 Y59.709 F1000
G1 X92.541 Y59.194 F1000
G1 X92.541 Y59.065 F1000
G1 X92.670 Y58.936 F1000
G1 X92.670 Y58.807 F1000
G1 X92.799 Y58.679 F1000
G1 X92.799 Y58.550 F1000
G1 X92.928 Y58.421 F1000
G1 X92.928 Y58.293 F1000
G1 X93.056 Y58.164 F1000
G1 X93.056 Y58.035 F1000
G1 X93.185 Y57.906 F1000
G1 X93.185 Y57.778 F1000
G1 X93.314 Y57.649 F1000
G1 X93.314 Y57.520 F1000
G1 X93.442 Y57.391 F1000
G1 X93.442 Y57.263 F1000
G1 X93.571 Y57.134 F1000
G1 X93.571 Y56.619 F1000
G1 X93.700 Y56.490 F1000
G1 X93.700 Y55.718 F1000
G1 X93.829 Y55.589 F1000
G1 X93.829 Y54.816 F1000
G1 X93.957 Y54.688 F1000
G1 X93.957 Y53.786 F1000
G1 X93.829 Y53.657 F1000
G1 X93.829 Y53.014 F1000
G1 X93.700 Y52.885 F1000
G1 X93.700 Y52.370 F1000
G1 X93.571 Y52.241 F1000
G1 X93.571 Y51.597 F1000
G1 X93.442 Y51.469 F1000
G1 X93.442 Y51.340 F1000
G1 X93.314 Y51.211 F1000
G1 X93.314 Y51.082 F1000
G1 X93.185 Y50.954 F1000
G1 X93.185 Y50.825 F1000
G1 X93.056 Y50.696 F1000
G1 X93.056 Y50.567 F1000
G1 X92.799 Y50.310 F1000
G1 X92.799 Y50.181 F1000
G1 X92.670 Y50.053 F1000
G1 X92.670 Y49.924 F1000
G1 X92.413 Y49.666 F1000
G1 X92.413 Y49.538 F1000
G1 X92.284 Y49.409 F1000
G1 X92.284 Y49.280 F1000
G1 X92.155 Y49.151 F1000
G1 X92.155 Y49.023 F1000
G1 X91.125 Y47.992 F1000
G1 X91.125 Y47.864 F1000
G1 X90.095 Y46.834 F1000
G1 X89.838 Y46.834 F1000
G1 X89.709 Y46.705 F1000
G1 X89.580 Y46.705 F1000
G1 X89.451 Y46.576 F1000
G1 X89.323 Y46.576 F1000
G1 X89.194 Y46.448 F1000
G1 X89.065 Y46.448 F1000
G1 X88.936 Y46.319 F1000
G1 X88.808 Y46.319 F1000
G1 X88.679 Y46.190 F1000
G1 X88.550 Y46.190 F1000
G1 X88.421 Y46.061 F1000
G1 X88.293 Y46.061 F1000
G1 X88.164 Y45.933 F1000
G1 X88.035 Y45.933 F1000
G1 X87.906 Y45.804 F1000
G1 X87.778 Y45.804 F1000
G1 X87.649 Y45.675 F1000
G1 X87.520 Y45.675 F1000
G1 X87.391 Y45.546 F1000
G1 X87.005 Y45.546 F1000
G1 X86.876 Y45.418 F1000
G1 X86.361 Y45.418 F1000
G1 X86.233 Y45.289 F1000
G1 X85.846 Y45.289 F1000
G1 X85.718 Y45.160 F1000
G1 X85.203 Y45.160 F1000
G1 X85.074 Y45.031 F1000
G1 X83.786 Y45.031 F1000
G1 X83.657 Y45.160 F1000
G1 X82.885 Y45.160 F1000
G1 X82.756 Y45.289 F1000
G1 X81.855 Y45.289 F1000
G1 X81.726 Y45.418 F1000
G1 X81.597 Y45.418 F1000
G1 X81.469 Y45.546 F1000
G1 X81.211 Y45.546 F1000
G1 X81.082 Y45.675 F1000
G1 X80.954 Y45.675 F1000
G1 X80.825 Y45.804 F1000
G1 X80.696 Y45.804 F1000
G1 X80.567 Y45.933 F1000
G1 X80.310 Y45.933 F1000
G1 X80.181 Y46.061 F1000
G1 X80.053 Y46.061 F1000
G1 X79.924 Y46.190 F1000
G1 X79.795 Y46.190 F1000
G1 X79.666 Y46.319 F1000
G1 X79.409 Y46.319 F1000
G1 X79.280 Y46.448 F1000
G1 X79.023 Y46.448 F1000
G1 X78.636 Y46.834 F1000
G1 X78.508 Y46.834 F1000
G1 X77.864 Y47.477 F1000
G1 X77.735 Y47.477 F1000
G1 X77.091 Y48.121 F1000
G1 X76.963 Y48.121 F1000
G1 X76.448 Y48.636 F1000
G1 X76.448 Y48.765 F1000
G1 X76.319 Y48.894 F1000
G1 X76.319 Y49.023 F1000
G1 X76.061 Y49.280 F1000
G1 X76.061 Y49.409 F1000
G1 X75.933 Y49.538 F1000
G1 X75.933 Y49.666 F1000
G1 X75.675 Y49.924 F1000
G1 X75.675 Y50.053 F1000
G1 X75.546 Y50.181 F1000
G1 X75.546 Y50.310 F1000
G1 X75.289 Y50.567 F1000
G1 X75.289 Y50.696 F1000
G1 X75.160 Y50.825 F1000
G1 X75.160 Y50.954 F1000
G1 X75.031 Y51.082 F1000
G1 X75.031 Y51.340 F1000
G1 X74.903 Y51.469 F1000
G1 X74.903 Y51.855 F1000
G1 X74.774 Y51.984 F1000
G1 X74.774 Y52.370 F1000
G1 X74.645 Y52.499 F1000
G1 X74.645 Y52.885 F1000
G1 X74.516 Y53.014 F1000
G1 X74.516 Y53.400 F1000
G1 X74.388 Y53.529 F1000
G1 X74.388 Y53.915 F1000
G1 X74.259 Y54.044 F1000
G1 X74.259 Y55.331 F1000
G1 X74.388 Y55.460 F1000
G1 X74.388 Y57.134 F1000
G1 X74.516 Y57.263 F1000
G1 X74.516 Y57.520 F1000
G1 X74.645 Y57.649 F1000
G1 X74.645 Y57.906 F1000
G1 X74.774 Y58.035 F1000
G1 X74.774 Y58.293 F1000
G1 X74.903 Y58.421 F1000
G1 X74.903 Y58.550 F1000
G1 X75.031 Y58.679 F1000
G1 X75.031 Y58.936 F1000
G1 X75.160 Y59.065 F1000
G1 X75.160 Y59.322 F1000
G1 X75.289 Y59.451 F1000
G1 X75.289 Y59.709 F1000
G1 X75.418 Y59.837 F1000
G1 X75.418 Y59.966 F1000
G1 X75.546 Y60.095 F1000
G1 X75.546 Y60.224 F1000
G1 X75.933 Y60.610 F1000
G1 X75.933 Y60.739 F1000
G1 X76.319 Y61.125 F1000
G1 X76.319 Y61.254 F1000
G1 X76.705 Y61.640 F1000
G1 X76.705 Y61.769 F1000
G1 X77.091 Y62.155 F1000
G1 X77.091 Y62.284 F1000
G1 X77.478 Y62.670 F1000
G1 X77.606 Y62.670 F1000
G1 X77.864 Y62.928 F1000
G1 X77.993 Y62.928 F1000
G1 X78.379 Y63.314 F1000
G1 X78.508 Y63.314 F1000
G1 X78.765 Y63.571 F1000
G1 X78.894 Y63.571 F1000
G1 X79.280 Y63.958 F1000
G1 X79.409 Y63.958 F1000
G1 X79.666 Y64.215 F1000
G1 X79.795 Y64.215 F1000
G1 X80.053 Y64.472 F1000
G1 X80.439 Y64.472 F1000
G1 X80.567 Y64.601 F1000
G1 X80.825 Y64.601 F1000
G1 X80.954 Y64.730 F1000
G1 X81.211 Y64.730 F1000
G1 X81.340 Y64.859 F1000
G1 X81.469 Y64.859 F1000
G1 X81.597 Y64.988 F1000
G1 X81.855 Y64.988 F1000
G1 X81.984 Y65.116 F1000
G1 X82.241 Y65.116 F1000
G1 X82.370 Y65.245 F1000
G1 X82.627 Y65.245 F1000
G1 X82.756 Y65.374 F1000
G1 X83.014 Y65.374 F1000
G0 Z3.0 ; Pen up

G0 X77.735 Y118.161 F3000 ; Travel to line 5
G0 Z0.0 ; Pen down
G1 X77.735 Y118.032 F1000
G1 X77.349 Y117.646 F1000
G1 X77.349 Y117.517 F1000
G1 X76.963 Y117.131 F1000
G1 X76.963 Y117.002 F1000
G1 X76.576 Y116.616 F1000
G1 X76.576 Y116.487 F1000
G1 X76.190 Y116.101 F1000
G1 X76.190 Y115.972 F1000
G1 X75.804 Y115.586 F1000
G1 X75.804 Y115.457 F1000
G1 X75.418 Y115.071 F1000
G1 X75.418 Y114.942 F1000
G1 X75.031 Y114.556 F1000
G1 X75.031 Y114.428 F1000
G1 X74.645 Y114.041 F1000
G1 X74.645 Y113.913 F1000
G1 X74.259 Y113.526 F1000
G1 X74.259 Y113.398 F1000
G1 X73.873 Y113.011 F1000
G1 X73.873 Y112.883 F1000
G1 X73.486 Y112.496 F1000
G1 X73.486 Y112.368 F1000
G1 X73.100 Y111.981 F1000
G1 X73.100 Y111.853 F1000
G1 X72.714 Y111.466 F1000
G1 X72.714 Y111.338 F1000
G1 X72.328 Y110.951 F1000
G1 X72.328 Y110.823 F1000
G1 X71.941 Y110.436 F1000
G1 X71.941 Y110.308 F1000
G1 X71.555 Y109.921 F1000
G1 X71.555 Y109.793 F1000
G1 X71.169 Y109.406 F1000
G1 X71.169 Y109.278 F1000
G1 X70.782 Y108.891 F1000
G1 X70.782 Y108.763 F1000
G1 X70.396 Y108.376 F1000
G1 X70.396 Y108.248 F1000
G1 X70.010 Y107.861 F1000
G1 X70.010 Y107.733 F1000
G1 X69.624 Y107.346 F1000
G1 X69.624 Y107.218 F1000
G1 X69.237 Y106.831 F1000
G1 X69.237 Y106.703 F1000
G1 X68.851 Y106.316 F1000
G1 X68.851 Y106.188 F1000
G1 X68.465 Y105.801 F1000
G1 X68.465 Y105.672 F1000
G1 X68.079 Y105.286 F1000
G1 X68.079 Y105.157 F1000
G1 X67.692 Y104.771 F1000
G1 X67.692 Y104.642 F1000
G1 X67.306 Y104.256 F1000
G1 X67.306 Y104.127 F1000
G1 X66.920 Y103.741 F1000
G1 X66.920 Y103.612 F1000
G1 X66.534 Y103.226 F1000
G1 X66.534 Y103.097 F1000
G1 X66.148 Y102.711 F1000
G1 X66.148 Y102.582 F1000
G1 X65.761 Y102.196 F1000
G1 X65.761 Y102.067 F1000
G1 X65.375 Y101.681 F1000
G1 X65.375 Y101.553 F1000
G1 X64.989 Y101.166 F1000
G1 X64.989 Y101.038 F1000
G1 X64.602 Y100.651 F1000
G1 X64.602 Y100.523 F1000
G1 X64.216 Y100.136 F1000
G1 X64.216 Y100.008 F1000
G1 X63.830 Y99.621 F1000
G1 X63.830 Y99.493 F1000
G1 X63.444 Y99.106 F1000
G1 X63.444 Y98.978 F1000
G1 X63.058 Y98.591 F1000
G1 X63.058 Y98.463 F1000
G1 X62.671 Y98.076 F1000
G1 X62.671 Y97.948 F1000
G1 X62.285 Y97.561 F1000
G1 X62.285 Y97.433 F1000
G1 X61.899 Y97.046 F1000
G1 X61.899 Y96.918 F1000
G1 X61.513 Y96.531 F1000
G1 X61.513 Y96.403 F1000
G1 X61.126 Y96.016 F1000
G1 X61.126 Y95.888 F1000
G1 X60.740 Y95.501 F1000
G1 X60.740 Y95.373 F1000
G1 X60.354 Y94.986 F1000
G1 X60.354 Y94.858 F1000
G1 X59.968 Y94.471 F1000
G1 X59.968 Y94.343 F1000
G1 X59.581 Y93.956 F1000
G1 X59.581 Y93.699 F1000
G1 X59.453 Y93.570 F1000
G1 X59.581 Y93.441 F1000
G1 X96.919 Y93.441 F1000
G1 X97.047 Y93.570 F1000
G1 X97.047 Y93.699 F1000
G1 X96.790 Y93.956 F1000
G1 X96.790 Y94.085 F1000
G1 X96.404 Y94.471 F1000
G1 X96.404 Y94.600 F1000
G1 X96.017 Y94.986 F1000
G1 X96.017 Y95.115 F1000
G1 X95.631 Y95.501 F1000
G1 X95.631 Y95.630 F1000
G1 X95.245 Y96.016 F1000
G1 X95.245 Y96.145 F1000
G1 X94.859 Y96.531 F1000
G1 X94.859 Y96.660 F1000
G1 X94.472 Y97.046 F1000
G1 X94.472 Y97.175 F1000
G1 X94.086 Y97.561 F1000
G1 X94.086 Y97.690 F1000
G1 X93.700 Y98.076 F1000
G1 X93.700 Y98.205 F1000
G1 X93.314 Y98.591 F1000
G1 X93.314 Y98.720 F1000
G1 X92.928 Y99.106 F1000
G1 X92.928 Y99.235 F1000
G1 X92.541 Y99.621 F1000
G1 X92.541 Y99.750 F1000
G1 X92.155 Y100.136 F1000
G1 X92.155 Y100.265 F1000
G1 X91.769 Y100.651 F1000
G1 X91.769 Y100.780 F1000
G1 X91.383 Y101.166 F1000
G1 X91.383 Y101.295 F1000
G1 X90.996 Y101.681 F1000
G1 X90.996 Y101.810 F1000
G1 X90.610 Y102.196 F1000
G1 X90.610 Y102.325 F1000
G1 X90.224 Y102.711 F1000
G1 X90.224 Y102.840 F1000
G1 X89.838 Y103.226 F1000
G1 X89.838 Y103.355 F1000
G1 X89.451 Y103.741 F1000
G1 X89.451 Y103.870 F1000
G1 X89.065 Y104.256 F1000
G1 X89.065 Y104.385 F1000
G1 X88.679 Y104.771 F1000
G1 X88.679 Y104.900 F1000
G1 X88.293 Y105.286 F1000
G1 X88.293 Y105.415 F1000
G1 X87.906 Y105.801 F1000
G1 X87.906 Y105.930 F1000
G1 X87.520 Y106.316 F1000
G1 X87.520 Y106.445 F1000
G1 X87.134 Y106.831 F1000
G1 X87.134 Y106.960 F1000
G1 X86.748 Y107.346 F1000
G1 X86.748 Y107.475 F1000
G1 X86.361 Y107.861 F1000
G1 X86.361 Y107.990 F1000
G1 X85.975 Y108.376 F1000
G1 X85.975 Y108.505 F1000
G1 X85.589 Y108.891 F1000
G1 X85.589 Y109.020 F1000
G1 X85.203 Y109.406 F1000
G1 X85.203 Y109.535 F1000
G1 X84.816 Y109.921 F1000
G1 X84.816 Y110.050 F1000
G1 X84.430 Y110.436 F1000
G1 X84.430 Y110.565 F1000
G1 X84.044 Y110.951 F1000
G1 X84.044 Y111.080 F1000
G1 X83.657 Y111.466 F1000
G1 X83.657 Y111.595 F1000
G1 X83.271 Y111.981 F1000
G1 X83.271 Y112.110 F1000
G1 X82.885 Y112.496 F1000
G1 X82.885 Y112.625 F1000
G1 X82.499 Y113.011 F1000
G1 X82.499 Y113.140 F1000
G1 X82.112 Y113.526 F1000
G1 X82.112 Y113.655 F1000
G1 X81.726 Y114.041 F1000
G1 X81.726 Y114.170 F1000
G1 X81.340 Y114.556 F1000
G1 X81.340 Y114.685 F1000
G1 X80.954 Y115.071 F1000
G1 X80.954 Y115.200 F1000
G1 X80.567 Y115.586 F1000
G1 X80.567 Y115.715 F1000
G1 X80.181 Y116.101 F1000
G1 X80.181 Y116.230 F1000
G1 X79.795 Y116.616 F1000
G1 X79.795 Y116.745 F1000
G1 X79.409 Y117.131 F1000
G1 X79.409 Y117.260 F1000
G1 X79.023 Y117.646 F1000
G1 X79.023 Y117.775 F1000
G1 X78.636 Y118.161 F1000
G1 X78.636 Y118.290 F1000
G1 X78.379 Y118.547 F1000
G1 X78.121 Y118.547 F1000
G0 Z3.0 ; Pen up

G0 X78.250 Y118.676 F3000 ; Travel to line 6
G0 Z0.0 ; Pen down
G1 X78.379 Y118.547 F1000
G1 X78.508 Y118.547 F1000
G1 X78.636 Y118.419 F1000
G1 X78.636 Y118.290 F1000
G1 X79.023 Y117.904 F1000
G1 X79.023 Y117.775 F1000
G1 X79.409 Y117.389 F1000
G1 X79.409 Y117.260 F1000
G1 X79.795 Y116.874 F1000
G1 X79.795 Y116.745 F1000
G1 X80.181 Y116.359 F1000
G1 X80.181 Y116.230 F1000
G1 X80.567 Y115.844 F1000
G1 X80.567 Y115.715 F1000
G1 X80.954 Y115.329 F1000
G1 X80.954 Y115.200 F1000
G1 X81.340 Y114.814 F1000
G1 X81.340 Y114.685 F1000
G1 X81.726 Y114.299 F1000
G1 X81.726 Y114.170 F1000
G1 X82.112 Y113.784 F1000
G1 X82.112 Y113.655 F1000
G1 X82.499 Y113.269 F1000
G1 X82.499 Y113.140 F1000
G1 X82.885 Y112.754 F1000
G1 X82.885 Y112.625 F1000
G1 X83.271 Y112.239 F1000
G1 X83.271 Y112.110 F1000
G1 X83.657 Y111.724 F1000
G1 X83.657 Y111.595 F1000
G1 X84.044 Y111.209 F1000
G1 X84.044 Y111.080 F1000
G1 X84.430 Y110.694 F1000
G1 X84.430 Y110.565 F1000
G1 X84.816 Y110.179 F1000
G1 X84.816 Y110.050 F1000
G1 X85.203 Y109.664 F1000
G1 X85.203 Y109.535 F1000
G1 X85.589 Y109.149 F1000
G1 X85.589 Y109.020 F1000
G1 X85.975 Y108.634 F1000
G1 X85.975 Y108.505 F1000
G1 X86.361 Y108.119 F1000
G1 X86.361 Y107.990 F1000
G1 X86.748 Y107.604 F1000
G1 X86.748 Y107.475 F1000
G1 X87.134 Y107.089 F1000
G1 X87.134 Y106.960 F1000
G1 X87.520 Y106.574 F1000
G1 X87.520 Y106.445 F1000
G1 X87.906 Y106.059 F1000
G1 X87.906 Y105.930 F1000
G1 X88.293 Y105.544 F1000
G1 X88.293 Y105.415 F1000
G1 X88.679 Y105.029 F1000
G1 X88.679 Y104.900 F1000
G1 X89.065 Y104.514 F1000
G1 X89.065 Y104.385 F1000
G1 X89.451 Y103.999 F1000
G1 X89.451 Y103.870 F1000
G1 X89.838 Y103.484 F1000
G1 X89.838 Y103.355 F1000
G1 X90.224 Y102.969 F1000
G1 X90.224 Y102.840 F1000
G1 X90.610 Y102.454 F1000
G1 X90.610 Y102.325 F1000
G1 X90.996 Y101.939 F1000
G1 X90.996 Y101.810 F1000
G1 X91.383 Y101.424 F1000
G1 X91.383 Y101.295 F1000
G1 X91.769 Y100.909 F1000
G1 X91.769 Y100.780 F1000
G1 X92.155 Y100.394 F1000
G1 X92.155 Y100.265 F1000
G1 X92.541 Y99.879 F1000
G1 X92.541 Y99.750 F1000
G1 X92.928 Y99.364 F1000
G1 X92.928 Y99.235 F1000
G1 X93.314 Y98.849 F1000
G1 X93.314 Y98.720 F1000
G1 X93.700 Y98.334 F1000
G1 X93.700 Y98.205 F1000
G1 X94.086 Y97.819 F1000
G1 X94.086 Y97.690 F1000
G1 X94.472 Y97.304 F1000
G1 X94.472 Y97.175 F1000
G1 X94.859 Y96.789 F1000
G1 X94.859 Y96.660 F1000
G1 X95.245 Y96.274 F1000
G1 X95.245 Y96.145 F1000
G1 X95.631 Y95.759 F1000
G1 X95.631 Y95.630 F1000
G1 X96.017 Y95.244 F1000
G1 X96.017 Y95.115 F1000
G1 X96.404 Y94.729 F1000
G1 X96.404 Y94.600 F1000
G1 X96.790 Y94.214 F1000
G1 X96.790 Y94.085 F1000
G1 X96.919 Y93.956 F1000
G1 X96.919 Y93.828 F1000
G1 X97.047 Y93.699 F1000
G1 X97.047 Y93.570 F1000
G1 X97.176 Y93.441 F1000
G1 X97.305 Y93.441 F1000
G1 X97.434 Y93.312 F1000
G1 X97.305 Y93.441 F1000
G1 X97.176 Y93.441 F1000
G1 X97.047 Y93.570 F1000
G1 X96.919 Y93.441 F1000
G1 X59.581 Y93.441 F1000
G1 X59.453 Y93.570 F1000
G1 X59.324 Y93.441 F1000
G1 X59.195 Y93.441 F1000
G1 X59.066 Y93.312 F1000
G1 X59.195 Y93.441 F1000
G1 X59.324 Y93.441 F1000
G1 X59.581 Y93.699 F1000
G1 X59.581 Y94.085 F1000
G1 X59.968 Y94.471 F1000
G1 X59.968 Y94.600 F1000
G1 X60.354 Y94.986 F1000
G1 X60.354 Y95.115 F1000
G1 X60.740 Y95.501 F1000
G1 X60.740 Y95.630 F1000
G1 X61.126 Y96.016 F1000
G1 X61.126 Y96.145 F1000
G1 X61.513 Y96.531 F1000
G1 X61.513 Y96.660 F1000
G1 X61.899 Y97.046 F1000
G1 X61.899 Y97.175 F1000
G1 X62.285 Y97.561 F1000
G1 X62.285 Y97.690 F1000
G1 X62.671 Y98.076 F1000
G1 X62.671 Y98.205 F1000
G1 X63.058 Y98.591 F1000
G1 X63.058 Y98.720 F1000
G1 X63.444 Y99.106 F1000
G1 X63.444 Y99.235 F1000
G1 X63.830 Y99.621 F1000
G1 X63.830 Y99.750 F1000
G1 X64.216 Y100.136 F1000
G1 X64.216 Y100.265 F1000
G1 X64.602 Y100.651 F1000
G1 X64.602 Y100.780 F1000
G1 X64.989 Y101.166 F1000
G1 X64.989 Y101.295 F1000
G1 X65.375 Y101.681 F1000
G1 X65.375 Y101.810 F1000
G1 X65.761 Y102.196 F1000
G1 X65.761 Y102.325 F1000
G1 X66.148 Y102.711 F1000
G1 X66.148 Y102.840 F1000
G1 X66.534 Y103.226 F1000
G1 X66.534 Y103.355 F1000
G1 X66.920 Y103.741 F1000
G1 X66.920 Y103.870 F1000
G1 X67.306 Y104.256 F1000
G1 X67.306 Y104.385 F1000
G1 X67.692 Y104.771 F1000
G1 X67.692 Y104.900 F1000
G1 X68.079 Y105.286 F1000
G1 X68.079 Y105.415 F1000
G1 X68.465 Y105.801 F1000
G1 X68.465 Y105.930 F1000
G1 X68.851 Y106.316 F1000
G1 X68.851 Y106.445 F1000
G1 X69.237 Y106.831 F1000
G1 X69.237 Y106.960 F1000
G1 X69.624 Y107.346 F1000
G1 X69.624 Y107.475 F1000
G1 X70.010 Y107.861 F1000
G1 X70.010 Y107.990 F1000
G1 X70.396 Y108.376 F1000
G1 X70.396 Y108.505 F1000
G1 X70.782 Y108.891 F1000
G1 X70.782 Y109.020 F1000
G1 X71.169 Y109.406 F1000
G1 X71.169 Y109.535 F1000
G1 X71.555 Y109.921 F1000
G1 X71.555 Y110.050 F1000
G1 X71.941 Y110.436 F1000
G1 X71.941 Y110.565 F1000
G1 X72.328 Y110.951 F1000
G1 X72.328 Y111.080 F1000
G1 X72.714 Y111.466 F1000
G1 X72.714 Y111.595 F1000
G1 X73.100 Y111.981 F1000
G1 X73.100 Y112.110 F1000
G1 X73.486 Y112.496 F1000
G1 X73.486 Y112.625 F1000
G1 X73.873 Y113.011 F1000
G1 X73.873 Y113.140 F1000
G1 X74.259 Y113.526 F1000
G1 X74.259 Y113.655 F1000
G1 X74.645 Y114.041 F1000
G1 X74.645 Y114.170 F1000
G1 X75.031 Y114.556 F1000
G1 X75.031 Y114.685 F1000
G1 X75.418 Y115.071 F1000
G1 X75.418 Y115.200 F1000
G1 X75.804 Y115.586 F1000
G1 X75.804 Y115.715 F1000
G1 X76.190 Y116.101 F1000
G1 X76.190 Y116.230 F1000
G1 X76.576 Y116.616 F1000
G1 X76.576 Y116.745 F1000
G1 X76.963 Y117.131 F1000
G1 X76.963 Y117.260 F1000
G1 X77.349 Y117.646 F1000
G1 X77.349 Y117.775 F1000
G1 X77.735 Y118.161 F1000
G1 X77.735 Y118.290 F1000
G1 X77.993 Y118.547 F1000
G1 X78.121 Y118.547 F1000
G1 X78.250 Y118.676 F1000
G1 X78.250 Y118.805 F1000
G0 Z3.0 ; Pen up

G0 X21.600 Y118.934 F3000 ; Travel to line 7
G0 Z0.0 ; Pen down
G1 X21.729 Y118.805 F1000
G1 X22.630 Y118.805 F1000
G1 X22.759 Y118.676 F1000
G1 X23.145 Y118.676 F1000
G1 X23.274 Y118.547 F1000
G1 X23.660 Y118.547 F1000
G1 X23.789 Y118.419 F1000
G1 X24.175 Y118.419 F1000
G1 X24.304 Y118.290 F1000
G1 X24.561 Y118.290 F1000
G1 X24.690 Y118.161 F1000
G1 X24.948 Y118.161 F1000
G1 X25.076 Y118.032 F1000
G1 X25.205 Y118.032 F1000
G1 X25.334 Y117.904 F1000
G1 X25.463 Y117.904 F1000
G1 X25.591 Y117.775 F1000
G1 X25.849 Y117.775 F1000
G1 X25.977 Y117.646 F1000
G1 X26.106 Y117.646 F1000
G1 X26.235 Y117.517 F1000
G1 X26.364 Y117.517 F1000
G1 X26.621 Y117.260 F1000
G1 X26.750 Y117.260 F1000
G1 X26.879 Y117.131 F1000
G1 X27.008 Y117.131 F1000
G1 X27.265 Y116.874 F1000
G1 X27.394 Y116.874 F1000
G1 X27.651 Y116.616 F1000
G1 X27.780 Y116.616 F1000
G1 X28.166 Y116.230 F1000
G1 X28.295 Y116.230 F1000
G1 X30.226 Y114.299 F1000
G1 X30.226 Y114.170 F1000
G1 X30.613 Y113.784 F1000
G1 X30.613 Y113.655 F1000
G1 X30.870 Y113.398 F1000
G1 X30.870 Y113.269 F1000
G1 X31.128 Y113.011 F1000
G1 X31.128 Y112.883 F1000
G1 X31.256 Y112.754 F1000
G1 X31.256 Y112.625 F1000
G1 X31.514 Y112.368 F1000
G1 X31.514 Y112.239 F1000
G1 X31.643 Y112.110 F1000
G1 X31.643 Y111.981 F1000
G1 X31.771 Y111.853 F1000
G1 X31.771 Y111.595 F1000
G1 X31.900 Y111.466 F1000
G1 X31.900 Y111.338 F1000
G1 X32.029 Y111.209 F1000
G1 X32.029 Y111.080 F1000
G1 X32.157 Y110.951 F1000
G1 X32.157 Y110.694 F1000
G1 X32.286 Y110.565 F1000
G1 X32.286 Y110.308 F1000
G1 X32.415 Y110.179 F1000
G1 X32.415 Y109.921 F1000
G1 X32.544 Y109.793 F1000
G1 X32.544 Y109.535 F1000
G1 X32.672 Y109.406 F1000
G1 X32.672 Y109.020 F1000
G1 X32.801 Y108.891 F1000
G1 X32.801 Y108.376 F1000
G1 X32.930 Y108.248 F1000
G1 X32.930 Y107.346 F1000
G1 X33.059 Y107.218 F1000
G1 X33.059 Y105.157 F1000
G1 X32.930 Y105.029 F1000
G1 X32.930 Y104.127 F1000
G1 X32.801 Y103.999 F1000
G1 X32.801 Y103.484 F1000
G1 X32.672 Y103.355 F1000
G1 X32.672 Y102.969 F1000
G1 X32.544 Y102.840 F1000
G1 X32.544 Y102.582 F1000
G1 X32.415 Y102.454 F1000
G1 X32.415 Y102.196 F1000
G1 X32.286 Y102.067 F1000
G1 X32.286 Y101.810 F1000
G1 X32.157 Y101.681 F1000
G1 X32.157 Y101.424 F1000
G1 X32.029 Y101.295 F1000
G1 X32.029 Y101.166 F1000
G1 X31.900 Y101.038 F1000
G1 X31.900 Y100.909 F1000
G1 X31.771 Y100.780 F1000
G1 X31.771 Y100.523 F1000
G1 X31.643 Y100.394 F1000
G1 X31.643 Y100.265 F1000
G1 X31.514 Y100.136 F1000
G1 X31.514 Y100.008 F1000
G1 X31.256 Y99.750 F1000
G1 X31.256 Y99.621 F1000
G1 X31.128 Y99.493 F1000
G1 X31.128 Y99.364 F1000
G1 X30.870 Y99.106 F1000
G1 X30.870 Y98.978 F1000
G1 X30.613 Y98.720 F1000
G1 X30.613 Y98.591 F1000
G1 X30.226 Y98.205 F1000
G1 X30.226 Y98.076 F1000
G1 X28.424 Y96.274 F1000
G1 X28.295 Y96.274 F1000
G1 X27.909 Y95.888 F1000
G1 X27.780 Y95.888 F1000
G1 X27.523 Y95.630 F1000
G1 X27.394 Y95.630 F1000
G1 X27.136 Y95.373 F1000
G1 X27.008 Y95.373 F1000
G1 X26.879 Y95.244 F1000
G1 X26.750 Y95.244 F1000
G1 X26.492 Y94.986 F1000
G1 X26.364 Y94.986 F1000
G1 X26.235 Y94.858 F1000
G1 X26.106 Y94.858 F1000
G1 X25.977 Y94.729 F1000
G1 X25.720 Y94.729 F1000
G1 X25.591 Y94.600 F1000
G1 X25.463 Y94.600 F1000
G1 X25.334 Y94.471 F1000
G1 X25.205 Y94.471 F1000
G1 X25.076 Y94.343 F1000
G1 X24.819 Y94.343 F1000
G1 X24.690 Y94.214 F1000
G1 X24.433 Y94.214 F1000
G1 X24.304 Y94.085 F1000
G1 X24.046 Y94.085 F1000
G1 X23.918 Y93.956 F1000
G1 X23.660 Y93.956 F1000
G1 X23.531 Y93.828 F1000
G1 X23.145 Y93.828 F1000
G1 X23.016 Y93.699 F1000
G1 X22.501 Y93.699 F1000
G1 X22.373 Y93.570 F1000
G1 X21.471 Y93.570 F1000
G1 X21.343 Y93.441 F1000
G1 X19.282 Y93.441 F1000
G1 X19.154 Y93.570 F1000
G1 X18.253 Y93.570 F1000
G1 X18.124 Y93.699 F1000
G1 X17.609 Y93.699 F1000
G1 X17.480 Y93.828 F1000
G1 X17.094 Y93.828 F1000
G1 X16.965 Y93.956 F1000
G1 X16.707 Y93.956 F1000
G1 X16.579 Y94.085 F1000
G1 X16.321 Y94.085 F1000
G1 X16.193 Y94.214 F1000
G1 X15.935 Y94.214 F1000
G1 X15.806 Y94.343 F1000
G1 X15.549 Y94.343 F1000
G1 X15.420 Y94.471 F1000
G1 X15.291 Y94.471 F1000
G1 X15.162 Y94.600 F1000
G1 X15.034 Y94.600 F1000
G1 X14.905 Y94.729 F1000
G1 X14.648 Y94.729 F1000
G1 X14.519 Y94.858 F1000
G1 X14.390 Y94.858 F1000
G1 X14.261 Y94.986 F1000
G1 X14.133 Y94.986 F1000
G1 X13.875 Y95.244 F1000
G1 X13.746 Y95.244 F1000
G1 X13.617 Y95.373 F1000
G1 X13.489 Y95.373 F1000
G1 X13.231 Y95.630 F1000
G1 X13.103 Y95.630 F1000
G1 X12.845 Y95.888 F1000
G1 X12.716 Y95.888 F1000
G1 X12.330 Y96.274 F1000
G1 X12.201 Y96.274 F1000
G1 X10.270 Y98.205 F1000
G1 X10.270 Y98.334 F1000
G1 X9.884 Y98.720 F1000
G1 X9.884 Y98.849 F1000
G1 X9.626 Y99.106 F1000
G1 X9.626 Y99.235 F1000
G1 X9.369 Y99.493 F1000
G1 X9.369 Y99.621 F1000
G1 X9.240 Y99.750 F1000
G1 X9.240 Y99.879 F1000
G1 X8.982 Y100.136 F1000
G1 X8.982 Y100.265 F1000
G1 X8.854 Y100.394 F1000
G1 X8.854 Y100.523 F1000
G1 X8.725 Y100.651 F1000
G1 X8.725 Y100.909 F1000
G1 X8.596 Y101.038 F1000
G1 X8.596 Y101.166 F1000
G1 X8.468 Y101.295 F1000
G1 X8.468 Y101.424 F1000
G1 X8.339 Y101.553 F1000
G1 X8.339 Y101.810 F1000
G1 X8.210 Y101.939 F1000
G1 X8.210 Y102.196 F1000
G1 X8.081 Y102.325 F1000
G1 X8.081 Y102.711 F1000
G1 X7.953 Y102.840 F1000
G1 X7.953 Y103.226 F1000
G1 X7.824 Y103.355 F1000
G1 X7.824 Y103.741 F1000
G1 X7.695 Y103.870 F1000
G1 X7.695 Y104.771 F1000
G1 X7.566 Y104.900 F1000
G1 X7.566 Y107.475 F1000
G1 X7.695 Y107.604 F1000
G1 X7.695 Y108.505 F1000
G1 X7.824 Y108.634 F1000
G1 X7.824 Y109.020 F1000
G1 X7.953 Y109.149 F1000
G1 X7.953 Y109.535 F1000
G1 X8.081 Y109.664 F1000
G1 X8.081 Y110.050 F1000
G1 X8.210 Y110.179 F1000
G1 X8.210 Y110.436 F1000
G1 X8.339 Y110.565 F1000
G1 X8.339 Y110.823 F1000
G1 X8.468 Y110.951 F1000
G1 X8.468 Y111.080 F1000
G1 X8.596 Y111.209 F1000
G1 X8.596 Y111.338 F1000
G1 X8.725 Y111.466 F1000
G1 X8.725 Y111.724 F1000
G1 X8.854 Y111.853 F1000
G1 X8.854 Y111.981 F1000
G1 X8.982 Y112.110 F1000
G1 X8.982 Y112.239 F1000
G1 X9.240 Y112.496 F1000
G1 X9.240 Y112.625 F1000
G1 X9.369 Y112.754 F1000
G1 X9.369 Y112.883 F1000
G1 X9.626 Y113.140 F1000
G1 X9.626 Y113.269 F1000
G1 X9.884 Y113.526 F1000
G1 X9.884 Y113.655 F1000
G1 X10.270 Y114.041 F1000
G1 X10.270 Y114.170 F1000
G1 X12.330 Y116.230 F1000
G1 X12.459 Y116.230 F1000
G1 X12.845 Y116.616 F1000
G1 X12.974 Y116.616 F1000
G1 X13.231 Y116.874 F1000
G1 X13.360 Y116.874 F1000
G1 X13.617 Y117.131 F1000
G1 X13.746 Y117.131 F1000
G1 X13.875 Y117.260 F1000
G1 X14.004 Y117.260 F1000
G1 X14.261 Y117.517 F1000
G1 X14.390 Y117.517 F1000
G1 X14.519 Y117.646 F1000
G1 X14.648 Y117.646 F1000
G1 X14.776 Y117.775 F1000
G1 X15.034 Y117.775 F1000
G1 X15.162 Y117.904 F1000
G1 X15.291 Y117.904 F1000
G1 X15.420 Y118.032 F1000
G1 X15.549 Y118.032 F1000
G1 X15.678 Y118.161 F1000
G1 X15.935 Y118.161 F1000
G1 X16.064 Y118.290 F1000
G1 X16.321 Y118.290 F1000
G1 X16.450 Y118.419 F1000
G1 X16.836 Y118.419 F1000
G1 X16.965 Y118.547 F1000
G1 X17.351 Y118.547 F1000
G1 X17.480 Y118.676 F1000
G1 X17.866 Y118.676 F1000
G1 X17.995 Y118.805 F1000
G1 X18.896 Y118.805 F1000
G1 X19.025 Y118.934 F1000
G0 Z3.0 ; Pen up

G0 X18.896 Y118.805 F3000 ; Travel to line 8
G0 Z0.0 ; Pen down
G1 X19.025 Y118.934 F1000
G1 X21.600 Y118.934 F1000
G1 X21.729 Y118.805 F1000
G1 X22.630 Y118.805 F1000
G1 X22.759 Y118.676 F1000
G1 X23.145 Y118.676 F1000
G1 X23.274 Y118.547 F1000
G1 X23.660 Y118.547 F1000
G1 X23.789 Y118.419 F1000
G1 X24.175 Y118.419 F1000
G1 X24.304 Y118.290 F1000
G1 X24.561 Y118.290 F1000
G1 X24.690 Y118.161 F1000
G1 X24.819 Y118.161 F1000
G1 X24.948 Y118.032 F1000
G1 X25.205 Y118.032 F1000
G1 X25.334 Y117.904 F1000
G1 X25.463 Y117.904 F1000
G1 X25.591 Y117.775 F1000
G1 X25.720 Y117.775 F1000
G1 X25.849 Y117.646 F1000
G1 X25.977 Y117.646 F1000
G1 X26.106 Y117.517 F1000
G1 X26.235 Y117.517 F1000
G1 X26.364 Y117.389 F1000
G1 X26.492 Y117.389 F1000
G1 X26.750 Y117.131 F1000
G1 X26.879 Y117.131 F1000
G1 X27.008 Y117.002 F1000
G1 X27.136 Y117.002 F1000
G1 X27.523 Y116.616 F1000
G1 X27.651 Y116.616 F1000
G1 X28.038 Y116.230 F1000
G1 X28.166 Y116.230 F1000
G1 X28.810 Y115.586 F1000
G1 X28.939 Y115.586 F1000
G1 X29.582 Y114.942 F1000
G1 X29.582 Y114.814 F1000
G1 X30.226 Y114.170 F1000
G1 X30.226 Y114.041 F1000
G1 X30.613 Y113.655 F1000
G1 X30.613 Y113.526 F1000
G1 X30.999 Y113.140 F1000
G1 X30.999 Y113.011 F1000
G1 X31.128 Y112.883 F1000
G1 X31.128 Y112.754 F1000
G1 X31.385 Y112.496 F1000
G1 X31.385 Y112.368 F1000
G1 X31.514 Y112.239 F1000
G1 X31.514 Y112.110 F1000
G1 X31.643 Y111.981 F1000
G1 X31.643 Y111.853 F1000
G1 X31.771 Y111.724 F1000
G1 X31.771 Y111.595 F1000
G1 X31.900 Y111.466 F1000
G1 X31.900 Y111.338 F1000
G1 X32.029 Y111.209 F1000
G1 X32.029 Y110.951 F1000
G1 X32.157 Y110.823 F1000
G1 X32.157 Y110.694 F1000
G1 X32.286 Y110.565 F1000
G1 X32.286 Y110.308 F1000
G1 X32.415 Y110.179 F1000
G1 X32.415 Y109.921 F1000
G1 X32.544 Y109.793 F1000
G1 X32.544 Y109.535 F1000
G1 X32.672 Y109.406 F1000
G1 X32.672 Y109.020 F1000
G1 X32.801 Y108.891 F1000
G1 X32.801 Y108.376 F1000
G1 X32.930 Y108.248 F1000
G1 X32.930 Y107.346 F1000
G1 X33.059 Y107.218 F1000
G1 X33.059 Y105.157 F1000
G1 X32.930 Y105.029 F1000
G1 X32.930 Y104.127 F1000
G1 X32.801 Y103.999 F1000
G1 X32.801 Y103.484 F1000
G1 X32.672 Y103.355 F1000
G1 X32.672 Y102.969 F1000
G1 X32.544 Y102.840 F1000
G1 X32.544 Y102.582 F1000
G1 X32.415 Y102.454 F1000
G1 X32.415 Y102.196 F1000
G1 X32.286 Y102.067 F1000
G1 X32.286 Y101.810 F1000
G1 X32.157 Y101.681 F1000
G1 X32.157 Y101.553 F1000
G1 X32.029 Y101.424 F1000
G1 X32.029 Y101.166 F1000
G1 X31.900 Y101.038 F1000
G1 X31.900 Y100.909 F1000
G1 X31.771 Y100.780 F1000
G1 X31.771 Y100.651 F1000
G1 X31.643 Y100.523 F1000
G1 X31.643 Y100.394 F1000
G1 X31.514 Y100.265 F1000
G1 X31.514 Y100.136 F1000
G1 X31.385 Y100.008 F1000
G1 X31.385 Y99.879 F1000
G1 X31.128 Y99.621 F1000
G1 X31.128 Y99.493 F1000
G1 X30.999 Y99.364 F1000
G1 X30.999 Y99.235 F1000
G1 X30.613 Y98.849 F1000
G1 X30.613 Y98.720 F1000
G1 X30.226 Y98.334 F1000
G1 X30.226 Y98.205 F1000
G1 X29.582 Y97.561 F1000
G1 X29.582 Y97.433 F1000
G1 X29.067 Y96.918 F1000
G1 X28.939 Y96.918 F1000
G1 X28.295 Y96.274 F1000
G1 X28.166 Y96.274 F1000
G1 X27.780 Y95.888 F1000
G1 X27.651 Y95.888 F1000
G1 X27.265 Y95.501 F1000
G1 X27.136 Y95.501 F1000
G1 X27.008 Y95.373 F1000
G1 X26.879 Y95.373 F1000
G1 X26.621 Y95.115 F1000
G1 X26.492 Y95.115 F1000
G1 X26.364 Y94.986 F1000
G1 X26.235 Y94.986 F1000
G1 X26.106 Y94.858 F1000
G1 X25.977 Y94.858 F1000
G1 X25.849 Y94.729 F1000
G1 X25.720 Y94.729 F1000
G1 X25.591 Y94.600 F1000
G1 X25.463 Y94.600 F1000
G1 X25.334 Y94.471 F1000
G1 X25.076 Y94.471 F1000
G1 X24.948 Y94.343 F1000
G1 X24.819 Y94.343 F1000
G1 X24.690 Y94.214 F1000
G1 X24.433 Y94.214 F1000
G1 X24.304 Y94.085 F1000
G1 X24.046 Y94.085 F1000
G1 X23.918 Y93.956 F1000
G1 X23.660 Y93.956 F1000
G1 X23.531 Y93.828 F1000
G1 X23.145 Y93.828 F1000
G1 X23.016 Y93.699 F1000
G1 X22.501 Y93.699 F1000
G1 X22.373 Y93.570 F1000
G1 X21.471 Y93.570 F1000
G1 X21.343 Y93.441 F1000
G1 X19.282 Y93.441 F1000
G1 X19.154 Y93.570 F1000
G1 X18.253 Y93.570 F1000
G1 X18.124 Y93.699 F1000
G1 X17.609 Y93.699 F1000
G1 X17.480 Y93.828 F1000
G1 X17.094 Y93.828 F1000
G1 X16.965 Y93.956 F1000
G1 X16.707 Y93.956 F1000
G1 X16.579 Y94.085 F1000
G1 X16.321 Y94.085 F1000
G1 X16.193 Y94.214 F1000
G1 X15.935 Y94.214 F1000
G1 X15.806 Y94.343 F1000
G1 X15.678 Y94.343 F1000
G1 X15.549 Y94.471 F1000
G1 X15.291 Y94.471 F1000
G1 X15.162 Y94.600 F1000
G1 X15.034 Y94.600 F1000
G1 X14.905 Y94.729 F1000
G1 X14.776 Y94.729 F1000
G1 X14.648 Y94.858 F1000
G1 X14.519 Y94.858 F1000
G1 X14.390 Y94.986 F1000
G1 X14.261 Y94.986 F1000
G1 X14.133 Y95.115 F1000
G1 X14.004 Y95.115 F1000
G1 X13.746 Y95.373 F1000
G1 X13.617 Y95.373 F1000
G1 X13.489 Y95.501 F1000
G1 X13.360 Y95.501 F1000
G1 X12.974 Y95.888 F1000
G1 X12.845 Y95.888 F1000
G1 X12.459 Y96.274 F1000
G1 X12.330 Y96.274 F1000
G1 X11.686 Y96.918 F1000
G1 X11.558 Y96.918 F1000
G1 X10.914 Y97.561 F1000
G1 X10.914 Y97.690 F1000
G1 X10.270 Y98.334 F1000
G1 X10.270 Y98.463 F1000
G1 X9.884 Y98.849 F1000
G1 X9.884 Y98.978 F1000
G1 X9.498 Y99.364 F1000
G1 X9.498 Y99.493 F1000
G1 X9.369 Y99.621 F1000
G1 X9.369 Y99.750 F1000
G1 X9.111 Y100.008 F1000
G1 X9.111 Y100.136 F1000
G1 X8.982 Y100.265 F1000
G1 X8.982 Y100.394 F1000
G1 X8.854 Y100.523 F1000
G1 X8.854 Y100.651 F1000
G1 X8.725 Y100.780 F1000
G1 X8.725 Y100.909 F1000
G1 X8.596 Y101.038 F1000
G1 X8.596 Y101.166 F1000
G1 X8.468 Y101.295 F1000
G1 X8.468 Y101.553 F1000
G1 X8.339 Y101.681 F1000
G1 X8.339 Y101.810 F1000
G1 X8.210 Y101.939 F1000
G1 X8.210 Y102.196 F1000
G1 X8.081 Y102.325 F1000
G1 X8.081 Y102.711 F1000
G1 X7.953 Y102.840 F1000
G1 X7.953 Y103.226 F1000
G1 X7.824 Y103.355 F1000
G1 X7.824 Y103.741 F1000
G1 X7.695 Y103.870 F1000
G1 X7.695 Y104.771 F1000
G1 X7.566 Y104.900 F1000
G1 X7.566 Y107.475 F1000
G1 X7.695 Y107.604 F1000
G1 X7.695 Y108.505 F1000
G1 X7.824 Y108.634 F1000
G1 X7.824 Y109.020 F1000
G1 X7.953 Y109.149 F1000
G1 X7.953 Y109.535 F1000
G1 X8.081 Y109.664 F1000
G1 X8.081 Y110.050 F1000
G1 X8.210 Y110.179 F1000
G1 X8.210 Y110.436 F1000
G1 X8.339 Y110.565 F1000
G1 X8.339 Y110.694 F1000
G1 X8.468 Y110.823 F1000
G1 X8.468 Y111.080 F1000
G1 X8.596 Y111.209 F1000
G1 X8.596 Y111.338 F1000
G1 X8.725 Y111.466 F1000
G1 X8.725 Y111.595 F1000
G1 X8.854 Y111.724 F1000
G1 X8.854 Y111.853 F1000
G1 X8.982 Y111.981 F1000
G1 X8.982 Y112.110 F1000
G1 X9.111 Y112.239 F1000
G1 X9.111 Y112.368 F1000
G1 X9.369 Y112.625 F1000
G1 X9.369 Y112.754 F1000
G1 X9.498 Y112.883 F1000
G1 X9.498 Y113.011 F1000
G1 X9.884 Y113.398 F1000
G1 X9.884 Y113.526 F1000
G1 X10.270 Y113.913 F1000
G1 X10.270 Y114.041 F1000
G1 X10.914 Y114.685 F1000
G1 X10.914 Y114.814 F1000
G1 X11.686 Y115.586 F1000
G1 X11.815 Y115.586 F1000
G1 X12.459 Y116.230 F1000
G1 X12.588 Y116.230 F1000
G1 X12.974 Y116.616 F1000
G1 X13.103 Y116.616 F1000
G1 X13.489 Y117.002 F1000
G1 X13.617 Y117.002 F1000
G1 X13.746 Y117.131 F1000
G1 X13.875 Y117.131 F1000
G1 X14.133 Y117.389 F1000
G1 X14.261 Y117.389 F1000
G1 X14.390 Y117.517 F1000
G1 X14.519 Y117.517 F1000
G1 X14.648 Y117.646 F1000
G1 X14.776 Y117.646 F1000
G1 X14.905 Y117.775 F1000
G1 X15.034 Y117.775 F1000
G1 X15.162 Y117.904 F1000
G1 X15.291 Y117.904 F1000
G1 X15.420 Y118.032 F1000
G1 X15.678 Y118.032 F1000
G1 X15.806 Y118.161 F1000
G1 X15.935 Y118.161 F1000
G1 X16.064 Y118.290 F1000
G1 X16.321 Y118.290 F1000
G1 X16.450 Y118.419 F1000
G1 X16.836 Y118.419 F1000
G1 X16.965 Y118.547 F1000
G1 X17.351 Y118.547 F1000
G1 X17.480 Y118.676 F1000
G1 X17.866 Y118.676 F1000
G1 X17.995 Y118.805 F1000
G0 Z3.0 ; Pen up

; Return to origin
G0 X0 Y0
G0 Z3.0

; Total drawing distance: 1316.21 mm
; Total travel distance: 227.32 mm
; Total lines: 8
; Estimated time: 83.5 seconds (1.4 minutes)
M2 ; End program