; Blueprint to G-code
; Input: test_images/test6_text_labels.png
; Generated with blueprint2gcode.py

G21 ; Set units to millimeters
G90 ; Absolute positioning
G0 Z3.0 ; Pen up
G0 X0 Y0 ; Move to origin

G0 X17.865 Y10.785 F3000 ; Travel to line 1
G0 Z0.0 ; Pen down
G1 X17.736 Y10.656 F1000
G1 X17.608 Y10.656 F1000
G1 X17.736 Y10.656 F1000
G1 X17.865 Y10.785 F1000
G1 X18.251 Y10.785 F1000
G1 X18.509 Y10.527 F1000
G1 X18.509 Y10.270 F1000
G1 X18.251 Y10.013 F1000
G1 X17.994 Y10.013 F1000
G1 X18.251 Y10.013 F1000
G1 X18.380 Y9.884 F1000
G1 X18.380 Y9.755 F1000
G1 X18.509 Y9.626 F1000
G1 X18.509 Y9.240 F1000
G1 X18.380 Y9.111 F1000
G1 X17.608 Y9.111 F1000
G1 X18.380 Y9.111 F1000
G1 X18.509 Y9.240 F1000
G1 X18.509 Y9.755 F1000
G1 X18.380 Y9.884 F1000
G1 X18.380 Y10.013 F1000
G1 X18.509 Y10.141 F1000
G1 X18.509 Y10.527 F1000
G1 X18.251 Y10.785 F1000
G0 Z3.0 ; Pen up

G0 X20.697 Y10.785 F3000 ; Travel to line 2
G0 Z0.0 ; Pen down
G1 X21.084 Y10.785 F1000
G1 X21.212 Y10.656 F1000
G1 X21.212 Y9.111 F1000
G1 X21.212 Y10.656 F1000
G1 X21.341 Y10.785 F1000
G1 X21.856 Y10.785 F1000
G0 Z3.0 ; Pen up

G0 X22.500 Y10.270 F3000 ; Travel to line 3
G0 Z0.0 ; Pen down
G1 X22.500 Y10.141 F1000
G1 X22.371 Y10.013 F1000
G1 X22.371 Y9.755 F1000
G1 X22.500 Y9.626 F1000
G1 X22.500 Y9.498 F1000
G1 X22.886 Y9.111 F1000
G1 X23.530 Y9.111 F1000
G1 X23.788 Y9.369 F1000
G1 X23.788 Y9.626 F1000
G1 X23.916 Y9.755 F1000
G1 X23.916 Y10.013 F1000
G1 X23.788 Y10.141 F1000
G1 X23.788 Y10.399 F1000
G1 X23.401 Y10.785 F1000
G1 X23.015 Y10.785 F1000
G1 X23.015 Y10.785 F1000
G1 X22.500 Y10.270 F1000
G1 X22.500 Y10.141 F1000
G1 X22.371 Y10.013 F1000
G1 X22.371 Y9.755 F1000
G1 X22.500 Y9.626 F1000
G1 X22.500 Y9.498 F1000
G1 X22.886 Y9.111 F1000
G1 X23.530 Y9.111 F1000
G1 X23.788 Y9.369 F1000
G1 X23.788 Y9.626 F1000
G1 X23.916 Y9.755 F1000
G1 X23.916 Y10.013 F1000
G1 X23.788 Y10.141 F1000
G1 X23.788 Y10.399 F1000
G1 X23.401 Y10.785 F1000
G0 Z3.0 ; Pen up

G0 X24.431 Y10.656 F3000 ; Travel to line 4
G0 Z0.0 ; Pen down
G1 X24.431 Y9.111 F1000
G1 X25.332 Y9.111 F1000
G1 X24.560 Y9.111 F1000
G1 X24.431 Y9.240 F1000
G0 Z3.0 ; Pen up

G0 X26.105 Y10.785 F3000 ; Travel to line 5
G0 Z0.0 ; Pen down
G1 X25.976 Y10.656 F1000
G1 X25.976 Y9.111 F1000
G1 X26.878 Y9.111 F1000
G1 X26.105 Y9.111 F1000
G1 X25.976 Y9.240 F1000
G1 X25.976 Y9.884 F1000
G1 X26.105 Y10.013 F1000
G1 X26.878 Y10.013 F1000
G1 X26.105 Y10.013 F1000
G1 X25.976 Y10.141 F1000
G1 X25.976 Y10.527 F1000
G1 X26.234 Y10.785 F1000
G1 X26.878 Y10.785 F1000
G0 Z3.0 ; Pen up

G0 X27.521 Y10.527 F3000 ; Travel to line 6
G0 Z0.0 ; Pen down
G1 X27.521 Y10.141 F1000
G1 X27.650 Y10.013 F1000
G1 X28.294 Y10.013 F1000
G1 X28.422 Y10.141 F1000
G1 X28.422 Y10.527 F1000
G1 X28.165 Y10.785 F1000
G1 X27.779 Y10.785 F1000
G0 Z3.0 ; Pen up

G0 X27.650 Y10.785 F3000 ; Travel to line 7
G0 Z0.0 ; Pen down
G1 X27.521 Y10.656 F1000
G1 X27.521 Y9.111 F1000
G1 X27.521 Y9.884 F1000
G1 X27.650 Y10.013 F1000
G1 X28.165 Y10.013 F1000
G1 X28.294 Y9.884 F1000
G1 X28.294 Y9.755 F1000
G1 X28.551 Y9.498 F1000
G1 X28.551 Y9.369 F1000
G1 X28.680 Y9.240 F1000
G1 X28.680 Y9.111 F1000
G1 X28.809 Y8.982 F1000
G1 X29.066 Y8.982 F1000
G1 X29.066 Y9.240 F1000
G1 X29.324 Y9.498 F1000
G1 X30.096 Y9.498 F1000
G1 X30.354 Y9.240 F1000
G1 X30.354 Y9.111 F1000
G1 X30.354 Y9.240 F1000
G1 X30.225 Y9.369 F1000
G1 X30.225 Y9.498 F1000
G1 X30.096 Y9.626 F1000
G1 X30.096 Y10.013 F1000
G1 X29.968 Y10.141 F1000
G1 X29.968 Y10.399 F1000
G1 X29.839 Y10.527 F1000
G1 X29.581 Y10.527 F1000
G1 X29.581 Y10.399 F1000
G1 X29.453 Y10.270 F1000
G1 X29.453 Y10.013 F1000
G1 X29.324 Y9.884 F1000
G1 X29.324 Y9.626 F1000
G1 X29.195 Y9.498 F1000
G1 X29.195 Y9.369 F1000
G1 X29.066 Y9.240 F1000
G1 X29.066 Y9.111 F1000
G1 X28.938 Y8.982 F1000
G1 X28.809 Y8.982 F1000
G1 X28.680 Y9.111 F1000
G1 X28.680 Y9.240 F1000
G1 X28.551 Y9.369 F1000
G1 X28.551 Y9.498 F1000
G1 X28.422 Y9.626 F1000
G1 X28.422 Y9.755 F1000
G1 X28.294 Y9.884 F1000
G1 X28.294 Y10.013 F1000
G1 X28.422 Y10.141 F1000
G1 X28.422 Y10.656 F1000
G1 X28.294 Y10.656 F1000
G1 X28.165 Y10.785 F1000
G0 Z3.0 ; Pen up

G0 X29.453 Y10.270 F3000 ; Travel to line 8
G0 Z0.0 ; Pen down
G1 X29.453 Y10.013 F1000
G1 X29.324 Y9.884 F1000
G1 X29.324 Y9.626 F1000
G1 X29.453 Y9.498 F1000
G1 X29.968 Y9.498 F1000
G1 X30.096 Y9.626 F1000
G1 X30.096 Y10.013 F1000
G1 X29.968 Y10.141 F1000
G1 X29.968 Y10.399 F1000
G1 X29.839 Y10.527 F1000
G1 X29.710 Y10.527 F1000
G0 Z3.0 ; Pen up

G0 X31.126 Y10.527 F3000 ; Travel to line 9
G0 Z0.0 ; Pen down
G1 X31.255 Y10.399 F1000
G1 X31.384 Y10.399 F1000
G1 X31.384 Y10.270 F1000
G1 X31.512 Y10.141 F1000
G1 X31.512 Y10.013 F1000
G1 X31.641 Y9.884 F1000
G1 X31.641 Y9.755 F1000
G1 X32.028 Y9.369 F1000
G1 X32.156 Y9.498 F1000
G1 X32.156 Y10.656 F1000
G1 X32.156 Y9.369 F1000
G1 X31.899 Y9.369 F1000
G1 X31.899 Y9.498 F1000
G1 X31.641 Y9.755 F1000
G1 X31.641 Y9.884 F1000
G1 X31.512 Y10.013 F1000
G1 X31.512 Y10.141 F1000
G1 X31.255 Y10.399 F1000
G1 X31.126 Y10.399 F1000
G1 X30.998 Y10.270 F1000
G1 X30.998 Y9.111 F1000
G1 X30.998 Y10.399 F1000
G1 X31.126 Y10.527 F1000
G1 X31.126 Y10.656 F1000
G0 Z3.0 ; Pen up

G0 X32.156 Y12.459 F3000 ; Travel to line 10
G0 Z0.0 ; Pen down
G1 X32.285 Y12.330 F1000
G1 X33.058 Y12.330 F1000
G1 X32.156 Y12.330 F1000
G1 X32.156 Y13.875 F1000
G0 Z3.0 ; Pen up

G0 X30.998 Y13.746 F3000 ; Travel to line 11
G0 Z0.0 ; Pen down
G1 X31.126 Y13.617 F1000
G1 X31.126 Y13.360 F1000
G1 X31.255 Y13.231 F1000
G1 X31.255 Y12.845 F1000
G1 X31.384 Y12.716 F1000
G1 X31.384 Y12.588 F1000
G1 X31.512 Y12.459 F1000
G1 X31.512 Y12.330 F1000
G1 X31.512 Y12.459 F1000
G1 X31.255 Y12.716 F1000
G1 X30.483 Y12.716 F1000
G1 X30.225 Y12.459 F1000
G1 X30.225 Y12.201 F1000
G1 X30.225 Y12.459 F1000
G1 X30.354 Y12.588 F1000
G1 X30.354 Y12.716 F1000
G1 X30.483 Y12.845 F1000
G1 X30.483 Y13.103 F1000
G1 X30.611 Y13.231 F1000
G1 X30.611 Y13.489 F1000
G1 X30.740 Y13.617 F1000
G1 X30.740 Y13.746 F1000
G0 Z3.0 ; Pen up

G0 X30.869 Y13.746 F3000 ; Travel to line 12
G0 Z0.0 ; Pen down
G1 X30.998 Y13.746 F1000
G1 X31.126 Y13.617 F1000
G1 X31.126 Y13.360 F1000
G1 X31.255 Y13.231 F1000
G1 X31.255 Y12.845 F1000
G1 X31.126 Y12.716 F1000
G1 X30.611 Y12.716 F1000
G1 X30.483 Y12.845 F1000
G1 X30.483 Y13.103 F1000
G1 X30.611 Y13.231 F1000
G1 X30.611 Y13.489 F1000
G0 Z3.0 ; Pen up

G0 X29.710 Y13.875 F3000 ; Travel to line 13
G0 Z0.0 ; Pen down
G1 X29.710 Y12.330 F1000
G0 Z3.0 ; Pen up

G0 X28.551 Y14.004 F3000 ; Travel to line 14
G0 Z0.0 ; Pen down
G1 X28.680 Y13.875 F1000
G1 X28.809 Y13.875 F1000
G1 X28.809 Y13.360 F1000
G1 X28.680 Y13.231 F1000
G1 X28.680 Y13.103 F1000
G1 X28.809 Y12.974 F1000
G1 X28.809 Y12.845 F1000
G1 X28.938 Y12.716 F1000
G1 X28.938 Y12.588 F1000
G1 X29.066 Y12.459 F1000
G1 X29.066 Y12.330 F1000
G1 X29.066 Y12.459 F1000
G1 X28.938 Y12.588 F1000
G1 X28.938 Y12.716 F1000
G1 X28.680 Y12.974 F1000
G1 X28.680 Y13.103 F1000
G1 X28.551 Y13.231 F1000
G1 X28.036 Y13.231 F1000
G1 X27.907 Y13.103 F1000
G1 X27.907 Y12.330 F1000
G1 X27.907 Y13.875 F1000
G1 X28.036 Y14.004 F1000
G0 Z3.0 ; Pen up

G0 X28.165 Y14.004 F3000 ; Travel to line 15
G0 Z0.0 ; Pen down
G1 X28.551 Y14.004 F1000
G1 X28.809 Y13.746 F1000
G1 X28.809 Y13.360 F1000
G1 X28.680 Y13.231 F1000
G1 X28.036 Y13.231 F1000
G1 X27.907 Y13.360 F1000
G1 X27.907 Y13.746 F1000
G0 Z3.0 ; Pen up

G0 X27.135 Y14.004 F3000 ; Travel to line 16
G0 Z0.0 ; Pen down
G1 X26.491 Y14.004 F1000
G1 X26.234 Y13.746 F1000
G1 X26.234 Y13.360 F1000
G1 X26.363 Y13.231 F1000
G1 X27.135 Y13.231 F1000
G1 X26.363 Y13.231 F1000
G1 X26.234 Y13.103 F1000
G1 X26.234 Y12.459 F1000
G1 X26.363 Y12.330 F1000
G1 X27.135 Y12.330 F1000
G1 X26.234 Y12.330 F1000
G1 X26.234 Y13.875 F1000
G1 X26.363 Y14.004 F1000
G0 Z3.0 ; Pen up

G0 X25.719 Y14.004 F3000 ; Travel to line 17
G0 Z0.0 ; Pen down
G1 X25.204 Y14.004 F1000
G1 X25.075 Y13.875 F1000
G1 X25.075 Y12.330 F1000
G1 X25.075 Y13.875 F1000
G1 X24.946 Y14.004 F1000
G1 X24.560 Y14.004 F1000
G0 Z3.0 ; Pen up

G0 X23.788 Y13.746 F3000 ; Travel to line 18
G0 Z0.0 ; Pen down
G1 X23.916 Y13.617 F1000
G1 X23.916 Y13.360 F1000
G1 X24.045 Y13.231 F1000
G1 X24.045 Y12.845 F1000
G1 X24.174 Y12.716 F1000
G1 X24.174 Y12.588 F1000
G1 X24.303 Y12.459 F1000
G1 X24.303 Y12.330 F1000
G1 X24.303 Y12.459 F1000
G1 X24.045 Y12.716 F1000
G1 X23.273 Y12.716 F1000
G1 X23.015 Y12.459 F1000
G1 X23.015 Y12.201 F1000
G1 X23.015 Y12.459 F1000
G1 X23.144 Y12.588 F1000
G1 X23.144 Y12.716 F1000
G1 X23.273 Y12.845 F1000
G1 X23.273 Y13.103 F1000
G1 X23.401 Y13.231 F1000
G1 X23.401 Y13.489 F1000
G1 X23.530 Y13.617 F1000
G1 X23.530 Y13.746 F1000
G0 Z3.0 ; Pen up

G0 X23.659 Y13.746 F3000 ; Travel to line 19
G0 Z0.0 ; Pen down
G1 X23.788 Y13.746 F1000
G1 X23.916 Y13.617 F1000
G1 X23.916 Y13.360 F1000
G1 X24.045 Y13.231 F1000
G1 X24.045 Y12.845 F1000
G1 X23.916 Y12.716 F1000
G1 X23.401 Y12.716 F1000
G1 X23.273 Y12.845 F1000
G1 X23.273 Y13.103 F1000
G1 X23.401 Y13.231 F1000
G1 X23.401 Y13.489 F1000
G0 Z3.0 ; Pen up

G0 X24.045 Y15.678 F3000 ; Travel to line 20
G0 Z0.0 ; Pen down
G1 X24.174 Y15.549 F1000
G1 X24.946 Y15.549 F1000
G1 X24.045 Y15.549 F1000
G1 X24.045 Y17.094 F1000
G0 Z3.0 ; Pen up

G0 X22.629 Y17.094 F3000 ; Travel to line 21
G0 Z0.0 ; Pen down
G1 X22.629 Y15.549 F1000
G1 X23.530 Y15.549 F1000
G1 X22.758 Y15.549 F1000
G1 X22.629 Y15.678 F1000
G0 Z3.0 ; Pen up

G0 X21.470 Y16.965 F3000 ; Travel to line 22
G0 Z0.0 ; Pen down
G1 X21.599 Y16.836 F1000
G1 X21.599 Y16.579 F1000
G1 X21.727 Y16.450 F1000
G1 X21.727 Y16.064 F1000
G1 X21.856 Y15.935 F1000
G1 X21.856 Y15.806 F1000
G1 X21.985 Y15.678 F1000
G1 X21.985 Y15.549 F1000
G1 X21.985 Y15.678 F1000
G1 X21.727 Y15.935 F1000
G1 X20.955 Y15.935 F1000
G1 X20.697 Y15.678 F1000
G1 X20.697 Y15.420 F1000
G1 X20.697 Y15.678 F1000
G1 X20.826 Y15.806 F1000
G1 X20.826 Y15.935 F1000
G1 X20.955 Y16.064 F1000
G1 X20.955 Y16.321 F1000
G1 X21.084 Y16.450 F1000
G1 X21.084 Y16.707 F1000
G1 X21.212 Y16.836 F1000
G1 X21.212 Y16.965 F1000
G0 Z3.0 ; Pen up

G0 X21.341 Y16.965 F3000 ; Travel to line 23
G0 Z0.0 ; Pen down
G1 X21.470 Y16.965 F1000
G1 X21.599 Y16.836 F1000
G1 X21.599 Y16.579 F1000
G1 X21.727 Y16.450 F1000
G1 X21.727 Y16.064 F1000
G1 X21.599 Y15.935 F1000
G1 X21.084 Y15.935 F1000
G1 X20.955 Y16.064 F1000
G1 X20.955 Y16.321 F1000
G1 X21.084 Y16.450 F1000
G1 X21.084 Y16.707 F1000
G0 Z3.0 ; Pen up

G0 X20.955 Y13.875 F3000 ; Travel to line 24
G0 Z0.0 ; Pen down
G1 X20.955 Y13.746 F1000
G1 X20.826 Y13.617 F1000
G1 X20.826 Y12.330 F1000
G1 X20.826 Y13.489 F1000
G1 X20.955 Y13.617 F1000
G1 X21.084 Y13.617 F1000
G1 X21.341 Y13.360 F1000
G1 X21.341 Y13.103 F1000
G1 X21.470 Y12.974 F1000
G1 X21.470 Y12.845 F1000
G1 X21.727 Y12.845 F1000
G1 X21.856 Y12.974 F1000
G1 X21.856 Y13.231 F1000
G1 X21.985 Y13.360 F1000
G1 X21.985 Y13.489 F1000
G1 X22.114 Y13.617 F1000
G1 X22.242 Y13.489 F1000
G1 X22.242 Y12.330 F1000
G1 X22.242 Y13.875 F1000
G1 X22.242 Y13.746 F1000
G1 X22.114 Y13.617 F1000
G1 X21.985 Y13.617 F1000
G1 X21.985 Y13.360 F1000
G1 X21.856 Y13.231 F1000
G1 X21.856 Y12.974 F1000
G1 X21.727 Y12.845 F1000
G1 X21.599 Y12.845 F1000
G1 X21.341 Y13.103 F1000
G1 X21.341 Y13.360 F1000
G1 X21.212 Y13.489 F1000
G1 X21.212 Y13.617 F1000
G1 X21.084 Y13.617 F1000
G1 X20.955 Y13.746 F1000
G0 Z3.0 ; Pen up

G0 X18.123 Y14.004 F3000 ; Travel to line 25
G0 Z0.0 ; Pen down
G1 X18.251 Y13.875 F1000
G1 X18.380 Y13.875 F1000
G1 X18.380 Y13.746 F1000
G1 X18.509 Y13.617 F1000
G1 X18.509 Y13.360 F1000
G1 X18.380 Y13.231 F1000
G1 X18.380 Y13.103 F1000
G1 X17.736 Y12.459 F1000
G1 X17.865 Y12.330 F1000
G1 X18.509 Y12.330 F1000
G1 X17.736 Y12.330 F1000
G1 X17.736 Y12.588 F1000
G1 X18.509 Y13.360 F1000
G1 X18.509 Y13.617 F1000
G1 X18.123 Y14.004 F1000
G1 X17.865 Y14.004 F1000
G1 X17.736 Y13.875 F1000
G1 X17.608 Y13.875 F1000
G1 X17.736 Y13.875 F1000
G1 X17.865 Y14.004 F1000
G0 Z3.0 ; Pen up

G0 X17.994 Y17.223 F3000 ; Travel to line 26
G0 Z0.0 ; Pen down
G1 X17.865 Y17.094 F1000
G1 X17.736 Y17.094 F1000
G1 X17.865 Y17.094 F1000
G1 X17.994 Y17.223 F1000
G1 X18.123 Y17.094 F1000
G1 X18.123 Y15.678 F1000
G1 X17.994 Y15.549 F1000
G1 X18.509 Y15.549 F1000
G1 X18.251 Y15.549 F1000
G1 X18.123 Y15.678 F1000
G1 X18.123 Y17.223 F1000
G0 Z3.0 ; Pen up

G0 X19.796 Y19.669 F3000 ; Travel to line 27
G0 Z0.0 ; Pen down
G1 X19.668 Y19.540 F1000
G1 X19.410 Y19.540 F1000
G1 X19.152 Y19.797 F1000
G1 X19.152 Y19.926 F1000
G1 X19.024 Y20.055 F1000
G1 X19.024 Y20.184 F1000
G1 X18.895 Y20.312 F1000
G1 X18.895 Y20.441 F1000
G1 X18.766 Y20.570 F1000
G1 X18.766 Y20.699 F1000
G1 X18.509 Y20.956 F1000
G1 X18.509 Y21.085 F1000
G1 X18.380 Y21.214 F1000
G1 X18.380 Y21.343 F1000
G1 X18.123 Y21.600 F1000
G1 X17.994 Y21.600 F1000
G1 X17.865 Y21.471 F1000
G1 X17.865 Y19.411 F1000
G1 X17.865 Y21.600 F1000
G1 X18.123 Y21.600 F1000
G1 X18.251 Y21.471 F1000
G1 X18.380 Y21.471 F1000
G1 X18.380 Y21.343 F1000
G1 X18.509 Y21.214 F1000
G1 X18.509 Y21.085 F1000
G1 X18.638 Y20.956 F1000
G1 X18.638 Y20.828 F1000
G1 X18.766 Y20.699 F1000
G1 X18.766 Y20.570 F1000
G1 X18.895 Y20.441 F1000
G1 X18.895 Y20.312 F1000
G1 X19.152 Y20.055 F1000
G1 X19.152 Y19.926 F1000
G1 X19.281 Y19.797 F1000
G1 X19.281 Y19.669 F1000
G1 X19.410 Y19.540 F1000
G1 X19.668 Y19.540 F1000
G1 X19.796 Y19.669 F1000
G1 X19.796 Y21.858 F1000
G0 Z3.0 ; Pen up

G0 X21.341 Y21.729 F3000 ; Travel to line 28
G0 Z0.0 ; Pen down
G1 X20.955 Y21.343 F1000
G1 X20.955 Y21.085 F1000
G1 X20.826 Y20.956 F1000
G1 X20.826 Y20.184 F1000
G1 X20.955 Y20.055 F1000
G1 X20.955 Y19.797 F1000
G1 X21.212 Y19.540 F1000
G1 X21.341 Y19.540 F1000
G1 X21.470 Y19.411 F1000
G1 X21.599 Y19.411 F1000
G1 X21.727 Y19.282 F1000
G1 X22.242 Y19.282 F1000
G1 X22.371 Y19.411 F1000
G1 X22.500 Y19.411 F1000
G1 X22.629 Y19.540 F1000
G1 X22.758 Y19.540 F1000
G1 X23.015 Y19.797 F1000
G1 X23.015 Y19.926 F1000
G1 X23.144 Y20.055 F1000
G1 X23.144 Y21.085 F1000
G1 X23.015 Y21.214 F1000
G1 X23.015 Y21.343 F1000
G1 X22.629 Y21.729 F1000
G1 X22.500 Y21.729 F1000
G1 X22.371 Y21.858 F1000
G1 X21.599 Y21.858 F1000
G1 X21.470 Y21.729 F1000
G0 Z3.0 ; Pen up

G0 X21.599 Y21.858 F3000 ; Travel to line 29
G0 Z0.0 ; Pen down
G1 X21.470 Y21.729 F1000
G1 X21.341 Y21.729 F1000
G1 X20.955 Y21.343 F1000
G1 X20.955 Y21.085 F1000
G1 X20.826 Y20.956 F1000
G1 X20.826 Y20.184 F1000
G1 X20.955 Y20.055 F1000
G1 X20.955 Y19.797 F1000
G1 X21.212 Y19.540 F1000
G1 X21.341 Y19.540 F1000
G1 X21.470 Y19.411 F1000
G1 X21.599 Y19.411 F1000
G1 X21.727 Y19.282 F1000
G1 X22.242 Y19.282 F1000
G1 X22.371 Y19.411 F1000
G1 X22.500 Y19.411 F1000
G1 X22.629 Y19.540 F1000
G1 X22.758 Y19.540 F1000
G1 X23.015 Y19.797 F1000
G1 X23.015 Y19.926 F1000
G1 X23.144 Y20.055 F1000
G1 X23.144 Y21.085 F1000
G1 X23.015 Y21.214 F1000
G1 X23.015 Y21.343 F1000
G1 X22.629 Y21.729 F1000
G1 X22.500 Y21.729 F1000
G1 X22.371 Y21.858 F1000
G0 Z3.0 ; Pen up

G0 X23.788 Y21.858 F3000 ; Travel to line 30
G0 Z0.0 ; Pen down
G1 X24.689 Y21.858 F1000
G1 X24.818 Y21.729 F1000
G1 X24.818 Y19.411 F1000
G1 X24.818 Y21.729 F1000
G1 X24.946 Y21.858 F1000
G1 X25.848 Y21.858 F1000
G0 Z3.0 ; Pen up

G0 X26.749 Y21.858 F3000 ; Travel to line 31
G0 Z0.0 ; Pen down
G1 X26.749 Y19.282 F1000
G1 X28.165 Y19.282 F1000
G1 X26.878 Y19.282 F1000
G1 X26.749 Y19.411 F1000
G1 X26.749 Y20.570 F1000
G1 X26.878 Y20.699 F1000
G1 X28.036 Y20.699 F1000
G1 X26.878 Y20.699 F1000
G1 X26.749 Y20.828 F1000
G1 X26.749 Y21.729 F1000
G1 X26.878 Y21.858 F1000
G1 X28.165 Y21.858 F1000
G0 Z3.0 ; Pen up

G0 X29.710 Y21.858 F3000 ; Travel to line 32
G0 Z0.0 ; Pen down
G1 X29.581 Y21.729 F1000
G1 X29.453 Y21.729 F1000
G1 X29.195 Y21.471 F1000
G1 X29.195 Y21.085 F1000
G1 X29.324 Y20.956 F1000
G1 X29.324 Y20.828 F1000
G1 X29.453 Y20.828 F1000
G1 X29.581 Y20.699 F1000
G1 X29.839 Y20.699 F1000
G1 X29.968 Y20.570 F1000
G1 X30.483 Y20.570 F1000
G1 X30.869 Y20.184 F1000
G1 X30.869 Y19.669 F1000
G1 X30.611 Y19.411 F1000
G1 X30.483 Y19.411 F1000
G1 X30.354 Y19.282 F1000
G1 X29.581 Y19.282 F1000
G1 X29.453 Y19.411 F1000
G1 X29.195 Y19.411 F1000
G1 X29.453 Y19.411 F1000
G1 X29.581 Y19.282 F1000
G1 X30.354 Y19.282 F1000
G1 X30.483 Y19.411 F1000
G1 X30.611 Y19.411 F1000
G1 X30.869 Y19.669 F1000
G1 X30.869 Y20.184 F1000
G1 X30.483 Y20.570 F1000
G1 X29.968 Y20.570 F1000
G1 X29.839 Y20.699 F1000
G1 X29.581 Y20.699 F1000
G1 X29.195 Y21.085 F1000
G1 X29.195 Y21.343 F1000
G1 X29.710 Y21.858 F1000
G1 X30.740 Y21.858 F1000
G0 Z3.0 ; Pen up

G0 X31.384 Y17.223 F3000 ; Travel to line 33
G0 Z0.0 ; Pen down
G1 X31.255 Y17.094 F1000
G1 X31.255 Y15.549 F1000
G1 X32.156 Y15.549 F1000
G1 X31.384 Y15.549 F1000
G1 X31.255 Y15.678 F1000
G1 X31.255 Y16.321 F1000
G1 X31.384 Y16.450 F1000
G1 X32.156 Y16.450 F1000
G1 X31.384 Y16.450 F1000
G1 X31.255 Y16.579 F1000
G1 X31.255 Y16.965 F1000
G1 X31.512 Y17.223 F1000
G1 X32.156 Y17.223 F1000
G0 Z3.0 ; Pen up

G0 X33.058 Y17.094 F3000 ; Travel to line 34
G0 Z0.0 ; Pen down
G1 X33.058 Y16.965 F1000
G1 X32.929 Y16.836 F1000
G1 X32.929 Y15.549 F1000
G1 X32.929 Y16.707 F1000
G1 X33.058 Y16.836 F1000
G1 X33.186 Y16.836 F1000
G1 X33.444 Y16.579 F1000
G1 X33.444 Y16.450 F1000
G1 X33.573 Y16.321 F1000
G1 X33.573 Y16.193 F1000
G1 X33.830 Y15.935 F1000
G1 X33.830 Y15.806 F1000
G1 X34.088 Y15.806 F1000
G1 X34.088 Y17.094 F1000
G1 X34.088 Y15.935 F1000
G1 X33.959 Y15.806 F1000
G1 X33.573 Y16.193 F1000
G1 X33.573 Y16.321 F1000
G1 X33.444 Y16.450 F1000
G1 X33.444 Y16.579 F1000
G1 X33.315 Y16.707 F1000
G1 X33.315 Y16.836 F1000
G1 X33.186 Y16.836 F1000
G1 X33.058 Y16.965 F1000
G0 Z3.0 ; Pen up

G0 X35.246 Y17.223 F3000 ; Travel to line 35
G0 Z0.0 ; Pen down
G1 X35.117 Y17.094 F1000
G1 X34.989 Y17.094 F1000
G1 X34.860 Y16.965 F1000
G1 X34.860 Y16.579 F1000
G1 X34.989 Y16.450 F1000
G1 X35.246 Y16.450 F1000
G1 X35.375 Y16.321 F1000
G1 X35.633 Y16.321 F1000
G1 X35.761 Y16.193 F1000
G1 X35.761 Y15.678 F1000
G1 X35.633 Y15.549 F1000
G1 X34.860 Y15.549 F1000
G1 X35.633 Y15.549 F1000
G1 X35.761 Y15.678 F1000
G1 X35.761 Y16.193 F1000
G1 X35.633 Y16.321 F1000
G1 X35.375 Y16.321 F1000
G1 X35.246 Y16.450 F1000
G1 X34.989 Y16.450 F1000
G1 X34.860 Y16.579 F1000
G1 X34.860 Y16.965 F1000
G1 X34.989 Y17.094 F1000
G1 X35.117 Y17.094 F1000
G1 X35.246 Y17.223 F1000
G1 X35.504 Y17.223 F1000
G1 X35.633 Y17.094 F1000
G1 X35.761 Y17.094 F1000
G1 X35.633 Y17.094 F1000
G1 X35.504 Y17.223 F1000
G0 Z3.0 ; Pen up

G0 X36.534 Y17.094 F3000 ; Travel to line 36
G0 Z0.0 ; Pen down
G1 X36.534 Y15.549 F1000
G0 Z3.0 ; Pen up

G0 X37.306 Y16.707 F3000 ; Travel to line 37
G0 Z0.0 ; Pen down
G1 X37.306 Y16.579 F1000
G1 X37.178 Y16.450 F1000
G1 X37.178 Y16.193 F1000
G1 X37.306 Y16.064 F1000
G1 X37.306 Y15.935 F1000
G1 X37.692 Y15.549 F1000
G1 X38.336 Y15.549 F1000
G1 X38.594 Y15.806 F1000
G1 X38.594 Y16.064 F1000
G1 X38.722 Y16.193 F1000
G1 X38.722 Y16.450 F1000
G1 X38.594 Y16.579 F1000
G1 X38.594 Y16.836 F1000
G1 X38.207 Y17.223 F1000
G1 X37.821 Y17.223 F1000
G1 X37.821 Y17.223 F1000
G1 X37.306 Y16.707 F1000
G1 X37.306 Y16.579 F1000
G1 X37.178 Y16.450 F1000
G1 X37.178 Y16.193 F1000
G1 X37.306 Y16.064 F1000
G1 X37.306 Y15.935 F1000
G1 X37.692 Y15.549 F1000
G1 X38.336 Y15.549 F1000
G1 X38.594 Y15.806 F1000
G1 X38.594 Y16.064 F1000
G1 X38.722 Y16.193 F1000
G1 X38.722 Y16.450 F1000
G1 X38.594 Y16.579 F1000
G1 X38.594 Y16.836 F1000
G1 X38.207 Y17.223 F1000
G0 Z3.0 ; Pen up

G0 X39.366 Y17.094 F3000 ; Travel to line 38
G0 Z0.0 ; Pen down
G1 X39.366 Y16.965 F1000
G1 X39.237 Y16.836 F1000
G1 X39.237 Y15.549 F1000
G1 X39.237 Y16.707 F1000
G1 X39.366 Y16.836 F1000
G1 X39.495 Y16.836 F1000
G1 X39.752 Y16.579 F1000
G1 X39.752 Y16.450 F1000
G1 X39.881 Y16.321 F1000
G1 X39.881 Y16.193 F1000
G1 X40.139 Y15.935 F1000
G1 X40.139 Y15.806 F1000
G1 X40.396 Y15.806 F1000
G1 X40.396 Y17.094 F1000
G1 X40.396 Y15.935 F1000
G1 X40.267 Y15.806 F1000
G1 X39.881 Y16.193 F1000
G1 X39.881 Y16.321 F1000
G1 X39.752 Y16.450 F1000
G1 X39.752 Y16.579 F1000
G1 X39.624 Y16.707 F1000
G1 X39.624 Y16.836 F1000
G1 X39.495 Y16.836 F1000
G1 X39.366 Y16.965 F1000
G0 Z3.0 ; Pen up

G0 X41.555 Y17.223 F3000 ; Travel to line 39
G0 Z0.0 ; Pen down
G1 X41.426 Y17.094 F1000
G1 X41.297 Y17.094 F1000
G1 X41.169 Y16.965 F1000
G1 X41.169 Y16.579 F1000
G1 X41.297 Y16.450 F1000
G1 X41.555 Y16.450 F1000
G1 X41.684 Y16.321 F1000
G1 X41.941 Y16.321 F1000
G1 X42.070 Y16.193 F1000
G1 X42.070 Y15.678 F1000
G1 X41.941 Y15.549 F1000
G1 X41.169 Y15.549 F1000
G1 X41.941 Y15.549 F1000
G1 X42.070 Y15.678 F1000
G1 X42.070 Y16.193 F1000
G1 X41.941 Y16.321 F1000
G1 X41.684 Y16.321 F1000
G1 X41.555 Y16.450 F1000
G1 X41.297 Y16.450 F1000
G1 X41.169 Y16.579 F1000
G1 X41.169 Y16.965 F1000
G1 X41.297 Y17.094 F1000
G1 X41.426 Y17.094 F1000
G1 X41.555 Y17.223 F1000
G1 X41.812 Y17.223 F1000
G1 X41.941 Y17.094 F1000
G1 X42.070 Y17.094 F1000
G1 X41.941 Y17.094 F1000
G1 X41.812 Y17.223 F1000
G0 Z3.0 ; Pen up

G0 X43.615 Y17.094 F3000 ; Travel to line 40
G0 Z0.0 ; Pen down
G1 X43.615 Y15.549 F1000
G0 Z3.0 ; Pen up

G0 X44.516 Y16.965 F3000 ; Travel to line 41
G0 Z0.0 ; Pen down
G1 X44.645 Y16.836 F1000
G1 X44.774 Y16.836 F1000
G1 X44.774 Y16.707 F1000
G1 X44.903 Y16.579 F1000
G1 X44.903 Y16.450 F1000
G1 X45.031 Y16.321 F1000
G1 X45.031 Y16.193 F1000
G1 X45.418 Y15.806 F1000
G1 X45.546 Y15.935 F1000
G1 X45.546 Y17.094 F1000
G1 X45.546 Y15.806 F1000
G1 X45.289 Y15.806 F1000
G1 X45.289 Y15.935 F1000
G1 X45.031 Y16.193 F1000
G1 X45.031 Y16.321 F1000
G1 X44.903 Y16.450 F1000
G1 X44.903 Y16.579 F1000
G1 X44.645 Y16.836 F1000
G1 X44.516 Y16.836 F1000
G1 X44.388 Y16.707 F1000
G1 X44.388 Y15.549 F1000
G1 X44.388 Y16.836 F1000
G1 X44.516 Y16.965 F1000
G1 X44.516 Y17.094 F1000
G0 Z3.0 ; Pen up

G0 X47.349 Y17.094 F3000 ; Travel to line 42
G0 Z0.0 ; Pen down
G1 X47.349 Y16.965 F1000
G1 X47.220 Y16.836 F1000
G1 X47.220 Y15.549 F1000
G1 X47.220 Y16.707 F1000
G1 X47.349 Y16.836 F1000
G1 X47.477 Y16.836 F1000
G1 X47.735 Y16.579 F1000
G1 X47.735 Y16.321 F1000
G1 X47.864 Y16.193 F1000
G1 X47.864 Y16.064 F1000
G1 X48.121 Y16.064 F1000
G1 X48.250 Y16.193 F1000
G1 X48.250 Y16.450 F1000
G1 X48.379 Y16.579 F1000
G1 X48.379 Y16.707 F1000
G1 X48.508 Y16.836 F1000
G1 X48.636 Y16.707 F1000
G1 X48.636 Y15.549 F1000
G1 X48.636 Y17.094 F1000
G1 X48.636 Y16.965 F1000
G1 X48.508 Y16.836 F1000
G1 X48.379 Y16.836 F1000
G1 X48.379 Y16.579 F1000
G1 X48.250 Y16.450 F1000
G1 X48.250 Y16.193 F1000
G1 X48.121 Y16.064 F1000
G1 X47.992 Y16.064 F1000
G1 X47.735 Y16.321 F1000
G1 X47.735 Y16.579 F1000
G1 X47.606 Y16.707 F1000
G1 X47.606 Y16.836 F1000
G1 X47.477 Y16.836 F1000
G1 X47.349 Y16.965 F1000
G0 Z3.0 ; Pen up

G0 X49.409 Y17.094 F3000 ; Travel to line 43
G0 Z0.0 ; Pen down
G1 X49.409 Y15.549 F1000
G0 Z3.0 ; Pen up

G0 X50.181 Y15.678 F3000 ; Travel to line 44
G0 Z0.0 ; Pen down
G1 X50.310 Y15.549 F1000
G1 X51.083 Y15.549 F1000
G1 X50.181 Y15.549 F1000
G1 X50.181 Y17.094 F1000
G0 Z3.0 ; Pen up

G0 X51.598 Y17.094 F3000 ; Travel to line 45
G0 Z0.0 ; Pen down
G1 X51.598 Y15.549 F1000
G1 X52.499 Y15.549 F1000
G1 X51.726 Y15.549 F1000
G1 X51.598 Y15.678 F1000
G0 Z3.0 ; Pen up

G0 X53.014 Y15.549 F3000 ; Travel to line 46
G0 Z0.0 ; Pen down
G1 X53.014 Y17.094 F1000
G0 Z3.0 ; Pen up

G0 X53.915 Y17.094 F3000 ; Travel to line 47
G0 Z0.0 ; Pen down
G1 X53.915 Y16.965 F1000
G1 X53.786 Y16.836 F1000
G1 X53.786 Y15.549 F1000
G1 X53.786 Y16.707 F1000
G1 X53.915 Y16.836 F1000
G1 X54.044 Y16.836 F1000
G1 X54.301 Y16.579 F1000
G1 X54.301 Y16.321 F1000
G1 X54.430 Y16.193 F1000
G1 X54.430 Y16.064 F1000
G1 X54.688 Y16.064 F1000
G1 X54.816 Y16.193 F1000
G1 X54.816 Y16.450 F1000
G1 X54.945 Y16.579 F1000
G1 X54.945 Y16.707 F1000
G1 X55.074 Y16.836 F1000
G1 X55.203 Y16.707 F1000
G1 X55.203 Y15.549 F1000
G1 X55.203 Y17.094 F1000
G1 X55.203 Y16.965 F1000
G1 X55.074 Y16.836 F1000
G1 X54.945 Y16.836 F1000
G1 X54.945 Y16.579 F1000
G1 X54.816 Y16.450 F1000
G1 X54.816 Y16.193 F1000
G1 X54.688 Y16.064 F1000
G1 X54.559 Y16.064 F1000
G1 X54.301 Y16.321 F1000
G1 X54.301 Y16.579 F1000
G1 X54.172 Y16.707 F1000
G1 X54.172 Y16.836 F1000
G1 X54.044 Y16.836 F1000
G1 X53.915 Y16.965 F1000
G0 Z3.0 ; Pen up

G0 X56.104 Y17.223 F3000 ; Travel to line 48
G0 Z0.0 ; Pen down
G1 X55.975 Y17.094 F1000
G1 X55.975 Y15.549 F1000
G1 X56.876 Y15.549 F1000
G1 X56.104 Y15.549 F1000
G1 X55.975 Y15.678 F1000
G1 X55.975 Y16.321 F1000
G1 X56.104 Y16.450 F1000
G1 X56.876 Y16.450 F1000
G1 X56.104 Y16.450 F1000
G1 X55.975 Y16.579 F1000
G1 X55.975 Y16.965 F1000
G1 X56.233 Y17.223 F1000
G1 X56.876 Y17.223 F1000
G0 Z3.0 ; Pen up

G0 X57.520 Y17.223 F3000 ; Travel to line 49
G0 Z0.0 ; Pen down
G1 X57.906 Y17.223 F1000
G1 X58.035 Y17.094 F1000
G1 X58.035 Y15.549 F1000
G1 X58.035 Y17.094 F1000
G1 X58.164 Y17.223 F1000
G1 X58.679 Y17.223 F1000
G0 Z3.0 ; Pen up

G0 X59.322 Y17.223 F3000 ; Travel to line 50
G0 Z0.0 ; Pen down
G1 X59.194 Y17.094 F1000
G1 X59.194 Y15.549 F1000
G1 X60.095 Y15.549 F1000
G1 X59.322 Y15.549 F1000
G1 X59.194 Y15.678 F1000
G1 X59.194 Y16.321 F1000
G1 X59.322 Y16.450 F1000
G1 X60.095 Y16.450 F1000
G1 X59.322 Y16.450 F1000
G1 X59.194 Y16.579 F1000
G1 X59.194 Y16.965 F1000
G1 X59.451 Y17.223 F1000
G1 X60.095 Y17.223 F1000
G0 Z3.0 ; Pen up

G0 X60.867 Y16.965 F3000 ; Travel to line 51
G0 Z0.0 ; Pen down
G1 X60.867 Y16.579 F1000
G1 X60.996 Y16.450 F1000
G1 X61.640 Y16.450 F1000
G1 X61.769 Y16.579 F1000
G1 X61.769 Y16.965 F1000
G1 X61.511 Y17.223 F1000
G1 X61.125 Y17.223 F1000
G0 Z3.0 ; Pen up

G0 X60.996 Y17.223 F3000 ; Travel to line 52
G0 Z0.0 ; Pen down
G1 X60.867 Y17.094 F1000
G1 X60.867 Y15.549 F1000
G1 X60.867 Y16.321 F1000
G1 X60.996 Y16.450 F1000
G1 X61.511 Y16.450 F1000
G1 X61.640 Y16.321 F1000
G1 X61.640 Y16.193 F1000
G1 X61.898 Y15.935 F1000
G1 X61.898 Y15.806 F1000
G1 X62.026 Y15.678 F1000
G1 X62.026 Y15.549 F1000
G1 X62.026 Y15.678 F1000
G1 X61.898 Y15.806 F1000
G1 X61.898 Y15.935 F1000
G1 X61.769 Y16.064 F1000
G1 X61.769 Y16.193 F1000
G1 X61.640 Y16.321 F1000
G1 X61.640 Y16.450 F1000
G1 X61.769 Y16.579 F1000
G1 X61.769 Y17.094 F1000
G1 X61.640 Y17.094 F1000
G1 X61.511 Y17.223 F1000
G0 Z3.0 ; Pen up

G0 X63.056 Y17.223 F3000 ; Travel to line 53
G0 Z0.0 ; Pen down
G1 X62.928 Y17.094 F1000
G1 X62.799 Y17.094 F1000
G1 X62.670 Y16.965 F1000
G1 X62.670 Y16.579 F1000
G1 X62.799 Y16.450 F1000
G1 X63.056 Y16.450 F1000
G1 X63.185 Y16.321 F1000
G1 X63.443 Y16.321 F1000
G1 X63.571 Y16.193 F1000
G1 X63.571 Y15.678 F1000
G1 X63.443 Y15.549 F1000
G1 X62.670 Y15.549 F1000
G1 X63.443 Y15.549 F1000
G1 X63.571 Y15.678 F1000
G1 X63.571 Y16.193 F1000
G1 X63.443 Y16.321 F1000
G1 X63.185 Y16.321 F1000
G1 X63.056 Y16.450 F1000
G1 X62.799 Y16.450 F1000
G1 X62.670 Y16.579 F1000
G1 X62.670 Y16.965 F1000
G1 X62.799 Y17.094 F1000
G1 X62.928 Y17.094 F1000
G1 X63.056 Y17.223 F1000
G1 X63.314 Y17.223 F1000
G1 X63.443 Y17.094 F1000
G1 X63.571 Y17.094 F1000
G1 X63.443 Y17.094 F1000
G1 X63.314 Y17.223 F1000
G0 Z3.0 ; Pen up

G0 X59.580 Y14.004 F3000 ; Travel to line 54
G0 Z0.0 ; Pen down
G1 X59.709 Y13.875 F1000
G1 X59.837 Y13.875 F1000
G1 X59.709 Y13.875 F1000
G1 X59.580 Y14.004 F1000
G1 X59.451 Y14.004 F1000
G1 X58.936 Y13.489 F1000
G1 X58.936 Y13.231 F1000
G1 X59.065 Y13.103 F1000
G1 X59.322 Y13.103 F1000
G1 X59.451 Y13.231 F1000
G1 X59.580 Y13.231 F1000
G1 X59.837 Y12.974 F1000
G1 X59.837 Y12.459 F1000
G1 X59.709 Y12.330 F1000
G1 X59.194 Y12.330 F1000
G1 X58.936 Y12.588 F1000
G1 X58.936 Y13.489 F1000
G1 X59.451 Y14.004 F1000
G0 Z3.0 ; Pen up

G0 X59.322 Y13.103 F3000 ; Travel to line 55
G0 Z0.0 ; Pen down
G1 X59.451 Y13.231 F1000
G1 X59.580 Y13.231 F1000
G1 X59.837 Y12.974 F1000
G1 X59.837 Y12.459 F1000
G1 X59.709 Y12.330 F1000
G1 X59.194 Y12.330 F1000
G1 X58.936 Y12.588 F1000
G1 X58.936 Y12.974 F1000
G1 X59.065 Y13.103 F1000
G0 Z3.0 ; Pen up

G0 X58.293 Y14.004 F3000 ; Travel to line 56
G0 Z0.0 ; Pen down
G1 X57.778 Y14.004 F1000
G1 X57.649 Y13.875 F1000
G1 X57.649 Y12.330 F1000
G1 X57.649 Y13.875 F1000
G1 X57.520 Y14.004 F1000
G1 X57.134 Y14.004 F1000
G0 Z3.0 ; Pen up

G0 X56.876 Y12.974 F3000 ; Travel to line 57
G0 Z0.0 ; Pen down
G1 X56.619 Y12.974 F1000
G0 Z3.0 ; Pen up

G0 X55.460 Y14.004 F3000 ; Travel to line 58
G0 Z0.0 ; Pen down
G1 X55.460 Y12.459 F1000
G1 X55.589 Y12.330 F1000
G1 X55.846 Y12.330 F1000
G1 X55.331 Y12.330 F1000
G1 X55.460 Y12.459 F1000
G1 X55.460 Y13.875 F1000
G1 X55.331 Y14.004 F1000
G1 X55.203 Y13.875 F1000
G1 X55.074 Y13.875 F1000
G1 X55.203 Y13.875 F1000
G1 X55.331 Y14.004 F1000
G0 Z3.0 ; Pen up

G0 X54.044 Y14.004 F3000 ; Travel to line 59
G0 Z0.0 ; Pen down
G1 X54.172 Y13.875 F1000
G1 X54.301 Y13.875 F1000
G1 X54.172 Y13.875 F1000
G1 X54.044 Y14.004 F1000
G1 X53.915 Y14.004 F1000
G1 X53.400 Y13.489 F1000
G1 X53.400 Y13.231 F1000
G1 X53.529 Y13.103 F1000
G1 X53.786 Y13.103 F1000
G1 X53.915 Y13.231 F1000
G1 X54.044 Y13.231 F1000
G1 X54.301 Y12.974 F1000
G1 X54.301 Y12.459 F1000
G1 X54.172 Y12.330 F1000
G1 X53.657 Y12.330 F1000
G1 X53.400 Y12.588 F1000
G1 X53.400 Y13.489 F1000
G1 X53.915 Y14.004 F1000
G0 Z3.0 ; Pen up

G0 X53.786 Y13.103 F3000 ; Travel to line 60
G0 Z0.0 ; Pen down
G1 X53.915 Y13.231 F1000
G1 X54.044 Y13.231 F1000
G1 X54.301 Y12.974 F1000
G1 X54.301 Y12.459 F1000
G1 X54.172 Y12.330 F1000
G1 X53.657 Y12.330 F1000
G1 X53.400 Y12.588 F1000
G1 X53.400 Y12.974 F1000
G1 X53.529 Y13.103 F1000
G0 Z3.0 ; Pen up

G0 X52.241 Y14.004 F3000 ; Travel to line 61
G0 Z0.0 ; Pen down
G1 X52.370 Y13.875 F1000
G1 X52.499 Y13.875 F1000
G1 X52.627 Y13.746 F1000
G1 X52.627 Y12.459 F1000
G1 X52.499 Y12.330 F1000
G1 X51.984 Y12.330 F1000
G1 X51.726 Y12.588 F1000
G1 X51.726 Y12.845 F1000
G1 X51.598 Y12.974 F1000
G1 X51.598 Y13.231 F1000
G1 X51.726 Y13.360 F1000
G1 X51.726 Y13.617 F1000
G1 X52.113 Y14.004 F1000
G1 X52.113 Y14.004 F1000
G1 X52.241 Y14.004 F1000
G1 X52.370 Y13.875 F1000
G1 X52.499 Y13.875 F1000
G1 X52.627 Y13.746 F1000
G1 X52.627 Y12.459 F1000
G1 X52.499 Y12.330 F1000
G1 X51.984 Y12.330 F1000
G1 X51.726 Y12.588 F1000
G1 X51.726 Y12.845 F1000
G1 X51.598 Y12.974 F1000
G1 X51.598 Y13.231 F1000
G1 X51.726 Y13.360 F1000
G1 X51.726 Y13.617 F1000
G0 Z3.0 ; Pen up

G0 X50.696 Y14.004 F3000 ; Travel to line 62
G0 Z0.0 ; Pen down
G1 X50.825 Y13.875 F1000
G1 X50.954 Y13.875 F1000
G1 X50.825 Y13.875 F1000
G1 X50.696 Y14.004 F1000
G1 X50.568 Y14.004 F1000
G1 X50.053 Y13.489 F1000
G1 X50.053 Y13.231 F1000
G1 X50.181 Y13.103 F1000
G1 X50.439 Y13.103 F1000
G1 X50.568 Y13.231 F1000
G1 X50.696 Y13.231 F1000
G1 X50.954 Y12.974 F1000
G1 X50.954 Y12.459 F1000
G1 X50.825 Y12.330 F1000
G1 X50.310 Y12.330 F1000
G1 X50.053 Y12.588 F1000
G1 X50.053 Y13.489 F1000
G1 X50.568 Y14.004 F1000
G0 Z3.0 ; Pen up

G0 X50.439 Y13.103 F3000 ; Travel to line 63
G0 Z0.0 ; Pen down
G1 X50.568 Y13.231 F1000
G1 X50.696 Y13.231 F1000
G1 X50.954 Y12.974 F1000
G1 X50.954 Y12.459 F1000
G1 X50.825 Y12.330 F1000
G1 X50.310 Y12.330 F1000
G1 X50.053 Y12.588 F1000
G1 X50.053 Y12.974 F1000
G1 X50.181 Y13.103 F1000
G0 Z3.0 ; Pen up

G0 X51.726 Y10.656 F3000 ; Travel to line 64
G0 Z0.0 ; Pen down
G1 X51.726 Y9.369 F1000
G1 X51.984 Y9.111 F1000
G1 X52.627 Y9.111 F1000
G1 X52.885 Y9.369 F1000
G1 X52.885 Y10.656 F1000
G1 X52.885 Y9.369 F1000
G1 X52.627 Y9.111 F1000
G1 X51.984 Y9.111 F1000
G1 X51.726 Y9.369 F1000
G0 Z3.0 ; Pen up

G0 X53.786 Y10.527 F3000 ; Travel to line 65
G0 Z0.0 ; Pen down
G1 X53.915 Y10.399 F1000
G1 X54.044 Y10.399 F1000
G1 X54.044 Y10.270 F1000
G1 X54.172 Y10.141 F1000
G1 X54.172 Y10.013 F1000
G1 X54.301 Y9.884 F1000
G1 X54.301 Y9.755 F1000
G1 X54.688 Y9.369 F1000
G1 X54.816 Y9.498 F1000
G1 X54.816 Y10.656 F1000
G1 X54.816 Y9.369 F1000
G1 X54.559 Y9.369 F1000
G1 X54.559 Y9.498 F1000
G1 X54.301 Y9.755 F1000
G1 X54.301 Y9.884 F1000
G1 X54.172 Y10.013 F1000
G1 X54.172 Y10.141 F1000
G1 X53.915 Y10.399 F1000
G1 X53.786 Y10.399 F1000
G1 X53.657 Y10.270 F1000
G1 X53.657 Y9.111 F1000
G1 X53.657 Y10.399 F1000
G1 X53.786 Y10.527 F1000
G1 X53.786 Y10.656 F1000
G0 Z3.0 ; Pen up

G0 X55.589 Y10.656 F3000 ; Travel to line 66
G0 Z0.0 ; Pen down
G1 X55.589 Y9.111 F1000
G1 X56.490 Y9.111 F1000
G1 X55.718 Y9.111 F1000
G1 X55.589 Y9.240 F1000
G0 Z3.0 ; Pen up

G0 X57.134 Y10.785 F3000 ; Travel to line 67
G0 Z0.0 ; Pen down
G1 X57.005 Y10.656 F1000
G1 X57.005 Y9.111 F1000
G1 X57.906 Y9.111 F1000
G1 X57.134 Y9.111 F1000
G1 X57.005 Y9.240 F1000
G1 X57.005 Y9.884 F1000
G1 X57.134 Y10.013 F1000
G1 X57.906 Y10.013 F1000
G1 X57.134 Y10.013 F1000
G1 X57.005 Y10.141 F1000
G1 X57.005 Y10.527 F1000
G1 X57.263 Y10.785 F1000
G1 X57.906 Y10.785 F1000
G0 Z3.0 ; Pen up

G0 X59.065 Y10.785 F3000 ; Travel to line 68
G0 Z0.0 ; Pen down
G1 X58.936 Y10.656 F1000
G1 X58.808 Y10.656 F1000
G1 X58.679 Y10.527 F1000
G1 X58.679 Y10.141 F1000
G1 X58.808 Y10.013 F1000
G1 X59.065 Y10.013 F1000
G1 X59.194 Y9.884 F1000
G1 X59.451 Y9.884 F1000
G1 X59.580 Y9.755 F1000
G1 X59.580 Y9.240 F1000
G1 X59.451 Y9.111 F1000
G1 X58.679 Y9.111 F1000
G1 X59.451 Y9.111 F1000
G1 X59.580 Y9.240 F1000
G1 X59.580 Y9.755 F1000
G1 X59.451 Y9.884 F1000
G1 X59.194 Y9.884 F1000
G1 X59.065 Y10.013 F1000
G1 X58.808 Y10.013 F1000
G1 X58.679 Y10.141 F1000
G1 X58.679 Y10.527 F1000
G1 X58.808 Y10.656 F1000
G1 X58.936 Y10.656 F1000
G1 X59.065 Y10.785 F1000
G1 X59.322 Y10.785 F1000
G1 X59.451 Y10.656 F1000
G1 X59.580 Y10.656 F1000
G1 X59.451 Y10.656 F1000
G1 X59.322 Y10.785 F1000
G0 Z3.0 ; Pen up

G0 X60.610 Y10.785 F3000 ; Travel to line 69
G0 Z0.0 ; Pen down
G1 X60.481 Y10.656 F1000
G1 X60.352 Y10.656 F1000
G1 X60.224 Y10.527 F1000
G1 X60.224 Y10.141 F1000
G1 X60.352 Y10.013 F1000
G1 X60.610 Y10.013 F1000
G1 X60.739 Y9.884 F1000
G1 X60.996 Y9.884 F1000
G1 X61.125 Y9.755 F1000
G1 X61.125 Y9.240 F1000
G1 X60.996 Y9.111 F1000
G1 X60.224 Y9.111 F1000
G1 X60.996 Y9.111 F1000
G1 X61.125 Y9.240 F1000
G1 X61.125 Y9.755 F1000
G1 X60.996 Y9.884 F1000
G1 X60.739 Y9.884 F1000
G1 X60.610 Y10.013 F1000
G1 X60.352 Y10.013 F1000
G1 X60.224 Y10.141 F1000
G1 X60.224 Y10.527 F1000
G1 X60.352 Y10.656 F1000
G1 X60.481 Y10.656 F1000
G1 X60.610 Y10.785 F1000
G1 X60.867 Y10.785 F1000
G1 X60.996 Y10.656 F1000
G1 X61.125 Y10.656 F1000
G1 X60.996 Y10.656 F1000
G1 X60.867 Y10.785 F1000
G0 Z3.0 ; Pen up

G0 X62.799 Y10.656 F3000 ; Travel to line 70
G0 Z0.0 ; Pen down
G1 X62.799 Y10.527 F1000
G1 X62.670 Y10.399 F1000
G1 X62.670 Y9.111 F1000
G1 X62.670 Y10.270 F1000
G1 X62.799 Y10.399 F1000
G1 X62.928 Y10.399 F1000
G1 X63.185 Y10.141 F1000
G1 X63.185 Y10.013 F1000
G1 X63.314 Y9.884 F1000
G1 X63.314 Y9.755 F1000
G1 X63.571 Y9.498 F1000
G1 X63.571 Y9.369 F1000
G1 X63.829 Y9.369 F1000
G1 X63.829 Y10.656 F1000
G1 X63.829 Y9.498 F1000
G1 X63.700 Y9.369 F1000
G1 X63.314 Y9.755 F1000
G1 X63.314 Y9.884 F1000
G1 X63.185 Y10.013 F1000
G1 X63.185 Y10.141 F1000
G1 X63.056 Y10.270 F1000
G1 X63.056 Y10.399 F1000
G1 X62.928 Y10.399 F1000
G1 X62.799 Y10.527 F1000
G0 Z3.0 ; Pen up

G0 X64.601 Y10.270 F3000 ; Travel to line 71
G0 Z0.0 ; Pen down
G1 X64.601 Y10.141 F1000
G1 X64.472 Y10.013 F1000
G1 X64.472 Y9.755 F1000
G1 X64.601 Y9.626 F1000
G1 X64.601 Y9.498 F1000
G1 X64.988 Y9.111 F1000
G1 X65.631 Y9.111 F1000
G1 X65.889 Y9.369 F1000
G1 X65.889 Y9.626 F1000
G1 X66.017 Y9.755 F1000
G1 X66.017 Y10.013 F1000
G1 X65.889 Y10.141 F1000
G1 X65.889 Y10.399 F1000
G1 X65.502 Y10.785 F1000
G1 X65.116 Y10.785 F1000
G1 X65.116 Y10.785 F1000
G1 X64.601 Y10.270 F1000
G1 X64.601 Y10.141 F1000
G1 X64.472 Y10.013 F1000
G1 X64.472 Y9.755 F1000
G1 X64.601 Y9.626 F1000
G1 X64.601 Y9.498 F1000
G1 X64.988 Y9.111 F1000
G1 X65.631 Y9.111 F1000
G1 X65.889 Y9.369 F1000
G1 X65.889 Y9.626 F1000
G1 X66.017 Y9.755 F1000
G1 X66.017 Y10.013 F1000
G1 X65.889 Y10.141 F1000
G1 X65.889 Y10.399 F1000
G1 X65.502 Y10.785 F1000
G0 Z3.0 ; Pen up

G0 X66.532 Y10.785 F3000 ; Travel to line 72
G0 Z0.0 ; Pen down
G1 X66.919 Y10.785 F1000
G1 X67.047 Y10.656 F1000
G1 X67.047 Y9.111 F1000
G1 X67.047 Y10.656 F1000
G1 X67.176 Y10.785 F1000
G1 X67.691 Y10.785 F1000
G0 Z3.0 ; Pen up

G0 X68.335 Y10.785 F3000 ; Travel to line 73
G0 Z0.0 ; Pen down
G1 X68.206 Y10.656 F1000
G1 X68.206 Y9.111 F1000
G1 X69.108 Y9.111 F1000
G1 X68.335 Y9.111 F1000
G1 X68.206 Y9.240 F1000
G1 X68.206 Y9.884 F1000
G1 X68.335 Y10.013 F1000
G1 X69.108 Y10.013 F1000
G1 X68.335 Y10.013 F1000
G1 X68.206 Y10.141 F1000
G1 X68.206 Y10.527 F1000
G1 X68.464 Y10.785 F1000
G1 X69.108 Y10.785 F1000
G0 Z3.0 ; Pen up

G0 X69.880 Y10.527 F3000 ; Travel to line 74
G0 Z0.0 ; Pen down
G1 X69.880 Y9.240 F1000
G1 X70.009 Y9.111 F1000
G1 X70.781 Y9.111 F1000
G1 X70.910 Y9.240 F1000
G1 X71.039 Y9.240 F1000
G1 X71.168 Y9.369 F1000
G1 X71.168 Y10.399 F1000
G1 X70.910 Y10.656 F1000
G1 X70.781 Y10.656 F1000
G1 X70.653 Y10.785 F1000
G1 X70.138 Y10.785 F1000
G0 Z3.0 ; Pen up

G0 X70.009 Y10.785 F3000 ; Travel to line 75
G0 Z0.0 ; Pen down
G1 X69.880 Y10.656 F1000
G1 X69.880 Y9.111 F1000
G1 X70.781 Y9.111 F1000
G1 X70.910 Y9.240 F1000
G1 X71.039 Y9.240 F1000
G1 X71.168 Y9.369 F1000
G1 X71.168 Y10.399 F1000
G1 X70.910 Y10.656 F1000
G1 X70.781 Y10.656 F1000
G1 X70.653 Y10.785 F1000
G0 Z3.0 ; Pen up

G0 X49.023 Y10.270 F3000 ; Travel to line 76
G0 Z0.0 ; Pen down
G1 X49.280 Y10.013 F1000
G1 X49.409 Y10.013 F1000
G1 X49.538 Y10.141 F1000
G1 X49.666 Y10.141 F1000
G1 X49.795 Y10.270 F1000
G1 X49.924 Y10.270 F1000
G1 X50.181 Y10.013 F1000
G1 X50.181 Y9.111 F1000
G1 X50.181 Y10.013 F1000
G1 X49.924 Y10.270 F1000
G1 X49.795 Y10.270 F1000
G1 X49.538 Y10.013 F1000
G1 X49.409 Y10.013 F1000
G1 X49.280 Y9.884 F1000
G1 X49.280 Y9.111 F1000
G1 X49.280 Y10.013 F1000
G1 X49.023 Y10.270 F1000
G1 X48.894 Y10.270 F1000
G1 X48.765 Y10.141 F1000
G1 X48.508 Y10.141 F1000
G1 X48.379 Y10.013 F1000
G1 X48.379 Y9.111 F1000
G1 X48.379 Y10.013 F1000
G1 X48.508 Y10.141 F1000
G1 X48.765 Y10.141 F1000
G1 X48.894 Y10.270 F1000
G0 Z3.0 ; Pen up

G0 X46.576 Y10.270 F3000 ; Travel to line 77
G0 Z0.0 ; Pen down
G1 X46.834 Y10.013 F1000
G1 X46.962 Y10.013 F1000
G1 X47.091 Y10.141 F1000
G1 X47.220 Y10.141 F1000
G1 X47.349 Y10.270 F1000
G1 X47.477 Y10.270 F1000
G1 X47.735 Y10.013 F1000
G1 X47.735 Y9.111 F1000
G1 X47.735 Y10.013 F1000
G1 X47.477 Y10.270 F1000
G1 X47.349 Y10.270 F1000
G1 X47.091 Y10.013 F1000
G1 X46.962 Y10.013 F1000
G1 X46.834 Y9.884 F1000
G1 X46.834 Y9.111 F1000
G1 X46.834 Y10.013 F1000
G1 X46.576 Y10.270 F1000
G1 X46.447 Y10.270 F1000
G1 X46.319 Y10.141 F1000
G1 X46.061 Y10.141 F1000
G1 X45.932 Y10.013 F1000
G1 X45.932 Y9.111 F1000
G1 X45.932 Y10.013 F1000
G1 X46.061 Y10.141 F1000
G1 X46.319 Y10.141 F1000
G1 X46.447 Y10.270 F1000
G0 Z3.0 ; Pen up

G0 X44.774 Y10.785 F3000 ; Travel to line 78
G0 Z0.0 ; Pen down
G1 X44.774 Y9.240 F1000
G1 X44.903 Y9.111 F1000
G1 X45.160 Y9.111 F1000
G1 X44.645 Y9.111 F1000
G1 X44.774 Y9.240 F1000
G1 X44.774 Y10.656 F1000
G1 X44.645 Y10.785 F1000
G1 X44.516 Y10.656 F1000
G1 X44.388 Y10.656 F1000
G1 X44.516 Y10.656 F1000
G1 X44.645 Y10.785 F1000
G0 Z3.0 ; Pen up

G0 X45.160 Y12.588 F3000 ; Travel to line 79
G0 Z0.0 ; Pen down
G1 X45.418 Y12.330 F1000
G1 X46.061 Y12.330 F1000
G1 X46.319 Y12.588 F1000
G1 X46.319 Y13.875 F1000
G1 X46.319 Y12.588 F1000
G1 X46.061 Y12.330 F1000
G1 X45.418 Y12.330 F1000
G1 X45.160 Y12.588 F1000
G1 X45.160 Y13.875 F1000
G0 Z3.0 ; Pen up

G0 X43.358 Y13.875 F3000 ; Travel to line 80
G0 Z0.0 ; Pen down
G1 X43.358 Y13.746 F1000
G1 X43.229 Y13.617 F1000
G1 X43.229 Y12.330 F1000
G1 X43.229 Y13.489 F1000
G1 X43.358 Y13.617 F1000
G1 X43.486 Y13.617 F1000
G1 X43.744 Y13.360 F1000
G1 X43.744 Y13.231 F1000
G1 X43.873 Y13.103 F1000
G1 X43.873 Y12.974 F1000
G1 X44.130 Y12.716 F1000
G1 X44.130 Y12.588 F1000
G1 X44.388 Y12.588 F1000
G1 X44.388 Y13.875 F1000
G1 X44.388 Y12.716 F1000
G1 X44.259 Y12.588 F1000
G1 X43.873 Y12.974 F1000
G1 X43.873 Y13.103 F1000
G1 X43.744 Y13.231 F1000
G1 X43.744 Y13.360 F1000
G1 X43.615 Y13.489 F1000
G1 X43.615 Y13.617 F1000
G1 X43.486 Y13.617 F1000
G1 X43.358 Y13.746 F1000
G0 Z3.0 ; Pen up

G0 X42.456 Y13.875 F3000 ; Travel to line 81
G0 Z0.0 ; Pen down
G1 X42.456 Y12.330 F1000
G0 Z3.0 ; Pen up

G0 X42.328 Y10.785 F3000 ; Travel to line 82
G0 Z0.0 ; Pen down
G1 X42.456 Y10.656 F1000
G1 X42.585 Y10.656 F1000
G1 X42.714 Y10.527 F1000
G1 X42.714 Y9.240 F1000
G1 X42.585 Y9.111 F1000
G1 X42.070 Y9.111 F1000
G1 X41.812 Y9.369 F1000
G1 X41.812 Y9.626 F1000
G1 X41.684 Y9.755 F1000
G1 X41.684 Y10.013 F1000
G1 X41.812 Y10.141 F1000
G1 X41.812 Y10.399 F1000
G1 X42.199 Y10.785 F1000
G1 X42.199 Y10.785 F1000
G1 X42.328 Y10.785 F1000
G1 X42.456 Y10.656 F1000
G1 X42.585 Y10.656 F1000
G1 X42.714 Y10.527 F1000
G1 X42.714 Y9.240 F1000
G1 X42.585 Y9.111 F1000
G1 X42.070 Y9.111 F1000
G1 X41.812 Y9.369 F1000
G1 X41.812 Y9.626 F1000
G1 X41.684 Y9.755 F1000
G1 X41.684 Y10.013 F1000
G1 X41.812 Y10.141 F1000
G1 X41.812 Y10.399 F1000
G0 Z3.0 ; Pen up

G0 X40.396 Y10.527 F3000 ; Travel to line 83
G0 Z0.0 ; Pen down
G1 X40.396 Y10.141 F1000
G1 X40.267 Y10.013 F1000
G1 X39.752 Y10.013 F1000
G1 X40.267 Y10.013 F1000
G1 X40.396 Y9.884 F1000
G1 X40.396 Y9.369 F1000
G1 X40.396 Y9.884 F1000
G1 X40.525 Y10.013 F1000
G1 X41.040 Y10.013 F1000
G1 X40.525 Y10.013 F1000
G1 X40.396 Y10.141 F1000
G0 Z3.0 ; Pen up

G0 X41.040 Y9.111 F3000 ; Travel to line 84
G0 Z0.0 ; Pen down
G1 X39.752 Y9.111 F1000
G0 Z3.0 ; Pen up

G0 X37.049 Y10.785 F3000 ; Travel to line 85
G0 Z0.0 ; Pen down
G1 X37.178 Y10.656 F1000
G1 X37.306 Y10.656 F1000
G1 X37.178 Y10.656 F1000
G1 X37.049 Y10.785 F1000
G1 X36.791 Y10.785 F1000
G1 X36.663 Y10.656 F1000
G1 X36.534 Y10.656 F1000
G1 X36.405 Y10.527 F1000
G1 X36.405 Y10.141 F1000
G1 X36.534 Y10.013 F1000
G1 X36.791 Y10.013 F1000
G1 X36.920 Y9.884 F1000
G1 X37.178 Y9.884 F1000
G1 X37.306 Y9.755 F1000
G1 X37.306 Y9.240 F1000
G1 X37.178 Y9.111 F1000
G1 X36.405 Y9.111 F1000
G1 X37.178 Y9.111 F1000
G1 X37.306 Y9.240 F1000
G1 X37.306 Y9.755 F1000
G1 X37.178 Y9.884 F1000
G1 X36.920 Y9.884 F1000
G1 X36.791 Y10.013 F1000
G1 X36.534 Y10.013 F1000
G1 X36.405 Y10.141 F1000
G1 X36.405 Y10.527 F1000
G1 X36.534 Y10.656 F1000
G1 X36.663 Y10.656 F1000
G1 X36.791 Y10.785 F1000
G0 Z3.0 ; Pen up

G0 X35.633 Y10.785 F3000 ; Travel to line 86
G0 Z0.0 ; Pen down
G1 X34.989 Y10.785 F1000
G1 X34.731 Y10.527 F1000
G1 X34.731 Y10.141 F1000
G1 X34.860 Y10.013 F1000
G1 X35.633 Y10.013 F1000
G1 X34.860 Y10.013 F1000
G1 X34.731 Y9.884 F1000
G1 X34.731 Y9.240 F1000
G1 X34.860 Y9.111 F1000
G1 X35.633 Y9.111 F1000
G1 X34.731 Y9.111 F1000
G1 X34.731 Y10.656 F1000
G1 X34.860 Y10.785 F1000
G0 Z3.0 ; Pen up

G0 X33.830 Y10.785 F3000 ; Travel to line 87
G0 Z0.0 ; Pen down
G1 X33.959 Y10.656 F1000
G1 X34.088 Y10.656 F1000
G1 X33.959 Y10.656 F1000
G1 X33.830 Y10.785 F1000
G1 X33.444 Y10.785 F1000
G1 X32.929 Y10.270 F1000
G1 X32.929 Y10.141 F1000
G1 X32.800 Y10.013 F1000
G1 X32.800 Y9.755 F1000
G1 X32.929 Y9.626 F1000
G1 X32.929 Y9.498 F1000
G1 X33.315 Y9.111 F1000
G1 X34.088 Y9.111 F1000
G1 X33.315 Y9.111 F1000
G1 X32.929 Y9.498 F1000
G1 X32.929 Y9.626 F1000
G1 X32.800 Y9.755 F1000
G1 X32.800 Y10.013 F1000
G1 X32.929 Y10.141 F1000
G1 X32.929 Y10.270 F1000
G1 X33.444 Y10.785 F1000
G0 Z3.0 ; Pen up

G0 X35.504 Y13.489 F3000 ; Travel to line 88
G0 Z0.0 ; Pen down
G1 X35.504 Y13.231 F1000
G1 X35.375 Y13.103 F1000
G1 X35.375 Y12.845 F1000
G1 X35.504 Y12.716 F1000
G1 X36.019 Y12.716 F1000
G1 X36.148 Y12.845 F1000
G1 X36.148 Y13.231 F1000
G1 X36.019 Y13.360 F1000
G1 X36.019 Y13.617 F1000
G1 X35.890 Y13.746 F1000
G1 X35.761 Y13.746 F1000
G0 Z3.0 ; Pen up

G0 X35.890 Y13.746 F3000 ; Travel to line 89
G0 Z0.0 ; Pen down
G1 X36.019 Y13.617 F1000
G1 X36.019 Y13.360 F1000
G1 X36.148 Y13.231 F1000
G1 X36.148 Y12.845 F1000
G1 X36.276 Y12.716 F1000
G1 X36.276 Y12.588 F1000
G1 X36.405 Y12.459 F1000
G1 X36.405 Y12.330 F1000
G1 X36.405 Y12.459 F1000
G1 X36.148 Y12.716 F1000
G1 X35.375 Y12.716 F1000
G1 X35.117 Y12.459 F1000
G1 X35.117 Y12.201 F1000
G1 X35.117 Y12.459 F1000
G1 X35.246 Y12.588 F1000
G1 X35.246 Y12.716 F1000
G1 X35.375 Y12.845 F1000
G1 X35.375 Y13.103 F1000
G1 X35.504 Y13.231 F1000
G1 X35.504 Y13.489 F1000
G1 X35.633 Y13.617 F1000
G1 X35.633 Y13.746 F1000
G0 Z3.0 ; Pen up

G0 X37.049 Y13.875 F3000 ; Travel to line 90
G0 Z0.0 ; Pen down
G1 X37.049 Y12.330 F1000
G1 X37.950 Y12.330 F1000
G1 X37.178 Y12.330 F1000
G1 X37.049 Y12.459 F1000
G0 Z3.0 ; Pen up

G0 X38.336 Y12.588 F3000 ; Travel to line 91
G0 Z0.0 ; Pen down
G1 X38.594 Y12.330 F1000
G1 X39.237 Y12.330 F1000
G1 X39.495 Y12.588 F1000
G1 X39.495 Y13.875 F1000
G1 X39.495 Y12.588 F1000
G1 X39.237 Y12.330 F1000
G1 X38.594 Y12.330 F1000
G1 X38.336 Y12.588 F1000
G1 X38.336 Y13.875 F1000
G0 Z3.0 ; Pen up

G0 X40.396 Y13.875 F3000 ; Travel to line 92
G0 Z0.0 ; Pen down
G1 X40.396 Y13.746 F1000
G1 X40.267 Y13.617 F1000
G1 X40.267 Y12.330 F1000
G1 X40.267 Y13.489 F1000
G1 X40.396 Y13.617 F1000
G1 X40.525 Y13.617 F1000
G1 X40.782 Y13.360 F1000
G1 X40.782 Y13.103 F1000
G1 X40.911 Y12.974 F1000
G1 X40.911 Y12.845 F1000
G1 X41.169 Y12.845 F1000
G1 X41.297 Y12.974 F1000
G1 X41.297 Y13.231 F1000
G1 X41.426 Y13.360 F1000
G1 X41.426 Y13.489 F1000
G1 X41.555 Y13.617 F1000
G1 X41.684 Y13.489 F1000
G1 X41.684 Y12.330 F1000
G1 X41.684 Y13.875 F1000
G1 X41.684 Y13.746 F1000
G1 X41.555 Y13.617 F1000
G1 X41.426 Y13.617 F1000
G1 X41.426 Y13.360 F1000
G1 X41.297 Y13.231 F1000
G1 X41.297 Y12.974 F1000
G1 X41.169 Y12.845 F1000
G1 X41.040 Y12.845 F1000
G1 X40.782 Y13.103 F1000
G1 X40.782 Y13.360 F1000
G1 X40.654 Y13.489 F1000
G1 X40.654 Y13.617 F1000
G1 X40.525 Y13.617 F1000
G1 X40.396 Y13.746 F1000
G0 Z3.0 ; Pen up

G0 X47.220 Y13.746 F3000 ; Travel to line 93
G0 Z0.0 ; Pen down
G1 X47.349 Y13.617 F1000
G1 X47.477 Y13.617 F1000
G1 X47.477 Y13.489 F1000
G1 X47.606 Y13.360 F1000
G1 X47.606 Y13.103 F1000
G1 X47.864 Y12.845 F1000
G1 X47.992 Y12.845 F1000
G1 X48.121 Y12.974 F1000
G1 X48.121 Y13.231 F1000
G1 X48.250 Y13.360 F1000
G1 X48.250 Y13.617 F1000
G1 X48.379 Y13.617 F1000
G1 X48.508 Y13.746 F1000
G1 X48.508 Y13.875 F1000
G1 X48.508 Y12.330 F1000
G1 X48.508 Y13.489 F1000
G1 X48.379 Y13.617 F1000
G1 X48.250 Y13.489 F1000
G1 X48.250 Y13.360 F1000
G1 X48.121 Y13.231 F1000
G1 X48.121 Y12.974 F1000
G1 X47.992 Y12.845 F1000
G1 X47.735 Y12.845 F1000
G1 X47.735 Y12.974 F1000
G1 X47.606 Y13.103 F1000
G1 X47.606 Y13.360 F1000
G1 X47.349 Y13.617 F1000
G1 X47.220 Y13.617 F1000
G1 X47.091 Y13.489 F1000
G1 X47.091 Y12.330 F1000
G1 X47.091 Y13.617 F1000
G1 X47.220 Y13.746 F1000
G1 X47.220 Y13.875 F1000
G0 Z3.0 ; Pen up

G0 X29.195 Y16.965 F3000 ; Travel to line 94
G0 Z0.0 ; Pen down
G1 X29.324 Y16.836 F1000
G1 X29.453 Y16.836 F1000
G1 X29.453 Y16.707 F1000
G1 X29.581 Y16.579 F1000
G1 X29.581 Y16.321 F1000
G1 X29.839 Y16.064 F1000
G1 X29.968 Y16.064 F1000
G1 X30.096 Y16.193 F1000
G1 X30.096 Y16.450 F1000
G1 X30.225 Y16.579 F1000
G1 X30.225 Y16.836 F1000
G1 X30.354 Y16.836 F1000
G1 X30.483 Y16.965 F1000
G1 X30.483 Y17.094 F1000
G1 X30.483 Y15.549 F1000
G1 X30.483 Y16.707 F1000
G1 X30.354 Y16.836 F1000
G1 X30.225 Y16.707 F1000
G1 X30.225 Y16.579 F1000
G1 X30.096 Y16.450 F1000
G1 X30.096 Y16.193 F1000
G1 X29.968 Y16.064 F1000
G1 X29.710 Y16.064 F1000
G1 X29.710 Y16.193 F1000
G1 X29.581 Y16.321 F1000
G1 X29.581 Y16.579 F1000
G1 X29.324 Y16.836 F1000
G1 X29.195 Y16.836 F1000
G1 X29.066 Y16.707 F1000
G1 X29.066 Y15.549 F1000
G1 X29.066 Y16.836 F1000
G1 X29.195 Y16.965 F1000
G1 X29.195 Y17.094 F1000
G0 Z3.0 ; Pen up

G0 X28.294 Y17.094 F3000 ; Travel to line 95
G0 Z0.0 ; Pen down
G1 X28.294 Y15.549 F1000
G0 Z3.0 ; Pen up

G0 X27.135 Y17.223 F3000 ; Travel to line 96
G0 Z0.0 ; Pen down
G1 X27.264 Y17.094 F1000
G1 X27.393 Y17.094 F1000
G1 X27.650 Y16.836 F1000
G1 X27.650 Y15.806 F1000
G1 X27.521 Y15.678 F1000
G1 X27.393 Y15.678 F1000
G1 X27.264 Y15.549 F1000
G1 X26.363 Y15.549 F1000
G1 X26.363 Y17.094 F1000
G1 X26.491 Y17.223 F1000
G0 Z3.0 ; Pen up

G0 X26.620 Y17.223 F3000 ; Travel to line 97
G0 Z0.0 ; Pen down
G1 X27.135 Y17.223 F1000
G1 X27.264 Y17.094 F1000
G1 X27.393 Y17.094 F1000
G1 X27.650 Y16.836 F1000
G1 X27.650 Y15.806 F1000
G1 X27.521 Y15.678 F1000
G1 X27.393 Y15.678 F1000
G1 X27.264 Y15.549 F1000
G1 X26.491 Y15.549 F1000
G1 X26.363 Y15.678 F1000
G1 X26.363 Y16.965 F1000
G0 Z3.0 ; Pen up

G0 X16.191 Y24.175 F3000 ; Travel to line 98
G0 Z0.0 ; Pen down
G1 X131.809 Y24.175 F1000
G0 Z3.0 ; Pen up

G0 X114.299 Y45.419 F3000 ; Travel to line 99
G0 Z0.0 ; Pen down
G1 X114.428 Y45.290 F1000
G1 X114.556 Y45.419 F1000
G1 X114.814 Y45.419 F1000
G1 X114.943 Y45.290 F1000
G1 X114.943 Y44.517 F1000
G1 X114.943 Y45.290 F1000
G1 X114.814 Y45.419 F1000
G1 X114.556 Y45.419 F1000
G1 X114.299 Y45.161 F1000
G1 X114.299 Y44.646 F1000
G1 X114.299 Y45.290 F1000
G1 X114.170 Y45.419 F1000
G1 X113.784 Y45.419 F1000
G1 X113.655 Y45.290 F1000
G1 X113.655 Y44.646 F1000
G1 X113.655 Y45.290 F1000
G1 X113.784 Y45.419 F1000
G0 Z3.0 ; Pen up

G0 X111.338 Y45.676 F3000 ; Travel to line 100
G0 Z0.0 ; Pen down
G1 X111.466 Y45.547 F1000
G1 X111.466 Y45.419 F1000
G1 X111.595 Y45.290 F1000
G1 X111.595 Y44.904 F1000
G1 X111.466 Y44.775 F1000
G1 X111.466 Y44.646 F1000
G1 X111.338 Y44.517 F1000
G1 X111.080 Y44.517 F1000
G1 X110.823 Y44.775 F1000
G1 X110.823 Y45.419 F1000
G1 X111.080 Y45.676 F1000
G0 Z3.0 ; Pen up

G0 X110.951 Y45.547 F3000 ; Travel to line 101
G0 Z0.0 ; Pen down
G1 X111.080 Y45.676 F1000
G1 X111.338 Y45.676 F1000
G1 X111.466 Y45.547 F1000
G1 X111.466 Y45.419 F1000
G1 X111.595 Y45.290 F1000
G1 X111.595 Y44.904 F1000
G1 X111.466 Y44.775 F1000
G1 X111.466 Y44.646 F1000
G1 X111.338 Y44.517 F1000
G1 X111.080 Y44.517 F1000
G1 X110.951 Y44.646 F1000
G1 X110.951 Y44.775 F1000
G1 X110.823 Y44.904 F1000
G1 X110.823 Y45.290 F1000
G1 X110.951 Y45.419 F1000
G0 Z3.0 ; Pen up

G0 X110.179 Y45.676 F3000 ; Travel to line 102
G0 Z0.0 ; Pen down
G1 X110.308 Y45.547 F1000
G1 X110.308 Y45.161 F1000
G1 X109.793 Y44.646 F1000
G1 X109.921 Y44.517 F1000
G1 X110.436 Y44.517 F1000
G1 X109.793 Y44.517 F1000
G1 X109.793 Y44.775 F1000
G1 X110.308 Y45.290 F1000
G1 X110.308 Y45.419 F1000
G1 X110.050 Y45.676 F1000
G1 X109.793 Y45.676 F1000
G1 X109.664 Y45.547 F1000
G1 X109.793 Y45.676 F1000
G0 Z3.0 ; Pen up

G0 X109.020 Y45.676 F3000 ; Travel to line 103
G0 Z0.0 ; Pen down
G1 X109.149 Y45.547 F1000
G1 X109.278 Y45.676 F1000
G1 X109.149 Y45.547 F1000
G1 X109.278 Y45.419 F1000
G1 X109.278 Y44.775 F1000
G1 X109.020 Y44.517 F1000
G1 X108.505 Y44.517 F1000
G1 X108.376 Y44.646 F1000
G1 X108.248 Y44.517 F1000
G1 X108.376 Y44.646 F1000
G1 X108.248 Y44.775 F1000
G1 X108.248 Y45.419 F1000
G1 X108.505 Y45.676 F1000
G0 Z3.0 ; Pen up

G0 X108.634 Y45.676 F3000 ; Travel to line 104
G0 Z0.0 ; Pen down
G1 X108.891 Y45.676 F1000
G1 X109.020 Y45.547 F1000
G1 X109.020 Y45.419 F1000
G1 X108.634 Y45.032 F1000
G1 X108.634 Y44.904 F1000
G1 X108.505 Y44.775 F1000
G1 X108.376 Y44.775 F1000
G1 X108.248 Y44.904 F1000
G1 X108.248 Y45.290 F1000
G0 Z3.0 ; Pen up

G0 X108.891 Y45.290 F3000 ; Travel to line 105
G0 Z0.0 ; Pen down
G1 X109.020 Y45.419 F1000
G1 X109.149 Y45.419 F1000
G1 X109.278 Y45.290 F1000
G1 X109.278 Y44.904 F1000
G1 X108.891 Y44.517 F1000
G1 X108.634 Y44.517 F1000
G1 X108.505 Y44.646 F1000
G1 X108.505 Y44.775 F1000
G1 X108.891 Y45.161 F1000
G0 Z3.0 ; Pen up

G0 X108.376 Y47.479 F3000 ; Travel to line 106
G0 Z0.0 ; Pen down
G1 X108.505 Y47.350 F1000
G1 X109.406 Y47.350 F1000
G1 X109.535 Y47.479 F1000
G1 X109.535 Y47.994 F1000
G1 X109.535 Y46.449 F1000
G1 X109.535 Y47.221 F1000
G1 X109.406 Y47.350 F1000
G1 X108.505 Y47.350 F1000
G1 X108.376 Y47.221 F1000
G1 X108.376 Y46.449 F1000
G1 X108.376 Y47.994 F1000
G0 Z3.0 ; Pen up

G0 X107.475 Y47.350 F3000 ; Travel to line 107
G0 Z0.0 ; Pen down
G1 X107.346 Y47.350 F1000
G1 X107.218 Y47.221 F1000
G1 X107.089 Y47.221 F1000
G1 X106.960 Y47.093 F1000
G1 X106.831 Y47.093 F1000
G1 X106.703 Y46.964 F1000
G1 X106.445 Y46.964 F1000
G1 X106.316 Y46.835 F1000
G1 X106.188 Y46.835 F1000
G1 X106.059 Y46.706 F1000
G1 X105.930 Y46.706 F1000
G1 X105.801 Y46.578 F1000
G1 X105.544 Y46.578 F1000
G1 X105.415 Y46.449 F1000
G1 X105.286 Y46.449 F1000
G1 X105.157 Y46.320 F1000
G1 X105.029 Y46.320 F1000
G1 X104.900 Y46.191 F1000
G1 X104.642 Y46.191 F1000
G1 X104.514 Y46.062 F1000
G1 X104.385 Y46.062 F1000
G1 X104.256 Y45.934 F1000
G1 X104.127 Y45.934 F1000
G1 X103.999 Y45.805 F1000
G1 X103.741 Y45.805 F1000
G1 X103.612 Y45.676 F1000
G1 X103.484 Y45.676 F1000
G1 X103.355 Y45.547 F1000
G1 X103.226 Y45.547 F1000
G1 X103.097 Y45.419 F1000
G1 X102.969 Y45.419 F1000
G1 X103.097 Y45.419 F1000
G1 X103.226 Y45.547 F1000
G1 X103.355 Y45.547 F1000
G1 X103.484 Y45.676 F1000
G1 X103.612 Y45.676 F1000
G1 X103.741 Y45.805 F1000
G1 X103.999 Y45.805 F1000
G1 X104.127 Y45.934 F1000
G1 X104.256 Y45.934 F1000
G1 X104.385 Y46.062 F1000
G1 X104.514 Y46.062 F1000
G1 X104.642 Y46.191 F1000
G1 X104.900 Y46.191 F1000
G1 X105.029 Y46.320 F1000
G1 X105.157 Y46.320 F1000
G1 X105.286 Y46.449 F1000
G1 X105.415 Y46.449 F1000
G1 X105.544 Y46.578 F1000
G1 X105.801 Y46.578 F1000
G1 X105.930 Y46.706 F1000
G1 X106.059 Y46.706 F1000
G1 X106.188 Y46.835 F1000
G1 X106.316 Y46.835 F1000
G1 X106.445 Y46.964 F1000
G1 X106.703 Y46.964 F1000
G1 X106.831 Y47.093 F1000
G1 X106.960 Y47.093 F1000
G1 X107.089 Y47.221 F1000
G1 X107.218 Y47.221 F1000
G1 X107.346 Y47.350 F1000
G0 Z3.0 ; Pen up

G0 X110.308 Y47.608 F3000 ; Travel to line 108
G0 Z0.0 ; Pen down
G1 X110.308 Y47.479 F1000
G1 X110.179 Y47.350 F1000
G1 X110.179 Y47.093 F1000
G1 X110.308 Y46.964 F1000
G1 X110.308 Y46.835 F1000
G1 X110.694 Y46.449 F1000
G1 X111.338 Y46.449 F1000
G1 X111.595 Y46.706 F1000
G1 X111.595 Y46.964 F1000
G1 X111.724 Y47.093 F1000
G1 X111.724 Y47.350 F1000
G1 X111.595 Y47.479 F1000
G1 X111.595 Y47.736 F1000
G1 X111.209 Y48.123 F1000
G1 X110.823 Y48.123 F1000
G1 X110.823 Y48.123 F1000
G1 X110.308 Y47.608 F1000
G1 X110.308 Y47.479 F1000
G1 X110.179 Y47.350 F1000
G1 X110.179 Y47.093 F1000
G1 X110.308 Y46.964 F1000
G1 X110.308 Y46.835 F1000
G1 X110.694 Y46.449 F1000
G1 X111.338 Y46.449 F1000
G1 X111.595 Y46.706 F1000
G1 X111.595 Y46.964 F1000
G1 X111.724 Y47.093 F1000
G1 X111.724 Y47.350 F1000
G1 X111.595 Y47.479 F1000
G1 X111.595 Y47.736 F1000
G1 X111.209 Y48.123 F1000
G0 Z3.0 ; Pen up

G0 X113.913 Y48.123 F3000 ; Travel to line 109
G0 Z0.0 ; Pen down
G1 X113.784 Y47.994 F1000
G1 X113.784 Y46.449 F1000
G1 X114.685 Y46.449 F1000
G1 X113.913 Y46.449 F1000
G1 X113.784 Y46.578 F1000
G1 X113.784 Y47.221 F1000
G1 X113.913 Y47.350 F1000
G1 X114.685 Y47.350 F1000
G1 X113.913 Y47.350 F1000
G1 X113.784 Y47.479 F1000
G1 X113.784 Y47.865 F1000
G1 X114.041 Y48.123 F1000
G1 X114.685 Y48.123 F1000
G0 Z3.0 ; Pen up

G0 X116.230 Y47.865 F3000 ; Travel to line 110
G0 Z0.0 ; Pen down
G1 X116.230 Y46.578 F1000
G1 X116.359 Y46.449 F1000
G1 X117.131 Y46.449 F1000
G1 X117.260 Y46.578 F1000
G1 X117.389 Y46.578 F1000
G1 X117.517 Y46.706 F1000
G1 X117.517 Y47.736 F1000
G1 X117.260 Y47.994 F1000
G1 X117.131 Y47.994 F1000
G1 X117.002 Y48.123 F1000
G1 X116.487 Y48.123 F1000
G0 Z3.0 ; Pen up

G0 X116.359 Y48.123 F3000 ; Travel to line 111
G0 Z0.0 ; Pen down
G1 X116.230 Y47.994 F1000
G1 X116.230 Y46.449 F1000
G1 X117.131 Y46.449 F1000
G1 X117.260 Y46.578 F1000
G1 X117.389 Y46.578 F1000
G1 X117.517 Y46.706 F1000
G1 X117.517 Y47.736 F1000
G1 X117.260 Y47.994 F1000
G1 X117.131 Y47.994 F1000
G1 X117.002 Y48.123 F1000
G0 Z3.0 ; Pen up

G0 X114.299 Y59.581 F3000 ; Travel to line 112
G0 Z0.0 ; Pen down
G1 X114.428 Y59.453 F1000
G1 X114.556 Y59.581 F1000
G1 X114.814 Y59.581 F1000
G1 X114.943 Y59.453 F1000
G1 X114.943 Y58.680 F1000
G1 X114.943 Y59.453 F1000
G1 X114.814 Y59.581 F1000
G1 X114.556 Y59.581 F1000
G1 X114.299 Y59.324 F1000
G1 X114.299 Y58.809 F1000
G1 X114.299 Y59.453 F1000
G1 X114.170 Y59.581 F1000
G1 X113.784 Y59.581 F1000
G1 X113.655 Y59.453 F1000
G1 X113.655 Y58.809 F1000
G1 X113.655 Y59.453 F1000
G1 X113.784 Y59.581 F1000
G0 Z3.0 ; Pen up

G0 X111.338 Y59.839 F3000 ; Travel to line 113
G0 Z0.0 ; Pen down
G1 X111.466 Y59.710 F1000
G1 X111.466 Y59.581 F1000
G1 X111.595 Y59.453 F1000
G1 X111.595 Y59.066 F1000
G1 X111.466 Y58.938 F1000
G1 X111.466 Y58.809 F1000
G1 X111.338 Y58.680 F1000
G1 X111.080 Y58.680 F1000
G1 X110.823 Y58.938 F1000
G1 X110.823 Y59.581 F1000
G1 X111.080 Y59.839 F1000
G0 Z3.0 ; Pen up

G0 X110.951 Y59.710 F3000 ; Travel to line 114
G0 Z0.0 ; Pen down
G1 X111.080 Y59.839 F1000
G1 X111.338 Y59.839 F1000
G1 X111.466 Y59.710 F1000
G1 X111.466 Y59.581 F1000
G1 X111.595 Y59.453 F1000
G1 X111.595 Y59.066 F1000
G1 X111.466 Y58.938 F1000
G1 X111.466 Y58.809 F1000
G1 X111.338 Y58.680 F1000
G1 X111.080 Y58.680 F1000
G1 X110.951 Y58.809 F1000
G1 X110.951 Y58.938 F1000
G1 X110.823 Y59.066 F1000
G1 X110.823 Y59.453 F1000
G1 X110.951 Y59.581 F1000
G0 Z3.0 ; Pen up

G0 X110.179 Y59.839 F3000 ; Travel to line 115
G0 Z0.0 ; Pen down
G1 X110.308 Y59.710 F1000
G1 X110.308 Y59.324 F1000
G1 X109.793 Y58.809 F1000
G1 X109.921 Y58.680 F1000
G1 X110.436 Y58.680 F1000
G1 X109.793 Y58.680 F1000
G1 X109.793 Y58.938 F1000
G1 X110.308 Y59.453 F1000
G1 X110.308 Y59.581 F1000
G1 X110.050 Y59.839 F1000
G1 X109.793 Y59.839 F1000
G1 X109.664 Y59.710 F1000
G1 X109.793 Y59.839 F1000
G0 Z3.0 ; Pen up

G0 X108.891 Y59.453 F3000 ; Travel to line 116
G0 Z0.0 ; Pen down
G1 X109.020 Y59.581 F1000
G1 X109.149 Y59.581 F1000
G1 X109.278 Y59.453 F1000
G1 X109.278 Y59.066 F1000
G1 X108.891 Y58.680 F1000
G1 X108.634 Y58.680 F1000
G1 X108.505 Y58.809 F1000
G1 X108.505 Y58.938 F1000
G1 X108.891 Y59.324 F1000
G0 Z3.0 ; Pen up

G0 X108.634 Y59.839 F3000 ; Travel to line 117
G0 Z0.0 ; Pen down
G1 X108.891 Y59.839 F1000
G1 X109.020 Y59.710 F1000
G1 X109.020 Y59.581 F1000
G1 X108.634 Y59.195 F1000
G1 X108.634 Y59.066 F1000
G1 X108.505 Y58.938 F1000
G1 X108.248 Y58.938 F1000
G1 X108.119 Y59.066 F1000
G1 X108.119 Y59.195 F1000
G1 X108.248 Y59.324 F1000
G1 X108.248 Y59.453 F1000
G0 Z3.0 ; Pen up

G0 X107.861 Y60.354 F3000 ; Travel to line 118
G0 Z0.0 ; Pen down
G1 X107.346 Y60.354 F1000
G1 X107.089 Y60.096 F1000
G1 X107.089 Y59.839 F1000
G1 X107.218 Y59.710 F1000
G1 X107.604 Y59.710 F1000
G1 X107.733 Y59.581 F1000
G1 X107.861 Y59.581 F1000
G1 X108.119 Y59.324 F1000
G1 X108.248 Y59.453 F1000
G1 X108.248 Y59.581 F1000
G1 X108.505 Y59.839 F1000
G1 X109.020 Y59.839 F1000
G1 X109.149 Y59.710 F1000
G1 X109.278 Y59.839 F1000
G1 X109.149 Y59.710 F1000
G1 X109.278 Y59.581 F1000
G1 X109.278 Y58.938 F1000
G1 X109.020 Y58.680 F1000
G1 X108.505 Y58.680 F1000
G1 X108.376 Y58.809 F1000
G1 X108.248 Y58.680 F1000
G1 X108.376 Y58.809 F1000
G1 X108.119 Y59.066 F1000
G1 X107.990 Y58.938 F1000
G1 X107.990 Y58.809 F1000
G1 X107.861 Y58.809 F1000
G1 X107.733 Y58.680 F1000
G1 X107.089 Y58.680 F1000
G1 X107.733 Y58.680 F1000
G1 X107.990 Y58.938 F1000
G1 X107.990 Y59.066 F1000
G1 X108.119 Y59.195 F1000
G1 X107.990 Y59.324 F1000
G1 X107.990 Y59.453 F1000
G1 X107.861 Y59.581 F1000
G1 X107.733 Y59.581 F1000
G1 X107.604 Y59.710 F1000
G1 X107.089 Y59.710 F1000
G1 X107.089 Y60.225 F1000
G1 X107.218 Y60.354 F1000
G0 Z3.0 ; Pen up

G0 X106.316 Y60.096 F3000 ; Travel to line 119
G0 Z0.0 ; Pen down
G1 X106.316 Y58.680 F1000
G1 X106.316 Y58.938 F1000
G1 X106.188 Y59.066 F1000
G1 X105.544 Y59.066 F1000
G1 X105.544 Y59.324 F1000
G1 X105.672 Y59.453 F1000
G1 X105.672 Y59.581 F1000
G1 X105.801 Y59.710 F1000
G1 X105.801 Y59.839 F1000
G1 X106.059 Y60.096 F1000
G0 Z3.0 ; Pen up

G0 X105.930 Y59.968 F3000 ; Travel to line 120
G0 Z0.0 ; Pen down
G1 X106.059 Y60.096 F1000
G1 X106.188 Y60.096 F1000
G1 X106.316 Y59.968 F1000
G1 X106.316 Y59.195 F1000
G1 X106.188 Y59.066 F1000
G1 X105.672 Y59.066 F1000
G1 X105.544 Y59.195 F1000
G1 X105.544 Y59.324 F1000
G1 X105.801 Y59.581 F1000
G1 X105.801 Y59.710 F1000
G1 X105.930 Y59.839 F1000
G0 Z3.0 ; Pen up

G0 X103.999 Y59.968 F3000 ; Travel to line 121
G0 Z0.0 ; Pen down
G1 X104.127 Y60.096 F1000
G1 X103.999 Y60.225 F1000
G1 X103.870 Y60.096 F1000
G0 Z3.0 ; Pen up

G0 X101.038 Y60.354 F3000 ; Travel to line 122
G0 Z0.0 ; Pen down
G1 X101.038 Y58.680 F1000
G1 X101.166 Y58.551 F1000
G1 X101.295 Y58.551 F1000
G1 X101.295 Y58.422 F1000
G1 X101.681 Y58.036 F1000
G1 X101.681 Y57.907 F1000
G1 X101.939 Y57.650 F1000
G1 X101.939 Y57.521 F1000
G1 X102.067 Y57.392 F1000
G1 X102.067 Y57.135 F1000
G1 X102.196 Y57.006 F1000
G1 X102.196 Y56.491 F1000
G1 X102.325 Y56.363 F1000
G1 X102.969 Y56.363 F1000
G1 X102.325 Y56.363 F1000
G1 X102.196 Y56.234 F1000
G1 X102.196 Y55.719 F1000
G1 X102.067 Y55.590 F1000
G1 X102.067 Y55.333 F1000
G1 X101.939 Y55.204 F1000
G1 X101.939 Y55.075 F1000
G1 X101.681 Y54.818 F1000
G1 X101.681 Y54.689 F1000
G1 X101.424 Y54.431 F1000
G1 X101.295 Y54.431 F1000
G1 X101.038 Y54.174 F1000
G1 X100.909 Y54.174 F1000
G1 X100.780 Y54.045 F1000
G1 X100.523 Y54.045 F1000
G1 X100.394 Y53.916 F1000
G1 X99.879 Y53.916 F1000
G1 X99.750 Y53.788 F1000
G1 X99.750 Y53.144 F1000
G1 X99.750 Y53.788 F1000
G1 X99.621 Y53.916 F1000
G1 X99.106 Y53.916 F1000
G1 X98.978 Y54.045 F1000
G1 X98.720 Y54.045 F1000
G1 X98.591 Y54.174 F1000
G1 X98.463 Y54.174 F1000
G1 X98.205 Y54.431 F1000
G1 X98.076 Y54.431 F1000
G1 X97.819 Y54.689 F1000
G1 X97.819 Y54.818 F1000
G1 X97.561 Y55.075 F1000
G1 X97.561 Y55.204 F1000
G1 X97.433 Y55.333 F1000
G1 X97.433 Y55.461 F1000
G1 X97.304 Y55.590 F1000
G1 X97.304 Y55.848 F1000
G1 X97.175 Y55.976 F1000
G1 X97.175 Y56.234 F1000
G1 X97.046 Y56.363 F1000
G1 X96.531 Y56.363 F1000
G1 X97.046 Y56.363 F1000
G1 X97.175 Y56.491 F1000
G1 X97.175 Y56.749 F1000
G1 X97.304 Y56.878 F1000
G1 X97.304 Y57.135 F1000
G1 X97.433 Y57.264 F1000
G1 X97.433 Y57.392 F1000
G1 X97.561 Y57.521 F1000
G1 X97.561 Y57.650 F1000
G1 X97.819 Y57.907 F1000
G1 X97.819 Y58.036 F1000
G1 X98.076 Y58.294 F1000
G1 X98.205 Y58.294 F1000
G1 X98.463 Y58.551 F1000
G1 X98.591 Y58.551 F1000
G1 X98.978 Y58.938 F1000
G1 X98.849 Y59.066 F1000
G1 X98.076 Y59.066 F1000
G1 X97.819 Y58.809 F1000
G1 X97.819 Y58.551 F1000
G1 X97.819 Y58.809 F1000
G1 X97.948 Y58.938 F1000
G1 X97.948 Y59.066 F1000
G1 X98.076 Y59.195 F1000
G1 X98.076 Y59.453 F1000
G1 X98.205 Y59.581 F1000
G1 X98.205 Y59.839 F1000
G1 X98.334 Y59.968 F1000
G1 X98.334 Y60.096 F1000
G1 X98.591 Y60.096 F1000
G1 X98.720 Y59.968 F1000
G1 X98.720 Y59.710 F1000
G1 X98.849 Y59.581 F1000
G1 X98.849 Y59.066 F1000
G1 X99.106 Y58.809 F1000
G1 X99.235 Y58.938 F1000
G1 X99.621 Y58.938 F1000
G1 X99.750 Y59.066 F1000
G1 X99.750 Y59.581 F1000
G1 X99.750 Y59.066 F1000
G1 X99.879 Y58.938 F1000
G1 X100.136 Y58.938 F1000
G1 X100.265 Y58.809 F1000
G1 X100.523 Y58.809 F1000
G1 X100.651 Y58.680 F1000
G1 X100.909 Y58.680 F1000
G1 X101.038 Y58.809 F1000
G1 X101.038 Y60.225 F1000
G1 X100.909 Y60.354 F1000
G1 X100.780 Y60.225 F1000
G1 X100.651 Y60.225 F1000
G1 X100.780 Y60.225 F1000
G1 X100.909 Y60.354 F1000
G0 Z3.0 ; Pen up

G0 X99.750 Y58.809 F3000 ; Travel to line 123
G0 Z0.0 ; Pen down
G1 X99.879 Y58.938 F1000
G1 X100.136 Y58.938 F1000
G1 X100.265 Y58.809 F1000
G1 X100.394 Y58.809 F1000
G1 X100.523 Y58.680 F1000
G1 X101.038 Y58.680 F1000
G1 X101.295 Y58.422 F1000
G1 X101.295 Y58.294 F1000
G1 X101.939 Y57.650 F1000
G1 X101.939 Y57.521 F1000
G1 X102.067 Y57.392 F1000
G1 X102.067 Y57.135 F1000
G1 X102.196 Y57.006 F1000
G1 X102.196 Y56.491 F1000
G1 X102.067 Y56.363 F1000
G1 X99.879 Y56.363 F1000
G1 X99.750 Y56.491 F1000
G0 Z3.0 ; Pen up

G0 X99.750 Y56.234 F3000 ; Travel to line 124
G0 Z0.0 ; Pen down
G1 X99.879 Y56.363 F1000
G1 X102.067 Y56.363 F1000
G1 X102.196 Y56.234 F1000
G1 X102.196 Y55.719 F1000
G1 X102.067 Y55.590 F1000
G1 X102.067 Y55.333 F1000
G1 X101.939 Y55.204 F1000
G1 X101.939 Y55.075 F1000
G1 X101.038 Y54.174 F1000
G1 X100.909 Y54.174 F1000
G1 X100.780 Y54.045 F1000
G1 X100.523 Y54.045 F1000
G1 X100.394 Y53.916 F1000
G1 X99.879 Y53.916 F1000
G1 X99.750 Y54.045 F1000
G0 Z3.0 ; Pen up

G0 X97.175 Y55.976 F3000 ; Travel to line 125
G0 Z0.0 ; Pen down
G1 X97.304 Y55.848 F1000
G1 X97.304 Y55.590 F1000
G1 X97.433 Y55.461 F1000
G1 X97.433 Y55.333 F1000
G1 X97.561 Y55.204 F1000
G1 X97.561 Y55.075 F1000
G1 X98.463 Y54.174 F1000
G1 X98.591 Y54.174 F1000
G1 X98.720 Y54.045 F1000
G1 X98.978 Y54.045 F1000
G1 X99.106 Y53.916 F1000
G1 X99.621 Y53.916 F1000
G1 X99.750 Y54.045 F1000
G1 X99.750 Y56.234 F1000
G1 X99.621 Y56.363 F1000
G1 X97.304 Y56.363 F1000
G1 X97.175 Y56.234 F1000
G0 Z3.0 ; Pen up

G0 X98.978 Y58.809 F3000 ; Travel to line 126
G0 Z0.0 ; Pen down
G1 X98.849 Y58.680 F1000
G1 X98.720 Y58.680 F1000
G1 X98.591 Y58.551 F1000
G1 X98.463 Y58.551 F1000
G1 X97.561 Y57.650 F1000
G1 X97.561 Y57.521 F1000
G1 X97.433 Y57.392 F1000
G1 X97.433 Y57.264 F1000
G1 X97.304 Y57.135 F1000
G1 X97.304 Y56.878 F1000
G1 X97.175 Y56.749 F1000
G1 X97.175 Y56.491 F1000
G1 X97.304 Y56.363 F1000
G1 X99.621 Y56.363 F1000
G1 X99.750 Y56.491 F1000
G1 X99.750 Y58.809 F1000
G1 X99.621 Y58.938 F1000
G1 X99.235 Y58.938 F1000
G1 X99.106 Y58.809 F1000
G0 Z3.0 ; Pen up

G0 X98.205 Y59.839 F3000 ; Travel to line 127
G0 Z0.0 ; Pen down
G1 X98.205 Y59.581 F1000
G1 X98.076 Y59.453 F1000
G1 X98.076 Y59.195 F1000
G1 X98.205 Y59.066 F1000
G1 X98.720 Y59.066 F1000
G1 X98.849 Y59.195 F1000
G1 X98.849 Y59.581 F1000
G1 X98.720 Y59.710 F1000
G1 X98.720 Y59.968 F1000
G1 X98.591 Y60.096 F1000
G1 X98.463 Y60.096 F1000
G0 Z3.0 ; Pen up

G0 X95.115 Y60.354 F3000 ; Travel to line 128
G0 Z0.0 ; Pen down
G1 X95.501 Y59.968 F1000
G1 X95.501 Y59.710 F1000
G1 X95.630 Y59.581 F1000
G1 X95.630 Y59.324 F1000
G1 X95.501 Y59.195 F1000
G1 X95.501 Y58.938 F1000
G1 X95.244 Y58.680 F1000
G1 X94.600 Y58.680 F1000
G1 X94.214 Y59.066 F1000
G1 X94.214 Y59.195 F1000
G1 X94.085 Y59.324 F1000
G1 X94.085 Y59.581 F1000
G1 X94.214 Y59.710 F1000
G1 X94.214 Y59.839 F1000
G1 X94.729 Y60.354 F1000
G1 X94.729 Y60.354 F1000
G1 X95.115 Y60.354 F1000
G1 X95.501 Y59.968 F1000
G1 X95.501 Y59.710 F1000
G1 X95.630 Y59.581 F1000
G1 X95.630 Y59.324 F1000
G1 X95.501 Y59.195 F1000
G1 X95.501 Y58.938 F1000
G1 X95.244 Y58.680 F1000
G1 X94.600 Y58.680 F1000
G1 X94.214 Y59.066 F1000
G1 X94.214 Y59.195 F1000
G1 X94.085 Y59.324 F1000
G1 X94.085 Y59.581 F1000
G1 X94.214 Y59.710 F1000
G1 X94.214 Y59.839 F1000
G0 Z3.0 ; Pen up

G0 X92.411 Y60.096 F3000 ; Travel to line 129
G0 Z0.0 ; Pen down
G1 X92.540 Y59.968 F1000
G1 X92.669 Y59.968 F1000
G1 X92.669 Y59.839 F1000
G1 X92.797 Y59.710 F1000
G1 X92.797 Y59.581 F1000
G1 X92.926 Y59.453 F1000
G1 X92.926 Y59.324 F1000
G1 X93.312 Y58.938 F1000
G1 X93.441 Y59.066 F1000
G1 X93.441 Y60.225 F1000
G1 X93.441 Y58.938 F1000
G1 X93.184 Y58.938 F1000
G1 X93.184 Y59.066 F1000
G1 X92.926 Y59.324 F1000
G1 X92.926 Y59.453 F1000
G1 X92.797 Y59.581 F1000
G1 X92.797 Y59.710 F1000
G1 X92.540 Y59.968 F1000
G1 X92.411 Y59.968 F1000
G1 X92.282 Y59.839 F1000
G1 X92.282 Y58.680 F1000
G1 X92.282 Y59.968 F1000
G1 X92.411 Y60.096 F1000
G1 X92.411 Y60.225 F1000
G0 Z3.0 ; Pen up

G0 X90.995 Y60.354 F3000 ; Travel to line 130
G0 Z0.0 ; Pen down
G1 X90.480 Y60.354 F1000
G1 X90.351 Y60.225 F1000
G1 X90.351 Y58.680 F1000
G1 X90.351 Y60.225 F1000
G1 X90.222 Y60.354 F1000
G1 X89.836 Y60.354 F1000
G0 Z3.0 ; Pen up

G0 X88.935 Y60.354 F3000 ; Travel to line 131
G0 Z0.0 ; Pen down
G1 X89.064 Y60.225 F1000
G1 X89.192 Y60.225 F1000
G1 X89.192 Y59.710 F1000
G1 X89.064 Y59.581 F1000
G1 X89.064 Y59.453 F1000
G1 X89.192 Y59.324 F1000
G1 X89.192 Y59.195 F1000
G1 X89.321 Y59.066 F1000
G1 X89.321 Y58.938 F1000
G1 X89.450 Y58.809 F1000
G1 X89.450 Y58.680 F1000
G1 X89.450 Y58.809 F1000
G1 X89.321 Y58.938 F1000
G1 X89.321 Y59.066 F1000
G1 X89.064 Y59.324 F1000
G1 X89.064 Y59.453 F1000
G1 X88.935 Y59.581 F1000
G1 X88.420 Y59.581 F1000
G1 X88.291 Y59.453 F1000
G1 X88.291 Y58.680 F1000
G1 X88.291 Y60.225 F1000
G1 X88.420 Y60.354 F1000
G0 Z3.0 ; Pen up

G0 X88.549 Y60.354 F3000 ; Travel to line 132
G0 Z0.0 ; Pen down
G1 X88.935 Y60.354 F1000
G1 X89.192 Y60.096 F1000
G1 X89.192 Y59.710 F1000
G1 X89.064 Y59.581 F1000
G1 X88.420 Y59.581 F1000
G1 X88.291 Y59.710 F1000
G1 X88.291 Y60.096 F1000
G0 Z3.0 ; Pen up

G0 X87.261 Y60.096 F3000 ; Travel to line 133
G0 Z0.0 ; Pen down
G1 X87.390 Y59.968 F1000
G1 X87.390 Y59.710 F1000
G1 X87.519 Y59.581 F1000
G1 X87.519 Y59.195 F1000
G1 X87.648 Y59.066 F1000
G1 X87.648 Y58.938 F1000
G1 X87.776 Y58.809 F1000
G1 X87.776 Y58.680 F1000
G1 X87.776 Y58.809 F1000
G1 X87.519 Y59.066 F1000
G1 X86.746 Y59.066 F1000
G1 X86.489 Y58.809 F1000
G1 X86.489 Y58.551 F1000
G1 X86.489 Y58.809 F1000
G1 X86.618 Y58.938 F1000
G1 X86.618 Y59.066 F1000
G1 X86.746 Y59.195 F1000
G1 X86.746 Y59.453 F1000
G1 X86.875 Y59.581 F1000
G1 X86.875 Y59.839 F1000
G1 X87.004 Y59.968 F1000
G1 X87.004 Y60.096 F1000
G0 Z3.0 ; Pen up

G0 X87.133 Y60.096 F3000 ; Travel to line 134
G0 Z0.0 ; Pen down
G1 X87.261 Y60.096 F1000
G1 X87.390 Y59.968 F1000
G1 X87.390 Y59.710 F1000
G1 X87.519 Y59.581 F1000
G1 X87.519 Y59.195 F1000
G1 X87.390 Y59.066 F1000
G1 X86.875 Y59.066 F1000
G1 X86.746 Y59.195 F1000
G1 X86.746 Y59.453 F1000
G1 X86.875 Y59.581 F1000
G1 X86.875 Y59.839 F1000
G0 Z3.0 ; Pen up

G0 X85.845 Y60.354 F3000 ; Travel to line 135
G0 Z0.0 ; Pen down
G1 X86.103 Y60.096 F1000
G1 X86.103 Y59.581 F1000
G1 X85.974 Y59.453 F1000
G1 X85.330 Y59.453 F1000
G1 X85.201 Y59.324 F1000
G1 X85.201 Y58.680 F1000
G1 X85.201 Y60.225 F1000
G1 X85.330 Y60.354 F1000
G0 Z3.0 ; Pen up

G0 X85.459 Y60.354 F3000 ; Travel to line 136
G0 Z0.0 ; Pen down
G1 X85.845 Y60.354 F1000
G1 X86.103 Y60.096 F1000
G1 X86.103 Y59.581 F1000
G1 X85.974 Y59.453 F1000
G1 X85.330 Y59.453 F1000
G1 X85.201 Y59.581 F1000
G1 X85.201 Y60.096 F1000
G0 Z3.0 ; Pen up

G0 X84.300 Y58.938 F3000 ; Travel to line 137
G0 Z0.0 ; Pen down
G1 X84.043 Y58.680 F1000
G1 X83.914 Y58.680 F1000
G1 X83.270 Y58.036 F1000
G1 X83.141 Y58.036 F1000
G1 X82.498 Y57.392 F1000
G1 X82.369 Y57.392 F1000
G1 X81.725 Y56.749 F1000
G1 X81.596 Y56.749 F1000
G1 X80.953 Y56.105 F1000
G1 X80.824 Y56.105 F1000
G1 X80.180 Y55.461 F1000
G1 X80.051 Y55.461 F1000
G1 X79.407 Y54.818 F1000
G1 X79.279 Y54.818 F1000
G1 X78.635 Y54.174 F1000
G1 X78.506 Y54.174 F1000
G1 X77.862 Y53.530 F1000
G1 X77.734 Y53.530 F1000
G1 X77.090 Y52.886 F1000
G1 X76.961 Y52.886 F1000
G1 X76.704 Y52.629 F1000
G1 X76.575 Y52.629 F1000
G1 X76.446 Y52.758 F1000
G1 X76.446 Y53.144 F1000
G1 X76.317 Y53.273 F1000
G1 X76.317 Y53.530 F1000
G1 X76.189 Y53.659 F1000
G1 X76.189 Y53.788 F1000
G1 X75.931 Y54.045 F1000
G1 X75.931 Y54.174 F1000
G1 X75.674 Y54.431 F1000
G1 X75.545 Y54.431 F1000
G1 X75.288 Y54.689 F1000
G1 X75.159 Y54.689 F1000
G1 X75.030 Y54.818 F1000
G1 X74.901 Y54.818 F1000
G1 X74.773 Y54.946 F1000
G1 X74.515 Y54.946 F1000
G1 X74.386 Y55.075 F1000
G1 X73.614 Y55.075 F1000
G1 X73.485 Y54.946 F1000
G1 X73.227 Y54.946 F1000
G1 X73.099 Y54.818 F1000
G1 X72.970 Y54.818 F1000
G1 X72.841 Y54.689 F1000
G1 X72.713 Y54.689 F1000
G1 X72.455 Y54.431 F1000
G1 X72.326 Y54.431 F1000
G1 X72.069 Y54.174 F1000
G1 X72.069 Y54.045 F1000
G1 X71.811 Y53.788 F1000
G1 X71.811 Y53.659 F1000
G1 X71.683 Y53.530 F1000
G1 X71.683 Y53.401 F1000
G1 X71.554 Y53.273 F1000
G1 X71.554 Y53.015 F1000
G1 X71.425 Y52.886 F1000
G1 X71.425 Y52.114 F1000
G1 X71.554 Y51.985 F1000
G1 X71.554 Y51.727 F1000
G1 X71.683 Y51.599 F1000
G1 X71.683 Y51.470 F1000
G1 X71.811 Y51.341 F1000
G1 X71.811 Y51.212 F1000
G1 X72.069 Y50.955 F1000
G1 X72.069 Y50.826 F1000
G1 X72.326 Y50.569 F1000
G1 X72.455 Y50.569 F1000
G1 X72.713 Y50.311 F1000
G1 X72.970 Y50.311 F1000
G1 X73.099 Y50.183 F1000
G1 X75.030 Y50.183 F1000
G1 X75.159 Y50.311 F1000
G1 X75.288 Y50.311 F1000
G1 X75.545 Y50.569 F1000
G1 X75.674 Y50.569 F1000
G1 X75.931 Y50.826 F1000
G1 X75.931 Y50.955 F1000
G1 X76.189 Y51.212 F1000
G1 X76.189 Y51.341 F1000
G1 X76.317 Y51.470 F1000
G1 X76.317 Y51.727 F1000
G1 X76.446 Y51.856 F1000
G1 X76.446 Y52.500 F1000
G1 X76.575 Y52.629 F1000
G1 X76.704 Y52.629 F1000
G1 X76.961 Y52.886 F1000
G1 X77.090 Y52.886 F1000
G1 X77.734 Y53.530 F1000
G1 X77.862 Y53.530 F1000
G1 X78.506 Y54.174 F1000
G1 X78.635 Y54.174 F1000
G1 X79.279 Y54.818 F1000
G1 X79.407 Y54.818 F1000
G1 X80.051 Y55.461 F1000
G1 X80.180 Y55.461 F1000
G1 X80.824 Y56.105 F1000
G1 X80.953 Y56.105 F1000
G1 X81.596 Y56.749 F1000
G1 X81.725 Y56.749 F1000
G1 X82.369 Y57.392 F1000
G1 X82.498 Y57.392 F1000
G1 X83.141 Y58.036 F1000
G1 X83.270 Y58.036 F1000
G1 X83.914 Y58.680 F1000
G1 X84.043 Y58.680 F1000
G0 Z3.0 ; Pen up

G0 X73.485 Y54.946 F3000 ; Travel to line 138
G0 Z0.0 ; Pen down
G1 X73.614 Y55.075 F1000
G1 X74.386 Y55.075 F1000
G1 X74.515 Y54.946 F1000
G1 X74.773 Y54.946 F1000
G1 X74.901 Y54.818 F1000
G1 X75.030 Y54.818 F1000
G1 X75.159 Y54.689 F1000
G1 X75.288 Y54.689 F1000
G1 X76.189 Y53.788 F1000
G1 X76.189 Y53.659 F1000
G1 X76.317 Y53.530 F1000
G1 X76.317 Y53.273 F1000
G1 X76.446 Y53.144 F1000
G1 X76.446 Y51.856 F1000
G1 X76.317 Y51.727 F1000
G1 X76.317 Y51.470 F1000
G1 X76.189 Y51.341 F1000
G1 X76.189 Y51.212 F1000
G1 X75.288 Y50.311 F1000
G1 X75.159 Y50.311 F1000
G1 X75.030 Y50.183 F1000
G1 X73.871 Y50.183 F1000
G1 X73.743 Y50.311 F1000
G1 X73.743 Y52.758 F1000
G1 X73.099 Y52.758 F1000
G1 X73.614 Y52.758 F1000
G1 X73.743 Y52.629 F1000
G1 X73.743 Y50.311 F1000
G1 X73.614 Y50.183 F1000
G1 X73.099 Y50.183 F1000
G1 X72.970 Y50.311 F1000
G1 X72.713 Y50.311 F1000
G1 X71.811 Y51.212 F1000
G1 X71.811 Y51.341 F1000
G1 X71.683 Y51.470 F1000
G1 X71.683 Y51.599 F1000
G1 X71.554 Y51.727 F1000
G1 X71.554 Y51.985 F1000
G1 X71.425 Y52.114 F1000
G1 X71.425 Y52.886 F1000
G1 X71.554 Y53.015 F1000
G1 X71.554 Y53.273 F1000
G1 X71.683 Y53.401 F1000
G1 X71.683 Y53.530 F1000
G1 X71.811 Y53.659 F1000
G1 X71.811 Y53.788 F1000
G1 X72.713 Y54.689 F1000
G1 X72.841 Y54.689 F1000
G1 X72.970 Y54.818 F1000
G1 X73.099 Y54.818 F1000
G1 X73.227 Y54.946 F1000
G0 Z3.0 ; Pen up

G0 X65.631 Y48.123 F3000 ; Travel to line 139
G0 Z0.0 ; Pen down
G1 X65.760 Y47.994 F1000
G1 X65.889 Y47.994 F1000
G1 X65.760 Y47.994 F1000
G1 X65.631 Y48.123 F1000
G1 X65.245 Y48.123 F1000
G1 X64.730 Y47.608 F1000
G1 X64.730 Y47.479 F1000
G1 X64.601 Y47.350 F1000
G1 X64.601 Y47.093 F1000
G1 X64.730 Y46.964 F1000
G1 X64.730 Y46.835 F1000
G1 X65.116 Y46.449 F1000
G1 X65.889 Y46.449 F1000
G1 X65.116 Y46.449 F1000
G1 X64.730 Y46.835 F1000
G1 X64.730 Y46.964 F1000
G1 X64.601 Y47.093 F1000
G1 X64.601 Y47.350 F1000
G1 X64.730 Y47.479 F1000
G1 X64.730 Y47.608 F1000
G1 X65.245 Y48.123 F1000
G0 Z3.0 ; Pen up

G0 X63.185 Y48.123 F3000 ; Travel to line 140
G0 Z0.0 ; Pen down
G1 X62.541 Y48.123 F1000
G1 X62.284 Y47.865 F1000
G1 X62.284 Y47.479 F1000
G1 X62.413 Y47.350 F1000
G1 X63.185 Y47.350 F1000
G1 X62.413 Y47.350 F1000
G1 X62.284 Y47.221 F1000
G1 X62.284 Y46.578 F1000
G1 X62.413 Y46.449 F1000
G1 X63.185 Y46.449 F1000
G1 X62.284 Y46.449 F1000
G1 X62.284 Y47.994 F1000
G1 X62.413 Y48.123 F1000
G0 Z3.0 ; Pen up

G0 X60.867 Y47.994 F3000 ; Travel to line 141
G0 Z0.0 ; Pen down
G1 X60.867 Y46.449 F1000
G1 X61.769 Y46.449 F1000
G1 X60.996 Y46.449 F1000
G1 X60.867 Y46.578 F1000
G0 Z3.0 ; Pen up

G0 X60.610 Y45.419 F3000 ; Travel to line 142
G0 Z0.0 ; Pen down
G1 X60.481 Y45.290 F1000
G1 X60.481 Y44.646 F1000
G1 X60.481 Y45.290 F1000
G1 X60.610 Y45.419 F1000
G1 X60.996 Y45.419 F1000
G1 X61.125 Y45.290 F1000
G1 X61.125 Y44.646 F1000
G1 X61.125 Y45.161 F1000
G1 X61.383 Y45.419 F1000
G1 X61.640 Y45.419 F1000
G1 X61.769 Y45.290 F1000
G1 X61.769 Y44.517 F1000
G1 X61.769 Y45.290 F1000
G1 X61.640 Y45.419 F1000
G1 X61.383 Y45.419 F1000
G1 X61.254 Y45.290 F1000
G1 X61.125 Y45.419 F1000
G0 Z3.0 ; Pen up

G0 X62.284 Y45.419 F3000 ; Travel to line 143
G0 Z0.0 ; Pen down
G1 X62.155 Y45.290 F1000
G1 X62.155 Y44.646 F1000
G1 X62.155 Y45.290 F1000
G1 X62.284 Y45.419 F1000
G1 X62.670 Y45.419 F1000
G1 X62.799 Y45.290 F1000
G1 X62.799 Y44.646 F1000
G1 X62.799 Y45.161 F1000
G1 X63.056 Y45.419 F1000
G1 X63.314 Y45.419 F1000
G1 X63.443 Y45.290 F1000
G1 X63.443 Y44.517 F1000
G1 X63.443 Y45.290 F1000
G1 X63.314 Y45.419 F1000
G1 X63.056 Y45.419 F1000
G1 X62.928 Y45.290 F1000
G1 X62.799 Y45.419 F1000
G0 Z3.0 ; Pen up

G0 X59.837 Y45.676 F3000 ; Travel to line 144
G0 Z0.0 ; Pen down
G1 X59.966 Y45.547 F1000
G1 X59.966 Y45.419 F1000
G1 X60.095 Y45.290 F1000
G1 X60.095 Y44.904 F1000
G1 X59.966 Y44.775 F1000
G1 X59.966 Y44.646 F1000
G1 X59.837 Y44.517 F1000
G1 X59.580 Y44.517 F1000
G1 X59.322 Y44.775 F1000
G1 X59.322 Y45.419 F1000
G1 X59.580 Y45.676 F1000
G0 Z3.0 ; Pen up

G0 X59.451 Y45.547 F3000 ; Travel to line 145
G0 Z0.0 ; Pen down
G1 X59.580 Y45.676 F1000
G1 X59.837 Y45.676 F1000
G1 X59.966 Y45.547 F1000
G1 X59.966 Y45.419 F1000
G1 X60.095 Y45.290 F1000
G1 X60.095 Y44.904 F1000
G1 X59.966 Y44.775 F1000
G1 X59.966 Y44.646 F1000
G1 X59.837 Y44.517 F1000
G1 X59.580 Y44.517 F1000
G1 X59.451 Y44.646 F1000
G1 X59.451 Y44.775 F1000
G1 X59.322 Y44.904 F1000
G1 X59.322 Y45.290 F1000
G1 X59.451 Y45.419 F1000
G0 Z3.0 ; Pen up

G0 X58.679 Y45.676 F3000 ; Travel to line 146
G0 Z0.0 ; Pen down
G1 X58.808 Y45.547 F1000
G1 X58.808 Y45.161 F1000
G1 X58.293 Y44.646 F1000
G1 X58.421 Y44.517 F1000
G1 X58.936 Y44.517 F1000
G1 X58.293 Y44.517 F1000
G1 X58.293 Y44.775 F1000
G1 X58.808 Y45.290 F1000
G1 X58.808 Y45.419 F1000
G1 X58.550 Y45.676 F1000
G1 X58.293 Y45.676 F1000
G1 X58.164 Y45.547 F1000
G1 X58.293 Y45.676 F1000
G0 Z3.0 ; Pen up

G0 X57.520 Y45.676 F3000 ; Travel to line 147
G0 Z0.0 ; Pen down
G1 X57.649 Y45.547 F1000
G1 X57.778 Y45.676 F1000
G1 X57.649 Y45.547 F1000
G1 X57.778 Y45.419 F1000
G1 X57.778 Y44.775 F1000
G1 X57.520 Y44.517 F1000
G1 X57.005 Y44.517 F1000
G1 X56.876 Y44.646 F1000
G1 X56.748 Y44.517 F1000
G1 X56.876 Y44.646 F1000
G1 X56.748 Y44.775 F1000
G1 X56.748 Y45.419 F1000
G1 X57.005 Y45.676 F1000
G0 Z3.0 ; Pen up

G0 X57.134 Y45.676 F3000 ; Travel to line 148
G0 Z0.0 ; Pen down
G1 X57.391 Y45.676 F1000
G1 X57.520 Y45.547 F1000
G1 X57.520 Y45.419 F1000
G1 X57.134 Y45.032 F1000
G1 X57.134 Y44.904 F1000
G1 X57.005 Y44.775 F1000
G1 X56.876 Y44.775 F1000
G1 X56.748 Y44.904 F1000
G1 X56.748 Y45.290 F1000
G0 Z3.0 ; Pen up

G0 X57.391 Y45.290 F3000 ; Travel to line 149
G0 Z0.0 ; Pen down
G1 X57.520 Y45.419 F1000
G1 X57.649 Y45.419 F1000
G1 X57.778 Y45.290 F1000
G1 X57.778 Y44.904 F1000
G1 X57.391 Y44.517 F1000
G1 X57.134 Y44.517 F1000
G1 X57.005 Y44.646 F1000
G1 X57.005 Y44.775 F1000
G1 X57.391 Y45.161 F1000
G0 Z3.0 ; Pen up

G0 X56.876 Y47.479 F3000 ; Travel to line 150
G0 Z0.0 ; Pen down
G1 X57.005 Y47.350 F1000
G1 X57.906 Y47.350 F1000
G1 X58.035 Y47.479 F1000
G1 X58.035 Y47.994 F1000
G1 X58.035 Y46.449 F1000
G1 X58.035 Y47.221 F1000
G1 X57.906 Y47.350 F1000
G1 X57.005 Y47.350 F1000
G1 X56.876 Y47.221 F1000
G1 X56.876 Y46.449 F1000
G1 X56.876 Y47.994 F1000
G0 Z3.0 ; Pen up

G0 X55.975 Y47.350 F3000 ; Travel to line 151
G0 Z0.0 ; Pen down
G1 X55.846 Y47.350 F1000
G1 X55.718 Y47.221 F1000
G1 X55.589 Y47.221 F1000
G1 X55.460 Y47.093 F1000
G1 X55.331 Y47.093 F1000
G1 X55.203 Y46.964 F1000
G1 X54.945 Y46.964 F1000
G1 X54.816 Y46.835 F1000
G1 X54.688 Y46.835 F1000
G1 X54.559 Y46.706 F1000
G1 X54.430 Y46.706 F1000
G1 X54.301 Y46.578 F1000
G1 X54.044 Y46.578 F1000
G1 X53.915 Y46.449 F1000
G1 X53.786 Y46.449 F1000
G1 X53.657 Y46.320 F1000
G1 X53.529 Y46.320 F1000
G1 X53.400 Y46.191 F1000
G1 X53.142 Y46.191 F1000
G1 X53.014 Y46.062 F1000
G1 X52.885 Y46.062 F1000
G1 X52.756 Y45.934 F1000
G1 X52.627 Y45.934 F1000
G1 X52.499 Y45.805 F1000
G1 X52.241 Y45.805 F1000
G1 X52.113 Y45.676 F1000
G1 X51.984 Y45.676 F1000
G1 X51.855 Y45.547 F1000
G1 X51.726 Y45.547 F1000
G1 X51.598 Y45.419 F1000
G1 X51.469 Y45.419 F1000
G1 X51.598 Y45.419 F1000
G1 X51.726 Y45.547 F1000
G1 X51.855 Y45.547 F1000
G1 X51.984 Y45.676 F1000
G1 X52.113 Y45.676 F1000
G1 X52.241 Y45.805 F1000
G1 X52.499 Y45.805 F1000
G1 X52.627 Y45.934 F1000
G1 X52.756 Y45.934 F1000
G1 X52.885 Y46.062 F1000
G1 X53.014 Y46.062 F1000
G1 X53.142 Y46.191 F1000
G1 X53.400 Y46.191 F1000
G1 X53.529 Y46.320 F1000
G1 X53.657 Y46.320 F1000
G1 X53.786 Y46.449 F1000
G1 X53.915 Y46.449 F1000
G1 X54.044 Y46.578 F1000
G1 X54.301 Y46.578 F1000
G1 X54.430 Y46.706 F1000
G1 X54.559 Y46.706 F1000
G1 X54.688 Y46.835 F1000
G1 X54.816 Y46.835 F1000
G1 X54.945 Y46.964 F1000
G1 X55.203 Y46.964 F1000
G1 X55.331 Y47.093 F1000
G1 X55.460 Y47.093 F1000
G1 X55.589 Y47.221 F1000
G1 X55.718 Y47.221 F1000
G1 X55.846 Y47.350 F1000
G0 Z3.0 ; Pen up

G0 X58.808 Y47.608 F3000 ; Travel to line 152
G0 Z0.0 ; Pen down
G1 X58.808 Y47.479 F1000
G1 X58.679 Y47.350 F1000
G1 X58.679 Y47.093 F1000
G1 X58.808 Y46.964 F1000
G1 X58.808 Y46.835 F1000
G1 X59.194 Y46.449 F1000
G1 X59.837 Y46.449 F1000
G1 X60.095 Y46.706 F1000
G1 X60.095 Y46.964 F1000
G1 X60.224 Y47.093 F1000
G1 X60.224 Y47.350 F1000
G1 X60.095 Y47.479 F1000
G1 X60.095 Y47.736 F1000
G1 X59.709 Y48.123 F1000
G1 X59.322 Y48.123 F1000
G1 X59.322 Y48.123 F1000
G1 X58.808 Y47.608 F1000
G1 X58.808 Y47.479 F1000
G1 X58.679 Y47.350 F1000
G1 X58.679 Y47.093 F1000
G1 X58.808 Y46.964 F1000
G1 X58.808 Y46.835 F1000
G1 X59.194 Y46.449 F1000
G1 X59.837 Y46.449 F1000
G1 X60.095 Y46.706 F1000
G1 X60.095 Y46.964 F1000
G1 X60.224 Y47.093 F1000
G1 X60.224 Y47.350 F1000
G1 X60.095 Y47.479 F1000
G1 X60.095 Y47.736 F1000
G1 X59.709 Y48.123 F1000
G0 Z3.0 ; Pen up

G0 X57.391 Y59.324 F3000 ; Travel to line 153
G0 Z0.0 ; Pen down
G1 X57.005 Y58.938 F1000
G1 X57.005 Y58.809 F1000
G1 X57.134 Y58.680 F1000
G1 X57.391 Y58.680 F1000
G1 X57.778 Y59.066 F1000
G1 X57.778 Y59.453 F1000
G1 X57.649 Y59.581 F1000
G1 X57.520 Y59.581 F1000
G1 X57.391 Y59.453 F1000
G0 Z3.0 ; Pen up

G0 X57.520 Y59.839 F3000 ; Travel to line 154
G0 Z0.0 ; Pen down
G1 X57.649 Y59.710 F1000
G1 X57.778 Y59.839 F1000
G1 X57.649 Y59.710 F1000
G1 X57.778 Y59.581 F1000
G1 X57.778 Y58.938 F1000
G1 X57.520 Y58.680 F1000
G1 X57.005 Y58.680 F1000
G1 X56.876 Y58.809 F1000
G1 X56.748 Y58.680 F1000
G1 X56.876 Y58.809 F1000
G1 X56.748 Y58.938 F1000
G1 X56.748 Y59.581 F1000
G1 X57.005 Y59.839 F1000
G0 Z3.0 ; Pen up

G0 X57.134 Y59.839 F3000 ; Travel to line 155
G0 Z0.0 ; Pen down
G1 X57.391 Y59.839 F1000
G1 X57.520 Y59.710 F1000
G1 X57.520 Y59.581 F1000
G1 X57.134 Y59.195 F1000
G1 X57.134 Y59.066 F1000
G1 X57.005 Y58.938 F1000
G1 X56.876 Y58.938 F1000
G1 X56.748 Y59.066 F1000
G1 X56.748 Y59.453 F1000
G0 Z3.0 ; Pen up

G0 X58.293 Y59.839 F3000 ; Travel to line 156
G0 Z0.0 ; Pen down
G1 X58.164 Y59.710 F1000
G1 X58.293 Y59.839 F1000
G1 X58.550 Y59.839 F1000
G1 X58.808 Y59.581 F1000
G1 X58.808 Y59.453 F1000
G1 X58.293 Y58.938 F1000
G1 X58.293 Y58.680 F1000
G1 X58.936 Y58.680 F1000
G1 X58.421 Y58.680 F1000
G1 X58.293 Y58.809 F1000
G1 X58.808 Y59.324 F1000
G1 X58.808 Y59.710 F1000
G1 X58.679 Y59.839 F1000
G0 Z3.0 ; Pen up

G0 X59.451 Y59.710 F3000 ; Travel to line 157
G0 Z0.0 ; Pen down
G1 X59.580 Y59.839 F1000
G1 X59.837 Y59.839 F1000
G1 X59.966 Y59.710 F1000
G1 X59.966 Y59.581 F1000
G1 X60.095 Y59.453 F1000
G1 X60.095 Y59.066 F1000
G1 X59.966 Y58.938 F1000
G1 X59.966 Y58.809 F1000
G1 X59.837 Y58.680 F1000
G1 X59.580 Y58.680 F1000
G1 X59.451 Y58.809 F1000
G1 X59.451 Y58.938 F1000
G1 X59.322 Y59.066 F1000
G1 X59.322 Y59.453 F1000
G1 X59.451 Y59.581 F1000
G0 Z3.0 ; Pen up

G0 X59.580 Y59.839 F3000 ; Travel to line 158
G0 Z0.0 ; Pen down
G1 X59.322 Y59.581 F1000
G1 X59.322 Y58.938 F1000
G1 X59.580 Y58.680 F1000
G1 X59.837 Y58.680 F1000
G1 X59.966 Y58.809 F1000
G1 X59.966 Y58.938 F1000
G1 X60.095 Y59.066 F1000
G1 X60.095 Y59.453 F1000
G1 X59.966 Y59.581 F1000
G1 X59.966 Y59.710 F1000
G1 X59.837 Y59.839 F1000
G0 Z3.0 ; Pen up

G0 X60.610 Y59.581 F3000 ; Travel to line 159
G0 Z0.0 ; Pen down
G1 X60.481 Y59.453 F1000
G1 X60.481 Y58.809 F1000
G1 X60.481 Y59.453 F1000
G1 X60.610 Y59.581 F1000
G1 X60.996 Y59.581 F1000
G1 X61.125 Y59.453 F1000
G1 X61.125 Y58.809 F1000
G1 X61.125 Y59.324 F1000
G1 X61.383 Y59.581 F1000
G1 X61.640 Y59.581 F1000
G1 X61.769 Y59.453 F1000
G1 X61.769 Y58.680 F1000
G1 X61.769 Y59.453 F1000
G1 X61.640 Y59.581 F1000
G1 X61.383 Y59.581 F1000
G1 X61.254 Y59.453 F1000
G1 X61.125 Y59.581 F1000
G0 Z3.0 ; Pen up

G0 X62.284 Y59.581 F3000 ; Travel to line 160
G0 Z0.0 ; Pen down
G1 X62.155 Y59.453 F1000
G1 X62.155 Y58.809 F1000
G1 X62.155 Y59.453 F1000
G1 X62.284 Y59.581 F1000
G1 X62.670 Y59.581 F1000
G1 X62.799 Y59.453 F1000
G1 X62.799 Y58.809 F1000
G1 X62.799 Y59.324 F1000
G1 X63.056 Y59.581 F1000
G1 X63.314 Y59.581 F1000
G1 X63.443 Y59.453 F1000
G1 X63.443 Y58.680 F1000
G1 X63.443 Y59.453 F1000
G1 X63.314 Y59.581 F1000
G1 X63.056 Y59.581 F1000
G1 X62.928 Y59.453 F1000
G1 X62.799 Y59.581 F1000
G0 Z3.0 ; Pen up

G0 X60.867 Y60.740 F3000 ; Travel to line 161
G0 Z0.0 ; Pen down
G1 X60.996 Y60.611 F1000
G1 X61.769 Y60.611 F1000
G1 X60.867 Y60.611 F1000
G1 X60.867 Y62.156 F1000
G0 Z3.0 ; Pen up

G0 X59.709 Y62.285 F3000 ; Travel to line 162
G0 Z0.0 ; Pen down
G1 X60.095 Y61.899 F1000
G1 X60.095 Y61.641 F1000
G1 X60.224 Y61.513 F1000
G1 X60.224 Y61.255 F1000
G1 X60.095 Y61.126 F1000
G1 X60.095 Y60.869 F1000
G1 X59.837 Y60.611 F1000
G1 X59.194 Y60.611 F1000
G1 X58.808 Y60.998 F1000
G1 X58.808 Y61.126 F1000
G1 X58.679 Y61.255 F1000
G1 X58.679 Y61.513 F1000
G1 X58.808 Y61.641 F1000
G1 X58.808 Y61.770 F1000
G1 X59.322 Y62.285 F1000
G1 X59.322 Y62.285 F1000
G1 X59.709 Y62.285 F1000
G1 X60.095 Y61.899 F1000
G1 X60.095 Y61.641 F1000
G1 X60.224 Y61.513 F1000
G1 X60.224 Y61.255 F1000
G1 X60.095 Y61.126 F1000
G1 X60.095 Y60.869 F1000
G1 X59.837 Y60.611 F1000
G1 X59.194 Y60.611 F1000
G1 X58.808 Y60.998 F1000
G1 X58.808 Y61.126 F1000
G1 X58.679 Y61.255 F1000
G1 X58.679 Y61.513 F1000
G1 X58.808 Y61.641 F1000
G1 X58.808 Y61.770 F1000
G0 Z3.0 ; Pen up

G0 X56.876 Y61.641 F3000 ; Travel to line 163
G0 Z0.0 ; Pen down
G1 X57.005 Y61.513 F1000
G1 X57.906 Y61.513 F1000
G1 X58.035 Y61.641 F1000
G1 X58.035 Y62.156 F1000
G1 X58.035 Y60.611 F1000
G1 X58.035 Y61.384 F1000
G1 X57.906 Y61.513 F1000
G1 X57.005 Y61.513 F1000
G1 X56.876 Y61.384 F1000
G1 X56.876 Y60.611 F1000
G1 X56.876 Y62.156 F1000
G0 Z3.0 ; Pen up

G0 X55.975 Y61.513 F3000 ; Travel to line 164
G0 Z0.0 ; Pen down
G1 X55.846 Y61.513 F1000
G1 X55.718 Y61.384 F1000
G1 X55.589 Y61.384 F1000
G1 X55.460 Y61.255 F1000
G1 X55.331 Y61.255 F1000
G1 X55.203 Y61.126 F1000
G1 X54.945 Y61.126 F1000
G1 X54.816 Y60.998 F1000
G1 X54.688 Y60.998 F1000
G1 X54.559 Y60.869 F1000
G1 X54.430 Y60.869 F1000
G1 X54.301 Y60.740 F1000
G1 X54.044 Y60.740 F1000
G1 X53.915 Y60.611 F1000
G1 X53.786 Y60.611 F1000
G1 X53.657 Y60.483 F1000
G1 X53.529 Y60.483 F1000
G1 X53.400 Y60.354 F1000
G1 X53.142 Y60.354 F1000
G1 X53.014 Y60.225 F1000
G1 X52.885 Y60.225 F1000
G1 X52.756 Y60.096 F1000
G1 X52.627 Y60.096 F1000
G1 X52.499 Y59.968 F1000
G1 X52.241 Y59.968 F1000
G1 X52.113 Y59.839 F1000
G1 X51.984 Y59.839 F1000
G1 X51.855 Y59.710 F1000
G1 X51.726 Y59.710 F1000
G1 X51.598 Y59.581 F1000
G1 X51.469 Y59.581 F1000
G1 X51.598 Y59.581 F1000
G1 X51.726 Y59.710 F1000
G1 X51.855 Y59.710 F1000
G1 X51.984 Y59.839 F1000
G1 X52.113 Y59.839 F1000
G1 X52.241 Y59.968 F1000
G1 X52.499 Y59.968 F1000
G1 X52.627 Y60.096 F1000
G1 X52.756 Y60.096 F1000
G1 X52.885 Y60.225 F1000
G1 X53.014 Y60.225 F1000
G1 X53.142 Y60.354 F1000
G1 X53.400 Y60.354 F1000
G1 X53.529 Y60.483 F1000
G1 X53.657 Y60.483 F1000
G1 X53.786 Y60.611 F1000
G1 X53.915 Y60.611 F1000
G1 X54.044 Y60.740 F1000
G1 X54.301 Y60.740 F1000
G1 X54.430 Y60.869 F1000
G1 X54.559 Y60.869 F1000
G1 X54.688 Y60.998 F1000
G1 X54.816 Y60.998 F1000
G1 X54.945 Y61.126 F1000
G1 X55.203 Y61.126 F1000
G1 X55.331 Y61.255 F1000
G1 X55.460 Y61.255 F1000
G1 X55.589 Y61.384 F1000
G1 X55.718 Y61.384 F1000
G1 X55.846 Y61.513 F1000
G0 Z3.0 ; Pen up

G0 X62.413 Y62.285 F3000 ; Travel to line 165
G0 Z0.0 ; Pen down
G1 X62.284 Y62.156 F1000
G1 X62.284 Y60.611 F1000
G1 X63.185 Y60.611 F1000
G1 X62.413 Y60.611 F1000
G1 X62.284 Y60.740 F1000
G1 X62.284 Y61.384 F1000
G1 X62.413 Y61.513 F1000
G1 X63.185 Y61.513 F1000
G1 X62.413 Y61.513 F1000
G1 X62.284 Y61.641 F1000
G1 X62.284 Y62.028 F1000
G1 X62.541 Y62.285 F1000
G1 X63.185 Y62.285 F1000
G0 Z3.0 ; Pen up

G0 X64.988 Y61.770 F3000 ; Travel to line 166
G0 Z0.0 ; Pen down
G1 X64.988 Y61.513 F1000
G1 X64.859 Y61.384 F1000
G1 X64.859 Y61.126 F1000
G1 X64.988 Y60.998 F1000
G1 X65.502 Y60.998 F1000
G1 X65.631 Y61.126 F1000
G1 X65.631 Y61.513 F1000
G1 X65.502 Y61.641 F1000
G1 X65.502 Y61.899 F1000
G1 X65.374 Y62.028 F1000
G1 X65.245 Y62.028 F1000
G0 Z3.0 ; Pen up

G0 X65.116 Y62.028 F3000 ; Travel to line 167
G0 Z0.0 ; Pen down
G1 X65.116 Y61.899 F1000
G1 X64.988 Y61.770 F1000
G1 X64.988 Y61.513 F1000
G1 X64.859 Y61.384 F1000
G1 X64.859 Y61.126 F1000
G1 X64.730 Y60.998 F1000
G1 X64.730 Y60.869 F1000
G1 X64.601 Y60.740 F1000
G1 X64.601 Y60.483 F1000
G1 X64.601 Y60.740 F1000
G1 X64.859 Y60.998 F1000
G1 X65.631 Y60.998 F1000
G1 X65.889 Y60.740 F1000
G1 X65.889 Y60.611 F1000
G1 X65.889 Y60.740 F1000
G1 X65.760 Y60.869 F1000
G1 X65.760 Y60.998 F1000
G1 X65.631 Y61.126 F1000
G1 X65.631 Y61.513 F1000
G1 X65.502 Y61.641 F1000
G1 X65.502 Y61.899 F1000
G1 X65.374 Y62.028 F1000
G0 Z3.0 ; Pen up

G0 X69.623 Y75.289 F3000 ; Travel to line 168
G0 Z0.0 ; Pen down
G1 X69.365 Y75.031 F1000
G1 X69.365 Y74.516 F1000
G1 X69.751 Y74.130 F1000
G1 X69.880 Y74.130 F1000
G1 X70.009 Y74.001 F1000
G1 X70.395 Y74.001 F1000
G1 X70.524 Y74.130 F1000
G1 X70.653 Y74.130 F1000
G1 X70.781 Y74.259 F1000
G1 X70.781 Y74.388 F1000
G1 X70.910 Y74.516 F1000
G1 X70.910 Y75.031 F1000
G1 X70.524 Y75.418 F1000
G1 X69.880 Y75.418 F1000
G1 X69.751 Y75.289 F1000
G0 Z3.0 ; Pen up

G0 X70.009 Y76.576 F3000 ; Travel to line 169
G0 Z0.0 ; Pen down
G1 X69.880 Y76.448 F1000
G1 X69.751 Y76.448 F1000
G1 X69.494 Y76.190 F1000
G1 X69.494 Y76.061 F1000
G1 X69.365 Y75.933 F1000
G1 X69.365 Y75.546 F1000
G1 X69.236 Y75.418 F1000
G1 X69.236 Y75.160 F1000
G1 X69.365 Y75.031 F1000
G1 X69.365 Y74.388 F1000
G1 X69.623 Y74.130 F1000
G1 X69.880 Y74.130 F1000
G1 X70.009 Y74.001 F1000
G1 X70.395 Y74.001 F1000
G1 X70.524 Y74.130 F1000
G1 X70.653 Y74.130 F1000
G1 X70.781 Y74.259 F1000
G1 X70.781 Y74.388 F1000
G1 X70.910 Y74.516 F1000
G1 X70.910 Y75.031 F1000
G1 X70.524 Y75.418 F1000
G1 X69.880 Y75.418 F1000
G1 X69.751 Y75.289 F1000
G1 X69.623 Y75.289 F1000
G1 X69.494 Y75.160 F1000
G1 X69.365 Y75.160 F1000
G1 X69.236 Y75.289 F1000
G1 X69.236 Y75.418 F1000
G1 X69.365 Y75.546 F1000
G1 X69.365 Y75.933 F1000
G1 X69.494 Y76.061 F1000
G1 X69.494 Y76.190 F1000
G1 X69.751 Y76.448 F1000
G1 X69.880 Y76.448 F1000
G1 X70.009 Y76.576 F1000
G1 X70.781 Y76.576 F1000
G0 Z3.0 ; Pen up

G0 X71.940 Y76.061 F3000 ; Travel to line 170
G0 Z0.0 ; Pen down
G1 X71.940 Y75.804 F1000
G1 X71.811 Y75.675 F1000
G1 X71.811 Y74.903 F1000
G1 X71.940 Y74.774 F1000
G1 X71.940 Y74.516 F1000
G1 X72.455 Y74.001 F1000
G1 X72.841 Y74.001 F1000
G1 X72.970 Y74.130 F1000
G1 X73.099 Y74.130 F1000
G1 X73.227 Y74.259 F1000
G1 X73.227 Y74.388 F1000
G1 X73.356 Y74.516 F1000
G1 X73.356 Y74.645 F1000
G1 X73.485 Y74.774 F1000
G1 X73.485 Y75.804 F1000
G1 X73.356 Y75.933 F1000
G1 X73.356 Y76.061 F1000
G1 X73.227 Y76.190 F1000
G1 X73.227 Y76.319 F1000
G1 X72.970 Y76.576 F1000
G1 X72.455 Y76.576 F1000
G0 Z3.0 ; Pen up

G0 X72.326 Y76.576 F3000 ; Travel to line 171
G0 Z0.0 ; Pen down
G1 X71.940 Y76.190 F1000
G1 X71.940 Y75.804 F1000
G1 X71.811 Y75.675 F1000
G1 X71.811 Y74.903 F1000
G1 X71.940 Y74.774 F1000
G1 X71.940 Y74.388 F1000
G1 X72.198 Y74.130 F1000
G1 X72.326 Y74.130 F1000
G1 X72.455 Y74.001 F1000
G1 X72.841 Y74.001 F1000
G1 X72.970 Y74.130 F1000
G1 X73.099 Y74.130 F1000
G1 X73.227 Y74.259 F1000
G1 X73.227 Y74.388 F1000
G1 X73.356 Y74.516 F1000
G1 X73.356 Y74.645 F1000
G1 X73.485 Y74.774 F1000
G1 X73.485 Y75.804 F1000
G1 X73.356 Y75.933 F1000
G1 X73.356 Y76.061 F1000
G1 X73.227 Y76.190 F1000
G1 X73.227 Y76.319 F1000
G1 X72.970 Y76.576 F1000
G0 Z3.0 ; Pen up

G0 X74.644 Y76.061 F3000 ; Travel to line 172
G0 Z0.0 ; Pen down
G1 X74.644 Y75.804 F1000
G1 X74.515 Y75.675 F1000
G1 X74.515 Y74.903 F1000
G1 X74.644 Y74.774 F1000
G1 X74.644 Y74.516 F1000
G1 X75.159 Y74.001 F1000
G1 X75.545 Y74.001 F1000
G1 X75.674 Y74.130 F1000
G1 X75.802 Y74.130 F1000
G1 X75.931 Y74.259 F1000
G1 X75.931 Y74.388 F1000
G1 X76.060 Y74.516 F1000
G1 X76.060 Y74.645 F1000
G1 X76.189 Y74.774 F1000
G1 X76.189 Y75.804 F1000
G1 X76.060 Y75.933 F1000
G1 X76.060 Y76.061 F1000
G1 X75.931 Y76.190 F1000
G1 X75.931 Y76.319 F1000
G1 X75.674 Y76.576 F1000
G1 X75.159 Y76.576 F1000
G0 Z3.0 ; Pen up

G0 X75.030 Y76.576 F3000 ; Travel to line 173
G0 Z0.0 ; Pen down
G1 X74.644 Y76.190 F1000
G1 X74.644 Y75.804 F1000
G1 X74.515 Y75.675 F1000
G1 X74.515 Y74.903 F1000
G1 X74.644 Y74.774 F1000
G1 X74.644 Y74.388 F1000
G1 X74.901 Y74.130 F1000
G1 X75.030 Y74.130 F1000
G1 X75.159 Y74.001 F1000
G1 X75.545 Y74.001 F1000
G1 X75.674 Y74.130 F1000
G1 X75.802 Y74.130 F1000
G1 X75.931 Y74.259 F1000
G1 X75.931 Y74.388 F1000
G1 X76.060 Y74.516 F1000
G1 X76.060 Y74.645 F1000
G1 X76.189 Y74.774 F1000
G1 X76.189 Y75.804 F1000
G1 X76.060 Y75.933 F1000
G1 X76.060 Y76.061 F1000
G1 X75.931 Y76.190 F1000
G1 X75.931 Y76.319 F1000
G1 X75.674 Y76.576 F1000
G0 Z3.0 ; Pen up

G0 X77.219 Y75.933 F3000 ; Travel to line 174
G0 Z0.0 ; Pen down
G1 X77.219 Y74.130 F1000
G1 X77.219 Y75.546 F1000
G1 X77.476 Y75.804 F1000
G1 X77.605 Y75.804 F1000
G1 X77.734 Y75.933 F1000
G1 X78.249 Y75.933 F1000
G1 X78.635 Y75.546 F1000
G1 X78.635 Y74.130 F1000
G1 X78.635 Y75.418 F1000
G1 X79.021 Y75.804 F1000
G1 X79.150 Y75.804 F1000
G1 X79.279 Y75.933 F1000
G1 X79.794 Y75.933 F1000
G1 X79.922 Y75.804 F1000
G1 X79.922 Y75.675 F1000
G1 X80.051 Y75.546 F1000
G1 X80.051 Y74.001 F1000
G1 X80.051 Y75.546 F1000
G1 X79.922 Y75.675 F1000
G1 X79.922 Y75.804 F1000
G1 X79.794 Y75.933 F1000
G1 X79.150 Y75.933 F1000
G1 X78.892 Y75.675 F1000
G1 X78.764 Y75.675 F1000
G1 X78.635 Y75.546 F1000
G1 X78.506 Y75.675 F1000
G1 X78.506 Y75.804 F1000
G1 X78.377 Y75.933 F1000
G1 X77.734 Y75.933 F1000
G1 X77.605 Y75.804 F1000
G1 X77.476 Y75.804 F1000
G1 X77.347 Y75.675 F1000
G1 X77.219 Y75.804 F1000
G0 Z3.0 ; Pen up

G0 X81.210 Y75.804 F3000 ; Travel to line 175
G0 Z0.0 ; Pen down
G1 X81.339 Y75.675 F1000
G1 X81.468 Y75.804 F1000
G1 X81.596 Y75.804 F1000
G1 X81.725 Y75.933 F1000
G1 X82.369 Y75.933 F1000
G1 X82.498 Y75.804 F1000
G1 X82.498 Y75.675 F1000
G1 X82.626 Y75.546 F1000
G1 X82.755 Y75.675 F1000
G1 X82.884 Y75.675 F1000
G1 X83.141 Y75.933 F1000
G1 X83.785 Y75.933 F1000
G1 X83.914 Y75.804 F1000
G1 X83.914 Y75.675 F1000
G1 X84.043 Y75.546 F1000
G1 X84.043 Y74.001 F1000
G1 X84.043 Y75.546 F1000
G1 X83.914 Y75.675 F1000
G1 X83.914 Y75.804 F1000
G1 X83.785 Y75.933 F1000
G1 X83.270 Y75.933 F1000
G1 X83.141 Y75.804 F1000
G1 X83.013 Y75.804 F1000
G1 X82.626 Y75.418 F1000
G1 X82.626 Y74.130 F1000
G1 X82.626 Y75.546 F1000
G1 X82.240 Y75.933 F1000
G1 X81.725 Y75.933 F1000
G1 X81.596 Y75.804 F1000
G1 X81.468 Y75.804 F1000
G1 X81.210 Y75.546 F1000
G1 X81.210 Y74.130 F1000
G1 X81.210 Y75.933 F1000
G0 Z3.0 ; Pen up

G0 X79.021 Y88.808 F3000 ; Travel to line 176
G0 Z0.0 ; Pen down
G1 X79.021 Y88.550 F1000
G1 X78.892 Y88.421 F1000
G1 X78.892 Y88.164 F1000
G1 X79.021 Y88.035 F1000
G1 X79.536 Y88.035 F1000
G1 X79.665 Y88.164 F1000
G1 X79.665 Y88.550 F1000
G1 X79.536 Y88.679 F1000
G1 X79.536 Y88.936 F1000
G1 X79.407 Y89.065 F1000
G1 X79.279 Y89.065 F1000
G0 Z3.0 ; Pen up

G0 X79.150 Y89.065 F3000 ; Travel to line 177
G0 Z0.0 ; Pen down
G1 X79.150 Y88.936 F1000
G1 X79.021 Y88.808 F1000
G1 X79.021 Y88.550 F1000
G1 X78.892 Y88.421 F1000
G1 X78.892 Y88.164 F1000
G1 X78.764 Y88.035 F1000
G1 X78.764 Y87.906 F1000
G1 X78.635 Y87.778 F1000
G1 X78.635 Y87.520 F1000
G1 X78.635 Y87.778 F1000
G1 X78.892 Y88.035 F1000
G1 X79.665 Y88.035 F1000
G1 X79.922 Y87.778 F1000
G1 X79.922 Y87.649 F1000
G1 X79.922 Y87.778 F1000
G1 X79.794 Y87.906 F1000
G1 X79.794 Y88.035 F1000
G1 X79.665 Y88.164 F1000
G1 X79.665 Y88.550 F1000
G1 X79.536 Y88.679 F1000
G1 X79.536 Y88.936 F1000
G1 X79.407 Y89.065 F1000
G0 Z3.0 ; Pen up

G0 X80.180 Y89.323 F3000 ; Travel to line 178
G0 Z0.0 ; Pen down
G1 X80.566 Y89.323 F1000
G1 X80.695 Y89.194 F1000
G1 X80.695 Y87.649 F1000
G1 X80.695 Y89.194 F1000
G1 X80.824 Y89.323 F1000
G1 X81.339 Y89.323 F1000
G0 Z3.0 ; Pen up

G0 X81.983 Y89.323 F3000 ; Travel to line 179
G0 Z0.0 ; Pen down
G1 X81.854 Y89.194 F1000
G1 X81.854 Y87.649 F1000
G1 X82.755 Y87.649 F1000
G1 X81.983 Y87.649 F1000
G1 X81.854 Y87.778 F1000
G1 X81.854 Y88.421 F1000
G1 X81.983 Y88.550 F1000
G1 X82.755 Y88.550 F1000
G1 X81.983 Y88.550 F1000
G1 X81.854 Y88.679 F1000
G1 X81.854 Y89.065 F1000
G1 X82.111 Y89.323 F1000
G1 X82.755 Y89.323 F1000
G0 Z3.0 ; Pen up

G0 X85.459 Y89.323 F3000 ; Travel to line 180
G0 Z0.0 ; Pen down
G1 X85.330 Y89.194 F1000
G1 X85.201 Y89.194 F1000
G1 X85.330 Y89.194 F1000
G1 X85.459 Y89.323 F1000
G1 X85.716 Y89.323 F1000
G1 X86.103 Y88.936 F1000
G1 X86.103 Y88.679 F1000
G1 X85.330 Y87.906 F1000
G1 X85.330 Y87.649 F1000
G1 X86.103 Y87.649 F1000
G1 X85.459 Y87.649 F1000
G1 X85.330 Y87.778 F1000
G1 X85.974 Y88.421 F1000
G1 X85.974 Y88.550 F1000
G1 X86.103 Y88.679 F1000
G1 X86.103 Y88.936 F1000
G1 X85.974 Y89.065 F1000
G1 X85.974 Y89.194 F1000
G1 X85.845 Y89.194 F1000
G1 X85.716 Y89.323 F1000
G0 Z3.0 ; Pen up

G0 X86.875 Y88.936 F3000 ; Travel to line 181
G0 Z0.0 ; Pen down
G1 X86.875 Y88.679 F1000
G1 X86.746 Y88.550 F1000
G1 X86.746 Y88.293 F1000
G1 X86.875 Y88.164 F1000
G1 X86.875 Y87.906 F1000
G1 X87.133 Y87.649 F1000
G1 X87.648 Y87.649 F1000
G1 X87.776 Y87.778 F1000
G1 X87.776 Y89.065 F1000
G1 X87.648 Y89.194 F1000
G1 X87.519 Y89.194 F1000
G1 X87.390 Y89.323 F1000
G1 X87.261 Y89.323 F1000
G1 X87.261 Y89.323 F1000
G1 X86.875 Y88.936 F1000
G1 X86.875 Y88.679 F1000
G1 X86.746 Y88.550 F1000
G1 X86.746 Y88.293 F1000
G1 X86.875 Y88.164 F1000
G1 X86.875 Y87.906 F1000
G1 X87.133 Y87.649 F1000
G1 X87.648 Y87.649 F1000
G1 X87.776 Y87.778 F1000
G1 X87.776 Y89.065 F1000
G1 X87.648 Y89.194 F1000
G1 X87.519 Y89.194 F1000
G1 X87.390 Y89.323 F1000
G0 Z3.0 ; Pen up

G0 X88.806 Y89.323 F3000 ; Travel to line 182
G0 Z0.0 ; Pen down
G1 X88.678 Y89.194 F1000
G1 X88.549 Y89.194 F1000
G1 X88.678 Y89.194 F1000
G1 X88.806 Y89.323 F1000
G1 X89.064 Y89.323 F1000
G1 X89.450 Y88.936 F1000
G1 X89.450 Y88.679 F1000
G1 X88.678 Y87.906 F1000
G1 X88.678 Y87.649 F1000
G1 X89.450 Y87.649 F1000
G1 X88.806 Y87.649 F1000
G1 X88.678 Y87.778 F1000
G1 X89.321 Y88.421 F1000
G1 X89.321 Y88.550 F1000
G1 X89.450 Y88.679 F1000
G1 X89.450 Y88.936 F1000
G1 X89.321 Y89.065 F1000
G1 X89.321 Y89.194 F1000
G1 X89.192 Y89.194 F1000
G1 X89.064 Y89.323 F1000
G0 Z3.0 ; Pen up

G0 X90.222 Y89.323 F3000 ; Travel to line 183
G0 Z0.0 ; Pen down
G1 X90.094 Y89.194 F1000
G1 X90.094 Y88.679 F1000
G1 X90.609 Y88.679 F1000
G1 X90.737 Y88.550 F1000
G1 X90.866 Y88.550 F1000
G1 X90.995 Y88.421 F1000
G1 X90.995 Y87.906 F1000
G1 X90.737 Y87.649 F1000
G1 X90.094 Y87.649 F1000
G1 X90.737 Y87.649 F1000
G1 X90.866 Y87.778 F1000
G1 X90.995 Y87.778 F1000
G1 X90.995 Y88.421 F1000
G1 X90.866 Y88.550 F1000
G1 X90.737 Y88.550 F1000
G1 X90.609 Y88.679 F1000
G1 X90.222 Y88.679 F1000
G1 X90.094 Y88.808 F1000
G1 X90.094 Y89.065 F1000
G1 X90.351 Y89.323 F1000
G1 X90.866 Y89.323 F1000
G0 Z3.0 ; Pen up

G0 X91.767 Y88.293 F3000 ; Travel to line 184
G0 Z0.0 ; Pen down
G1 X92.025 Y88.293 F1000
G0 Z3.0 ; Pen up

G0 X93.055 Y89.323 F3000 ; Travel to line 185
G0 Z0.0 ; Pen down
G1 X92.926 Y89.194 F1000
G1 X92.797 Y89.194 F1000
G1 X92.926 Y89.194 F1000
G1 X93.055 Y89.323 F1000
G1 X93.184 Y89.194 F1000
G1 X93.184 Y87.778 F1000
G1 X93.055 Y87.649 F1000
G1 X93.570 Y87.649 F1000
G1 X93.312 Y87.649 F1000
G1 X93.184 Y87.778 F1000
G1 X93.184 Y89.323 F1000
G0 Z3.0 ; Pen up

G0 X94.600 Y89.323 F3000 ; Travel to line 186
G0 Z0.0 ; Pen down
G1 X94.471 Y89.194 F1000
G1 X94.343 Y89.194 F1000
G1 X94.471 Y89.194 F1000
G1 X94.600 Y89.323 F1000
G1 X94.858 Y89.323 F1000
G1 X95.244 Y88.936 F1000
G1 X95.244 Y88.679 F1000
G1 X94.471 Y87.906 F1000
G1 X94.471 Y87.649 F1000
G1 X95.244 Y87.649 F1000
G1 X94.600 Y87.649 F1000
G1 X94.471 Y87.778 F1000
G1 X95.115 Y88.421 F1000
G1 X95.115 Y88.550 F1000
G1 X95.244 Y88.679 F1000
G1 X95.244 Y88.936 F1000
G1 X95.115 Y89.065 F1000
G1 X95.115 Y89.194 F1000
G1 X94.986 Y89.194 F1000
G1 X94.858 Y89.323 F1000
G0 Z3.0 ; Pen up

G0 X96.016 Y88.293 F3000 ; Travel to line 187
G0 Z0.0 ; Pen down
G1 X96.274 Y88.293 F1000
G0 Z3.0 ; Pen up

G0 X97.175 Y89.323 F3000 ; Travel to line 188
G0 Z0.0 ; Pen down
G1 X97.046 Y89.194 F1000
G1 X96.918 Y89.194 F1000
G1 X97.046 Y89.194 F1000
G1 X97.175 Y89.323 F1000
G1 X97.433 Y89.323 F1000
G1 X97.819 Y88.936 F1000
G1 X97.819 Y88.679 F1000
G1 X97.046 Y87.906 F1000
G1 X97.046 Y87.649 F1000
G1 X97.819 Y87.649 F1000
G1 X97.175 Y87.649 F1000
G1 X97.046 Y87.778 F1000
G1 X97.690 Y88.421 F1000
G1 X97.690 Y88.550 F1000
G1 X97.819 Y88.679 F1000
G1 X97.819 Y88.936 F1000
G1 X97.690 Y89.065 F1000
G1 X97.690 Y89.194 F1000
G1 X97.561 Y89.194 F1000
G1 X97.433 Y89.323 F1000
G0 Z3.0 ; Pen up

G0 X98.591 Y88.936 F3000 ; Travel to line 189
G0 Z0.0 ; Pen down
G1 X98.591 Y88.808 F1000
G1 X98.849 Y88.550 F1000
G1 X99.235 Y88.550 F1000
G1 X99.493 Y88.808 F1000
G1 X99.493 Y89.065 F1000
G1 X99.235 Y89.323 F1000
G1 X98.978 Y89.323 F1000
G1 X98.978 Y89.323 F1000
G1 X98.849 Y89.194 F1000
G1 X98.720 Y89.194 F1000
G1 X98.591 Y89.065 F1000
G1 X98.591 Y88.808 F1000
G1 X98.720 Y88.679 F1000
G1 X98.720 Y88.293 F1000
G1 X98.591 Y88.164 F1000
G1 X98.591 Y87.778 F1000
G1 X98.720 Y87.649 F1000
G1 X99.364 Y87.649 F1000
G1 X99.493 Y87.778 F1000
G1 X99.493 Y88.293 F1000
G1 X99.364 Y88.421 F1000
G1 X99.364 Y88.550 F1000
G1 X99.493 Y88.679 F1000
G1 X99.493 Y89.065 F1000
G1 X99.235 Y89.323 F1000
G0 Z3.0 ; Pen up

G0 X98.720 Y88.421 F3000 ; Travel to line 190
G0 Z0.0 ; Pen down
G1 X98.849 Y88.550 F1000
G1 X99.235 Y88.550 F1000
G1 X99.493 Y88.293 F1000
G1 X99.493 Y87.778 F1000
G1 X99.364 Y87.649 F1000
G1 X98.720 Y87.649 F1000
G1 X98.591 Y87.778 F1000
G1 X98.591 Y88.164 F1000
G1 X98.720 Y88.293 F1000
G0 Z3.0 ; Pen up

